(cncx_axis_bracket)
(Machine)
(  vendor: Autodesk)
(  model: Generic 3-axis)
(  description: This machine has XYZ axis on the Head)
(T1 D=4.76 CR=0 - ZMIN=-8 - flat end mill)
G90 G94
G17
G21
(-Attention- Property Safe Retracts is set to Clearance Height.)
(Ensure the clearance height will clear the part and or fixtures.)
(Raise the Z-axis to a safe height before starting the program.)

(Drill1)
T1
S21000 M3
G17 G90 G94
G54
M8
G0 X259.037 Y28
Z15
G0 Z5
Z4
Z1
G1 Z-1.3 F50
G0 Z4
Z0.7
G1 Z-1.6 F50
G0 Z4
Z0.4
G1 Z-1.9 F50
G0 Z4
Z0.1
G1 Z-2.2 F50
G0 Z4
Z-0.2
G1 Z-2.5 F50
G0 Z4
Z-0.5
G1 Z-2.8 F50
G0 Z4
Z-0.8
G1 Z-3.1 F50
G0 Z4
Z-1.1
G1 Z-3.4 F50
G0 Z4
Z-1.4
G1 Z-3.7 F50
G0 Z4
Z-1.7
G1 Z-4 F50
G0 Z4
Z-2
G1 Z-4.3 F50
G0 Z4
Z-2.3
G1 Z-4.6 F50
G0 Z4
Z-2.6
G1 Z-4.9 F50
G0 Z4
Z-2.9
G1 Z-5.2 F50
G0 Z4
Z-3.2
G1 Z-5.5 F50
G0 Z4
Z-3.5
G1 Z-5.8 F50
G0 Z4
Z-3.8
G1 Z-6.1 F50
G0 Z4
Z-4.1
G1 Z-6.4 F50
G0 Z4
Z-4.4
G1 Z-6.7 F50
G0 Z4
Z-4.7
G1 Z-7 F50
G0 Z4
Z-5
G1 Z-7.3 F50
G0 Z4
Z-5.3
G1 Z-7.6 F50
G0 Z4
Z-5.6
G1 Z-7.9 F50
G0 Z4
Z-5.9
G1 Z-8 F50
G4 P1.
G0 Z5
Y52
Z4
Z1
G1 Z-1.3 F50
G0 Z4
Z0.7
G1 Z-1.6 F50
G0 Z4
Z0.4
G1 Z-1.9 F50
G0 Z4
Z0.1
G1 Z-2.2 F50
G0 Z4
Z-0.2
G1 Z-2.5 F50
G0 Z4
Z-0.5
G1 Z-2.8 F50
G0 Z4
Z-0.8
G1 Z-3.1 F50
G0 Z4
Z-1.1
G1 Z-3.4 F50
G0 Z4
Z-1.4
G1 Z-3.7 F50
G0 Z4
Z-1.7
G1 Z-4 F50
G0 Z4
Z-2
G1 Z-4.3 F50
G0 Z4
Z-2.3
G1 Z-4.6 F50
G0 Z4
Z-2.6
G1 Z-4.9 F50
G0 Z4
Z-2.9
G1 Z-5.2 F50
G0 Z4
Z-3.2
G1 Z-5.5 F50
G0 Z4
Z-3.5
G1 Z-5.8 F50
G0 Z4
Z-3.8
G1 Z-6.1 F50
G0 Z4
Z-4.1
G1 Z-6.4 F50
G0 Z4
Z-4.4
G1 Z-6.7 F50
G0 Z4
Z-4.7
G1 Z-7 F50
G0 Z4
Z-5
G1 Z-7.3 F50
G0 Z4
Z-5.3
G1 Z-7.6 F50
G0 Z4
Z-5.6
G1 Z-7.9 F50
G0 Z4
Z-5.9
G1 Z-8 F50
G4 P1.
G0 Z5
X299.037
Z4
Z1
G1 Z-1.3 F50
G0 Z4
Z0.7
G1 Z-1.6 F50
G0 Z4
Z0.4
G1 Z-1.9 F50
G0 Z4
Z0.1
G1 Z-2.2 F50
G0 Z4
Z-0.2
G1 Z-2.5 F50
G0 Z4
Z-0.5
G1 Z-2.8 F50
G0 Z4
Z-0.8
G1 Z-3.1 F50
G0 Z4
Z-1.1
G1 Z-3.4 F50
G0 Z4
Z-1.4
G1 Z-3.7 F50
G0 Z4
Z-1.7
G1 Z-4 F50
G0 Z4
Z-2
G1 Z-4.3 F50
G0 Z4
Z-2.3
G1 Z-4.6 F50
G0 Z4
Z-2.6
G1 Z-4.9 F50
G0 Z4
Z-2.9
G1 Z-5.2 F50
G0 Z4
Z-3.2
G1 Z-5.5 F50
G0 Z4
Z-3.5
G1 Z-5.8 F50
G0 Z4
Z-3.8
G1 Z-6.1 F50
G0 Z4
Z-4.1
G1 Z-6.4 F50
G0 Z4
Z-4.4
G1 Z-6.7 F50
G0 Z4
Z-4.7
G1 Z-7 F50
G0 Z4
Z-5
G1 Z-7.3 F50
G0 Z4
Z-5.3
G1 Z-7.6 F50
G0 Z4
Z-5.6
G1 Z-7.9 F50
G0 Z4
Z-5.9
G1 Z-8 F50
G4 P1.
G0 Z5
Y28
Z4
Z1
G1 Z-1.3 F50
G0 Z4
Z0.7
G1 Z-1.6 F50
G0 Z4
Z0.4
G1 Z-1.9 F50
G0 Z4
Z0.1
G1 Z-2.2 F50
G0 Z4
Z-0.2
G1 Z-2.5 F50
G0 Z4
Z-0.5
G1 Z-2.8 F50
G0 Z4
Z-0.8
G1 Z-3.1 F50
G0 Z4
Z-1.1
G1 Z-3.4 F50
G0 Z4
Z-1.4
G1 Z-3.7 F50
G0 Z4
Z-1.7
G1 Z-4 F50
G0 Z4
Z-2
G1 Z-4.3 F50
G0 Z4
Z-2.3
G1 Z-4.6 F50
G0 Z4
Z-2.6
G1 Z-4.9 F50
G0 Z4
Z-2.9
G1 Z-5.2 F50
G0 Z4
Z-3.2
G1 Z-5.5 F50
G0 Z4
Z-3.5
G1 Z-5.8 F50
G0 Z4
Z-3.8
G1 Z-6.1 F50
G0 Z4
Z-4.1
G1 Z-6.4 F50
G0 Z4
Z-4.4
G1 Z-6.7 F50
G0 Z4
Z-4.7
G1 Z-7 F50
G0 Z4
Z-5
G1 Z-7.3 F50
G0 Z4
Z-5.3
G1 Z-7.6 F50
G0 Z4
Z-5.6
G1 Z-7.9 F50
G0 Z4
Z-5.9
G1 Z-8 F50
G4 P1.
G0 Z5
Z15
(When using Fusion for Personal Use, the feedrate of rapid)
(moves is reduced to match the feedrate of cutting moves,)
(which can increase machining time. Unrestricted rapid moves)
(are available with a Fusion Subscription.)

(2D Contour1)
S24000 M3
G0 X169.346 Y59.59
G1 Z15 F150
Z5
Z0.952 F50
Z0.176
X169.353 Y59.592 Z0.093
X169.373 Y59.597 Z0.013
X169.407 Y59.606 Z-0.062
X169.453 Y59.619 Z-0.13
X169.51 Y59.634 Z-0.189
X169.576 Y59.652 Z-0.236
X169.648 Y59.671 Z-0.271
X169.726 Y59.692 Z-0.293
X169.805 Y59.713 Z-0.3
X170.265 Y59.836
G3 X170.602 Y60.419 I-0.123 J0.46
X167.472 Y59.581 I-1.565 J-0.419 F150
X170.602 Y60.419 I1.565 J0.419
X170.019 Y60.756 I-0.46 J-0.123
G1 X169.559 Y60.633
X169.479 Y60.611 Z-0.293
X169.402 Y60.591 Z-0.271
X169.329 Y60.571 Z-0.236
X169.263 Y60.553 Z-0.189
X169.207 Y60.538 Z-0.13
X169.161 Y60.526 Z-0.062
X169.127 Y60.517 Z0.013
X169.106 Y60.511 Z0.093
X169.099 Y60.509 Z0.176
Z5
X169.346 Y59.59
Z0.652 F50
Z-0.124
X169.353 Y59.592 Z-0.207
X169.373 Y59.597 Z-0.287
X169.407 Y59.606 Z-0.362
X169.453 Y59.619 Z-0.43
X169.51 Y59.634 Z-0.489
X169.576 Y59.652 Z-0.536
X169.648 Y59.671 Z-0.571
X169.726 Y59.692 Z-0.593
X169.805 Y59.713 Z-0.6
X170.265 Y59.836
G3 X170.602 Y60.419 I-0.123 J0.46
X167.472 Y59.581 I-1.565 J-0.419 F150
X170.602 Y60.419 I1.565 J0.419
X170.019 Y60.756 I-0.46 J-0.123
G1 X169.559 Y60.633
X169.479 Y60.611 Z-0.593
X169.402 Y60.591 Z-0.571
X169.329 Y60.571 Z-0.536
X169.263 Y60.553 Z-0.489
X169.207 Y60.538 Z-0.43
X169.161 Y60.526 Z-0.362
X169.127 Y60.517 Z-0.287
X169.106 Y60.511 Z-0.207
X169.099 Y60.509 Z-0.124
Z5
X169.346 Y59.59
Z0.352 F50
Z-0.424
X169.353 Y59.592 Z-0.507
X169.373 Y59.597 Z-0.587
X169.407 Y59.606 Z-0.662
X169.453 Y59.619 Z-0.73
X169.51 Y59.634 Z-0.789
X169.576 Y59.652 Z-0.836
X169.648 Y59.671 Z-0.871
X169.726 Y59.692 Z-0.893
X169.805 Y59.713 Z-0.9
X170.265 Y59.836
G3 X170.602 Y60.419 I-0.123 J0.46
X167.472 Y59.581 I-1.565 J-0.419 F150
X170.602 Y60.419 I1.565 J0.419
X170.019 Y60.756 I-0.46 J-0.123
G1 X169.559 Y60.633
X169.479 Y60.611 Z-0.893
X169.402 Y60.591 Z-0.871
X169.329 Y60.571 Z-0.836
X169.263 Y60.553 Z-0.789
X169.207 Y60.538 Z-0.73
X169.161 Y60.526 Z-0.662
X169.127 Y60.517 Z-0.587
X169.106 Y60.511 Z-0.507
X169.099 Y60.509 Z-0.424
Z5
X169.346 Y59.59
Z0.052 F50
Z-0.724
X169.353 Y59.592 Z-0.807
X169.373 Y59.597 Z-0.887
X169.407 Y59.606 Z-0.962
X169.453 Y59.619 Z-1.03
X169.51 Y59.634 Z-1.089
X169.576 Y59.652 Z-1.136
X169.648 Y59.671 Z-1.171
X169.726 Y59.692 Z-1.193
X169.805 Y59.713 Z-1.2
X170.265 Y59.836
G3 X170.602 Y60.419 I-0.123 J0.46
X167.472 Y59.581 I-1.565 J-0.419 F150
X170.602 Y60.419 I1.565 J0.419
X170.019 Y60.756 I-0.46 J-0.123
G1 X169.559 Y60.633
X169.479 Y60.611 Z-1.193
X169.402 Y60.591 Z-1.171
X169.329 Y60.571 Z-1.136
X169.263 Y60.553 Z-1.089
X169.207 Y60.538 Z-1.03
X169.161 Y60.526 Z-0.962
X169.127 Y60.517 Z-0.887
X169.106 Y60.511 Z-0.807
X169.099 Y60.509 Z-0.724
Z5
X169.346 Y59.59
Z-0.248 F50
Z-1.024
X169.353 Y59.592 Z-1.107
X169.373 Y59.597 Z-1.187
X169.407 Y59.606 Z-1.262
X169.453 Y59.619 Z-1.33
X169.51 Y59.634 Z-1.389
X169.576 Y59.652 Z-1.436
X169.648 Y59.671 Z-1.471
X169.726 Y59.692 Z-1.493
X169.805 Y59.713 Z-1.5
X170.265 Y59.836
G3 X170.602 Y60.419 I-0.123 J0.46
X167.472 Y59.581 I-1.565 J-0.419 F150
X170.602 Y60.419 I1.565 J0.419
X170.019 Y60.756 I-0.46 J-0.123
G1 X169.559 Y60.633
X169.479 Y60.611 Z-1.493
X169.402 Y60.591 Z-1.471
X169.329 Y60.571 Z-1.436
X169.263 Y60.553 Z-1.389
X169.207 Y60.538 Z-1.33
X169.161 Y60.526 Z-1.262
X169.127 Y60.517 Z-1.187
X169.106 Y60.511 Z-1.107
X169.099 Y60.509 Z-1.024
Z5
X169.346 Y59.59
Z-0.548 F50
Z-1.324
X169.353 Y59.592 Z-1.407
X169.373 Y59.597 Z-1.487
X169.407 Y59.606 Z-1.562
X169.453 Y59.619 Z-1.63
X169.51 Y59.634 Z-1.689
X169.576 Y59.652 Z-1.736
X169.648 Y59.671 Z-1.771
X169.726 Y59.692 Z-1.793
X169.805 Y59.713 Z-1.8
X170.265 Y59.836
G3 X170.602 Y60.419 I-0.123 J0.46
X167.472 Y59.581 I-1.565 J-0.419 F150
X170.602 Y60.419 I1.565 J0.419
X170.019 Y60.756 I-0.46 J-0.123
G1 X169.559 Y60.633
X169.479 Y60.611 Z-1.793
X169.402 Y60.591 Z-1.771
X169.329 Y60.571 Z-1.736
X169.263 Y60.553 Z-1.689
X169.207 Y60.538 Z-1.63
X169.161 Y60.526 Z-1.562
X169.127 Y60.517 Z-1.487
X169.106 Y60.511 Z-1.407
X169.099 Y60.509 Z-1.324
Z5
X169.346 Y59.59
Z-0.848 F50
Z-1.624
X169.353 Y59.592 Z-1.707
X169.373 Y59.597 Z-1.787
X169.407 Y59.606 Z-1.862
X169.453 Y59.619 Z-1.93
X169.51 Y59.634 Z-1.989
X169.576 Y59.652 Z-2.036
X169.648 Y59.671 Z-2.071
X169.726 Y59.692 Z-2.093
X169.805 Y59.713 Z-2.1
X170.265 Y59.836
G3 X170.602 Y60.419 I-0.123 J0.46
X167.472 Y59.581 I-1.565 J-0.419 F150
X170.602 Y60.419 I1.565 J0.419
X170.019 Y60.756 I-0.46 J-0.123
G1 X169.559 Y60.633
X169.479 Y60.611 Z-2.093
X169.402 Y60.591 Z-2.071
X169.329 Y60.571 Z-2.036
X169.263 Y60.553 Z-1.989
X169.207 Y60.538 Z-1.93
X169.161 Y60.526 Z-1.862
X169.127 Y60.517 Z-1.787
X169.106 Y60.511 Z-1.707
X169.099 Y60.509 Z-1.624
Z5
X169.346 Y59.59
Z-1.148 F50
Z-1.924
X169.353 Y59.592 Z-2.007
X169.373 Y59.597 Z-2.087
X169.407 Y59.606 Z-2.162
X169.453 Y59.619 Z-2.23
X169.51 Y59.634 Z-2.289
X169.576 Y59.652 Z-2.336
X169.648 Y59.671 Z-2.371
X169.726 Y59.692 Z-2.393
X169.805 Y59.713 Z-2.4
X170.265 Y59.836
G3 X170.602 Y60.419 I-0.123 J0.46
X167.472 Y59.581 I-1.565 J-0.419 F150
X170.602 Y60.419 I1.565 J0.419
X170.019 Y60.756 I-0.46 J-0.123
G1 X169.559 Y60.633
X169.479 Y60.611 Z-2.393
X169.402 Y60.591 Z-2.371
X169.329 Y60.571 Z-2.336
X169.263 Y60.553 Z-2.289
X169.207 Y60.538 Z-2.23
X169.161 Y60.526 Z-2.162
X169.127 Y60.517 Z-2.087
X169.106 Y60.511 Z-2.007
X169.099 Y60.509 Z-1.924
Z5
X169.346 Y59.59
Z-1.448 F50
Z-2.224
X169.353 Y59.592 Z-2.307
X169.373 Y59.597 Z-2.387
X169.407 Y59.606 Z-2.462
X169.453 Y59.619 Z-2.53
X169.51 Y59.634 Z-2.589
X169.576 Y59.652 Z-2.636
X169.648 Y59.671 Z-2.671
X169.726 Y59.692 Z-2.693
X169.805 Y59.713 Z-2.7
X170.265 Y59.836
G3 X170.602 Y60.419 I-0.123 J0.46
X167.472 Y59.581 I-1.565 J-0.419 F150
X170.602 Y60.419 I1.565 J0.419
X170.019 Y60.756 I-0.46 J-0.123
G1 X169.559 Y60.633
X169.479 Y60.611 Z-2.693
X169.402 Y60.591 Z-2.671
X169.329 Y60.571 Z-2.636
X169.263 Y60.553 Z-2.589
X169.207 Y60.538 Z-2.53
X169.161 Y60.526 Z-2.462
X169.127 Y60.517 Z-2.387
X169.106 Y60.511 Z-2.307
X169.099 Y60.509 Z-2.224
Z5
X169.346 Y59.59
Z-1.748 F50
Z-2.524
X169.353 Y59.592 Z-2.607
X169.373 Y59.597 Z-2.687
X169.407 Y59.606 Z-2.762
X169.453 Y59.619 Z-2.83
X169.51 Y59.634 Z-2.889
X169.576 Y59.652 Z-2.936
X169.648 Y59.671 Z-2.971
X169.726 Y59.692 Z-2.993
X169.805 Y59.713 Z-3
X170.265 Y59.836
G3 X170.602 Y60.419 I-0.123 J0.46
X167.472 Y59.581 I-1.565 J-0.419 F150
X170.602 Y60.419 I1.565 J0.419
X170.019 Y60.756 I-0.46 J-0.123
G1 X169.559 Y60.633
X169.479 Y60.611 Z-2.993
X169.402 Y60.591 Z-2.971
X169.329 Y60.571 Z-2.936
X169.263 Y60.553 Z-2.889
X169.207 Y60.538 Z-2.83
X169.161 Y60.526 Z-2.762
X169.127 Y60.517 Z-2.687
X169.106 Y60.511 Z-2.607
X169.099 Y60.509 Z-2.524
Z5
X169.346 Y59.59
Z-2.048 F50
Z-2.824
X169.353 Y59.592 Z-2.907
X169.373 Y59.597 Z-2.987
X169.407 Y59.606 Z-3.062
X169.453 Y59.619 Z-3.13
X169.51 Y59.634 Z-3.189
X169.576 Y59.652 Z-3.236
X169.648 Y59.671 Z-3.271
X169.726 Y59.692 Z-3.293
X169.805 Y59.713 Z-3.3
X170.265 Y59.836
G3 X170.602 Y60.419 I-0.123 J0.46
X167.472 Y59.581 I-1.565 J-0.419 F150
X170.602 Y60.419 I1.565 J0.419
X170.019 Y60.756 I-0.46 J-0.123
G1 X169.559 Y60.633
X169.479 Y60.611 Z-3.293
X169.402 Y60.591 Z-3.271
X169.329 Y60.571 Z-3.236
X169.263 Y60.553 Z-3.189
X169.207 Y60.538 Z-3.13
X169.161 Y60.526 Z-3.062
X169.127 Y60.517 Z-2.987
X169.106 Y60.511 Z-2.907
X169.099 Y60.509 Z-2.824
Z5
X169.346 Y59.59
Z-2.348 F50
Z-3.124
X169.353 Y59.592 Z-3.207
X169.373 Y59.597 Z-3.287
X169.407 Y59.606 Z-3.362
X169.453 Y59.619 Z-3.43
X169.51 Y59.634 Z-3.489
X169.576 Y59.652 Z-3.536
X169.648 Y59.671 Z-3.571
X169.726 Y59.692 Z-3.593
X169.805 Y59.713 Z-3.6
X170.265 Y59.836
G3 X170.602 Y60.419 I-0.123 J0.46
X167.472 Y59.581 I-1.565 J-0.419 F150
X170.602 Y60.419 I1.565 J0.419
X170.019 Y60.756 I-0.46 J-0.123
G1 X169.559 Y60.633
X169.479 Y60.611 Z-3.593
X169.402 Y60.591 Z-3.571
X169.329 Y60.571 Z-3.536
X169.263 Y60.553 Z-3.489
X169.207 Y60.538 Z-3.43
X169.161 Y60.526 Z-3.362
X169.127 Y60.517 Z-3.287
X169.106 Y60.511 Z-3.207
X169.099 Y60.509 Z-3.124
Z5
X169.346 Y59.59
Z-2.648 F50
Z-3.424
X169.353 Y59.592 Z-3.507
X169.373 Y59.597 Z-3.587
X169.407 Y59.606 Z-3.662
X169.453 Y59.619 Z-3.73
X169.51 Y59.634 Z-3.789
X169.576 Y59.652 Z-3.836
X169.648 Y59.671 Z-3.871
X169.726 Y59.692 Z-3.893
X169.805 Y59.713 Z-3.9
X170.265 Y59.836
G3 X170.602 Y60.419 I-0.123 J0.46
X167.472 Y59.581 I-1.565 J-0.419 F150
X170.602 Y60.419 I1.565 J0.419
X170.019 Y60.756 I-0.46 J-0.123
G1 X169.559 Y60.633
X169.479 Y60.611 Z-3.893
X169.402 Y60.591 Z-3.871
X169.329 Y60.571 Z-3.836
X169.263 Y60.553 Z-3.789
X169.207 Y60.538 Z-3.73
X169.161 Y60.526 Z-3.662
X169.127 Y60.517 Z-3.587
X169.106 Y60.511 Z-3.507
X169.099 Y60.509 Z-3.424
Z5
X169.346 Y59.59
Z-2.948 F50
Z-3.724
X169.353 Y59.592 Z-3.807
X169.373 Y59.597 Z-3.887
X169.407 Y59.606 Z-3.962
X169.453 Y59.619 Z-4.03
X169.51 Y59.634 Z-4.089
X169.576 Y59.652 Z-4.136
X169.648 Y59.671 Z-4.171
X169.726 Y59.692 Z-4.193
X169.805 Y59.713 Z-4.2
X170.265 Y59.836
G3 X170.602 Y60.419 I-0.123 J0.46
X167.472 Y59.581 I-1.565 J-0.419 F150
X170.602 Y60.419 I1.565 J0.419
X170.019 Y60.756 I-0.46 J-0.123
G1 X169.559 Y60.633
X169.479 Y60.611 Z-4.193
X169.402 Y60.591 Z-4.171
X169.329 Y60.571 Z-4.136
X169.263 Y60.553 Z-4.089
X169.207 Y60.538 Z-4.03
X169.161 Y60.526 Z-3.962
X169.127 Y60.517 Z-3.887
X169.106 Y60.511 Z-3.807
X169.099 Y60.509 Z-3.724
Z5
X169.346 Y59.59
Z-3.248 F50
Z-4.024
X169.353 Y59.592 Z-4.107
X169.373 Y59.597 Z-4.187
X169.407 Y59.606 Z-4.262
X169.453 Y59.619 Z-4.33
X169.51 Y59.634 Z-4.389
X169.576 Y59.652 Z-4.436
X169.648 Y59.671 Z-4.471
X169.726 Y59.692 Z-4.493
X169.805 Y59.713 Z-4.5
X170.265 Y59.836
G3 X170.602 Y60.419 I-0.123 J0.46
X167.472 Y59.581 I-1.565 J-0.419 F150
X170.602 Y60.419 I1.565 J0.419
X170.019 Y60.756 I-0.46 J-0.123
G1 X169.559 Y60.633
X169.479 Y60.611 Z-4.493
X169.402 Y60.591 Z-4.471
X169.329 Y60.571 Z-4.436
X169.263 Y60.553 Z-4.389
X169.207 Y60.538 Z-4.33
X169.161 Y60.526 Z-4.262
X169.127 Y60.517 Z-4.187
X169.106 Y60.511 Z-4.107
X169.099 Y60.509 Z-4.024
Z5
X169.346 Y59.59
Z-3.548 F50
Z-4.324
X169.353 Y59.592 Z-4.407
X169.373 Y59.597 Z-4.487
X169.407 Y59.606 Z-4.562
X169.453 Y59.619 Z-4.63
X169.51 Y59.634 Z-4.689
X169.576 Y59.652 Z-4.736
X169.648 Y59.671 Z-4.771
X169.726 Y59.692 Z-4.793
X169.805 Y59.713 Z-4.8
X170.265 Y59.836
G3 X170.602 Y60.419 I-0.123 J0.46
X167.472 Y59.581 I-1.565 J-0.419 F150
X170.602 Y60.419 I1.565 J0.419
X170.019 Y60.756 I-0.46 J-0.123
G1 X169.559 Y60.633
X169.479 Y60.611 Z-4.793
X169.402 Y60.591 Z-4.771
X169.329 Y60.571 Z-4.736
X169.263 Y60.553 Z-4.689
X169.207 Y60.538 Z-4.63
X169.161 Y60.526 Z-4.562
X169.127 Y60.517 Z-4.487
X169.106 Y60.511 Z-4.407
X169.099 Y60.509 Z-4.324
Z5
X169.346 Y59.59
Z-3.848 F50
Z-4.624
X169.353 Y59.592 Z-4.707
X169.373 Y59.597 Z-4.787
X169.407 Y59.606 Z-4.862
X169.453 Y59.619 Z-4.93
X169.51 Y59.634 Z-4.989
X169.576 Y59.652 Z-5.036
X169.648 Y59.671 Z-5.071
X169.726 Y59.692 Z-5.093
X169.805 Y59.713 Z-5.1
X170.265 Y59.836
G3 X170.602 Y60.419 I-0.123 J0.46
X167.472 Y59.581 I-1.565 J-0.419 F150
X170.602 Y60.419 I1.565 J0.419
X170.019 Y60.756 I-0.46 J-0.123
G1 X169.559 Y60.633
X169.479 Y60.611 Z-5.093
X169.402 Y60.591 Z-5.071
X169.329 Y60.571 Z-5.036
X169.263 Y60.553 Z-4.989
X169.207 Y60.538 Z-4.93
X169.161 Y60.526 Z-4.862
X169.127 Y60.517 Z-4.787
X169.106 Y60.511 Z-4.707
X169.099 Y60.509 Z-4.624
Z5
X169.346 Y59.59
Z-4.148 F50
Z-4.924
X169.353 Y59.592 Z-5.007
X169.373 Y59.597 Z-5.087
X169.407 Y59.606 Z-5.162
X169.453 Y59.619 Z-5.23
X169.51 Y59.634 Z-5.289
X169.576 Y59.652 Z-5.336
X169.648 Y59.671 Z-5.371
X169.726 Y59.692 Z-5.393
X169.805 Y59.713 Z-5.4
X170.265 Y59.836
G3 X170.602 Y60.419 I-0.123 J0.46
X167.472 Y59.581 I-1.565 J-0.419 F150
X170.602 Y60.419 I1.565 J0.419
X170.019 Y60.756 I-0.46 J-0.123
G1 X169.559 Y60.633
X169.479 Y60.611 Z-5.393
X169.402 Y60.591 Z-5.371
X169.329 Y60.571 Z-5.336
X169.263 Y60.553 Z-5.289
X169.207 Y60.538 Z-5.23
X169.161 Y60.526 Z-5.162
X169.127 Y60.517 Z-5.087
X169.106 Y60.511 Z-5.007
X169.099 Y60.509 Z-4.924
Z5
X169.346 Y59.59
Z-4.448 F50
Z-5.224
X169.353 Y59.592 Z-5.307
X169.373 Y59.597 Z-5.387
X169.407 Y59.606 Z-5.462
X169.453 Y59.619 Z-5.53
X169.51 Y59.634 Z-5.589
X169.576 Y59.652 Z-5.636
X169.648 Y59.671 Z-5.671
X169.726 Y59.692 Z-5.693
X169.805 Y59.713 Z-5.7
X170.265 Y59.836
G3 X170.602 Y60.419 I-0.123 J0.46
X167.472 Y59.581 I-1.565 J-0.419 F150
X170.602 Y60.419 I1.565 J0.419
X170.019 Y60.756 I-0.46 J-0.123
G1 X169.559 Y60.633
X169.479 Y60.611 Z-5.693
X169.402 Y60.591 Z-5.671
X169.329 Y60.571 Z-5.636
X169.263 Y60.553 Z-5.589
X169.207 Y60.538 Z-5.53
X169.161 Y60.526 Z-5.462
X169.127 Y60.517 Z-5.387
X169.106 Y60.511 Z-5.307
X169.099 Y60.509 Z-5.224
Z5
X169.346 Y59.59
Z-4.748 F50
Z-5.524
X169.353 Y59.592 Z-5.607
X169.373 Y59.597 Z-5.687
X169.407 Y59.606 Z-5.762
X169.453 Y59.619 Z-5.83
X169.51 Y59.634 Z-5.889
X169.576 Y59.652 Z-5.936
X169.648 Y59.671 Z-5.971
X169.726 Y59.692 Z-5.993
X169.805 Y59.713 Z-6
X170.265 Y59.836
G3 X170.602 Y60.419 I-0.123 J0.46
X167.472 Y59.581 I-1.565 J-0.419 F150
X170.602 Y60.419 I1.565 J0.419
X170.019 Y60.756 I-0.46 J-0.123
G1 X169.559 Y60.633
X169.479 Y60.611 Z-5.993
X169.402 Y60.591 Z-5.971
X169.329 Y60.571 Z-5.936
X169.263 Y60.553 Z-5.889
X169.207 Y60.538 Z-5.83
X169.161 Y60.526 Z-5.762
X169.127 Y60.517 Z-5.687
X169.106 Y60.511 Z-5.607
X169.099 Y60.509 Z-5.524
Z5
X169.346 Y59.59
Z-5.048 F50
Z-5.824
X169.353 Y59.592 Z-5.907
X169.373 Y59.597 Z-5.987
X169.407 Y59.606 Z-6.062
X169.453 Y59.619 Z-6.13
X169.51 Y59.634 Z-6.189
X169.576 Y59.652 Z-6.236
X169.648 Y59.671 Z-6.271
X169.726 Y59.692 Z-6.293
X169.805 Y59.713 Z-6.3
X170.265 Y59.836
G3 X170.602 Y60.419 I-0.123 J0.46
X167.472 Y59.581 I-1.565 J-0.419 F150
X170.602 Y60.419 I1.565 J0.419
X170.019 Y60.756 I-0.46 J-0.123
G1 X169.559 Y60.633
X169.479 Y60.611 Z-6.293
X169.402 Y60.591 Z-6.271
X169.329 Y60.571 Z-6.236
X169.263 Y60.553 Z-6.189
X169.207 Y60.538 Z-6.13
X169.161 Y60.526 Z-6.062
X169.127 Y60.517 Z-5.987
X169.106 Y60.511 Z-5.907
X169.099 Y60.509 Z-5.824
Z5
X169.346 Y59.59
Z-5.348 F50
Z-6.124
X169.353 Y59.592 Z-6.207
X169.373 Y59.597 Z-6.287
X169.407 Y59.606 Z-6.362
X169.453 Y59.619 Z-6.43
X169.51 Y59.634 Z-6.489
X169.576 Y59.652 Z-6.536
X169.648 Y59.671 Z-6.571
X169.726 Y59.692 Z-6.593
X169.805 Y59.713 Z-6.6
X170.265 Y59.836
G3 X170.602 Y60.419 I-0.123 J0.46
X167.472 Y59.581 I-1.565 J-0.419 F150
X170.602 Y60.419 I1.565 J0.419
X170.019 Y60.756 I-0.46 J-0.123
G1 X169.559 Y60.633
X169.479 Y60.611 Z-6.593
X169.402 Y60.591 Z-6.571
X169.329 Y60.571 Z-6.536
X169.263 Y60.553 Z-6.489
X169.207 Y60.538 Z-6.43
X169.161 Y60.526 Z-6.362
X169.127 Y60.517 Z-6.287
X169.106 Y60.511 Z-6.207
X169.099 Y60.509 Z-6.124
Z5
X169.346 Y59.59
Z-5.648 F50
Z-6.424
X169.353 Y59.592 Z-6.507
X169.373 Y59.597 Z-6.587
X169.407 Y59.606 Z-6.662
X169.453 Y59.619 Z-6.73
X169.51 Y59.634 Z-6.789
X169.576 Y59.652 Z-6.836
X169.648 Y59.671 Z-6.871
X169.726 Y59.692 Z-6.893
X169.805 Y59.713 Z-6.9
X170.265 Y59.836
G3 X170.602 Y60.419 I-0.123 J0.46
X167.472 Y59.581 I-1.565 J-0.419 F150
X170.602 Y60.419 I1.565 J0.419
X170.019 Y60.756 I-0.46 J-0.123
G1 X169.559 Y60.633
X169.479 Y60.611 Z-6.893
X169.402 Y60.591 Z-6.871
X169.329 Y60.571 Z-6.836
X169.263 Y60.553 Z-6.789
X169.207 Y60.538 Z-6.73
X169.161 Y60.526 Z-6.662
X169.127 Y60.517 Z-6.587
X169.106 Y60.511 Z-6.507
X169.099 Y60.509 Z-6.424
Z5
X169.346 Y59.59
Z-5.948 F50
Z-6.724
X169.353 Y59.592 Z-6.807
X169.373 Y59.597 Z-6.887
X169.407 Y59.606 Z-6.962
X169.453 Y59.619 Z-7.03
X169.51 Y59.634 Z-7.089
X169.576 Y59.652 Z-7.136
X169.648 Y59.671 Z-7.171
X169.726 Y59.692 Z-7.193
X169.805 Y59.713 Z-7.2
X170.265 Y59.836
G3 X170.602 Y60.419 I-0.123 J0.46
X167.472 Y59.581 I-1.565 J-0.419 F150
X170.602 Y60.419 I1.565 J0.419
X170.019 Y60.756 I-0.46 J-0.123
G1 X169.559 Y60.633
X169.479 Y60.611 Z-7.193
X169.402 Y60.591 Z-7.171
X169.329 Y60.571 Z-7.136
X169.263 Y60.553 Z-7.089
X169.207 Y60.538 Z-7.03
X169.161 Y60.526 Z-6.962
X169.127 Y60.517 Z-6.887
X169.106 Y60.511 Z-6.807
X169.099 Y60.509 Z-6.724
Z5
X169.346 Y59.59
Z-6.248 F50
Z-7.024
X169.353 Y59.592 Z-7.107
X169.373 Y59.597 Z-7.187
X169.407 Y59.606 Z-7.262
X169.453 Y59.619 Z-7.33
X169.51 Y59.634 Z-7.389
X169.576 Y59.652 Z-7.436
X169.648 Y59.671 Z-7.471
X169.726 Y59.692 Z-7.493
X169.805 Y59.713 Z-7.5
X170.265 Y59.836
G3 X170.602 Y60.419 I-0.123 J0.46
X167.472 Y59.581 I-1.565 J-0.419 F150
X170.602 Y60.419 I1.565 J0.419
X170.019 Y60.756 I-0.46 J-0.123
G1 X169.559 Y60.633
X169.479 Y60.611 Z-7.493
X169.402 Y60.591 Z-7.471
X169.329 Y60.571 Z-7.436
X169.263 Y60.553 Z-7.389
X169.207 Y60.538 Z-7.33
X169.161 Y60.526 Z-7.262
X169.127 Y60.517 Z-7.187
X169.106 Y60.511 Z-7.107
X169.099 Y60.509 Z-7.024
Z5
X169.346 Y59.59
Z-6.548 F50
Z-7.324
X169.353 Y59.592 Z-7.407
X169.373 Y59.597 Z-7.487
X169.407 Y59.606 Z-7.562
X169.453 Y59.619 Z-7.63
X169.51 Y59.634 Z-7.689
X169.576 Y59.652 Z-7.736
X169.648 Y59.671 Z-7.771
X169.726 Y59.692 Z-7.793
X169.805 Y59.713 Z-7.8
X170.265 Y59.836
G3 X170.602 Y60.419 I-0.123 J0.46
X167.472 Y59.581 I-1.565 J-0.419 F150
X170.602 Y60.419 I1.565 J0.419
X170.019 Y60.756 I-0.46 J-0.123
G1 X169.559 Y60.633
X169.479 Y60.611 Z-7.793
X169.402 Y60.591 Z-7.771
X169.329 Y60.571 Z-7.736
X169.263 Y60.553 Z-7.689
X169.207 Y60.538 Z-7.63
X169.161 Y60.526 Z-7.562
X169.127 Y60.517 Z-7.487
X169.106 Y60.511 Z-7.407
X169.099 Y60.509 Z-7.324
Z5
X169.346 Y59.59
Z-6.848 F50
Z-7.524
X169.353 Y59.592 Z-7.607
X169.373 Y59.597 Z-7.687
X169.407 Y59.606 Z-7.762
X169.453 Y59.619 Z-7.83
X169.51 Y59.634 Z-7.889
X169.576 Y59.652 Z-7.936
X169.648 Y59.671 Z-7.971
X169.726 Y59.692 Z-7.993
X169.805 Y59.713 Z-8
X170.265 Y59.836
G3 X170.602 Y60.419 I-0.123 J0.46
X167.472 Y59.581 I-1.565 J-0.419 F150
X170.602 Y60.419 I1.565 J0.419
X170.019 Y60.756 I-0.46 J-0.123
G1 X169.559 Y60.633
X169.479 Y60.611 Z-7.993
X169.402 Y60.591 Z-7.971
X169.329 Y60.571 Z-7.936
X169.263 Y60.553 Z-7.889
X169.207 Y60.538 Z-7.83
X169.161 Y60.526 Z-7.762
X169.127 Y60.517 Z-7.687
X169.106 Y60.511 Z-7.607
X169.099 Y60.509 Z-7.524
Z5
X196.684 Y60.16
Z0.952 F50
Z0.176
X196.685 Y60.167 Z0.093
X196.687 Y60.189 Z0.013
X196.69 Y60.224 Z-0.062
X196.694 Y60.271 Z-0.13
X196.699 Y60.329 Z-0.189
X196.705 Y60.397 Z-0.236
X196.712 Y60.472 Z-0.271
X196.719 Y60.552 Z-0.293
X196.727 Y60.634 Z-0.3
X196.769 Y61.108
G3 X196.337 Y61.625 I-0.474 J0.042
G1 X196.244 Y61.635 F150
G3 X195.83 Y58.421 I-0.207 J-1.607
G1 X195.935 Y58.405
X196.039 Y58.385
X198.842
X198.958 Y58.382
G3 X200.657 Y60 I0.079 J1.618
X198.958 Y61.618 I-1.62 J0
G1 X198.842 Y61.615
X196.547
X196.442 Y61.618
X196.337 Y61.625
G3 X195.82 Y61.193 I-0.042 J-0.474
G1 X195.778 Y60.718
X195.771 Y60.636 Z-0.293
X195.764 Y60.556 Z-0.271
X195.757 Y60.481 Z-0.236
X195.751 Y60.414 Z-0.189
X195.746 Y60.355 Z-0.13
X195.742 Y60.308 Z-0.062
X195.739 Y60.273 Z0.013
X195.737 Y60.252 Z0.093
X195.736 Y60.244 Z0.176
Z5
X196.684 Y60.16
Z0.652 F50
Z-0.124
X196.685 Y60.167 Z-0.207
X196.687 Y60.189 Z-0.287
X196.69 Y60.224 Z-0.362
X196.694 Y60.271 Z-0.43
X196.699 Y60.329 Z-0.489
X196.705 Y60.397 Z-0.536
X196.712 Y60.472 Z-0.571
X196.719 Y60.552 Z-0.593
X196.727 Y60.634 Z-0.6
X196.769 Y61.108
G3 X196.337 Y61.625 I-0.474 J0.042
G1 X196.244 Y61.635 F150
G3 X195.83 Y58.421 I-0.207 J-1.607
G1 X195.935 Y58.405
X196.039 Y58.385
X198.842
X198.958 Y58.382
G3 X200.657 Y60 I0.079 J1.618
X198.958 Y61.618 I-1.62 J0
G1 X198.842 Y61.615
X196.547
X196.442 Y61.618
X196.337 Y61.625
G3 X195.82 Y61.193 I-0.042 J-0.474
G1 X195.778 Y60.718
X195.771 Y60.636 Z-0.593
X195.764 Y60.556 Z-0.571
X195.757 Y60.481 Z-0.536
X195.751 Y60.414 Z-0.489
X195.746 Y60.355 Z-0.43
X195.742 Y60.308 Z-0.362
X195.739 Y60.273 Z-0.287
X195.737 Y60.252 Z-0.207
X195.736 Y60.244 Z-0.124
Z5
X196.684 Y60.16
Z0.352 F50
Z-0.424
X196.685 Y60.167 Z-0.507
X196.687 Y60.189 Z-0.587
X196.69 Y60.224 Z-0.662
X196.694 Y60.271 Z-0.73
X196.699 Y60.329 Z-0.789
X196.705 Y60.397 Z-0.836
X196.712 Y60.472 Z-0.871
X196.719 Y60.552 Z-0.893
X196.727 Y60.634 Z-0.9
X196.769 Y61.108
G3 X196.337 Y61.625 I-0.474 J0.042
G1 X196.244 Y61.635 F150
G3 X195.83 Y58.421 I-0.207 J-1.607
G1 X195.935 Y58.405
X196.039 Y58.385
X198.842
X198.958 Y58.382
G3 X200.657 Y60 I0.079 J1.618
X198.958 Y61.618 I-1.62 J0
G1 X198.842 Y61.615
X196.547
X196.442 Y61.618
X196.337 Y61.625
G3 X195.82 Y61.193 I-0.042 J-0.474
G1 X195.778 Y60.718
X195.771 Y60.636 Z-0.893
X195.764 Y60.556 Z-0.871
X195.757 Y60.481 Z-0.836
X195.751 Y60.414 Z-0.789
X195.746 Y60.355 Z-0.73
X195.742 Y60.308 Z-0.662
X195.739 Y60.273 Z-0.587
X195.737 Y60.252 Z-0.507
X195.736 Y60.244 Z-0.424
Z5
X196.684 Y60.16
Z0.052 F50
Z-0.724
X196.685 Y60.167 Z-0.807
X196.687 Y60.189 Z-0.887
X196.69 Y60.224 Z-0.962
X196.694 Y60.271 Z-1.03
X196.699 Y60.329 Z-1.089
X196.705 Y60.397 Z-1.136
X196.712 Y60.472 Z-1.171
X196.719 Y60.552 Z-1.193
X196.727 Y60.634 Z-1.2
X196.769 Y61.108
G3 X196.337 Y61.625 I-0.474 J0.042
G1 X196.244 Y61.635 F150
G3 X195.83 Y58.421 I-0.207 J-1.607
G1 X195.935 Y58.405
X196.039 Y58.385
X198.842
X198.958 Y58.382
G3 X200.657 Y60 I0.079 J1.618
X198.958 Y61.618 I-1.62 J0
G1 X198.842 Y61.615
X196.547
X196.442 Y61.618
X196.337 Y61.625
G3 X195.82 Y61.193 I-0.042 J-0.474
G1 X195.778 Y60.718
X195.771 Y60.636 Z-1.193
X195.764 Y60.556 Z-1.171
X195.757 Y60.481 Z-1.136
X195.751 Y60.414 Z-1.089
X195.746 Y60.355 Z-1.03
X195.742 Y60.308 Z-0.962
X195.739 Y60.273 Z-0.887
X195.737 Y60.252 Z-0.807
X195.736 Y60.244 Z-0.724
Z5
X196.684 Y60.16
Z-0.248 F50
Z-1.024
X196.685 Y60.167 Z-1.107
X196.687 Y60.189 Z-1.187
X196.69 Y60.224 Z-1.262
X196.694 Y60.271 Z-1.33
X196.699 Y60.329 Z-1.389
X196.705 Y60.397 Z-1.436
X196.712 Y60.472 Z-1.471
X196.719 Y60.552 Z-1.493
X196.727 Y60.634 Z-1.5
X196.769 Y61.108
G3 X196.337 Y61.625 I-0.474 J0.042
G1 X196.244 Y61.635 F150
G3 X195.83 Y58.421 I-0.207 J-1.607
G1 X195.935 Y58.405
X196.039 Y58.385
X198.842
X198.958 Y58.382
G3 X200.657 Y60 I0.079 J1.618
X198.958 Y61.618 I-1.62 J0
G1 X198.842 Y61.615
X196.547
X196.442 Y61.618
X196.337 Y61.625
G3 X195.82 Y61.193 I-0.042 J-0.474
G1 X195.778 Y60.718
X195.771 Y60.636 Z-1.493
X195.764 Y60.556 Z-1.471
X195.757 Y60.481 Z-1.436
X195.751 Y60.414 Z-1.389
X195.746 Y60.355 Z-1.33
X195.742 Y60.308 Z-1.262
X195.739 Y60.273 Z-1.187
X195.737 Y60.252 Z-1.107
X195.736 Y60.244 Z-1.024
Z5
X196.684 Y60.16
Z-0.548 F50
Z-1.324
X196.685 Y60.167 Z-1.407
X196.687 Y60.189 Z-1.487
X196.69 Y60.224 Z-1.562
X196.694 Y60.271 Z-1.63
X196.699 Y60.329 Z-1.689
X196.705 Y60.397 Z-1.736
X196.712 Y60.472 Z-1.771
X196.719 Y60.552 Z-1.793
X196.727 Y60.634 Z-1.8
X196.769 Y61.108
G3 X196.337 Y61.625 I-0.474 J0.042
G1 X196.244 Y61.635 F150
G3 X195.83 Y58.421 I-0.207 J-1.607
G1 X195.935 Y58.405
X196.039 Y58.385
X198.842
X198.958 Y58.382
G3 X200.657 Y60 I0.079 J1.618
X198.958 Y61.618 I-1.62 J0
G1 X198.842 Y61.615
X196.547
X196.442 Y61.618
X196.337 Y61.625
G3 X195.82 Y61.193 I-0.042 J-0.474
G1 X195.778 Y60.718
X195.771 Y60.636 Z-1.793
X195.764 Y60.556 Z-1.771
X195.757 Y60.481 Z-1.736
X195.751 Y60.414 Z-1.689
X195.746 Y60.355 Z-1.63
X195.742 Y60.308 Z-1.562
X195.739 Y60.273 Z-1.487
X195.737 Y60.252 Z-1.407
X195.736 Y60.244 Z-1.324
Z5
X196.684 Y60.16
Z-0.848 F50
Z-1.624
X196.685 Y60.167 Z-1.707
X196.687 Y60.189 Z-1.787
X196.69 Y60.224 Z-1.862
X196.694 Y60.271 Z-1.93
X196.699 Y60.329 Z-1.989
X196.705 Y60.397 Z-2.036
X196.712 Y60.472 Z-2.071
X196.719 Y60.552 Z-2.093
X196.727 Y60.634 Z-2.1
X196.769 Y61.108
G3 X196.337 Y61.625 I-0.474 J0.042
G1 X196.244 Y61.635 F150
G3 X195.83 Y58.421 I-0.207 J-1.607
G1 X195.935 Y58.405
X196.039 Y58.385
X198.842
X198.958 Y58.382
G3 X200.657 Y60 I0.079 J1.618
X198.958 Y61.618 I-1.62 J0
G1 X198.842 Y61.615
X196.547
X196.442 Y61.618
X196.337 Y61.625
G3 X195.82 Y61.193 I-0.042 J-0.474
G1 X195.778 Y60.718
X195.771 Y60.636 Z-2.093
X195.764 Y60.556 Z-2.071
X195.757 Y60.481 Z-2.036
X195.751 Y60.414 Z-1.989
X195.746 Y60.355 Z-1.93
X195.742 Y60.308 Z-1.862
X195.739 Y60.273 Z-1.787
X195.737 Y60.252 Z-1.707
X195.736 Y60.244 Z-1.624
Z5
X196.684 Y60.16
Z-1.148 F50
Z-1.924
X196.685 Y60.167 Z-2.007
X196.687 Y60.189 Z-2.087
X196.69 Y60.224 Z-2.162
X196.694 Y60.271 Z-2.23
X196.699 Y60.329 Z-2.289
X196.705 Y60.397 Z-2.336
X196.712 Y60.472 Z-2.371
X196.719 Y60.552 Z-2.393
X196.727 Y60.634 Z-2.4
X196.769 Y61.108
G3 X196.337 Y61.625 I-0.474 J0.042
G1 X196.244 Y61.635 F150
G3 X195.83 Y58.421 I-0.207 J-1.607
G1 X195.935 Y58.405
X196.039 Y58.385
X198.842
X198.958 Y58.382
G3 X200.657 Y60 I0.079 J1.618
X198.958 Y61.618 I-1.62 J0
G1 X198.842 Y61.615
X196.547
X196.442 Y61.618
X196.337 Y61.625
G3 X195.82 Y61.193 I-0.042 J-0.474
G1 X195.778 Y60.718
X195.771 Y60.636 Z-2.393
X195.764 Y60.556 Z-2.371
X195.757 Y60.481 Z-2.336
X195.751 Y60.414 Z-2.289
X195.746 Y60.355 Z-2.23
X195.742 Y60.308 Z-2.162
X195.739 Y60.273 Z-2.087
X195.737 Y60.252 Z-2.007
X195.736 Y60.244 Z-1.924
Z5
X196.684 Y60.16
Z-1.448 F50
Z-2.224
X196.685 Y60.167 Z-2.307
X196.687 Y60.189 Z-2.387
X196.69 Y60.224 Z-2.462
X196.694 Y60.271 Z-2.53
X196.699 Y60.329 Z-2.589
X196.705 Y60.397 Z-2.636
X196.712 Y60.472 Z-2.671
X196.719 Y60.552 Z-2.693
X196.727 Y60.634 Z-2.7
X196.769 Y61.108
G3 X196.337 Y61.625 I-0.474 J0.042
G1 X196.244 Y61.635 F150
G3 X195.83 Y58.421 I-0.207 J-1.607
G1 X195.935 Y58.405
X196.039 Y58.385
X198.842
X198.958 Y58.382
G3 X200.657 Y60 I0.079 J1.618
X198.958 Y61.618 I-1.62 J0
G1 X198.842 Y61.615
X196.547
X196.442 Y61.618
X196.337 Y61.625
G3 X195.82 Y61.193 I-0.042 J-0.474
G1 X195.778 Y60.718
X195.771 Y60.636 Z-2.693
X195.764 Y60.556 Z-2.671
X195.757 Y60.481 Z-2.636
X195.751 Y60.414 Z-2.589
X195.746 Y60.355 Z-2.53
X195.742 Y60.308 Z-2.462
X195.739 Y60.273 Z-2.387
X195.737 Y60.252 Z-2.307
X195.736 Y60.244 Z-2.224
Z5
X196.684 Y60.16
Z-1.748 F50
Z-2.524
X196.685 Y60.167 Z-2.607
X196.687 Y60.189 Z-2.687
X196.69 Y60.224 Z-2.762
X196.694 Y60.271 Z-2.83
X196.699 Y60.329 Z-2.889
X196.705 Y60.397 Z-2.936
X196.712 Y60.472 Z-2.971
X196.719 Y60.552 Z-2.993
X196.727 Y60.634 Z-3
X196.769 Y61.108
G3 X196.337 Y61.625 I-0.474 J0.042
G1 X196.244 Y61.635 F150
G3 X195.83 Y58.421 I-0.207 J-1.607
G1 X195.935 Y58.405
X196.039 Y58.385
X198.842
X198.958 Y58.382
G3 X200.657 Y60 I0.079 J1.618
X198.958 Y61.618 I-1.62 J0
G1 X198.842 Y61.615
X196.547
X196.442 Y61.618
X196.337 Y61.625
G3 X195.82 Y61.193 I-0.042 J-0.474
G1 X195.778 Y60.718
X195.771 Y60.636 Z-2.993
X195.764 Y60.556 Z-2.971
X195.757 Y60.481 Z-2.936
X195.751 Y60.414 Z-2.889
X195.746 Y60.355 Z-2.83
X195.742 Y60.308 Z-2.762
X195.739 Y60.273 Z-2.687
X195.737 Y60.252 Z-2.607
X195.736 Y60.244 Z-2.524
Z5
X196.684 Y60.16
Z-2.048 F50
Z-2.824
X196.685 Y60.167 Z-2.907
X196.687 Y60.189 Z-2.987
X196.69 Y60.224 Z-3.062
X196.694 Y60.271 Z-3.13
X196.699 Y60.329 Z-3.189
X196.705 Y60.397 Z-3.236
X196.712 Y60.472 Z-3.271
X196.719 Y60.552 Z-3.293
X196.727 Y60.634 Z-3.3
X196.769 Y61.108
G3 X196.337 Y61.625 I-0.474 J0.042
G1 X196.244 Y61.635 F150
G3 X195.83 Y58.421 I-0.207 J-1.607
G1 X195.935 Y58.405
X196.039 Y58.385
X198.842
X198.958 Y58.382
G3 X200.657 Y60 I0.079 J1.618
X198.958 Y61.618 I-1.62 J0
G1 X198.842 Y61.615
X196.547
X196.442 Y61.618
X196.337 Y61.625
G3 X195.82 Y61.193 I-0.042 J-0.474
G1 X195.778 Y60.718
X195.771 Y60.636 Z-3.293
X195.764 Y60.556 Z-3.271
X195.757 Y60.481 Z-3.236
X195.751 Y60.414 Z-3.189
X195.746 Y60.355 Z-3.13
X195.742 Y60.308 Z-3.062
X195.739 Y60.273 Z-2.987
X195.737 Y60.252 Z-2.907
X195.736 Y60.244 Z-2.824
Z5
X196.684 Y60.16
Z-2.348 F50
Z-3.124
X196.685 Y60.167 Z-3.207
X196.687 Y60.189 Z-3.287
X196.69 Y60.224 Z-3.362
X196.694 Y60.271 Z-3.43
X196.699 Y60.329 Z-3.489
X196.705 Y60.397 Z-3.536
X196.712 Y60.472 Z-3.571
X196.719 Y60.552 Z-3.593
X196.727 Y60.634 Z-3.6
X196.769 Y61.108
G3 X196.337 Y61.625 I-0.474 J0.042
G1 X196.244 Y61.635 F150
G3 X195.83 Y58.421 I-0.207 J-1.607
G1 X195.935 Y58.405
X196.039 Y58.385
X198.842
X198.958 Y58.382
G3 X200.657 Y60 I0.079 J1.618
X198.958 Y61.618 I-1.62 J0
G1 X198.842 Y61.615
X196.547
X196.442 Y61.618
X196.337 Y61.625
G3 X195.82 Y61.193 I-0.042 J-0.474
G1 X195.778 Y60.718
X195.771 Y60.636 Z-3.593
X195.764 Y60.556 Z-3.571
X195.757 Y60.481 Z-3.536
X195.751 Y60.414 Z-3.489
X195.746 Y60.355 Z-3.43
X195.742 Y60.308 Z-3.362
X195.739 Y60.273 Z-3.287
X195.737 Y60.252 Z-3.207
X195.736 Y60.244 Z-3.124
Z5
X196.684 Y60.16
Z-2.648 F50
Z-3.424
X196.685 Y60.167 Z-3.507
X196.687 Y60.189 Z-3.587
X196.69 Y60.224 Z-3.662
X196.694 Y60.271 Z-3.73
X196.699 Y60.329 Z-3.789
X196.705 Y60.397 Z-3.836
X196.712 Y60.472 Z-3.871
X196.719 Y60.552 Z-3.893
X196.727 Y60.634 Z-3.9
X196.769 Y61.108
G3 X196.337 Y61.625 I-0.474 J0.042
G1 X196.244 Y61.635 F150
G3 X195.83 Y58.421 I-0.207 J-1.607
G1 X195.935 Y58.405
X196.039 Y58.385
X198.842
X198.958 Y58.382
G3 X200.657 Y60 I0.079 J1.618
X198.958 Y61.618 I-1.62 J0
G1 X198.842 Y61.615
X196.547
X196.442 Y61.618
X196.337 Y61.625
G3 X195.82 Y61.193 I-0.042 J-0.474
G1 X195.778 Y60.718
X195.771 Y60.636 Z-3.893
X195.764 Y60.556 Z-3.871
X195.757 Y60.481 Z-3.836
X195.751 Y60.414 Z-3.789
X195.746 Y60.355 Z-3.73
X195.742 Y60.308 Z-3.662
X195.739 Y60.273 Z-3.587
X195.737 Y60.252 Z-3.507
X195.736 Y60.244 Z-3.424
Z5
X196.684 Y60.16
Z-2.948 F50
Z-3.724
X196.685 Y60.167 Z-3.807
X196.687 Y60.189 Z-3.887
X196.69 Y60.224 Z-3.962
X196.694 Y60.271 Z-4.03
X196.699 Y60.329 Z-4.089
X196.705 Y60.397 Z-4.136
X196.712 Y60.472 Z-4.171
X196.719 Y60.552 Z-4.193
X196.727 Y60.634 Z-4.2
X196.769 Y61.108
G3 X196.337 Y61.625 I-0.474 J0.042
G1 X196.244 Y61.635 F150
G3 X195.83 Y58.421 I-0.207 J-1.607
G1 X195.935 Y58.405
X196.039 Y58.385
X198.842
X198.958 Y58.382
G3 X200.657 Y60 I0.079 J1.618
X198.958 Y61.618 I-1.62 J0
G1 X198.842 Y61.615
X196.547
X196.442 Y61.618
X196.337 Y61.625
G3 X195.82 Y61.193 I-0.042 J-0.474
G1 X195.778 Y60.718
X195.771 Y60.636 Z-4.193
X195.764 Y60.556 Z-4.171
X195.757 Y60.481 Z-4.136
X195.751 Y60.414 Z-4.089
X195.746 Y60.355 Z-4.03
X195.742 Y60.308 Z-3.962
X195.739 Y60.273 Z-3.887
X195.737 Y60.252 Z-3.807
X195.736 Y60.244 Z-3.724
Z5
X196.684 Y60.16
Z-3.248 F50
Z-4.024
X196.685 Y60.167 Z-4.107
X196.687 Y60.189 Z-4.187
X196.69 Y60.224 Z-4.262
X196.694 Y60.271 Z-4.33
X196.699 Y60.329 Z-4.389
X196.705 Y60.397 Z-4.436
X196.712 Y60.472 Z-4.471
X196.719 Y60.552 Z-4.493
X196.727 Y60.634 Z-4.5
X196.769 Y61.108
G3 X196.337 Y61.625 I-0.474 J0.042
G1 X196.244 Y61.635 F150
G3 X195.83 Y58.421 I-0.207 J-1.607
G1 X195.935 Y58.405
X196.039 Y58.385
X198.842
X198.958 Y58.382
G3 X200.657 Y60 I0.079 J1.618
X198.958 Y61.618 I-1.62 J0
G1 X198.842 Y61.615
X196.547
X196.442 Y61.618
X196.337 Y61.625
G3 X195.82 Y61.193 I-0.042 J-0.474
G1 X195.778 Y60.718
X195.771 Y60.636 Z-4.493
X195.764 Y60.556 Z-4.471
X195.757 Y60.481 Z-4.436
X195.751 Y60.414 Z-4.389
X195.746 Y60.355 Z-4.33
X195.742 Y60.308 Z-4.262
X195.739 Y60.273 Z-4.187
X195.737 Y60.252 Z-4.107
X195.736 Y60.244 Z-4.024
Z5
X196.684 Y60.16
Z-3.548 F50
Z-4.324
X196.685 Y60.167 Z-4.407
X196.687 Y60.189 Z-4.487
X196.69 Y60.224 Z-4.562
X196.694 Y60.271 Z-4.63
X196.699 Y60.329 Z-4.689
X196.705 Y60.397 Z-4.736
X196.712 Y60.472 Z-4.771
X196.719 Y60.552 Z-4.793
X196.727 Y60.634 Z-4.8
X196.769 Y61.108
G3 X196.337 Y61.625 I-0.474 J0.042
G1 X196.244 Y61.635 F150
G3 X195.83 Y58.421 I-0.207 J-1.607
G1 X195.935 Y58.405
X196.039 Y58.385
X198.842
X198.958 Y58.382
G3 X200.657 Y60 I0.079 J1.618
X198.958 Y61.618 I-1.62 J0
G1 X198.842 Y61.615
X196.547
X196.442 Y61.618
X196.337 Y61.625
G3 X195.82 Y61.193 I-0.042 J-0.474
G1 X195.778 Y60.718
X195.771 Y60.636 Z-4.793
X195.764 Y60.556 Z-4.771
X195.757 Y60.481 Z-4.736
X195.751 Y60.414 Z-4.689
X195.746 Y60.355 Z-4.63
X195.742 Y60.308 Z-4.562
X195.739 Y60.273 Z-4.487
X195.737 Y60.252 Z-4.407
X195.736 Y60.244 Z-4.324
Z5
X196.684 Y60.16
Z-3.848 F50
Z-4.624
X196.685 Y60.167 Z-4.707
X196.687 Y60.189 Z-4.787
X196.69 Y60.224 Z-4.862
X196.694 Y60.271 Z-4.93
X196.699 Y60.329 Z-4.989
X196.705 Y60.397 Z-5.036
X196.712 Y60.472 Z-5.071
X196.719 Y60.552 Z-5.093
X196.727 Y60.634 Z-5.1
X196.769 Y61.108
G3 X196.337 Y61.625 I-0.474 J0.042
G1 X196.244 Y61.635 F150
G3 X195.83 Y58.421 I-0.207 J-1.607
G1 X195.935 Y58.405
X196.039 Y58.385
X198.842
X198.958 Y58.382
G3 X200.657 Y60 I0.079 J1.618
X198.958 Y61.618 I-1.62 J0
G1 X198.842 Y61.615
X196.547
X196.442 Y61.618
X196.337 Y61.625
G3 X195.82 Y61.193 I-0.042 J-0.474
G1 X195.778 Y60.718
X195.771 Y60.636 Z-5.093
X195.764 Y60.556 Z-5.071
X195.757 Y60.481 Z-5.036
X195.751 Y60.414 Z-4.989
X195.746 Y60.355 Z-4.93
X195.742 Y60.308 Z-4.862
X195.739 Y60.273 Z-4.787
X195.737 Y60.252 Z-4.707
X195.736 Y60.244 Z-4.624
Z5
X196.684 Y60.16
Z-4.148 F50
Z-4.924
X196.685 Y60.167 Z-5.007
X196.687 Y60.189 Z-5.087
X196.69 Y60.224 Z-5.162
X196.694 Y60.271 Z-5.23
X196.699 Y60.329 Z-5.289
X196.705 Y60.397 Z-5.336
X196.712 Y60.472 Z-5.371
X196.719 Y60.552 Z-5.393
X196.727 Y60.634 Z-5.4
X196.769 Y61.108
G3 X196.337 Y61.625 I-0.474 J0.042
G1 X196.244 Y61.635 F150
G3 X195.83 Y58.421 I-0.207 J-1.607
G1 X195.935 Y58.405
X196.039 Y58.385
X198.842
X198.958 Y58.382
G3 X200.657 Y60 I0.079 J1.618
X198.958 Y61.618 I-1.62 J0
G1 X198.842 Y61.615
X196.547
X196.442 Y61.618
X196.337 Y61.625
G3 X195.82 Y61.193 I-0.042 J-0.474
G1 X195.778 Y60.718
X195.771 Y60.636 Z-5.393
X195.764 Y60.556 Z-5.371
X195.757 Y60.481 Z-5.336
X195.751 Y60.414 Z-5.289
X195.746 Y60.355 Z-5.23
X195.742 Y60.308 Z-5.162
X195.739 Y60.273 Z-5.087
X195.737 Y60.252 Z-5.007
X195.736 Y60.244 Z-4.924
Z5
X196.684 Y60.16
Z-4.448 F50
Z-5.224
X196.685 Y60.167 Z-5.307
X196.687 Y60.189 Z-5.387
X196.69 Y60.224 Z-5.462
X196.694 Y60.271 Z-5.53
X196.699 Y60.329 Z-5.589
X196.705 Y60.397 Z-5.636
X196.712 Y60.472 Z-5.671
X196.719 Y60.552 Z-5.693
X196.727 Y60.634 Z-5.7
X196.769 Y61.108
G3 X196.337 Y61.625 I-0.474 J0.042
G1 X196.244 Y61.635 F150
G3 X195.83 Y58.421 I-0.207 J-1.607
G1 X195.935 Y58.405
X196.039 Y58.385
X198.842
X198.958 Y58.382
G3 X200.657 Y60 I0.079 J1.618
X198.958 Y61.618 I-1.62 J0
G1 X198.842 Y61.615
X196.547
X196.442 Y61.618
X196.337 Y61.625
G3 X195.82 Y61.193 I-0.042 J-0.474
G1 X195.778 Y60.718
X195.771 Y60.636 Z-5.693
X195.764 Y60.556 Z-5.671
X195.757 Y60.481 Z-5.636
X195.751 Y60.414 Z-5.589
X195.746 Y60.355 Z-5.53
X195.742 Y60.308 Z-5.462
X195.739 Y60.273 Z-5.387
X195.737 Y60.252 Z-5.307
X195.736 Y60.244 Z-5.224
Z5
X196.684 Y60.16
Z-4.748 F50
Z-5.524
X196.685 Y60.167 Z-5.607
X196.687 Y60.189 Z-5.687
X196.69 Y60.224 Z-5.762
X196.694 Y60.271 Z-5.83
X196.699 Y60.329 Z-5.889
X196.705 Y60.397 Z-5.936
X196.712 Y60.472 Z-5.971
X196.719 Y60.552 Z-5.993
X196.727 Y60.634 Z-6
X196.769 Y61.108
G3 X196.337 Y61.625 I-0.474 J0.042
G1 X196.244 Y61.635 F150
G3 X195.83 Y58.421 I-0.207 J-1.607
G1 X195.935 Y58.405
X196.039 Y58.385
X198.842
X198.958 Y58.382
G3 X200.657 Y60 I0.079 J1.618
X198.958 Y61.618 I-1.62 J0
G1 X198.842 Y61.615
X196.547
X196.442 Y61.618
X196.337 Y61.625
G3 X195.82 Y61.193 I-0.042 J-0.474
G1 X195.778 Y60.718
X195.771 Y60.636 Z-5.993
X195.764 Y60.556 Z-5.971
X195.757 Y60.481 Z-5.936
X195.751 Y60.414 Z-5.889
X195.746 Y60.355 Z-5.83
X195.742 Y60.308 Z-5.762
X195.739 Y60.273 Z-5.687
X195.737 Y60.252 Z-5.607
X195.736 Y60.244 Z-5.524
Z5
X196.684 Y60.16
Z-5.048 F50
Z-5.824
X196.685 Y60.167 Z-5.907
X196.687 Y60.189 Z-5.987
X196.69 Y60.224 Z-6.062
X196.694 Y60.271 Z-6.13
X196.699 Y60.329 Z-6.189
X196.705 Y60.397 Z-6.236
X196.712 Y60.472 Z-6.271
X196.719 Y60.552 Z-6.293
X196.727 Y60.634 Z-6.3
X196.769 Y61.108
G3 X196.337 Y61.625 I-0.474 J0.042
G1 X196.244 Y61.635 F150
G3 X195.83 Y58.421 I-0.207 J-1.607
G1 X195.935 Y58.405
X196.039 Y58.385
X198.842
X198.958 Y58.382
G3 X200.657 Y60 I0.079 J1.618
X198.958 Y61.618 I-1.62 J0
G1 X198.842 Y61.615
X196.547
X196.442 Y61.618
X196.337 Y61.625
G3 X195.82 Y61.193 I-0.042 J-0.474
G1 X195.778 Y60.718
X195.771 Y60.636 Z-6.293
X195.764 Y60.556 Z-6.271
X195.757 Y60.481 Z-6.236
X195.751 Y60.414 Z-6.189
X195.746 Y60.355 Z-6.13
X195.742 Y60.308 Z-6.062
X195.739 Y60.273 Z-5.987
X195.737 Y60.252 Z-5.907
X195.736 Y60.244 Z-5.824
Z5
X196.684 Y60.16
Z-5.348 F50
Z-6.124
X196.685 Y60.167 Z-6.207
X196.687 Y60.189 Z-6.287
X196.69 Y60.224 Z-6.362
X196.694 Y60.271 Z-6.43
X196.699 Y60.329 Z-6.489
X196.705 Y60.397 Z-6.536
X196.712 Y60.472 Z-6.571
X196.719 Y60.552 Z-6.593
X196.727 Y60.634 Z-6.6
X196.769 Y61.108
G3 X196.337 Y61.625 I-0.474 J0.042
G1 X196.244 Y61.635 F150
G3 X195.83 Y58.421 I-0.207 J-1.607
G1 X195.935 Y58.405
X196.039 Y58.385
X198.842
X198.958 Y58.382
G3 X200.657 Y60 I0.079 J1.618
X198.958 Y61.618 I-1.62 J0
G1 X198.842 Y61.615
X196.547
X196.442 Y61.618
X196.337 Y61.625
G3 X195.82 Y61.193 I-0.042 J-0.474
G1 X195.778 Y60.718
X195.771 Y60.636 Z-6.593
X195.764 Y60.556 Z-6.571
X195.757 Y60.481 Z-6.536
X195.751 Y60.414 Z-6.489
X195.746 Y60.355 Z-6.43
X195.742 Y60.308 Z-6.362
X195.739 Y60.273 Z-6.287
X195.737 Y60.252 Z-6.207
X195.736 Y60.244 Z-6.124
Z5
X196.684 Y60.16
Z-5.648 F50
Z-6.424
X196.685 Y60.167 Z-6.507
X196.687 Y60.189 Z-6.587
X196.69 Y60.224 Z-6.662
X196.694 Y60.271 Z-6.73
X196.699 Y60.329 Z-6.789
X196.705 Y60.397 Z-6.836
X196.712 Y60.472 Z-6.871
X196.719 Y60.552 Z-6.893
X196.727 Y60.634 Z-6.9
X196.769 Y61.108
G3 X196.337 Y61.625 I-0.474 J0.042
G1 X196.244 Y61.635 F150
G3 X195.83 Y58.421 I-0.207 J-1.607
G1 X195.935 Y58.405
X196.039 Y58.385
X198.842
X198.958 Y58.382
G3 X200.657 Y60 I0.079 J1.618
X198.958 Y61.618 I-1.62 J0
G1 X198.842 Y61.615
X196.547
X196.442 Y61.618
X196.337 Y61.625
G3 X195.82 Y61.193 I-0.042 J-0.474
G1 X195.778 Y60.718
X195.771 Y60.636 Z-6.893
X195.764 Y60.556 Z-6.871
X195.757 Y60.481 Z-6.836
X195.751 Y60.414 Z-6.789
X195.746 Y60.355 Z-6.73
X195.742 Y60.308 Z-6.662
X195.739 Y60.273 Z-6.587
X195.737 Y60.252 Z-6.507
X195.736 Y60.244 Z-6.424
Z5
X196.684 Y60.16
Z-5.948 F50
Z-6.724
X196.685 Y60.167 Z-6.807
X196.687 Y60.189 Z-6.887
X196.69 Y60.224 Z-6.962
X196.694 Y60.271 Z-7.03
X196.699 Y60.329 Z-7.089
X196.705 Y60.397 Z-7.136
X196.712 Y60.472 Z-7.171
X196.719 Y60.552 Z-7.193
X196.727 Y60.634 Z-7.2
X196.769 Y61.108
G3 X196.337 Y61.625 I-0.474 J0.042
G1 X196.244 Y61.635 F150
G3 X195.83 Y58.421 I-0.207 J-1.607
G1 X195.935 Y58.405
X196.039 Y58.385
X198.842
X198.958 Y58.382
G3 X200.657 Y60 I0.079 J1.618
X198.958 Y61.618 I-1.62 J0
G1 X198.842 Y61.615
X196.547
X196.442 Y61.618
X196.337 Y61.625
G3 X195.82 Y61.193 I-0.042 J-0.474
G1 X195.778 Y60.718
X195.771 Y60.636 Z-7.193
X195.764 Y60.556 Z-7.171
X195.757 Y60.481 Z-7.136
X195.751 Y60.414 Z-7.089
X195.746 Y60.355 Z-7.03
X195.742 Y60.308 Z-6.962
X195.739 Y60.273 Z-6.887
X195.737 Y60.252 Z-6.807
X195.736 Y60.244 Z-6.724
Z5
X196.684 Y60.16
Z-6.248 F50
Z-7.024
X196.685 Y60.167 Z-7.107
X196.687 Y60.189 Z-7.187
X196.69 Y60.224 Z-7.262
X196.694 Y60.271 Z-7.33
X196.699 Y60.329 Z-7.389
X196.705 Y60.397 Z-7.436
X196.712 Y60.472 Z-7.471
X196.719 Y60.552 Z-7.493
X196.727 Y60.634 Z-7.5
X196.769 Y61.108
G3 X196.337 Y61.625 I-0.474 J0.042
G1 X196.244 Y61.635 F150
G3 X195.83 Y58.421 I-0.207 J-1.607
G1 X195.935 Y58.405
X196.039 Y58.385
X198.842
X198.958 Y58.382
G3 X200.657 Y60 I0.079 J1.618
X198.958 Y61.618 I-1.62 J0
G1 X198.842 Y61.615
X196.547
X196.442 Y61.618
X196.337 Y61.625
G3 X195.82 Y61.193 I-0.042 J-0.474
G1 X195.778 Y60.718
X195.771 Y60.636 Z-7.493
X195.764 Y60.556 Z-7.471
X195.757 Y60.481 Z-7.436
X195.751 Y60.414 Z-7.389
X195.746 Y60.355 Z-7.33
X195.742 Y60.308 Z-7.262
X195.739 Y60.273 Z-7.187
X195.737 Y60.252 Z-7.107
X195.736 Y60.244 Z-7.024
Z5
X196.684 Y60.16
Z-6.548 F50
Z-7.324
X196.685 Y60.167 Z-7.407
X196.687 Y60.189 Z-7.487
X196.69 Y60.224 Z-7.562
X196.694 Y60.271 Z-7.63
X196.699 Y60.329 Z-7.689
X196.705 Y60.397 Z-7.736
X196.712 Y60.472 Z-7.771
X196.719 Y60.552 Z-7.793
X196.727 Y60.634 Z-7.8
X196.769 Y61.108
G3 X196.337 Y61.625 I-0.474 J0.042
G1 X196.244 Y61.635 F150
G3 X195.83 Y58.421 I-0.207 J-1.607
G1 X195.935 Y58.405
X196.039 Y58.385
X198.842
X198.958 Y58.382
G3 X200.657 Y60 I0.079 J1.618
X198.958 Y61.618 I-1.62 J0
G1 X198.842 Y61.615
X196.547
X196.442 Y61.618
X196.337 Y61.625
G3 X195.82 Y61.193 I-0.042 J-0.474
G1 X195.778 Y60.718
X195.771 Y60.636 Z-7.793
X195.764 Y60.556 Z-7.771
X195.757 Y60.481 Z-7.736
X195.751 Y60.414 Z-7.689
X195.746 Y60.355 Z-7.63
X195.742 Y60.308 Z-7.562
X195.739 Y60.273 Z-7.487
X195.737 Y60.252 Z-7.407
X195.736 Y60.244 Z-7.324
Z5
X196.684 Y60.16
Z-6.848 F50
Z-7.524
X196.685 Y60.167 Z-7.607
X196.687 Y60.189 Z-7.687
X196.69 Y60.224 Z-7.762
X196.694 Y60.271 Z-7.83
X196.699 Y60.329 Z-7.889
X196.705 Y60.397 Z-7.936
X196.712 Y60.472 Z-7.971
X196.719 Y60.552 Z-7.993
X196.727 Y60.634 Z-8
X196.769 Y61.108
G3 X196.337 Y61.625 I-0.474 J0.042
G1 X196.244 Y61.635 F150
G3 X195.83 Y58.421 I-0.207 J-1.607
G1 X195.935 Y58.405
X196.039 Y58.385
X198.842
X198.958 Y58.382
G3 X200.657 Y60 I0.079 J1.618
X198.958 Y61.618 I-1.62 J0
G1 X198.842 Y61.615
X196.547
X196.442 Y61.618
X196.337 Y61.625
G3 X195.82 Y61.193 I-0.042 J-0.474
G1 X195.778 Y60.718
X195.771 Y60.636 Z-7.993
X195.764 Y60.556 Z-7.971
X195.757 Y60.481 Z-7.936
X195.751 Y60.414 Z-7.889
X195.746 Y60.355 Z-7.83
X195.742 Y60.308 Z-7.762
X195.739 Y60.273 Z-7.687
X195.737 Y60.252 Z-7.607
X195.736 Y60.244 Z-7.524
Z5
X196.536 Y20.119
Z0.952 F50
Z0.176
X196.537 Y20.126 Z0.093
X196.541 Y20.147 Z0.013
X196.546 Y20.182 Z-0.062
X196.553 Y20.229 Z-0.13
X196.562 Y20.287 Z-0.189
X196.572 Y20.354 Z-0.236
X196.583 Y20.428 Z-0.271
X196.595 Y20.508 Z-0.293
X196.608 Y20.589 Z-0.3
X196.679 Y21.06
G3 X196.279 Y21.602 I-0.471 J0.071
X195.795 Y18.398 I-0.242 J-1.602 F150
G1 X195.9 Y18.38
X199.037
G3 X200.652 Y20.121 I0 J1.62
X198.795 Y21.602 I-1.615 J-0.121
G2 X198.439 Y21.575 I-0.356 J2.353
G1 X196.635
G2 X196.279 Y21.602 I0 J2.38
G3 X195.737 Y21.202 I-0.071 J-0.471
G1 X195.666 Y20.732
X195.654 Y20.65 Z-0.293
X195.642 Y20.571 Z-0.271
X195.631 Y20.496 Z-0.236
X195.621 Y20.429 Z-0.189
X195.612 Y20.371 Z-0.13
X195.605 Y20.324 Z-0.062
X195.599 Y20.289 Z0.013
X195.596 Y20.268 Z0.093
X195.595 Y20.261 Z0.176
Z5
X196.536 Y20.119
Z0.652 F50
Z-0.124
X196.537 Y20.126 Z-0.207
X196.541 Y20.147 Z-0.287
X196.546 Y20.182 Z-0.362
X196.553 Y20.229 Z-0.43
X196.562 Y20.287 Z-0.489
X196.572 Y20.354 Z-0.536
X196.583 Y20.428 Z-0.571
X196.595 Y20.508 Z-0.593
X196.608 Y20.589 Z-0.6
X196.679 Y21.06
G3 X196.279 Y21.602 I-0.471 J0.071
X195.795 Y18.398 I-0.242 J-1.602 F150
G1 X195.9 Y18.38
X199.037
G3 X200.652 Y20.121 I0 J1.62
X198.795 Y21.602 I-1.615 J-0.121
G2 X198.439 Y21.575 I-0.356 J2.353
G1 X196.635
G2 X196.279 Y21.602 I0 J2.38
G3 X195.737 Y21.202 I-0.071 J-0.471
G1 X195.666 Y20.732
X195.654 Y20.65 Z-0.593
X195.642 Y20.571 Z-0.571
X195.631 Y20.496 Z-0.536
X195.621 Y20.429 Z-0.489
X195.612 Y20.371 Z-0.43
X195.605 Y20.324 Z-0.362
X195.599 Y20.289 Z-0.287
X195.596 Y20.268 Z-0.207
X195.595 Y20.261 Z-0.124
Z5
X196.536 Y20.119
Z0.352 F50
Z-0.424
X196.537 Y20.126 Z-0.507
X196.541 Y20.147 Z-0.587
X196.546 Y20.182 Z-0.662
X196.553 Y20.229 Z-0.73
X196.562 Y20.287 Z-0.789
X196.572 Y20.354 Z-0.836
X196.583 Y20.428 Z-0.871
X196.595 Y20.508 Z-0.893
X196.608 Y20.589 Z-0.9
X196.679 Y21.06
G3 X196.279 Y21.602 I-0.471 J0.071
X195.795 Y18.398 I-0.242 J-1.602 F150
G1 X195.9 Y18.38
X199.037
G3 X200.652 Y20.121 I0 J1.62
X198.795 Y21.602 I-1.615 J-0.121
G2 X198.439 Y21.575 I-0.356 J2.353
G1 X196.635
G2 X196.279 Y21.602 I0 J2.38
G3 X195.737 Y21.202 I-0.071 J-0.471
G1 X195.666 Y20.732
X195.654 Y20.65 Z-0.893
X195.642 Y20.571 Z-0.871
X195.631 Y20.496 Z-0.836
X195.621 Y20.429 Z-0.789
X195.612 Y20.371 Z-0.73
X195.605 Y20.324 Z-0.662
X195.599 Y20.289 Z-0.587
X195.596 Y20.268 Z-0.507
X195.595 Y20.261 Z-0.424
Z5
X196.536 Y20.119
Z0.052 F50
Z-0.724
X196.537 Y20.126 Z-0.807
X196.541 Y20.147 Z-0.887
X196.546 Y20.182 Z-0.962
X196.553 Y20.229 Z-1.03
X196.562 Y20.287 Z-1.089
X196.572 Y20.354 Z-1.136
X196.583 Y20.428 Z-1.171
X196.595 Y20.508 Z-1.193
X196.608 Y20.589 Z-1.2
X196.679 Y21.06
G3 X196.279 Y21.602 I-0.471 J0.071
X195.795 Y18.398 I-0.242 J-1.602 F150
G1 X195.9 Y18.38
X199.037
G3 X200.652 Y20.121 I0 J1.62
X198.795 Y21.602 I-1.615 J-0.121
G2 X198.439 Y21.575 I-0.356 J2.353
G1 X196.635
G2 X196.279 Y21.602 I0 J2.38
G3 X195.737 Y21.202 I-0.071 J-0.471
G1 X195.666 Y20.732
X195.654 Y20.65 Z-1.193
X195.642 Y20.571 Z-1.171
X195.631 Y20.496 Z-1.136
X195.621 Y20.429 Z-1.089
X195.612 Y20.371 Z-1.03
X195.605 Y20.324 Z-0.962
X195.599 Y20.289 Z-0.887
X195.596 Y20.268 Z-0.807
X195.595 Y20.261 Z-0.724
Z5
X196.536 Y20.119
Z-0.248 F50
Z-1.024
X196.537 Y20.126 Z-1.107
X196.541 Y20.147 Z-1.187
X196.546 Y20.182 Z-1.262
X196.553 Y20.229 Z-1.33
X196.562 Y20.287 Z-1.389
X196.572 Y20.354 Z-1.436
X196.583 Y20.428 Z-1.471
X196.595 Y20.508 Z-1.493
X196.608 Y20.589 Z-1.5
X196.679 Y21.06
G3 X196.279 Y21.602 I-0.471 J0.071
X195.795 Y18.398 I-0.242 J-1.602 F150
G1 X195.9 Y18.38
X199.037
G3 X200.652 Y20.121 I0 J1.62
X198.795 Y21.602 I-1.615 J-0.121
G2 X198.439 Y21.575 I-0.356 J2.353
G1 X196.635
G2 X196.279 Y21.602 I0 J2.38
G3 X195.737 Y21.202 I-0.071 J-0.471
G1 X195.666 Y20.732
X195.654 Y20.65 Z-1.493
X195.642 Y20.571 Z-1.471
X195.631 Y20.496 Z-1.436
X195.621 Y20.429 Z-1.389
X195.612 Y20.371 Z-1.33
X195.605 Y20.324 Z-1.262
X195.599 Y20.289 Z-1.187
X195.596 Y20.268 Z-1.107
X195.595 Y20.261 Z-1.024
Z5
X196.536 Y20.119
Z-0.548 F50
Z-1.324
X196.537 Y20.126 Z-1.407
X196.541 Y20.147 Z-1.487
X196.546 Y20.182 Z-1.562
X196.553 Y20.229 Z-1.63
X196.562 Y20.287 Z-1.689
X196.572 Y20.354 Z-1.736
X196.583 Y20.428 Z-1.771
X196.595 Y20.508 Z-1.793
X196.608 Y20.589 Z-1.8
X196.679 Y21.06
G3 X196.279 Y21.602 I-0.471 J0.071
X195.795 Y18.398 I-0.242 J-1.602 F150
G1 X195.9 Y18.38
X199.037
G3 X200.652 Y20.121 I0 J1.62
X198.795 Y21.602 I-1.615 J-0.121
G2 X198.439 Y21.575 I-0.356 J2.353
G1 X196.635
G2 X196.279 Y21.602 I0 J2.38
G3 X195.737 Y21.202 I-0.071 J-0.471
G1 X195.666 Y20.732
X195.654 Y20.65 Z-1.793
X195.642 Y20.571 Z-1.771
X195.631 Y20.496 Z-1.736
X195.621 Y20.429 Z-1.689
X195.612 Y20.371 Z-1.63
X195.605 Y20.324 Z-1.562
X195.599 Y20.289 Z-1.487
X195.596 Y20.268 Z-1.407
X195.595 Y20.261 Z-1.324
Z5
X196.536 Y20.119
Z-0.848 F50
Z-1.624
X196.537 Y20.126 Z-1.707
X196.541 Y20.147 Z-1.787
X196.546 Y20.182 Z-1.862
X196.553 Y20.229 Z-1.93
X196.562 Y20.287 Z-1.989
X196.572 Y20.354 Z-2.036
X196.583 Y20.428 Z-2.071
X196.595 Y20.508 Z-2.093
X196.608 Y20.589 Z-2.1
X196.679 Y21.06
G3 X196.279 Y21.602 I-0.471 J0.071
X195.795 Y18.398 I-0.242 J-1.602 F150
G1 X195.9 Y18.38
X199.037
G3 X200.652 Y20.121 I0 J1.62
X198.795 Y21.602 I-1.615 J-0.121
G2 X198.439 Y21.575 I-0.356 J2.353
G1 X196.635
G2 X196.279 Y21.602 I0 J2.38
G3 X195.737 Y21.202 I-0.071 J-0.471
G1 X195.666 Y20.732
X195.654 Y20.65 Z-2.093
X195.642 Y20.571 Z-2.071
X195.631 Y20.496 Z-2.036
X195.621 Y20.429 Z-1.989
X195.612 Y20.371 Z-1.93
X195.605 Y20.324 Z-1.862
X195.599 Y20.289 Z-1.787
X195.596 Y20.268 Z-1.707
X195.595 Y20.261 Z-1.624
Z5
X196.536 Y20.119
Z-1.148 F50
Z-1.924
X196.537 Y20.126 Z-2.007
X196.541 Y20.147 Z-2.087
X196.546 Y20.182 Z-2.162
X196.553 Y20.229 Z-2.23
X196.562 Y20.287 Z-2.289
X196.572 Y20.354 Z-2.336
X196.583 Y20.428 Z-2.371
X196.595 Y20.508 Z-2.393
X196.608 Y20.589 Z-2.4
X196.679 Y21.06
G3 X196.279 Y21.602 I-0.471 J0.071
X195.795 Y18.398 I-0.242 J-1.602 F150
G1 X195.9 Y18.38
X199.037
G3 X200.652 Y20.121 I0 J1.62
X198.795 Y21.602 I-1.615 J-0.121
G2 X198.439 Y21.575 I-0.356 J2.353
G1 X196.635
G2 X196.279 Y21.602 I0 J2.38
G3 X195.737 Y21.202 I-0.071 J-0.471
G1 X195.666 Y20.732
X195.654 Y20.65 Z-2.393
X195.642 Y20.571 Z-2.371
X195.631 Y20.496 Z-2.336
X195.621 Y20.429 Z-2.289
X195.612 Y20.371 Z-2.23
X195.605 Y20.324 Z-2.162
X195.599 Y20.289 Z-2.087
X195.596 Y20.268 Z-2.007
X195.595 Y20.261 Z-1.924
Z5
X196.536 Y20.119
Z-1.448 F50
Z-2.224
X196.537 Y20.126 Z-2.307
X196.541 Y20.147 Z-2.387
X196.546 Y20.182 Z-2.462
X196.553 Y20.229 Z-2.53
X196.562 Y20.287 Z-2.589
X196.572 Y20.354 Z-2.636
X196.583 Y20.428 Z-2.671
X196.595 Y20.508 Z-2.693
X196.608 Y20.589 Z-2.7
X196.679 Y21.06
G3 X196.279 Y21.602 I-0.471 J0.071
X195.795 Y18.398 I-0.242 J-1.602 F150
G1 X195.9 Y18.38
X199.037
G3 X200.652 Y20.121 I0 J1.62
X198.795 Y21.602 I-1.615 J-0.121
G2 X198.439 Y21.575 I-0.356 J2.353
G1 X196.635
G2 X196.279 Y21.602 I0 J2.38
G3 X195.737 Y21.202 I-0.071 J-0.471
G1 X195.666 Y20.732
X195.654 Y20.65 Z-2.693
X195.642 Y20.571 Z-2.671
X195.631 Y20.496 Z-2.636
X195.621 Y20.429 Z-2.589
X195.612 Y20.371 Z-2.53
X195.605 Y20.324 Z-2.462
X195.599 Y20.289 Z-2.387
X195.596 Y20.268 Z-2.307
X195.595 Y20.261 Z-2.224
Z5
X196.536 Y20.119
Z-1.748 F50
Z-2.524
X196.537 Y20.126 Z-2.607
X196.541 Y20.147 Z-2.687
X196.546 Y20.182 Z-2.762
X196.553 Y20.229 Z-2.83
X196.562 Y20.287 Z-2.889
X196.572 Y20.354 Z-2.936
X196.583 Y20.428 Z-2.971
X196.595 Y20.508 Z-2.993
X196.608 Y20.589 Z-3
X196.679 Y21.06
G3 X196.279 Y21.602 I-0.471 J0.071
X195.795 Y18.398 I-0.242 J-1.602 F150
G1 X195.9 Y18.38
X199.037
G3 X200.652 Y20.121 I0 J1.62
X198.795 Y21.602 I-1.615 J-0.121
G2 X198.439 Y21.575 I-0.356 J2.353
G1 X196.635
G2 X196.279 Y21.602 I0 J2.38
G3 X195.737 Y21.202 I-0.071 J-0.471
G1 X195.666 Y20.732
X195.654 Y20.65 Z-2.993
X195.642 Y20.571 Z-2.971
X195.631 Y20.496 Z-2.936
X195.621 Y20.429 Z-2.889
X195.612 Y20.371 Z-2.83
X195.605 Y20.324 Z-2.762
X195.599 Y20.289 Z-2.687
X195.596 Y20.268 Z-2.607
X195.595 Y20.261 Z-2.524
Z5
X196.536 Y20.119
Z-2.048 F50
Z-2.824
X196.537 Y20.126 Z-2.907
X196.541 Y20.147 Z-2.987
X196.546 Y20.182 Z-3.062
X196.553 Y20.229 Z-3.13
X196.562 Y20.287 Z-3.189
X196.572 Y20.354 Z-3.236
X196.583 Y20.428 Z-3.271
X196.595 Y20.508 Z-3.293
X196.608 Y20.589 Z-3.3
X196.679 Y21.06
G3 X196.279 Y21.602 I-0.471 J0.071
X195.795 Y18.398 I-0.242 J-1.602 F150
G1 X195.9 Y18.38
X199.037
G3 X200.652 Y20.121 I0 J1.62
X198.795 Y21.602 I-1.615 J-0.121
G2 X198.439 Y21.575 I-0.356 J2.353
G1 X196.635
G2 X196.279 Y21.602 I0 J2.38
G3 X195.737 Y21.202 I-0.071 J-0.471
G1 X195.666 Y20.732
X195.654 Y20.65 Z-3.293
X195.642 Y20.571 Z-3.271
X195.631 Y20.496 Z-3.236
X195.621 Y20.429 Z-3.189
X195.612 Y20.371 Z-3.13
X195.605 Y20.324 Z-3.062
X195.599 Y20.289 Z-2.987
X195.596 Y20.268 Z-2.907
X195.595 Y20.261 Z-2.824
Z5
X196.536 Y20.119
Z-2.348 F50
Z-3.124
X196.537 Y20.126 Z-3.207
X196.541 Y20.147 Z-3.287
X196.546 Y20.182 Z-3.362
X196.553 Y20.229 Z-3.43
X196.562 Y20.287 Z-3.489
X196.572 Y20.354 Z-3.536
X196.583 Y20.428 Z-3.571
X196.595 Y20.508 Z-3.593
X196.608 Y20.589 Z-3.6
X196.679 Y21.06
G3 X196.279 Y21.602 I-0.471 J0.071
X195.795 Y18.398 I-0.242 J-1.602 F150
G1 X195.9 Y18.38
X199.037
G3 X200.652 Y20.121 I0 J1.62
X198.795 Y21.602 I-1.615 J-0.121
G2 X198.439 Y21.575 I-0.356 J2.353
G1 X196.635
G2 X196.279 Y21.602 I0 J2.38
G3 X195.737 Y21.202 I-0.071 J-0.471
G1 X195.666 Y20.732
X195.654 Y20.65 Z-3.593
X195.642 Y20.571 Z-3.571
X195.631 Y20.496 Z-3.536
X195.621 Y20.429 Z-3.489
X195.612 Y20.371 Z-3.43
X195.605 Y20.324 Z-3.362
X195.599 Y20.289 Z-3.287
X195.596 Y20.268 Z-3.207
X195.595 Y20.261 Z-3.124
Z5
X196.536 Y20.119
Z-2.648 F50
Z-3.424
X196.537 Y20.126 Z-3.507
X196.541 Y20.147 Z-3.587
X196.546 Y20.182 Z-3.662
X196.553 Y20.229 Z-3.73
X196.562 Y20.287 Z-3.789
X196.572 Y20.354 Z-3.836
X196.583 Y20.428 Z-3.871
X196.595 Y20.508 Z-3.893
X196.608 Y20.589 Z-3.9
X196.679 Y21.06
G3 X196.279 Y21.602 I-0.471 J0.071
X195.795 Y18.398 I-0.242 J-1.602 F150
G1 X195.9 Y18.38
X199.037
G3 X200.652 Y20.121 I0 J1.62
X198.795 Y21.602 I-1.615 J-0.121
G2 X198.439 Y21.575 I-0.356 J2.353
G1 X196.635
G2 X196.279 Y21.602 I0 J2.38
G3 X195.737 Y21.202 I-0.071 J-0.471
G1 X195.666 Y20.732
X195.654 Y20.65 Z-3.893
X195.642 Y20.571 Z-3.871
X195.631 Y20.496 Z-3.836
X195.621 Y20.429 Z-3.789
X195.612 Y20.371 Z-3.73
X195.605 Y20.324 Z-3.662
X195.599 Y20.289 Z-3.587
X195.596 Y20.268 Z-3.507
X195.595 Y20.261 Z-3.424
Z5
X196.536 Y20.119
Z-2.948 F50
Z-3.724
X196.537 Y20.126 Z-3.807
X196.541 Y20.147 Z-3.887
X196.546 Y20.182 Z-3.962
X196.553 Y20.229 Z-4.03
X196.562 Y20.287 Z-4.089
X196.572 Y20.354 Z-4.136
X196.583 Y20.428 Z-4.171
X196.595 Y20.508 Z-4.193
X196.608 Y20.589 Z-4.2
X196.679 Y21.06
G3 X196.279 Y21.602 I-0.471 J0.071
X195.795 Y18.398 I-0.242 J-1.602 F150
G1 X195.9 Y18.38
X199.037
G3 X200.652 Y20.121 I0 J1.62
X198.795 Y21.602 I-1.615 J-0.121
G2 X198.439 Y21.575 I-0.356 J2.353
G1 X196.635
G2 X196.279 Y21.602 I0 J2.38
G3 X195.737 Y21.202 I-0.071 J-0.471
G1 X195.666 Y20.732
X195.654 Y20.65 Z-4.193
X195.642 Y20.571 Z-4.171
X195.631 Y20.496 Z-4.136
X195.621 Y20.429 Z-4.089
X195.612 Y20.371 Z-4.03
X195.605 Y20.324 Z-3.962
X195.599 Y20.289 Z-3.887
X195.596 Y20.268 Z-3.807
X195.595 Y20.261 Z-3.724
Z5
X196.536 Y20.119
Z-3.248 F50
Z-4.024
X196.537 Y20.126 Z-4.107
X196.541 Y20.147 Z-4.187
X196.546 Y20.182 Z-4.262
X196.553 Y20.229 Z-4.33
X196.562 Y20.287 Z-4.389
X196.572 Y20.354 Z-4.436
X196.583 Y20.428 Z-4.471
X196.595 Y20.508 Z-4.493
X196.608 Y20.589 Z-4.5
X196.679 Y21.06
G3 X196.279 Y21.602 I-0.471 J0.071
X195.795 Y18.398 I-0.242 J-1.602 F150
G1 X195.9 Y18.38
X199.037
G3 X200.652 Y20.121 I0 J1.62
X198.795 Y21.602 I-1.615 J-0.121
G2 X198.439 Y21.575 I-0.356 J2.353
G1 X196.635
G2 X196.279 Y21.602 I0 J2.38
G3 X195.737 Y21.202 I-0.071 J-0.471
G1 X195.666 Y20.732
X195.654 Y20.65 Z-4.493
X195.642 Y20.571 Z-4.471
X195.631 Y20.496 Z-4.436
X195.621 Y20.429 Z-4.389
X195.612 Y20.371 Z-4.33
X195.605 Y20.324 Z-4.262
X195.599 Y20.289 Z-4.187
X195.596 Y20.268 Z-4.107
X195.595 Y20.261 Z-4.024
Z5
X196.536 Y20.119
Z-3.548 F50
Z-4.324
X196.537 Y20.126 Z-4.407
X196.541 Y20.147 Z-4.487
X196.546 Y20.182 Z-4.562
X196.553 Y20.229 Z-4.63
X196.562 Y20.287 Z-4.689
X196.572 Y20.354 Z-4.736
X196.583 Y20.428 Z-4.771
X196.595 Y20.508 Z-4.793
X196.608 Y20.589 Z-4.8
X196.679 Y21.06
G3 X196.279 Y21.602 I-0.471 J0.071
X195.795 Y18.398 I-0.242 J-1.602 F150
G1 X195.9 Y18.38
X199.037
G3 X200.652 Y20.121 I0 J1.62
X198.795 Y21.602 I-1.615 J-0.121
G2 X198.439 Y21.575 I-0.356 J2.353
G1 X196.635
G2 X196.279 Y21.602 I0 J2.38
G3 X195.737 Y21.202 I-0.071 J-0.471
G1 X195.666 Y20.732
X195.654 Y20.65 Z-4.793
X195.642 Y20.571 Z-4.771
X195.631 Y20.496 Z-4.736
X195.621 Y20.429 Z-4.689
X195.612 Y20.371 Z-4.63
X195.605 Y20.324 Z-4.562
X195.599 Y20.289 Z-4.487
X195.596 Y20.268 Z-4.407
X195.595 Y20.261 Z-4.324
Z5
X196.536 Y20.119
Z-3.848 F50
Z-4.624
X196.537 Y20.126 Z-4.707
X196.541 Y20.147 Z-4.787
X196.546 Y20.182 Z-4.862
X196.553 Y20.229 Z-4.93
X196.562 Y20.287 Z-4.989
X196.572 Y20.354 Z-5.036
X196.583 Y20.428 Z-5.071
X196.595 Y20.508 Z-5.093
X196.608 Y20.589 Z-5.1
X196.679 Y21.06
G3 X196.279 Y21.602 I-0.471 J0.071
X195.795 Y18.398 I-0.242 J-1.602 F150
G1 X195.9 Y18.38
X199.037
G3 X200.652 Y20.121 I0 J1.62
X198.795 Y21.602 I-1.615 J-0.121
G2 X198.439 Y21.575 I-0.356 J2.353
G1 X196.635
G2 X196.279 Y21.602 I0 J2.38
G3 X195.737 Y21.202 I-0.071 J-0.471
G1 X195.666 Y20.732
X195.654 Y20.65 Z-5.093
X195.642 Y20.571 Z-5.071
X195.631 Y20.496 Z-5.036
X195.621 Y20.429 Z-4.989
X195.612 Y20.371 Z-4.93
X195.605 Y20.324 Z-4.862
X195.599 Y20.289 Z-4.787
X195.596 Y20.268 Z-4.707
X195.595 Y20.261 Z-4.624
Z5
X196.536 Y20.119
Z-4.148 F50
Z-4.924
X196.537 Y20.126 Z-5.007
X196.541 Y20.147 Z-5.087
X196.546 Y20.182 Z-5.162
X196.553 Y20.229 Z-5.23
X196.562 Y20.287 Z-5.289
X196.572 Y20.354 Z-5.336
X196.583 Y20.428 Z-5.371
X196.595 Y20.508 Z-5.393
X196.608 Y20.589 Z-5.4
X196.679 Y21.06
G3 X196.279 Y21.602 I-0.471 J0.071
X195.795 Y18.398 I-0.242 J-1.602 F150
G1 X195.9 Y18.38
X199.037
G3 X200.652 Y20.121 I0 J1.62
X198.795 Y21.602 I-1.615 J-0.121
G2 X198.439 Y21.575 I-0.356 J2.353
G1 X196.635
G2 X196.279 Y21.602 I0 J2.38
G3 X195.737 Y21.202 I-0.071 J-0.471
G1 X195.666 Y20.732
X195.654 Y20.65 Z-5.393
X195.642 Y20.571 Z-5.371
X195.631 Y20.496 Z-5.336
X195.621 Y20.429 Z-5.289
X195.612 Y20.371 Z-5.23
X195.605 Y20.324 Z-5.162
X195.599 Y20.289 Z-5.087
X195.596 Y20.268 Z-5.007
X195.595 Y20.261 Z-4.924
Z5
X196.536 Y20.119
Z-4.448 F50
Z-5.224
X196.537 Y20.126 Z-5.307
X196.541 Y20.147 Z-5.387
X196.546 Y20.182 Z-5.462
X196.553 Y20.229 Z-5.53
X196.562 Y20.287 Z-5.589
X196.572 Y20.354 Z-5.636
X196.583 Y20.428 Z-5.671
X196.595 Y20.508 Z-5.693
X196.608 Y20.589 Z-5.7
X196.679 Y21.06
G3 X196.279 Y21.602 I-0.471 J0.071
X195.795 Y18.398 I-0.242 J-1.602 F150
G1 X195.9 Y18.38
X199.037
G3 X200.652 Y20.121 I0 J1.62
X198.795 Y21.602 I-1.615 J-0.121
G2 X198.439 Y21.575 I-0.356 J2.353
G1 X196.635
G2 X196.279 Y21.602 I0 J2.38
G3 X195.737 Y21.202 I-0.071 J-0.471
G1 X195.666 Y20.732
X195.654 Y20.65 Z-5.693
X195.642 Y20.571 Z-5.671
X195.631 Y20.496 Z-5.636
X195.621 Y20.429 Z-5.589
X195.612 Y20.371 Z-5.53
X195.605 Y20.324 Z-5.462
X195.599 Y20.289 Z-5.387
X195.596 Y20.268 Z-5.307
X195.595 Y20.261 Z-5.224
Z5
X196.536 Y20.119
Z-4.748 F50
Z-5.524
X196.537 Y20.126 Z-5.607
X196.541 Y20.147 Z-5.687
X196.546 Y20.182 Z-5.762
X196.553 Y20.229 Z-5.83
X196.562 Y20.287 Z-5.889
X196.572 Y20.354 Z-5.936
X196.583 Y20.428 Z-5.971
X196.595 Y20.508 Z-5.993
X196.608 Y20.589 Z-6
X196.679 Y21.06
G3 X196.279 Y21.602 I-0.471 J0.071
X195.795 Y18.398 I-0.242 J-1.602 F150
G1 X195.9 Y18.38
X199.037
G3 X200.652 Y20.121 I0 J1.62
X198.795 Y21.602 I-1.615 J-0.121
G2 X198.439 Y21.575 I-0.356 J2.353
G1 X196.635
G2 X196.279 Y21.602 I0 J2.38
G3 X195.737 Y21.202 I-0.071 J-0.471
G1 X195.666 Y20.732
X195.654 Y20.65 Z-5.993
X195.642 Y20.571 Z-5.971
X195.631 Y20.496 Z-5.936
X195.621 Y20.429 Z-5.889
X195.612 Y20.371 Z-5.83
X195.605 Y20.324 Z-5.762
X195.599 Y20.289 Z-5.687
X195.596 Y20.268 Z-5.607
X195.595 Y20.261 Z-5.524
Z5
X196.536 Y20.119
Z-5.048 F50
Z-5.824
X196.537 Y20.126 Z-5.907
X196.541 Y20.147 Z-5.987
X196.546 Y20.182 Z-6.062
X196.553 Y20.229 Z-6.13
X196.562 Y20.287 Z-6.189
X196.572 Y20.354 Z-6.236
X196.583 Y20.428 Z-6.271
X196.595 Y20.508 Z-6.293
X196.608 Y20.589 Z-6.3
X196.679 Y21.06
G3 X196.279 Y21.602 I-0.471 J0.071
X195.795 Y18.398 I-0.242 J-1.602 F150
G1 X195.9 Y18.38
X199.037
G3 X200.652 Y20.121 I0 J1.62
X198.795 Y21.602 I-1.615 J-0.121
G2 X198.439 Y21.575 I-0.356 J2.353
G1 X196.635
G2 X196.279 Y21.602 I0 J2.38
G3 X195.737 Y21.202 I-0.071 J-0.471
G1 X195.666 Y20.732
X195.654 Y20.65 Z-6.293
X195.642 Y20.571 Z-6.271
X195.631 Y20.496 Z-6.236
X195.621 Y20.429 Z-6.189
X195.612 Y20.371 Z-6.13
X195.605 Y20.324 Z-6.062
X195.599 Y20.289 Z-5.987
X195.596 Y20.268 Z-5.907
X195.595 Y20.261 Z-5.824
Z5
X196.536 Y20.119
Z-5.348 F50
Z-6.124
X196.537 Y20.126 Z-6.207
X196.541 Y20.147 Z-6.287
X196.546 Y20.182 Z-6.362
X196.553 Y20.229 Z-6.43
X196.562 Y20.287 Z-6.489
X196.572 Y20.354 Z-6.536
X196.583 Y20.428 Z-6.571
X196.595 Y20.508 Z-6.593
X196.608 Y20.589 Z-6.6
X196.679 Y21.06
G3 X196.279 Y21.602 I-0.471 J0.071
X195.795 Y18.398 I-0.242 J-1.602 F150
G1 X195.9 Y18.38
X199.037
G3 X200.652 Y20.121 I0 J1.62
X198.795 Y21.602 I-1.615 J-0.121
G2 X198.439 Y21.575 I-0.356 J2.353
G1 X196.635
G2 X196.279 Y21.602 I0 J2.38
G3 X195.737 Y21.202 I-0.071 J-0.471
G1 X195.666 Y20.732
X195.654 Y20.65 Z-6.593
X195.642 Y20.571 Z-6.571
X195.631 Y20.496 Z-6.536
X195.621 Y20.429 Z-6.489
X195.612 Y20.371 Z-6.43
X195.605 Y20.324 Z-6.362
X195.599 Y20.289 Z-6.287
X195.596 Y20.268 Z-6.207
X195.595 Y20.261 Z-6.124
Z5
X196.536 Y20.119
Z-5.648 F50
Z-6.424
X196.537 Y20.126 Z-6.507
X196.541 Y20.147 Z-6.587
X196.546 Y20.182 Z-6.662
X196.553 Y20.229 Z-6.73
X196.562 Y20.287 Z-6.789
X196.572 Y20.354 Z-6.836
X196.583 Y20.428 Z-6.871
X196.595 Y20.508 Z-6.893
X196.608 Y20.589 Z-6.9
X196.679 Y21.06
G3 X196.279 Y21.602 I-0.471 J0.071
X195.795 Y18.398 I-0.242 J-1.602 F150
G1 X195.9 Y18.38
X199.037
G3 X200.652 Y20.121 I0 J1.62
X198.795 Y21.602 I-1.615 J-0.121
G2 X198.439 Y21.575 I-0.356 J2.353
G1 X196.635
G2 X196.279 Y21.602 I0 J2.38
G3 X195.737 Y21.202 I-0.071 J-0.471
G1 X195.666 Y20.732
X195.654 Y20.65 Z-6.893
X195.642 Y20.571 Z-6.871
X195.631 Y20.496 Z-6.836
X195.621 Y20.429 Z-6.789
X195.612 Y20.371 Z-6.73
X195.605 Y20.324 Z-6.662
X195.599 Y20.289 Z-6.587
X195.596 Y20.268 Z-6.507
X195.595 Y20.261 Z-6.424
Z5
X196.536 Y20.119
Z-5.948 F50
Z-6.724
X196.537 Y20.126 Z-6.807
X196.541 Y20.147 Z-6.887
X196.546 Y20.182 Z-6.962
X196.553 Y20.229 Z-7.03
X196.562 Y20.287 Z-7.089
X196.572 Y20.354 Z-7.136
X196.583 Y20.428 Z-7.171
X196.595 Y20.508 Z-7.193
X196.608 Y20.589 Z-7.2
X196.679 Y21.06
G3 X196.279 Y21.602 I-0.471 J0.071
X195.795 Y18.398 I-0.242 J-1.602 F150
G1 X195.9 Y18.38
X199.037
G3 X200.652 Y20.121 I0 J1.62
X198.795 Y21.602 I-1.615 J-0.121
G2 X198.439 Y21.575 I-0.356 J2.353
G1 X196.635
G2 X196.279 Y21.602 I0 J2.38
G3 X195.737 Y21.202 I-0.071 J-0.471
G1 X195.666 Y20.732
X195.654 Y20.65 Z-7.193
X195.642 Y20.571 Z-7.171
X195.631 Y20.496 Z-7.136
X195.621 Y20.429 Z-7.089
X195.612 Y20.371 Z-7.03
X195.605 Y20.324 Z-6.962
X195.599 Y20.289 Z-6.887
X195.596 Y20.268 Z-6.807
X195.595 Y20.261 Z-6.724
Z5
X196.536 Y20.119
Z-6.248 F50
Z-7.024
X196.537 Y20.126 Z-7.107
X196.541 Y20.147 Z-7.187
X196.546 Y20.182 Z-7.262
X196.553 Y20.229 Z-7.33
X196.562 Y20.287 Z-7.389
X196.572 Y20.354 Z-7.436
X196.583 Y20.428 Z-7.471
X196.595 Y20.508 Z-7.493
X196.608 Y20.589 Z-7.5
X196.679 Y21.06
G3 X196.279 Y21.602 I-0.471 J0.071
X195.795 Y18.398 I-0.242 J-1.602 F150
G1 X195.9 Y18.38
X199.037
G3 X200.652 Y20.121 I0 J1.62
X198.795 Y21.602 I-1.615 J-0.121
G2 X198.439 Y21.575 I-0.356 J2.353
G1 X196.635
G2 X196.279 Y21.602 I0 J2.38
G3 X195.737 Y21.202 I-0.071 J-0.471
G1 X195.666 Y20.732
X195.654 Y20.65 Z-7.493
X195.642 Y20.571 Z-7.471
X195.631 Y20.496 Z-7.436
X195.621 Y20.429 Z-7.389
X195.612 Y20.371 Z-7.33
X195.605 Y20.324 Z-7.262
X195.599 Y20.289 Z-7.187
X195.596 Y20.268 Z-7.107
X195.595 Y20.261 Z-7.024
Z5
X196.536 Y20.119
Z-6.548 F50
Z-7.324
X196.537 Y20.126 Z-7.407
X196.541 Y20.147 Z-7.487
X196.546 Y20.182 Z-7.562
X196.553 Y20.229 Z-7.63
X196.562 Y20.287 Z-7.689
X196.572 Y20.354 Z-7.736
X196.583 Y20.428 Z-7.771
X196.595 Y20.508 Z-7.793
X196.608 Y20.589 Z-7.8
X196.679 Y21.06
G3 X196.279 Y21.602 I-0.471 J0.071
X195.795 Y18.398 I-0.242 J-1.602 F150
G1 X195.9 Y18.38
X199.037
G3 X200.652 Y20.121 I0 J1.62
X198.795 Y21.602 I-1.615 J-0.121
G2 X198.439 Y21.575 I-0.356 J2.353
G1 X196.635
G2 X196.279 Y21.602 I0 J2.38
G3 X195.737 Y21.202 I-0.071 J-0.471
G1 X195.666 Y20.732
X195.654 Y20.65 Z-7.793
X195.642 Y20.571 Z-7.771
X195.631 Y20.496 Z-7.736
X195.621 Y20.429 Z-7.689
X195.612 Y20.371 Z-7.63
X195.605 Y20.324 Z-7.562
X195.599 Y20.289 Z-7.487
X195.596 Y20.268 Z-7.407
X195.595 Y20.261 Z-7.324
Z5
X196.536 Y20.119
Z-6.848 F50
Z-7.524
X196.537 Y20.126 Z-7.607
X196.541 Y20.147 Z-7.687
X196.546 Y20.182 Z-7.762
X196.553 Y20.229 Z-7.83
X196.562 Y20.287 Z-7.889
X196.572 Y20.354 Z-7.936
X196.583 Y20.428 Z-7.971
X196.595 Y20.508 Z-7.993
X196.608 Y20.589 Z-8
X196.679 Y21.06
G3 X196.279 Y21.602 I-0.471 J0.071
X195.795 Y18.398 I-0.242 J-1.602 F150
G1 X195.9 Y18.38
X199.037
G3 X200.652 Y20.121 I0 J1.62
X198.795 Y21.602 I-1.615 J-0.121
G2 X198.439 Y21.575 I-0.356 J2.353
G1 X196.635
G2 X196.279 Y21.602 I0 J2.38
G3 X195.737 Y21.202 I-0.071 J-0.471
G1 X195.666 Y20.732
X195.654 Y20.65 Z-7.993
X195.642 Y20.571 Z-7.971
X195.631 Y20.496 Z-7.936
X195.621 Y20.429 Z-7.889
X195.612 Y20.371 Z-7.83
X195.605 Y20.324 Z-7.762
X195.599 Y20.289 Z-7.687
X195.596 Y20.268 Z-7.607
X195.595 Y20.261 Z-7.524
Z5
X169.346 Y19.59
Z0.952 F50
Z0.176
X169.353 Y19.592 Z0.093
X169.373 Y19.597 Z0.013
X169.407 Y19.606 Z-0.062
X169.453 Y19.619 Z-0.13
X169.51 Y19.634 Z-0.189
X169.576 Y19.652 Z-0.236
X169.648 Y19.671 Z-0.271
X169.726 Y19.692 Z-0.293
X169.805 Y19.713 Z-0.3
X170.265 Y19.836
G3 X170.602 Y20.419 I-0.123 J0.46
X167.472 Y19.581 I-1.565 J-0.419 F150
X170.602 Y20.419 I1.565 J0.419
X170.019 Y20.756 I-0.46 J-0.123
G1 X169.559 Y20.633
X169.479 Y20.611 Z-0.293
X169.402 Y20.591 Z-0.271
X169.329 Y20.571 Z-0.236
X169.263 Y20.553 Z-0.189
X169.207 Y20.538 Z-0.13
X169.161 Y20.526 Z-0.062
X169.127 Y20.517 Z0.013
X169.106 Y20.511 Z0.093
X169.099 Y20.509 Z0.176
Z5
X169.346 Y19.59
Z0.652 F50
Z-0.124
X169.353 Y19.592 Z-0.207
X169.373 Y19.597 Z-0.287
X169.407 Y19.606 Z-0.362
X169.453 Y19.619 Z-0.43
X169.51 Y19.634 Z-0.489
X169.576 Y19.652 Z-0.536
X169.648 Y19.671 Z-0.571
X169.726 Y19.692 Z-0.593
X169.805 Y19.713 Z-0.6
X170.265 Y19.836
G3 X170.602 Y20.419 I-0.123 J0.46
X167.472 Y19.581 I-1.565 J-0.419 F150
X170.602 Y20.419 I1.565 J0.419
X170.019 Y20.756 I-0.46 J-0.123
G1 X169.559 Y20.633
X169.479 Y20.611 Z-0.593
X169.402 Y20.591 Z-0.571
X169.329 Y20.571 Z-0.536
X169.263 Y20.553 Z-0.489
X169.207 Y20.538 Z-0.43
X169.161 Y20.526 Z-0.362
X169.127 Y20.517 Z-0.287
X169.106 Y20.511 Z-0.207
X169.099 Y20.509 Z-0.124
Z5
X169.346 Y19.59
Z0.352 F50
Z-0.424
X169.353 Y19.592 Z-0.507
X169.373 Y19.597 Z-0.587
X169.407 Y19.606 Z-0.662
X169.453 Y19.619 Z-0.73
X169.51 Y19.634 Z-0.789
X169.576 Y19.652 Z-0.836
X169.648 Y19.671 Z-0.871
X169.726 Y19.692 Z-0.893
X169.805 Y19.713 Z-0.9
X170.265 Y19.836
G3 X170.602 Y20.419 I-0.123 J0.46
X167.472 Y19.581 I-1.565 J-0.419 F150
X170.602 Y20.419 I1.565 J0.419
X170.019 Y20.756 I-0.46 J-0.123
G1 X169.559 Y20.633
X169.479 Y20.611 Z-0.893
X169.402 Y20.591 Z-0.871
X169.329 Y20.571 Z-0.836
X169.263 Y20.553 Z-0.789
X169.207 Y20.538 Z-0.73
X169.161 Y20.526 Z-0.662
X169.127 Y20.517 Z-0.587
X169.106 Y20.511 Z-0.507
X169.099 Y20.509 Z-0.424
Z5
X169.346 Y19.59
Z0.052 F50
Z-0.724
X169.353 Y19.592 Z-0.807
X169.373 Y19.597 Z-0.887
X169.407 Y19.606 Z-0.962
X169.453 Y19.619 Z-1.03
X169.51 Y19.634 Z-1.089
X169.576 Y19.652 Z-1.136
X169.648 Y19.671 Z-1.171
X169.726 Y19.692 Z-1.193
X169.805 Y19.713 Z-1.2
X170.265 Y19.836
G3 X170.602 Y20.419 I-0.123 J0.46
X167.472 Y19.581 I-1.565 J-0.419 F150
X170.602 Y20.419 I1.565 J0.419
X170.019 Y20.756 I-0.46 J-0.123
G1 X169.559 Y20.633
X169.479 Y20.611 Z-1.193
X169.402 Y20.591 Z-1.171
X169.329 Y20.571 Z-1.136
X169.263 Y20.553 Z-1.089
X169.207 Y20.538 Z-1.03
X169.161 Y20.526 Z-0.962
X169.127 Y20.517 Z-0.887
X169.106 Y20.511 Z-0.807
X169.099 Y20.509 Z-0.724
Z5
X169.346 Y19.59
Z-0.248 F50
Z-1.024
X169.353 Y19.592 Z-1.107
X169.373 Y19.597 Z-1.187
X169.407 Y19.606 Z-1.262
X169.453 Y19.619 Z-1.33
X169.51 Y19.634 Z-1.389
X169.576 Y19.652 Z-1.436
X169.648 Y19.671 Z-1.471
X169.726 Y19.692 Z-1.493
X169.805 Y19.713 Z-1.5
X170.265 Y19.836
G3 X170.602 Y20.419 I-0.123 J0.46
X167.472 Y19.581 I-1.565 J-0.419 F150
X170.602 Y20.419 I1.565 J0.419
X170.019 Y20.756 I-0.46 J-0.123
G1 X169.559 Y20.633
X169.479 Y20.611 Z-1.493
X169.402 Y20.591 Z-1.471
X169.329 Y20.571 Z-1.436
X169.263 Y20.553 Z-1.389
X169.207 Y20.538 Z-1.33
X169.161 Y20.526 Z-1.262
X169.127 Y20.517 Z-1.187
X169.106 Y20.511 Z-1.107
X169.099 Y20.509 Z-1.024
Z5
X169.346 Y19.59
Z-0.548 F50
Z-1.324
X169.353 Y19.592 Z-1.407
X169.373 Y19.597 Z-1.487
X169.407 Y19.606 Z-1.562
X169.453 Y19.619 Z-1.63
X169.51 Y19.634 Z-1.689
X169.576 Y19.652 Z-1.736
X169.648 Y19.671 Z-1.771
X169.726 Y19.692 Z-1.793
X169.805 Y19.713 Z-1.8
X170.265 Y19.836
G3 X170.602 Y20.419 I-0.123 J0.46
X167.472 Y19.581 I-1.565 J-0.419 F150
X170.602 Y20.419 I1.565 J0.419
X170.019 Y20.756 I-0.46 J-0.123
G1 X169.559 Y20.633
X169.479 Y20.611 Z-1.793
X169.402 Y20.591 Z-1.771
X169.329 Y20.571 Z-1.736
X169.263 Y20.553 Z-1.689
X169.207 Y20.538 Z-1.63
X169.161 Y20.526 Z-1.562
X169.127 Y20.517 Z-1.487
X169.106 Y20.511 Z-1.407
X169.099 Y20.509 Z-1.324
Z5
X169.346 Y19.59
Z-0.848 F50
Z-1.624
X169.353 Y19.592 Z-1.707
X169.373 Y19.597 Z-1.787
X169.407 Y19.606 Z-1.862
X169.453 Y19.619 Z-1.93
X169.51 Y19.634 Z-1.989
X169.576 Y19.652 Z-2.036
X169.648 Y19.671 Z-2.071
X169.726 Y19.692 Z-2.093
X169.805 Y19.713 Z-2.1
X170.265 Y19.836
G3 X170.602 Y20.419 I-0.123 J0.46
X167.472 Y19.581 I-1.565 J-0.419 F150
X170.602 Y20.419 I1.565 J0.419
X170.019 Y20.756 I-0.46 J-0.123
G1 X169.559 Y20.633
X169.479 Y20.611 Z-2.093
X169.402 Y20.591 Z-2.071
X169.329 Y20.571 Z-2.036
X169.263 Y20.553 Z-1.989
X169.207 Y20.538 Z-1.93
X169.161 Y20.526 Z-1.862
X169.127 Y20.517 Z-1.787
X169.106 Y20.511 Z-1.707
X169.099 Y20.509 Z-1.624
Z5
X169.346 Y19.59
Z-1.148 F50
Z-1.924
X169.353 Y19.592 Z-2.007
X169.373 Y19.597 Z-2.087
X169.407 Y19.606 Z-2.162
X169.453 Y19.619 Z-2.23
X169.51 Y19.634 Z-2.289
X169.576 Y19.652 Z-2.336
X169.648 Y19.671 Z-2.371
X169.726 Y19.692 Z-2.393
X169.805 Y19.713 Z-2.4
X170.265 Y19.836
G3 X170.602 Y20.419 I-0.123 J0.46
X167.472 Y19.581 I-1.565 J-0.419 F150
X170.602 Y20.419 I1.565 J0.419
X170.019 Y20.756 I-0.46 J-0.123
G1 X169.559 Y20.633
X169.479 Y20.611 Z-2.393
X169.402 Y20.591 Z-2.371
X169.329 Y20.571 Z-2.336
X169.263 Y20.553 Z-2.289
X169.207 Y20.538 Z-2.23
X169.161 Y20.526 Z-2.162
X169.127 Y20.517 Z-2.087
X169.106 Y20.511 Z-2.007
X169.099 Y20.509 Z-1.924
Z5
X169.346 Y19.59
Z-1.448 F50
Z-2.224
X169.353 Y19.592 Z-2.307
X169.373 Y19.597 Z-2.387
X169.407 Y19.606 Z-2.462
X169.453 Y19.619 Z-2.53
X169.51 Y19.634 Z-2.589
X169.576 Y19.652 Z-2.636
X169.648 Y19.671 Z-2.671
X169.726 Y19.692 Z-2.693
X169.805 Y19.713 Z-2.7
X170.265 Y19.836
G3 X170.602 Y20.419 I-0.123 J0.46
X167.472 Y19.581 I-1.565 J-0.419 F150
X170.602 Y20.419 I1.565 J0.419
X170.019 Y20.756 I-0.46 J-0.123
G1 X169.559 Y20.633
X169.479 Y20.611 Z-2.693
X169.402 Y20.591 Z-2.671
X169.329 Y20.571 Z-2.636
X169.263 Y20.553 Z-2.589
X169.207 Y20.538 Z-2.53
X169.161 Y20.526 Z-2.462
X169.127 Y20.517 Z-2.387
X169.106 Y20.511 Z-2.307
X169.099 Y20.509 Z-2.224
Z5
X169.346 Y19.59
Z-1.748 F50
Z-2.524
X169.353 Y19.592 Z-2.607
X169.373 Y19.597 Z-2.687
X169.407 Y19.606 Z-2.762
X169.453 Y19.619 Z-2.83
X169.51 Y19.634 Z-2.889
X169.576 Y19.652 Z-2.936
X169.648 Y19.671 Z-2.971
X169.726 Y19.692 Z-2.993
X169.805 Y19.713 Z-3
X170.265 Y19.836
G3 X170.602 Y20.419 I-0.123 J0.46
X167.472 Y19.581 I-1.565 J-0.419 F150
X170.602 Y20.419 I1.565 J0.419
X170.019 Y20.756 I-0.46 J-0.123
G1 X169.559 Y20.633
X169.479 Y20.611 Z-2.993
X169.402 Y20.591 Z-2.971
X169.329 Y20.571 Z-2.936
X169.263 Y20.553 Z-2.889
X169.207 Y20.538 Z-2.83
X169.161 Y20.526 Z-2.762
X169.127 Y20.517 Z-2.687
X169.106 Y20.511 Z-2.607
X169.099 Y20.509 Z-2.524
Z5
X169.346 Y19.59
Z-2.048 F50
Z-2.824
X169.353 Y19.592 Z-2.907
X169.373 Y19.597 Z-2.987
X169.407 Y19.606 Z-3.062
X169.453 Y19.619 Z-3.13
X169.51 Y19.634 Z-3.189
X169.576 Y19.652 Z-3.236
X169.648 Y19.671 Z-3.271
X169.726 Y19.692 Z-3.293
X169.805 Y19.713 Z-3.3
X170.265 Y19.836
G3 X170.602 Y20.419 I-0.123 J0.46
X167.472 Y19.581 I-1.565 J-0.419 F150
X170.602 Y20.419 I1.565 J0.419
X170.019 Y20.756 I-0.46 J-0.123
G1 X169.559 Y20.633
X169.479 Y20.611 Z-3.293
X169.402 Y20.591 Z-3.271
X169.329 Y20.571 Z-3.236
X169.263 Y20.553 Z-3.189
X169.207 Y20.538 Z-3.13
X169.161 Y20.526 Z-3.062
X169.127 Y20.517 Z-2.987
X169.106 Y20.511 Z-2.907
X169.099 Y20.509 Z-2.824
Z5
X169.346 Y19.59
Z-2.348 F50
Z-3.124
X169.353 Y19.592 Z-3.207
X169.373 Y19.597 Z-3.287
X169.407 Y19.606 Z-3.362
X169.453 Y19.619 Z-3.43
X169.51 Y19.634 Z-3.489
X169.576 Y19.652 Z-3.536
X169.648 Y19.671 Z-3.571
X169.726 Y19.692 Z-3.593
X169.805 Y19.713 Z-3.6
X170.265 Y19.836
G3 X170.602 Y20.419 I-0.123 J0.46
X167.472 Y19.581 I-1.565 J-0.419 F150
X170.602 Y20.419 I1.565 J0.419
X170.019 Y20.756 I-0.46 J-0.123
G1 X169.559 Y20.633
X169.479 Y20.611 Z-3.593
X169.402 Y20.591 Z-3.571
X169.329 Y20.571 Z-3.536
X169.263 Y20.553 Z-3.489
X169.207 Y20.538 Z-3.43
X169.161 Y20.526 Z-3.362
X169.127 Y20.517 Z-3.287
X169.106 Y20.511 Z-3.207
X169.099 Y20.509 Z-3.124
Z5
X169.346 Y19.59
Z-2.648 F50
Z-3.424
X169.353 Y19.592 Z-3.507
X169.373 Y19.597 Z-3.587
X169.407 Y19.606 Z-3.662
X169.453 Y19.619 Z-3.73
X169.51 Y19.634 Z-3.789
X169.576 Y19.652 Z-3.836
X169.648 Y19.671 Z-3.871
X169.726 Y19.692 Z-3.893
X169.805 Y19.713 Z-3.9
X170.265 Y19.836
G3 X170.602 Y20.419 I-0.123 J0.46
X167.472 Y19.581 I-1.565 J-0.419 F150
X170.602 Y20.419 I1.565 J0.419
X170.019 Y20.756 I-0.46 J-0.123
G1 X169.559 Y20.633
X169.479 Y20.611 Z-3.893
X169.402 Y20.591 Z-3.871
X169.329 Y20.571 Z-3.836
X169.263 Y20.553 Z-3.789
X169.207 Y20.538 Z-3.73
X169.161 Y20.526 Z-3.662
X169.127 Y20.517 Z-3.587
X169.106 Y20.511 Z-3.507
X169.099 Y20.509 Z-3.424
Z5
X169.346 Y19.59
Z-2.948 F50
Z-3.724
X169.353 Y19.592 Z-3.807
X169.373 Y19.597 Z-3.887
X169.407 Y19.606 Z-3.962
X169.453 Y19.619 Z-4.03
X169.51 Y19.634 Z-4.089
X169.576 Y19.652 Z-4.136
X169.648 Y19.671 Z-4.171
X169.726 Y19.692 Z-4.193
X169.805 Y19.713 Z-4.2
X170.265 Y19.836
G3 X170.602 Y20.419 I-0.123 J0.46
X167.472 Y19.581 I-1.565 J-0.419 F150
X170.602 Y20.419 I1.565 J0.419
X170.019 Y20.756 I-0.46 J-0.123
G1 X169.559 Y20.633
X169.479 Y20.611 Z-4.193
X169.402 Y20.591 Z-4.171
X169.329 Y20.571 Z-4.136
X169.263 Y20.553 Z-4.089
X169.207 Y20.538 Z-4.03
X169.161 Y20.526 Z-3.962
X169.127 Y20.517 Z-3.887
X169.106 Y20.511 Z-3.807
X169.099 Y20.509 Z-3.724
Z5
X169.346 Y19.59
Z-3.248 F50
Z-4.024
X169.353 Y19.592 Z-4.107
X169.373 Y19.597 Z-4.187
X169.407 Y19.606 Z-4.262
X169.453 Y19.619 Z-4.33
X169.51 Y19.634 Z-4.389
X169.576 Y19.652 Z-4.436
X169.648 Y19.671 Z-4.471
X169.726 Y19.692 Z-4.493
X169.805 Y19.713 Z-4.5
X170.265 Y19.836
G3 X170.602 Y20.419 I-0.123 J0.46
X167.472 Y19.581 I-1.565 J-0.419 F150
X170.602 Y20.419 I1.565 J0.419
X170.019 Y20.756 I-0.46 J-0.123
G1 X169.559 Y20.633
X169.479 Y20.611 Z-4.493
X169.402 Y20.591 Z-4.471
X169.329 Y20.571 Z-4.436
X169.263 Y20.553 Z-4.389
X169.207 Y20.538 Z-4.33
X169.161 Y20.526 Z-4.262
X169.127 Y20.517 Z-4.187
X169.106 Y20.511 Z-4.107
X169.099 Y20.509 Z-4.024
Z5
X169.346 Y19.59
Z-3.548 F50
Z-4.324
X169.353 Y19.592 Z-4.407
X169.373 Y19.597 Z-4.487
X169.407 Y19.606 Z-4.562
X169.453 Y19.619 Z-4.63
X169.51 Y19.634 Z-4.689
X169.576 Y19.652 Z-4.736
X169.648 Y19.671 Z-4.771
X169.726 Y19.692 Z-4.793
X169.805 Y19.713 Z-4.8
X170.265 Y19.836
G3 X170.602 Y20.419 I-0.123 J0.46
X167.472 Y19.581 I-1.565 J-0.419 F150
X170.602 Y20.419 I1.565 J0.419
X170.019 Y20.756 I-0.46 J-0.123
G1 X169.559 Y20.633
X169.479 Y20.611 Z-4.793
X169.402 Y20.591 Z-4.771
X169.329 Y20.571 Z-4.736
X169.263 Y20.553 Z-4.689
X169.207 Y20.538 Z-4.63
X169.161 Y20.526 Z-4.562
X169.127 Y20.517 Z-4.487
X169.106 Y20.511 Z-4.407
X169.099 Y20.509 Z-4.324
Z5
X169.346 Y19.59
Z-3.848 F50
Z-4.624
X169.353 Y19.592 Z-4.707
X169.373 Y19.597 Z-4.787
X169.407 Y19.606 Z-4.862
X169.453 Y19.619 Z-4.93
X169.51 Y19.634 Z-4.989
X169.576 Y19.652 Z-5.036
X169.648 Y19.671 Z-5.071
X169.726 Y19.692 Z-5.093
X169.805 Y19.713 Z-5.1
X170.265 Y19.836
G3 X170.602 Y20.419 I-0.123 J0.46
X167.472 Y19.581 I-1.565 J-0.419 F150
X170.602 Y20.419 I1.565 J0.419
X170.019 Y20.756 I-0.46 J-0.123
G1 X169.559 Y20.633
X169.479 Y20.611 Z-5.093
X169.402 Y20.591 Z-5.071
X169.329 Y20.571 Z-5.036
X169.263 Y20.553 Z-4.989
X169.207 Y20.538 Z-4.93
X169.161 Y20.526 Z-4.862
X169.127 Y20.517 Z-4.787
X169.106 Y20.511 Z-4.707
X169.099 Y20.509 Z-4.624
Z5
X169.346 Y19.59
Z-4.148 F50
Z-4.924
X169.353 Y19.592 Z-5.007
X169.373 Y19.597 Z-5.087
X169.407 Y19.606 Z-5.162
X169.453 Y19.619 Z-5.23
X169.51 Y19.634 Z-5.289
X169.576 Y19.652 Z-5.336
X169.648 Y19.671 Z-5.371
X169.726 Y19.692 Z-5.393
X169.805 Y19.713 Z-5.4
X170.265 Y19.836
G3 X170.602 Y20.419 I-0.123 J0.46
X167.472 Y19.581 I-1.565 J-0.419 F150
X170.602 Y20.419 I1.565 J0.419
X170.019 Y20.756 I-0.46 J-0.123
G1 X169.559 Y20.633
X169.479 Y20.611 Z-5.393
X169.402 Y20.591 Z-5.371
X169.329 Y20.571 Z-5.336
X169.263 Y20.553 Z-5.289
X169.207 Y20.538 Z-5.23
X169.161 Y20.526 Z-5.162
X169.127 Y20.517 Z-5.087
X169.106 Y20.511 Z-5.007
X169.099 Y20.509 Z-4.924
Z5
X169.346 Y19.59
Z-4.448 F50
Z-5.224
X169.353 Y19.592 Z-5.307
X169.373 Y19.597 Z-5.387
X169.407 Y19.606 Z-5.462
X169.453 Y19.619 Z-5.53
X169.51 Y19.634 Z-5.589
X169.576 Y19.652 Z-5.636
X169.648 Y19.671 Z-5.671
X169.726 Y19.692 Z-5.693
X169.805 Y19.713 Z-5.7
X170.265 Y19.836
G3 X170.602 Y20.419 I-0.123 J0.46
X167.472 Y19.581 I-1.565 J-0.419 F150
X170.602 Y20.419 I1.565 J0.419
X170.019 Y20.756 I-0.46 J-0.123
G1 X169.559 Y20.633
X169.479 Y20.611 Z-5.693
X169.402 Y20.591 Z-5.671
X169.329 Y20.571 Z-5.636
X169.263 Y20.553 Z-5.589
X169.207 Y20.538 Z-5.53
X169.161 Y20.526 Z-5.462
X169.127 Y20.517 Z-5.387
X169.106 Y20.511 Z-5.307
X169.099 Y20.509 Z-5.224
Z5
X169.346 Y19.59
Z-4.748 F50
Z-5.524
X169.353 Y19.592 Z-5.607
X169.373 Y19.597 Z-5.687
X169.407 Y19.606 Z-5.762
X169.453 Y19.619 Z-5.83
X169.51 Y19.634 Z-5.889
X169.576 Y19.652 Z-5.936
X169.648 Y19.671 Z-5.971
X169.726 Y19.692 Z-5.993
X169.805 Y19.713 Z-6
X170.265 Y19.836
G3 X170.602 Y20.419 I-0.123 J0.46
X167.472 Y19.581 I-1.565 J-0.419 F150
X170.602 Y20.419 I1.565 J0.419
X170.019 Y20.756 I-0.46 J-0.123
G1 X169.559 Y20.633
X169.479 Y20.611 Z-5.993
X169.402 Y20.591 Z-5.971
X169.329 Y20.571 Z-5.936
X169.263 Y20.553 Z-5.889
X169.207 Y20.538 Z-5.83
X169.161 Y20.526 Z-5.762
X169.127 Y20.517 Z-5.687
X169.106 Y20.511 Z-5.607
X169.099 Y20.509 Z-5.524
Z5
X169.346 Y19.59
Z-5.048 F50
Z-5.824
X169.353 Y19.592 Z-5.907
X169.373 Y19.597 Z-5.987
X169.407 Y19.606 Z-6.062
X169.453 Y19.619 Z-6.13
X169.51 Y19.634 Z-6.189
X169.576 Y19.652 Z-6.236
X169.648 Y19.671 Z-6.271
X169.726 Y19.692 Z-6.293
X169.805 Y19.713 Z-6.3
X170.265 Y19.836
G3 X170.602 Y20.419 I-0.123 J0.46
X167.472 Y19.581 I-1.565 J-0.419 F150
X170.602 Y20.419 I1.565 J0.419
X170.019 Y20.756 I-0.46 J-0.123
G1 X169.559 Y20.633
X169.479 Y20.611 Z-6.293
X169.402 Y20.591 Z-6.271
X169.329 Y20.571 Z-6.236
X169.263 Y20.553 Z-6.189
X169.207 Y20.538 Z-6.13
X169.161 Y20.526 Z-6.062
X169.127 Y20.517 Z-5.987
X169.106 Y20.511 Z-5.907
X169.099 Y20.509 Z-5.824
Z5
X169.346 Y19.59
Z-5.348 F50
Z-6.124
X169.353 Y19.592 Z-6.207
X169.373 Y19.597 Z-6.287
X169.407 Y19.606 Z-6.362
X169.453 Y19.619 Z-6.43
X169.51 Y19.634 Z-6.489
X169.576 Y19.652 Z-6.536
X169.648 Y19.671 Z-6.571
X169.726 Y19.692 Z-6.593
X169.805 Y19.713 Z-6.6
X170.265 Y19.836
G3 X170.602 Y20.419 I-0.123 J0.46
X167.472 Y19.581 I-1.565 J-0.419 F150
X170.602 Y20.419 I1.565 J0.419
X170.019 Y20.756 I-0.46 J-0.123
G1 X169.559 Y20.633
X169.479 Y20.611 Z-6.593
X169.402 Y20.591 Z-6.571
X169.329 Y20.571 Z-6.536
X169.263 Y20.553 Z-6.489
X169.207 Y20.538 Z-6.43
X169.161 Y20.526 Z-6.362
X169.127 Y20.517 Z-6.287
X169.106 Y20.511 Z-6.207
X169.099 Y20.509 Z-6.124
Z5
X169.346 Y19.59
Z-5.648 F50
Z-6.424
X169.353 Y19.592 Z-6.507
X169.373 Y19.597 Z-6.587
X169.407 Y19.606 Z-6.662
X169.453 Y19.619 Z-6.73
X169.51 Y19.634 Z-6.789
X169.576 Y19.652 Z-6.836
X169.648 Y19.671 Z-6.871
X169.726 Y19.692 Z-6.893
X169.805 Y19.713 Z-6.9
X170.265 Y19.836
G3 X170.602 Y20.419 I-0.123 J0.46
X167.472 Y19.581 I-1.565 J-0.419 F150
X170.602 Y20.419 I1.565 J0.419
X170.019 Y20.756 I-0.46 J-0.123
G1 X169.559 Y20.633
X169.479 Y20.611 Z-6.893
X169.402 Y20.591 Z-6.871
X169.329 Y20.571 Z-6.836
X169.263 Y20.553 Z-6.789
X169.207 Y20.538 Z-6.73
X169.161 Y20.526 Z-6.662
X169.127 Y20.517 Z-6.587
X169.106 Y20.511 Z-6.507
X169.099 Y20.509 Z-6.424
Z5
X169.346 Y19.59
Z-5.948 F50
Z-6.724
X169.353 Y19.592 Z-6.807
X169.373 Y19.597 Z-6.887
X169.407 Y19.606 Z-6.962
X169.453 Y19.619 Z-7.03
X169.51 Y19.634 Z-7.089
X169.576 Y19.652 Z-7.136
X169.648 Y19.671 Z-7.171
X169.726 Y19.692 Z-7.193
X169.805 Y19.713 Z-7.2
X170.265 Y19.836
G3 X170.602 Y20.419 I-0.123 J0.46
X167.472 Y19.581 I-1.565 J-0.419 F150
X170.602 Y20.419 I1.565 J0.419
X170.019 Y20.756 I-0.46 J-0.123
G1 X169.559 Y20.633
X169.479 Y20.611 Z-7.193
X169.402 Y20.591 Z-7.171
X169.329 Y20.571 Z-7.136
X169.263 Y20.553 Z-7.089
X169.207 Y20.538 Z-7.03
X169.161 Y20.526 Z-6.962
X169.127 Y20.517 Z-6.887
X169.106 Y20.511 Z-6.807
X169.099 Y20.509 Z-6.724
Z5
X169.346 Y19.59
Z-6.248 F50
Z-7.024
X169.353 Y19.592 Z-7.107
X169.373 Y19.597 Z-7.187
X169.407 Y19.606 Z-7.262
X169.453 Y19.619 Z-7.33
X169.51 Y19.634 Z-7.389
X169.576 Y19.652 Z-7.436
X169.648 Y19.671 Z-7.471
X169.726 Y19.692 Z-7.493
X169.805 Y19.713 Z-7.5
X170.265 Y19.836
G3 X170.602 Y20.419 I-0.123 J0.46
X167.472 Y19.581 I-1.565 J-0.419 F150
X170.602 Y20.419 I1.565 J0.419
X170.019 Y20.756 I-0.46 J-0.123
G1 X169.559 Y20.633
X169.479 Y20.611 Z-7.493
X169.402 Y20.591 Z-7.471
X169.329 Y20.571 Z-7.436
X169.263 Y20.553 Z-7.389
X169.207 Y20.538 Z-7.33
X169.161 Y20.526 Z-7.262
X169.127 Y20.517 Z-7.187
X169.106 Y20.511 Z-7.107
X169.099 Y20.509 Z-7.024
Z5
X169.346 Y19.59
Z-6.548 F50
Z-7.324
X169.353 Y19.592 Z-7.407
X169.373 Y19.597 Z-7.487
X169.407 Y19.606 Z-7.562
X169.453 Y19.619 Z-7.63
X169.51 Y19.634 Z-7.689
X169.576 Y19.652 Z-7.736
X169.648 Y19.671 Z-7.771
X169.726 Y19.692 Z-7.793
X169.805 Y19.713 Z-7.8
X170.265 Y19.836
G3 X170.602 Y20.419 I-0.123 J0.46
X167.472 Y19.581 I-1.565 J-0.419 F150
X170.602 Y20.419 I1.565 J0.419
X170.019 Y20.756 I-0.46 J-0.123
G1 X169.559 Y20.633
X169.479 Y20.611 Z-7.793
X169.402 Y20.591 Z-7.771
X169.329 Y20.571 Z-7.736
X169.263 Y20.553 Z-7.689
X169.207 Y20.538 Z-7.63
X169.161 Y20.526 Z-7.562
X169.127 Y20.517 Z-7.487
X169.106 Y20.511 Z-7.407
X169.099 Y20.509 Z-7.324
Z5
X169.346 Y19.59
Z-6.848 F50
Z-7.524
X169.353 Y19.592 Z-7.607
X169.373 Y19.597 Z-7.687
X169.407 Y19.606 Z-7.762
X169.453 Y19.619 Z-7.83
X169.51 Y19.634 Z-7.889
X169.576 Y19.652 Z-7.936
X169.648 Y19.671 Z-7.971
X169.726 Y19.692 Z-7.993
X169.805 Y19.713 Z-8
X170.265 Y19.836
G3 X170.602 Y20.419 I-0.123 J0.46
X167.472 Y19.581 I-1.565 J-0.419 F150
X170.602 Y20.419 I1.565 J0.419
X170.019 Y20.756 I-0.46 J-0.123
G1 X169.559 Y20.633
X169.479 Y20.611 Z-7.993
X169.402 Y20.591 Z-7.971
X169.329 Y20.571 Z-7.936
X169.263 Y20.553 Z-7.889
X169.207 Y20.538 Z-7.83
X169.161 Y20.526 Z-7.762
X169.127 Y20.517 Z-7.687
X169.106 Y20.511 Z-7.607
X169.099 Y20.509 Z-7.524
Z5
X49.229 Y19.524
Z0.952 F50
Z0.176
G18 G2 X49.705 Z-0.3 I0.476 K0
G1 X50.181
G17 G3 X50.657 Y20 I0 J0.476
X47.417 Y20 I-1.62 J0 F150
X50.657 Y20 I1.62 J0
X50.181 Y20.476 I-0.476 J0
G1 X49.705
G18 G3 X49.229 Z0.176 I0 K0.476
G1 Z5
Y19.524
Z0.652 F50
Z-0.124
G2 X49.705 Z-0.6 I0.476 K0
G1 X50.181
G17 G3 X50.657 Y20 I0 J0.476
X47.417 Y20 I-1.62 J0 F150
X50.657 Y20 I1.62 J0
X50.181 Y20.476 I-0.476 J0
G1 X49.705
G18 G3 X49.229 Z-0.124 I0 K0.476
G1 Z5
Y19.524
Z0.352 F50
Z-0.424
G2 X49.705 Z-0.9 I0.476 K0
G1 X50.181
G17 G3 X50.657 Y20 I0 J0.476
X47.417 Y20 I-1.62 J0 F150
X50.657 Y20 I1.62 J0
X50.181 Y20.476 I-0.476 J0
G1 X49.705
G18 G3 X49.229 Z-0.424 I0 K0.476
G1 Z5
Y19.524
Z0.052 F50
Z-0.724
G2 X49.705 Z-1.2 I0.476 K0
G1 X50.181
G17 G3 X50.657 Y20 I0 J0.476
X47.417 Y20 I-1.62 J0 F150
X50.657 Y20 I1.62 J0
X50.181 Y20.476 I-0.476 J0
G1 X49.705
G18 G3 X49.229 Z-0.724 I0 K0.476
G1 Z5
Y19.524
Z-0.248 F50
Z-1.024
G2 X49.705 Z-1.5 I0.476 K0
G1 X50.181
G17 G3 X50.657 Y20 I0 J0.476
X47.417 Y20 I-1.62 J0 F150
X50.657 Y20 I1.62 J0
X50.181 Y20.476 I-0.476 J0
G1 X49.705
G18 G3 X49.229 Z-1.024 I0 K0.476
G1 Z5
Y19.524
Z-0.548 F50
Z-1.324
G2 X49.705 Z-1.8 I0.476 K0
G1 X50.181
G17 G3 X50.657 Y20 I0 J0.476
X47.417 Y20 I-1.62 J0 F150
X50.657 Y20 I1.62 J0
X50.181 Y20.476 I-0.476 J0
G1 X49.705
G18 G3 X49.229 Z-1.324 I0 K0.476
G1 Z5
Y19.524
Z-0.848 F50
Z-1.624
G2 X49.705 Z-2.1 I0.476 K0
G1 X50.181
G17 G3 X50.657 Y20 I0 J0.476
X47.417 Y20 I-1.62 J0 F150
X50.657 Y20 I1.62 J0
X50.181 Y20.476 I-0.476 J0
G1 X49.705
G18 G3 X49.229 Z-1.624 I0 K0.476
G1 Z5
Y19.524
Z-1.148 F50
Z-1.924
G2 X49.705 Z-2.4 I0.476 K0
G1 X50.181
G17 G3 X50.657 Y20 I0 J0.476
X47.417 Y20 I-1.62 J0 F150
X50.657 Y20 I1.62 J0
X50.181 Y20.476 I-0.476 J0
G1 X49.705
G18 G3 X49.229 Z-1.924 I0 K0.476
G1 Z5
Y19.524
Z-1.448 F50
Z-2.224
G2 X49.705 Z-2.7 I0.476 K0
G1 X50.181
G17 G3 X50.657 Y20 I0 J0.476
X47.417 Y20 I-1.62 J0 F150
X50.657 Y20 I1.62 J0
X50.181 Y20.476 I-0.476 J0
G1 X49.705
G18 G3 X49.229 Z-2.224 I0 K0.476
G1 Z5
Y19.524
Z-1.748 F50
Z-2.524
G2 X49.705 Z-3 I0.476 K0
G1 X50.181
G17 G3 X50.657 Y20 I0 J0.476
X47.417 Y20 I-1.62 J0 F150
X50.657 Y20 I1.62 J0
X50.181 Y20.476 I-0.476 J0
G1 X49.705
G18 G3 X49.229 Z-2.524 I0 K0.476
G1 Z5
Y19.524
Z-2.048 F50
Z-2.824
G2 X49.705 Z-3.3 I0.476 K0
G1 X50.181
G17 G3 X50.657 Y20 I0 J0.476
X47.417 Y20 I-1.62 J0 F150
X50.657 Y20 I1.62 J0
X50.181 Y20.476 I-0.476 J0
G1 X49.705
G18 G3 X49.229 Z-2.824 I0 K0.476
G1 Z5
Y19.524
Z-2.348 F50
Z-3.124
G2 X49.705 Z-3.6 I0.476 K0
G1 X50.181
G17 G3 X50.657 Y20 I0 J0.476
X47.417 Y20 I-1.62 J0 F150
X50.657 Y20 I1.62 J0
X50.181 Y20.476 I-0.476 J0
G1 X49.705
G18 G3 X49.229 Z-3.124 I0 K0.476
G1 Z5
Y19.524
Z-2.648 F50
Z-3.424
G2 X49.705 Z-3.9 I0.476 K0
G1 X50.181
G17 G3 X50.657 Y20 I0 J0.476
X47.417 Y20 I-1.62 J0 F150
X50.657 Y20 I1.62 J0
X50.181 Y20.476 I-0.476 J0
G1 X49.705
G18 G3 X49.229 Z-3.424 I0 K0.476
G1 Z5
Y19.524
Z-2.948 F50
Z-3.724
G2 X49.705 Z-4.2 I0.476 K0
G1 X50.181
G17 G3 X50.657 Y20 I0 J0.476
X47.417 Y20 I-1.62 J0 F150
X50.657 Y20 I1.62 J0
X50.181 Y20.476 I-0.476 J0
G1 X49.705
G18 G3 X49.229 Z-3.724 I0 K0.476
G1 Z5
Y19.524
Z-3.248 F50
Z-4.024
G2 X49.705 Z-4.5 I0.476 K0
G1 X50.181
G17 G3 X50.657 Y20 I0 J0.476
X47.417 Y20 I-1.62 J0 F150
X50.657 Y20 I1.62 J0
X50.181 Y20.476 I-0.476 J0
G1 X49.705
G18 G3 X49.229 Z-4.024 I0 K0.476
G1 Z5
Y19.524
Z-3.548 F50
Z-4.324
G2 X49.705 Z-4.8 I0.476 K0
G1 X50.181
G17 G3 X50.657 Y20 I0 J0.476
X47.417 Y20 I-1.62 J0 F150
X50.657 Y20 I1.62 J0
X50.181 Y20.476 I-0.476 J0
G1 X49.705
G18 G3 X49.229 Z-4.324 I0 K0.476
G1 Z5
Y19.524
Z-3.848 F50
Z-4.624
G2 X49.705 Z-5.1 I0.476 K0
G1 X50.181
G17 G3 X50.657 Y20 I0 J0.476
X47.417 Y20 I-1.62 J0 F150
X50.657 Y20 I1.62 J0
X50.181 Y20.476 I-0.476 J0
G1 X49.705
G18 G3 X49.229 Z-4.624 I0 K0.476
G1 Z5
Y19.524
Z-4.148 F50
Z-4.924
G2 X49.705 Z-5.4 I0.476 K0
G1 X50.181
G17 G3 X50.657 Y20 I0 J0.476
X47.417 Y20 I-1.62 J0 F150
X50.657 Y20 I1.62 J0
X50.181 Y20.476 I-0.476 J0
G1 X49.705
G18 G3 X49.229 Z-4.924 I0 K0.476
G1 Z5
Y19.524
Z-4.448 F50
Z-5.224
G2 X49.705 Z-5.7 I0.476 K0
G1 X50.181
G17 G3 X50.657 Y20 I0 J0.476
X47.417 Y20 I-1.62 J0 F150
X50.657 Y20 I1.62 J0
X50.181 Y20.476 I-0.476 J0
G1 X49.705
G18 G3 X49.229 Z-5.224 I0 K0.476
G1 Z5
Y19.524
Z-4.748 F50
Z-5.524
G2 X49.705 Z-6 I0.476 K0
G1 X50.181
G17 G3 X50.657 Y20 I0 J0.476
X47.417 Y20 I-1.62 J0 F150
X50.657 Y20 I1.62 J0
X50.181 Y20.476 I-0.476 J0
G1 X49.705
G18 G3 X49.229 Z-5.524 I0 K0.476
G1 Z5
Y19.524
Z-5.048 F50
Z-5.824
G2 X49.705 Z-6.3 I0.476 K0
G1 X50.181
G17 G3 X50.657 Y20 I0 J0.476
X47.417 Y20 I-1.62 J0 F150
X50.657 Y20 I1.62 J0
X50.181 Y20.476 I-0.476 J0
G1 X49.705
G18 G3 X49.229 Z-5.824 I0 K0.476
G1 Z5
Y19.524
Z-5.348 F50
Z-6.124
G2 X49.705 Z-6.6 I0.476 K0
G1 X50.181
G17 G3 X50.657 Y20 I0 J0.476
X47.417 Y20 I-1.62 J0 F150
X50.657 Y20 I1.62 J0
X50.181 Y20.476 I-0.476 J0
G1 X49.705
G18 G3 X49.229 Z-6.124 I0 K0.476
G1 Z5
Y19.524
Z-5.648 F50
Z-6.424
G2 X49.705 Z-6.9 I0.476 K0
G1 X50.181
G17 G3 X50.657 Y20 I0 J0.476
X47.417 Y20 I-1.62 J0 F150
X50.657 Y20 I1.62 J0
X50.181 Y20.476 I-0.476 J0
G1 X49.705
G18 G3 X49.229 Z-6.424 I0 K0.476
G1 Z5
Y19.524
Z-5.948 F50
Z-6.724
G2 X49.705 Z-7.2 I0.476 K0
G1 X50.181
G17 G3 X50.657 Y20 I0 J0.476
X47.417 Y20 I-1.62 J0 F150
X50.657 Y20 I1.62 J0
X50.181 Y20.476 I-0.476 J0
G1 X49.705
G18 G3 X49.229 Z-6.724 I0 K0.476
G1 Z5
Y19.524
Z-6.248 F50
Z-7.024
G2 X49.705 Z-7.5 I0.476 K0
G1 X50.181
G17 G3 X50.657 Y20 I0 J0.476
X47.417 Y20 I-1.62 J0 F150
X50.657 Y20 I1.62 J0
X50.181 Y20.476 I-0.476 J0
G1 X49.705
G18 G3 X49.229 Z-7.024 I0 K0.476
G1 Z5
Y19.524
Z-6.548 F50
Z-7.324
G2 X49.705 Z-7.8 I0.476 K0
G1 X50.181
G17 G3 X50.657 Y20 I0 J0.476
X47.417 Y20 I-1.62 J0 F150
X50.657 Y20 I1.62 J0
X50.181 Y20.476 I-0.476 J0
G1 X49.705
G18 G3 X49.229 Z-7.324 I0 K0.476
G1 Z5
Y19.524
Z-6.848 F50
Z-7.524
G2 X49.705 Z-8 I0.476 K0
G1 X50.181
G17 G3 X50.657 Y20 I0 J0.476
X47.417 Y20 I-1.62 J0 F150
X50.657 Y20 I1.62 J0
X50.181 Y20.476 I-0.476 J0
G1 X49.705
G18 G3 X49.229 Z-7.524 I0 K0.476
G1 Z5
X19.229 Y19.524
Z0.952 F50
Z0.176
G2 X19.705 Z-0.3 I0.476 K0
G1 X20.181
G17 G3 X20.657 Y20 I0 J0.476
X17.417 Y20 I-1.62 J0 F150
X20.657 Y20 I1.62 J0
X20.181 Y20.476 I-0.476 J0
G1 X19.705
G18 G3 X19.229 Z0.176 I0 K0.476
G1 Z5
Y19.524
Z0.652 F50
Z-0.124
G2 X19.705 Z-0.6 I0.476 K0
G1 X20.181
G17 G3 X20.657 Y20 I0 J0.476
X17.417 Y20 I-1.62 J0 F150
X20.657 Y20 I1.62 J0
X20.181 Y20.476 I-0.476 J0
G1 X19.705
G18 G3 X19.229 Z-0.124 I0 K0.476
G1 Z5
Y19.524
Z0.352 F50
Z-0.424
G2 X19.705 Z-0.9 I0.476 K0
G1 X20.181
G17 G3 X20.657 Y20 I0 J0.476
X17.417 Y20 I-1.62 J0 F150
X20.657 Y20 I1.62 J0
X20.181 Y20.476 I-0.476 J0
G1 X19.705
G18 G3 X19.229 Z-0.424 I0 K0.476
G1 Z5
Y19.524
Z0.052 F50
Z-0.724
G2 X19.705 Z-1.2 I0.476 K0
G1 X20.181
G17 G3 X20.657 Y20 I0 J0.476
X17.417 Y20 I-1.62 J0 F150
X20.657 Y20 I1.62 J0
X20.181 Y20.476 I-0.476 J0
G1 X19.705
G18 G3 X19.229 Z-0.724 I0 K0.476
G1 Z5
Y19.524
Z-0.248 F50
Z-1.024
G2 X19.705 Z-1.5 I0.476 K0
G1 X20.181
G17 G3 X20.657 Y20 I0 J0.476
X17.417 Y20 I-1.62 J0 F150
X20.657 Y20 I1.62 J0
X20.181 Y20.476 I-0.476 J0
G1 X19.705
G18 G3 X19.229 Z-1.024 I0 K0.476
G1 Z5
Y19.524
Z-0.548 F50
Z-1.324
G2 X19.705 Z-1.8 I0.476 K0
G1 X20.181
G17 G3 X20.657 Y20 I0 J0.476
X17.417 Y20 I-1.62 J0 F150
X20.657 Y20 I1.62 J0
X20.181 Y20.476 I-0.476 J0
G1 X19.705
G18 G3 X19.229 Z-1.324 I0 K0.476
G1 Z5
Y19.524
Z-0.848 F50
Z-1.624
G2 X19.705 Z-2.1 I0.476 K0
G1 X20.181
G17 G3 X20.657 Y20 I0 J0.476
X17.417 Y20 I-1.62 J0 F150
X20.657 Y20 I1.62 J0
X20.181 Y20.476 I-0.476 J0
G1 X19.705
G18 G3 X19.229 Z-1.624 I0 K0.476
G1 Z5
Y19.524
Z-1.148 F50
Z-1.924
G2 X19.705 Z-2.4 I0.476 K0
G1 X20.181
G17 G3 X20.657 Y20 I0 J0.476
X17.417 Y20 I-1.62 J0 F150
X20.657 Y20 I1.62 J0
X20.181 Y20.476 I-0.476 J0
G1 X19.705
G18 G3 X19.229 Z-1.924 I0 K0.476
G1 Z5
Y19.524
Z-1.448 F50
Z-2.224
G2 X19.705 Z-2.7 I0.476 K0
G1 X20.181
G17 G3 X20.657 Y20 I0 J0.476
X17.417 Y20 I-1.62 J0 F150
X20.657 Y20 I1.62 J0
X20.181 Y20.476 I-0.476 J0
G1 X19.705
G18 G3 X19.229 Z-2.224 I0 K0.476
G1 Z5
Y19.524
Z-1.748 F50
Z-2.524
G2 X19.705 Z-3 I0.476 K0
G1 X20.181
G17 G3 X20.657 Y20 I0 J0.476
X17.417 Y20 I-1.62 J0 F150
X20.657 Y20 I1.62 J0
X20.181 Y20.476 I-0.476 J0
G1 X19.705
G18 G3 X19.229 Z-2.524 I0 K0.476
G1 Z5
Y19.524
Z-2.048 F50
Z-2.824
G2 X19.705 Z-3.3 I0.476 K0
G1 X20.181
G17 G3 X20.657 Y20 I0 J0.476
X17.417 Y20 I-1.62 J0 F150
X20.657 Y20 I1.62 J0
X20.181 Y20.476 I-0.476 J0
G1 X19.705
G18 G3 X19.229 Z-2.824 I0 K0.476
G1 Z5
Y19.524
Z-2.348 F50
Z-3.124
G2 X19.705 Z-3.6 I0.476 K0
G1 X20.181
G17 G3 X20.657 Y20 I0 J0.476
X17.417 Y20 I-1.62 J0 F150
X20.657 Y20 I1.62 J0
X20.181 Y20.476 I-0.476 J0
G1 X19.705
G18 G3 X19.229 Z-3.124 I0 K0.476
G1 Z5
Y19.524
Z-2.648 F50
Z-3.424
G2 X19.705 Z-3.9 I0.476 K0
G1 X20.181
G17 G3 X20.657 Y20 I0 J0.476
X17.417 Y20 I-1.62 J0 F150
X20.657 Y20 I1.62 J0
X20.181 Y20.476 I-0.476 J0
G1 X19.705
G18 G3 X19.229 Z-3.424 I0 K0.476
G1 Z5
Y19.524
Z-2.948 F50
Z-3.724
G2 X19.705 Z-4.2 I0.476 K0
G1 X20.181
G17 G3 X20.657 Y20 I0 J0.476
X17.417 Y20 I-1.62 J0 F150
X20.657 Y20 I1.62 J0
X20.181 Y20.476 I-0.476 J0
G1 X19.705
G18 G3 X19.229 Z-3.724 I0 K0.476
G1 Z5
Y19.524
Z-3.248 F50
Z-4.024
G2 X19.705 Z-4.5 I0.476 K0
G1 X20.181
G17 G3 X20.657 Y20 I0 J0.476
X17.417 Y20 I-1.62 J0 F150
X20.657 Y20 I1.62 J0
X20.181 Y20.476 I-0.476 J0
G1 X19.705
G18 G3 X19.229 Z-4.024 I0 K0.476
G1 Z5
Y19.524
Z-3.548 F50
Z-4.324
G2 X19.705 Z-4.8 I0.476 K0
G1 X20.181
G17 G3 X20.657 Y20 I0 J0.476
X17.417 Y20 I-1.62 J0 F150
X20.657 Y20 I1.62 J0
X20.181 Y20.476 I-0.476 J0
G1 X19.705
G18 G3 X19.229 Z-4.324 I0 K0.476
G1 Z5
Y19.524
Z-3.848 F50
Z-4.624
G2 X19.705 Z-5.1 I0.476 K0
G1 X20.181
G17 G3 X20.657 Y20 I0 J0.476
X17.417 Y20 I-1.62 J0 F150
X20.657 Y20 I1.62 J0
X20.181 Y20.476 I-0.476 J0
G1 X19.705
G18 G3 X19.229 Z-4.624 I0 K0.476
G1 Z5
Y19.524
Z-4.148 F50
Z-4.924
G2 X19.705 Z-5.4 I0.476 K0
G1 X20.181
G17 G3 X20.657 Y20 I0 J0.476
X17.417 Y20 I-1.62 J0 F150
X20.657 Y20 I1.62 J0
X20.181 Y20.476 I-0.476 J0
G1 X19.705
G18 G3 X19.229 Z-4.924 I0 K0.476
G1 Z5
Y19.524
Z-4.448 F50
Z-5.224
G2 X19.705 Z-5.7 I0.476 K0
G1 X20.181
G17 G3 X20.657 Y20 I0 J0.476
X17.417 Y20 I-1.62 J0 F150
X20.657 Y20 I1.62 J0
X20.181 Y20.476 I-0.476 J0
G1 X19.705
G18 G3 X19.229 Z-5.224 I0 K0.476
G1 Z5
Y19.524
Z-4.748 F50
Z-5.524
G2 X19.705 Z-6 I0.476 K0
G1 X20.181
G17 G3 X20.657 Y20 I0 J0.476
X17.417 Y20 I-1.62 J0 F150
X20.657 Y20 I1.62 J0
X20.181 Y20.476 I-0.476 J0
G1 X19.705
G18 G3 X19.229 Z-5.524 I0 K0.476
G1 Z5
Y19.524
Z-5.048 F50
Z-5.824
G2 X19.705 Z-6.3 I0.476 K0
G1 X20.181
G17 G3 X20.657 Y20 I0 J0.476
X17.417 Y20 I-1.62 J0 F150
X20.657 Y20 I1.62 J0
X20.181 Y20.476 I-0.476 J0
G1 X19.705
G18 G3 X19.229 Z-5.824 I0 K0.476
G1 Z5
Y19.524
Z-5.348 F50
Z-6.124
G2 X19.705 Z-6.6 I0.476 K0
G1 X20.181
G17 G3 X20.657 Y20 I0 J0.476
X17.417 Y20 I-1.62 J0 F150
X20.657 Y20 I1.62 J0
X20.181 Y20.476 I-0.476 J0
G1 X19.705
G18 G3 X19.229 Z-6.124 I0 K0.476
G1 Z5
Y19.524
Z-5.648 F50
Z-6.424
G2 X19.705 Z-6.9 I0.476 K0
G1 X20.181
G17 G3 X20.657 Y20 I0 J0.476
X17.417 Y20 I-1.62 J0 F150
X20.657 Y20 I1.62 J0
X20.181 Y20.476 I-0.476 J0
G1 X19.705
G18 G3 X19.229 Z-6.424 I0 K0.476
G1 Z5
Y19.524
Z-5.948 F50
Z-6.724
G2 X19.705 Z-7.2 I0.476 K0
G1 X20.181
G17 G3 X20.657 Y20 I0 J0.476
X17.417 Y20 I-1.62 J0 F150
X20.657 Y20 I1.62 J0
X20.181 Y20.476 I-0.476 J0
G1 X19.705
G18 G3 X19.229 Z-6.724 I0 K0.476
G1 Z5
Y19.524
Z-6.248 F50
Z-7.024
G2 X19.705 Z-7.5 I0.476 K0
G1 X20.181
G17 G3 X20.657 Y20 I0 J0.476
X17.417 Y20 I-1.62 J0 F150
X20.657 Y20 I1.62 J0
X20.181 Y20.476 I-0.476 J0
G1 X19.705
G18 G3 X19.229 Z-7.024 I0 K0.476
G1 Z5
Y19.524
Z-6.548 F50
Z-7.324
G2 X19.705 Z-7.8 I0.476 K0
G1 X20.181
G17 G3 X20.657 Y20 I0 J0.476
X17.417 Y20 I-1.62 J0 F150
X20.657 Y20 I1.62 J0
X20.181 Y20.476 I-0.476 J0
G1 X19.705
G18 G3 X19.229 Z-7.324 I0 K0.476
G1 Z5
Y19.524
Z-6.848 F50
Z-7.524
G2 X19.705 Z-8 I0.476 K0
G1 X20.181
G17 G3 X20.657 Y20 I0 J0.476
X17.417 Y20 I-1.62 J0 F150
X20.657 Y20 I1.62 J0
X20.181 Y20.476 I-0.476 J0
G1 X19.705
G18 G3 X19.229 Z-7.524 I0 K0.476
G1 Z5
Y59.524
Z0.952 F50
Z0.176
G2 X19.705 Z-0.3 I0.476 K0
G1 X20.181
G17 G3 X20.657 Y60 I0 J0.476
X17.417 Y60 I-1.62 J0 F150
X20.657 Y60 I1.62 J0
X20.181 Y60.476 I-0.476 J0
G1 X19.705
G18 G3 X19.229 Z0.176 I0 K0.476
G1 Z5
Y59.524
Z0.652 F50
Z-0.124
G2 X19.705 Z-0.6 I0.476 K0
G1 X20.181
G17 G3 X20.657 Y60 I0 J0.476
X17.417 Y60 I-1.62 J0 F150
X20.657 Y60 I1.62 J0
X20.181 Y60.476 I-0.476 J0
G1 X19.705
G18 G3 X19.229 Z-0.124 I0 K0.476
G1 Z5
Y59.524
Z0.352 F50
Z-0.424
G2 X19.705 Z-0.9 I0.476 K0
G1 X20.181
G17 G3 X20.657 Y60 I0 J0.476
X17.417 Y60 I-1.62 J0 F150
X20.657 Y60 I1.62 J0
X20.181 Y60.476 I-0.476 J0
G1 X19.705
G18 G3 X19.229 Z-0.424 I0 K0.476
G1 Z5
Y59.524
Z0.052 F50
Z-0.724
G2 X19.705 Z-1.2 I0.476 K0
G1 X20.181
G17 G3 X20.657 Y60 I0 J0.476
X17.417 Y60 I-1.62 J0 F150
X20.657 Y60 I1.62 J0
X20.181 Y60.476 I-0.476 J0
G1 X19.705
G18 G3 X19.229 Z-0.724 I0 K0.476
G1 Z5
Y59.524
Z-0.248 F50
Z-1.024
G2 X19.705 Z-1.5 I0.476 K0
G1 X20.181
G17 G3 X20.657 Y60 I0 J0.476
X17.417 Y60 I-1.62 J0 F150
X20.657 Y60 I1.62 J0
X20.181 Y60.476 I-0.476 J0
G1 X19.705
G18 G3 X19.229 Z-1.024 I0 K0.476
G1 Z5
Y59.524
Z-0.548 F50
Z-1.324
G2 X19.705 Z-1.8 I0.476 K0
G1 X20.181
