(actuator_drill)
(Machine)
(  vendor: Autodesk)
(  model: GARAGE CNC)
(  description: GARAGE CNC)
(T1  D=4.78 CR=2.39 - ZMIN=-8 - ball end mill)
G90 G94
G17
G21
(When using Fusion 360 for Personal Use, the feedrate of)
(rapid moves is reduced to match the feedrate of cutting)
(moves, which can increase machining time. Unrestricted rapid)
(moves are available with a Fusion 360 Subscription.)
G28 G91 Z0
G90

(Bore3)
T1
S24000 M3
G54
M8
G0 X100.008 Y25.064
Z16
G1 Z1.522 F50
Z0
X99.953 Y25.119
X99.925 Y25.112
X99.905 Y25.092
X99.898 Y25.064
X99.906 Y25.023 Z-0.061
X99.928 Y24.988 Z-0.121
X99.962 Y24.964 Z-0.182
X100.003 Y24.954 Z-0.242
X100.044 Y24.96 Z-0.303
X100.08 Y24.981 Z-0.364
X100.106 Y25.014 Z-0.424
X100.117 Y25.054 Z-0.485
X100.113 Y25.095 Z-0.545
X100.094 Y25.132 Z-0.606
X100.063 Y25.159 Z-0.667
X100.023 Y25.173 Z-0.727
X99.982 Y25.171 Z-0.788
X99.944 Y25.154 Z-0.848
X99.915 Y25.124 Z-0.909
X99.9 Y25.085 Z-0.97
Y25.043 Z-1.03
X99.915 Y25.005 Z-1.091
X99.944 Y24.975 Z-1.152
X99.982 Y24.957 Z-1.212
X100.023 Y24.955 Z-1.273
X100.063 Y24.969 Z-1.333
X100.094 Y24.996 Z-1.394
X100.113 Y25.033 Z-1.455
X100.117 Y25.075 Z-1.515
X100.106 Y25.115 Z-1.576
X100.08 Y25.147 Z-1.636
X100.044 Y25.168 Z-1.697
X100.003 Y25.174 Z-1.758
X99.962 Y25.164 Z-1.818
X99.928 Y25.14 Z-1.879
X99.906 Y25.105 Z-1.939
X99.898 Y25.064 Z-2
X99.906 Y25.023 Z-2.061
X99.928 Y24.988 Z-2.121
X99.962 Y24.964 Z-2.182
X100.003 Y24.954 Z-2.242
X100.044 Y24.96 Z-2.303
X100.08 Y24.981 Z-2.364
X100.106 Y25.014 Z-2.424
X100.117 Y25.054 Z-2.485
X100.113 Y25.095 Z-2.545
X100.094 Y25.132 Z-2.606
X100.063 Y25.159 Z-2.667
X100.023 Y25.173 Z-2.727
X99.982 Y25.171 Z-2.788
X99.944 Y25.154 Z-2.848
X99.915 Y25.124 Z-2.909
X99.9 Y25.085 Z-2.97
Y25.043 Z-3.03
X99.915 Y25.005 Z-3.091
X99.944 Y24.975 Z-3.152
X99.982 Y24.957 Z-3.212
X100.023 Y24.955 Z-3.273
X100.063 Y24.969 Z-3.333
X100.094 Y24.996 Z-3.394
X100.113 Y25.033 Z-3.455
X100.117 Y25.075 Z-3.515
X100.106 Y25.115 Z-3.576
X100.08 Y25.147 Z-3.636
X100.044 Y25.168 Z-3.697
X100.003 Y25.174 Z-3.758
X99.962 Y25.164 Z-3.818
X99.928 Y25.14 Z-3.879
X99.906 Y25.105 Z-3.939
X99.898 Y25.064 Z-4
X99.906 Y25.023 Z-4.061
X99.928 Y24.988 Z-4.121
X99.962 Y24.964 Z-4.182
X100.003 Y24.954 Z-4.242
X100.044 Y24.96 Z-4.303
X100.08 Y24.981 Z-4.364
X100.106 Y25.014 Z-4.424
X100.117 Y25.054 Z-4.485
X100.113 Y25.095 Z-4.545
X100.094 Y25.132 Z-4.606
X100.063 Y25.159 Z-4.667
X100.023 Y25.173 Z-4.727
X99.982 Y25.171 Z-4.788
X99.944 Y25.154 Z-4.848
X99.915 Y25.124 Z-4.909
X99.9 Y25.085 Z-4.97
Y25.043 Z-5.03
X99.915 Y25.005 Z-5.091
X99.944 Y24.975 Z-5.152
X99.982 Y24.957 Z-5.212
X100.023 Y24.955 Z-5.273
X100.063 Y24.969 Z-5.333
X100.094 Y24.996 Z-5.394
X100.113 Y25.033 Z-5.455
X100.117 Y25.075 Z-5.515
X100.106 Y25.115 Z-5.576
X100.08 Y25.147 Z-5.636
X100.044 Y25.168 Z-5.697
X100.003 Y25.174 Z-5.758
X99.962 Y25.164 Z-5.818
X99.928 Y25.14 Z-5.879
X99.906 Y25.105 Z-5.939
X99.898 Y25.064 Z-6
X99.906 Y25.023 Z-6.061
X99.928 Y24.988 Z-6.121
X99.962 Y24.964 Z-6.182
X100.003 Y24.954 Z-6.242
X100.044 Y24.96 Z-6.303
X100.08 Y24.981 Z-6.364
X100.106 Y25.014 Z-6.424
X100.117 Y25.054 Z-6.485
X100.113 Y25.095 Z-6.545
X100.094 Y25.132 Z-6.606
X100.063 Y25.159 Z-6.667
X100.023 Y25.173 Z-6.727
X99.982 Y25.171 Z-6.788
X99.944 Y25.154 Z-6.848
X99.915 Y25.124 Z-6.909
X99.9 Y25.085 Z-6.97
Y25.043 Z-7.03
X99.915 Y25.005 Z-7.091
X99.944 Y24.975 Z-7.152
X99.982 Y24.957 Z-7.212
X100.023 Y24.955 Z-7.273
X100.063 Y24.969 Z-7.333
X100.094 Y24.996 Z-7.394
X100.113 Y25.033 Z-7.455
X100.117 Y25.075 Z-7.515
X100.106 Y25.115 Z-7.576
X100.08 Y25.147 Z-7.636
X100.044 Y25.168 Z-7.697
X100.003 Y25.174 Z-7.758
X99.962 Y25.164 Z-7.818
X99.928 Y25.14 Z-7.879
X99.906 Y25.105 Z-7.939
X99.898 Y25.064 Z-8
G3 X100.118 Y25.064 I0.11 J0
X99.898 Y25.064 I-0.11 J0
G1 X99.905 Y25.037
X99.925 Y25.017
X99.953 Y25.009
X100.008 Y25.064
Z6
X88.008 Y37.064
Z1.522
Z0
X87.953 Y37.119
X87.925 Y37.112
X87.905 Y37.092
X87.898 Y37.064
X87.906 Y37.023 Z-0.061
X87.928 Y36.988 Z-0.121
X87.962 Y36.964 Z-0.182
X88.003 Y36.954 Z-0.242
X88.044 Y36.96 Z-0.303
X88.08 Y36.981 Z-0.364
X88.106 Y37.014 Z-0.424
X88.117 Y37.054 Z-0.485
X88.113 Y37.095 Z-0.545
X88.094 Y37.132 Z-0.606
X88.063 Y37.159 Z-0.667
X88.023 Y37.173 Z-0.727
X87.982 Y37.171 Z-0.788
X87.944 Y37.154 Z-0.848
X87.915 Y37.124 Z-0.909
X87.9 Y37.085 Z-0.97
Y37.043 Z-1.03
X87.915 Y37.005 Z-1.091
X87.944 Y36.975 Z-1.152
X87.982 Y36.957 Z-1.212
X88.023 Y36.955 Z-1.273
X88.063 Y36.969 Z-1.333
X88.094 Y36.996 Z-1.394
X88.113 Y37.033 Z-1.455
X88.117 Y37.075 Z-1.515
X88.106 Y37.115 Z-1.576
X88.08 Y37.147 Z-1.636
X88.044 Y37.168 Z-1.697
X88.003 Y37.174 Z-1.758
X87.962 Y37.164 Z-1.818
X87.928 Y37.14 Z-1.879
X87.906 Y37.105 Z-1.939
X87.898 Y37.064 Z-2
X87.906 Y37.023 Z-2.061
X87.928 Y36.988 Z-2.121
X87.962 Y36.964 Z-2.182
X88.003 Y36.954 Z-2.242
X88.044 Y36.96 Z-2.303
X88.08 Y36.981 Z-2.364
X88.106 Y37.014 Z-2.424
X88.117 Y37.054 Z-2.485
X88.113 Y37.095 Z-2.545
X88.094 Y37.132 Z-2.606
X88.063 Y37.159 Z-2.667
X88.023 Y37.173 Z-2.727
X87.982 Y37.171 Z-2.788
X87.944 Y37.154 Z-2.848
X87.915 Y37.124 Z-2.909
X87.9 Y37.085 Z-2.97
Y37.043 Z-3.03
X87.915 Y37.005 Z-3.091
X87.944 Y36.975 Z-3.152
X87.982 Y36.957 Z-3.212
X88.023 Y36.955 Z-3.273
X88.063 Y36.969 Z-3.333
X88.094 Y36.996 Z-3.394
X88.113 Y37.033 Z-3.455
X88.117 Y37.075 Z-3.515
X88.106 Y37.115 Z-3.576
X88.08 Y37.147 Z-3.636
X88.044 Y37.168 Z-3.697
X88.003 Y37.174 Z-3.758
X87.962 Y37.164 Z-3.818
X87.928 Y37.14 Z-3.879
X87.906 Y37.105 Z-3.939
X87.898 Y37.064 Z-4
X87.906 Y37.023 Z-4.061
X87.928 Y36.988 Z-4.121
X87.962 Y36.964 Z-4.182
X88.003 Y36.954 Z-4.242
X88.044 Y36.96 Z-4.303
X88.08 Y36.981 Z-4.364
X88.106 Y37.014 Z-4.424
X88.117 Y37.054 Z-4.485
X88.113 Y37.095 Z-4.545
X88.094 Y37.132 Z-4.606
X88.063 Y37.159 Z-4.667
X88.023 Y37.173 Z-4.727
X87.982 Y37.171 Z-4.788
X87.944 Y37.154 Z-4.848
X87.915 Y37.124 Z-4.909
X87.9 Y37.085 Z-4.97
Y37.043 Z-5.03
X87.915 Y37.005 Z-5.091
X87.944 Y36.975 Z-5.152
X87.982 Y36.957 Z-5.212
X88.023 Y36.955 Z-5.273
X88.063 Y36.969 Z-5.333
X88.094 Y36.996 Z-5.394
X88.113 Y37.033 Z-5.455
X88.117 Y37.075 Z-5.515
X88.106 Y37.115 Z-5.576
X88.08 Y37.147 Z-5.636
X88.044 Y37.168 Z-5.697
X88.003 Y37.174 Z-5.758
X87.962 Y37.164 Z-5.818
X87.928 Y37.14 Z-5.879
X87.906 Y37.105 Z-5.939
X87.898 Y37.064 Z-6
X87.906 Y37.023 Z-6.061
X87.928 Y36.988 Z-6.121
X87.962 Y36.964 Z-6.182
X88.003 Y36.954 Z-6.242
X88.044 Y36.96 Z-6.303
X88.08 Y36.981 Z-6.364
X88.106 Y37.014 Z-6.424
X88.117 Y37.054 Z-6.485
X88.113 Y37.095 Z-6.545
X88.094 Y37.132 Z-6.606
X88.063 Y37.159 Z-6.667
X88.023 Y37.173 Z-6.727
X87.982 Y37.171 Z-6.788
X87.944 Y37.154 Z-6.848
X87.915 Y37.124 Z-6.909
X87.9 Y37.085 Z-6.97
Y37.043 Z-7.03
X87.915 Y37.005 Z-7.091
X87.944 Y36.975 Z-7.152
X87.982 Y36.957 Z-7.212
X88.023 Y36.955 Z-7.273
X88.063 Y36.969 Z-7.333
X88.094 Y36.996 Z-7.394
X88.113 Y37.033 Z-7.455
X88.117 Y37.075 Z-7.515
X88.106 Y37.115 Z-7.576
X88.08 Y37.147 Z-7.636
X88.044 Y37.168 Z-7.697
X88.003 Y37.174 Z-7.758
X87.962 Y37.164 Z-7.818
X87.928 Y37.14 Z-7.879
X87.906 Y37.105 Z-7.939
X87.898 Y37.064 Z-8
G3 X88.118 Y37.064 I0.11 J0
X87.898 Y37.064 I-0.11 J0
G1 X87.905 Y37.037
X87.925 Y37.017
X87.953 Y37.009
X88.008 Y37.064
Z6
X100.008 Y49.064
Z1.522
Z0
X99.953 Y49.119
X99.925 Y49.112
X99.905 Y49.092
X99.898 Y49.064
X99.906 Y49.023 Z-0.061
X99.928 Y48.988 Z-0.121
X99.962 Y48.964 Z-0.182
X100.003 Y48.954 Z-0.242
X100.044 Y48.96 Z-0.303
X100.08 Y48.981 Z-0.364
X100.106 Y49.014 Z-0.424
X100.117 Y49.054 Z-0.485
X100.113 Y49.095 Z-0.545
X100.094 Y49.132 Z-0.606
X100.063 Y49.159 Z-0.667
X100.023 Y49.173 Z-0.727
X99.982 Y49.171 Z-0.788
X99.944 Y49.154 Z-0.848
X99.915 Y49.124 Z-0.909
X99.9 Y49.085 Z-0.97
Y49.043 Z-1.03
X99.915 Y49.005 Z-1.091
X99.944 Y48.975 Z-1.152
X99.982 Y48.957 Z-1.212
X100.023 Y48.955 Z-1.273
X100.063 Y48.969 Z-1.333
X100.094 Y48.996 Z-1.394
X100.113 Y49.033 Z-1.455
X100.117 Y49.075 Z-1.515
X100.106 Y49.115 Z-1.576
X100.08 Y49.147 Z-1.636
X100.044 Y49.168 Z-1.697
X100.003 Y49.174 Z-1.758
X99.962 Y49.164 Z-1.818
X99.928 Y49.14 Z-1.879
X99.906 Y49.105 Z-1.939
X99.898 Y49.064 Z-2
X99.906 Y49.023 Z-2.061
X99.928 Y48.988 Z-2.121
X99.962 Y48.964 Z-2.182
X100.003 Y48.954 Z-2.242
X100.044 Y48.96 Z-2.303
X100.08 Y48.981 Z-2.364
X100.106 Y49.014 Z-2.424
X100.117 Y49.054 Z-2.485
X100.113 Y49.095 Z-2.545
X100.094 Y49.132 Z-2.606
X100.063 Y49.159 Z-2.667
X100.023 Y49.173 Z-2.727
X99.982 Y49.171 Z-2.788
X99.944 Y49.154 Z-2.848
X99.915 Y49.124 Z-2.909
X99.9 Y49.085 Z-2.97
Y49.043 Z-3.03
X99.915 Y49.005 Z-3.091
X99.944 Y48.975 Z-3.152
X99.982 Y48.957 Z-3.212
X100.023 Y48.955 Z-3.273
X100.063 Y48.969 Z-3.333
X100.094 Y48.996 Z-3.394
X100.113 Y49.033 Z-3.455
X100.117 Y49.075 Z-3.515
X100.106 Y49.115 Z-3.576
X100.08 Y49.147 Z-3.636
X100.044 Y49.168 Z-3.697
X100.003 Y49.174 Z-3.758
X99.962 Y49.164 Z-3.818
X99.928 Y49.14 Z-3.879
X99.906 Y49.105 Z-3.939
X99.898 Y49.064 Z-4
X99.906 Y49.023 Z-4.061
X99.928 Y48.988 Z-4.121
X99.962 Y48.964 Z-4.182
X100.003 Y48.954 Z-4.242
X100.044 Y48.96 Z-4.303
X100.08 Y48.981 Z-4.364
X100.106 Y49.014 Z-4.424
X100.117 Y49.054 Z-4.485
X100.113 Y49.095 Z-4.545
X100.094 Y49.132 Z-4.606
X100.063 Y49.159 Z-4.667
X100.023 Y49.173 Z-4.727
X99.982 Y49.171 Z-4.788
X99.944 Y49.154 Z-4.848
X99.915 Y49.124 Z-4.909
X99.9 Y49.085 Z-4.97
Y49.043 Z-5.03
X99.915 Y49.005 Z-5.091
X99.944 Y48.975 Z-5.152
X99.982 Y48.957 Z-5.212
X100.023 Y48.955 Z-5.273
X100.063 Y48.969 Z-5.333
X100.094 Y48.996 Z-5.394
X100.113 Y49.033 Z-5.455
X100.117 Y49.075 Z-5.515
X100.106 Y49.115 Z-5.576
X100.08 Y49.147 Z-5.636
X100.044 Y49.168 Z-5.697
X100.003 Y49.174 Z-5.758
X99.962 Y49.164 Z-5.818
X99.928 Y49.14 Z-5.879
X99.906 Y49.105 Z-5.939
X99.898 Y49.064 Z-6
X99.906 Y49.023 Z-6.061
X99.928 Y48.988 Z-6.121
X99.962 Y48.964 Z-6.182
X100.003 Y48.954 Z-6.242
X100.044 Y48.96 Z-6.303
X100.08 Y48.981 Z-6.364
X100.106 Y49.014 Z-6.424
X100.117 Y49.054 Z-6.485
X100.113 Y49.095 Z-6.545
X100.094 Y49.132 Z-6.606
X100.063 Y49.159 Z-6.667
X100.023 Y49.173 Z-6.727
X99.982 Y49.171 Z-6.788
X99.944 Y49.154 Z-6.848
X99.915 Y49.124 Z-6.909
X99.9 Y49.085 Z-6.97
Y49.043 Z-7.03
X99.915 Y49.005 Z-7.091
X99.944 Y48.975 Z-7.152
X99.982 Y48.957 Z-7.212
X100.023 Y48.955 Z-7.273
X100.063 Y48.969 Z-7.333
X100.094 Y48.996 Z-7.394
X100.113 Y49.033 Z-7.455
X100.117 Y49.075 Z-7.515
X100.106 Y49.115 Z-7.576
X100.08 Y49.147 Z-7.636
X100.044 Y49.168 Z-7.697
X100.003 Y49.174 Z-7.758
X99.962 Y49.164 Z-7.818
X99.928 Y49.14 Z-7.879
X99.906 Y49.105 Z-7.939
X99.898 Y49.064 Z-8
G3 X100.118 Y49.064 I0.11 J0
X99.898 Y49.064 I-0.11 J0
G1 X99.905 Y49.037
X99.925 Y49.017
X99.953 Y49.009
X100.008 Y49.064
Z6
X112.008 Y37.064
Z1.522
Z0
X111.953 Y37.119
X111.925 Y37.112
X111.905 Y37.092
X111.898 Y37.064
X111.906 Y37.023 Z-0.061
X111.928 Y36.988 Z-0.121
X111.962 Y36.964 Z-0.182
X112.003 Y36.954 Z-0.242
X112.044 Y36.96 Z-0.303
X112.08 Y36.981 Z-0.364
X112.106 Y37.014 Z-0.424
X112.117 Y37.054 Z-0.485
X112.113 Y37.095 Z-0.545
X112.094 Y37.132 Z-0.606
X112.063 Y37.159 Z-0.667
X112.023 Y37.173 Z-0.727
X111.982 Y37.171 Z-0.788
X111.944 Y37.154 Z-0.848
X111.915 Y37.124 Z-0.909
X111.9 Y37.085 Z-0.97
Y37.043 Z-1.03
X111.915 Y37.005 Z-1.091
X111.944 Y36.975 Z-1.152
X111.982 Y36.957 Z-1.212
X112.023 Y36.955 Z-1.273
X112.063 Y36.969 Z-1.333
X112.094 Y36.996 Z-1.394
X112.113 Y37.033 Z-1.455
X112.117 Y37.075 Z-1.515
X112.106 Y37.115 Z-1.576
X112.08 Y37.147 Z-1.636
X112.044 Y37.168 Z-1.697
X112.003 Y37.174 Z-1.758
X111.962 Y37.164 Z-1.818
X111.928 Y37.14 Z-1.879
X111.906 Y37.105 Z-1.939
X111.898 Y37.064 Z-2
X111.906 Y37.023 Z-2.061
X111.928 Y36.988 Z-2.121
X111.962 Y36.964 Z-2.182
X112.003 Y36.954 Z-2.242
X112.044 Y36.96 Z-2.303
X112.08 Y36.981 Z-2.364
X112.106 Y37.014 Z-2.424
X112.117 Y37.054 Z-2.485
X112.113 Y37.095 Z-2.545
X112.094 Y37.132 Z-2.606
X112.063 Y37.159 Z-2.667
X112.023 Y37.173 Z-2.727
X111.982 Y37.171 Z-2.788
X111.944 Y37.154 Z-2.848
X111.915 Y37.124 Z-2.909
X111.9 Y37.085 Z-2.97
Y37.043 Z-3.03
X111.915 Y37.005 Z-3.091
X111.944 Y36.975 Z-3.152
X111.982 Y36.957 Z-3.212
X112.023 Y36.955 Z-3.273
X112.063 Y36.969 Z-3.333
X112.094 Y36.996 Z-3.394
X112.113 Y37.033 Z-3.455
X112.117 Y37.075 Z-3.515
X112.106 Y37.115 Z-3.576
X112.08 Y37.147 Z-3.636
X112.044 Y37.168 Z-3.697
X112.003 Y37.174 Z-3.758
X111.962 Y37.164 Z-3.818
X111.928 Y37.14 Z-3.879
X111.906 Y37.105 Z-3.939
X111.898 Y37.064 Z-4
X111.906 Y37.023 Z-4.061
X111.928 Y36.988 Z-4.121
X111.962 Y36.964 Z-4.182
X112.003 Y36.954 Z-4.242
X112.044 Y36.96 Z-4.303
X112.08 Y36.981 Z-4.364
X112.106 Y37.014 Z-4.424
X112.117 Y37.054 Z-4.485
X112.113 Y37.095 Z-4.545
X112.094 Y37.132 Z-4.606
X112.063 Y37.159 Z-4.667
X112.023 Y37.173 Z-4.727
X111.982 Y37.171 Z-4.788
X111.944 Y37.154 Z-4.848
X111.915 Y37.124 Z-4.909
X111.9 Y37.085 Z-4.97
Y37.043 Z-5.03
X111.915 Y37.005 Z-5.091
X111.944 Y36.975 Z-5.152
X111.982 Y36.957 Z-5.212
X112.023 Y36.955 Z-5.273
X112.063 Y36.969 Z-5.333
X112.094 Y36.996 Z-5.394
X112.113 Y37.033 Z-5.455
X112.117 Y37.075 Z-5.515
X112.106 Y37.115 Z-5.576
X112.08 Y37.147 Z-5.636
X112.044 Y37.168 Z-5.697
X112.003 Y37.174 Z-5.758
X111.962 Y37.164 Z-5.818
X111.928 Y37.14 Z-5.879
X111.906 Y37.105 Z-5.939
X111.898 Y37.064 Z-6
X111.906 Y37.023 Z-6.061
X111.928 Y36.988 Z-6.121
X111.962 Y36.964 Z-6.182
X112.003 Y36.954 Z-6.242
X112.044 Y36.96 Z-6.303
X112.08 Y36.981 Z-6.364
X112.106 Y37.014 Z-6.424
X112.117 Y37.054 Z-6.485
X112.113 Y37.095 Z-6.545
X112.094 Y37.132 Z-6.606
X112.063 Y37.159 Z-6.667
X112.023 Y37.173 Z-6.727
X111.982 Y37.171 Z-6.788
X111.944 Y37.154 Z-6.848
X111.915 Y37.124 Z-6.909
X111.9 Y37.085 Z-6.97
Y37.043 Z-7.03
X111.915 Y37.005 Z-7.091
X111.944 Y36.975 Z-7.152
X111.982 Y36.957 Z-7.212
X112.023 Y36.955 Z-7.273
X112.063 Y36.969 Z-7.333
X112.094 Y36.996 Z-7.394
X112.113 Y37.033 Z-7.455
X112.117 Y37.075 Z-7.515
X112.106 Y37.115 Z-7.576
X112.08 Y37.147 Z-7.636
X112.044 Y37.168 Z-7.697
X112.003 Y37.174 Z-7.758
X111.962 Y37.164 Z-7.818
X111.928 Y37.14 Z-7.879
X111.906 Y37.105 Z-7.939
X111.898 Y37.064 Z-8
G3 X112.118 Y37.064 I0.11 J0
X111.898 Y37.064 I-0.11 J0
G1 X111.905 Y37.037
X111.925 Y37.017
X111.953 Y37.009
X112.008 Y37.064
Z16
M9
G28 G91 Z0
G90
G28 G91 X0 Y0
G90
M5
M30
