(actuator_drill)
(Machine)
(  vendor: Autodesk)
(  model: GARAGE CNC)
(  description: GARAGE CNC)
(T1  D=4.78 CR=2.39 - ZMIN=-8 - ball end mill)
G90 G94
G17
G21
(When using Fusion 360 for Personal Use, the feedrate of)
(rapid moves is reduced to match the feedrate of cutting)
(moves, which can increase machining time. Unrestricted rapid)
(moves are available with a Fusion 360 Subscription.)
G28 G91 Z0
G90

(Bore3)
T1
S24000 M3
G54
M8
G0 X100.008 Y25.064
Z16
G1 Z1.522 F50
Z0
X99.953 Y25.119
X99.925 Y25.112
X99.905 Y25.092
X99.898 Y25.064
X99.906 Y25.023 Z-0.024
X99.928 Y24.988 Z-0.049
X99.962 Y24.964 Z-0.073
X100.003 Y24.954 Z-0.097
X100.044 Y24.96 Z-0.122
X100.08 Y24.982 Z-0.146
X100.106 Y25.015 Z-0.17
X100.117 Y25.055 Z-0.195
X100.113 Y25.096 Z-0.219
X100.093 Y25.133 Z-0.243
X100.062 Y25.16 Z-0.267
X100.022 Y25.173 Z-0.292
X99.98 Y25.171 Z-0.316
X99.943 Y25.153 Z-0.34
X99.914 Y25.122 Z-0.365
X99.899 Y25.083 Z-0.389
X99.9 Y25.041 Z-0.413
X99.917 Y25.003 Z-0.438
X99.946 Y24.973 Z-0.462
X99.984 Y24.957 Z-0.486
X100.026 Y24.956 Z-0.511
X100.065 Y24.97 Z-0.535
X100.096 Y24.999 Z-0.559
X100.114 Y25.036 Z-0.584
X100.117 Y25.078 Z-0.608
X100.104 Y25.118 Z-0.632
X100.077 Y25.15 Z-0.657
X100.04 Y25.169 Z-0.681
X99.999 Y25.174 Z-0.705
X99.959 Y25.163 Z-0.729
X99.926 Y25.137 Z-0.754
X99.904 Y25.101 Z-0.778
X99.898 Y25.06 Z-0.802
X99.907 Y25.019 Z-0.827
X99.931 Y24.985 Z-0.851
X99.966 Y24.962 Z-0.875
X100.007 Y24.954 Z-0.9
X100.048 Y24.962 Z-0.924
X100.084 Y24.984 Z-0.948
X100.108 Y25.018 Z-0.973
X100.118 Y25.059 Z-0.997
X100.112 Y25.1 Z-1.021
X100.091 Y25.136 Z-1.046
X100.058 Y25.162 Z-1.07
X100.018 Y25.174 Z-1.094
X99.976 Y25.17 Z-1.119
X99.939 Y25.15 Z-1.143
X99.912 Y25.118 Z-1.167
X99.899 Y25.079 Z-1.191
X99.901 Y25.037 Z-1.216
X99.919 Y24.999 Z-1.24
X99.95 Y24.971 Z-1.264
X99.988 Y24.956 Z-1.289
X100.03 Y24.957 Z-1.313
X100.069 Y24.973 Z-1.337
X100.099 Y25.002 Z-1.362
X100.115 Y25.04 Z-1.386
X100.116 Y25.082 Z-1.41
X100.102 Y25.121 Z-1.435
X100.074 Y25.152 Z-1.459
X100.036 Y25.17 Z-1.483
X99.995 Y25.173 Z-1.508
X99.955 Y25.161 Z-1.532
X99.923 Y25.134 Z-1.556
X99.903 Y25.097 Z-1.581
X99.898 Y25.056 Z-1.605
X99.909 Y25.016 Z-1.629
X99.934 Y24.982 Z-1.653
X99.97 Y24.961 Z-1.678
X100.011 Y24.954 Z-1.702
X100.052 Y24.964 Z-1.726
X100.087 Y24.987 Z-1.751
X100.109 Y25.022 Z-1.775
X100.118 Y25.063 Z-1.799
X100.11 Y25.104 Z-1.824
X100.088 Y25.14 Z-1.848
X100.054 Y25.164 Z-1.872
X100.014 Y25.174 Z-1.897
X99.972 Y25.168 Z-1.921
X99.936 Y25.148 Z-1.945
X99.91 Y25.115 Z-1.97
X99.898 Y25.075 Z-1.994
X99.902 Y25.033 Z-2.018
X99.921 Y24.996 Z-2.043
X99.953 Y24.969 Z-2.067
X99.993 Y24.955 Z-2.091
X100.034 Y24.957 Z-2.116
X100.072 Y24.975 Z-2.14
X100.101 Y25.005 Z-2.164
X100.116 Y25.044 Z-2.188
Y25.086 Z-2.213
X100.1 Y25.125 Z-2.237
X100.071 Y25.155 Z-2.261
X100.032 Y25.171 Z-2.286
X99.991 Y25.173 Z-2.31
X99.951 Y25.159 Z-2.334
X99.92 Y25.131 Z-2.359
X99.902 Y25.093 Z-2.383
X99.899 Y25.052 Z-2.407
X99.911 Y25.012 Z-2.432
X99.938 Y24.98 Z-2.456
X99.974 Y24.959 Z-2.48
X100.016 Y24.955 Z-2.505
X100.056 Y24.965 Z-2.529
X100.089 Y24.99 Z-2.553
X100.111 Y25.026 Z-2.578
X100.118 Y25.067 Z-2.602
X100.109 Y25.108 Z-2.626
X100.085 Y25.143 Z-2.65
X100.05 Y25.166 Z-2.675
X100.009 Y25.174 Z-2.699
X99.968 Y25.167 Z-2.723
X99.933 Y25.145 Z-2.748
X99.908 Y25.111 Z-2.772
X99.898 Y25.071 Z-2.796
X99.904 Y25.029 Z-2.821
X99.924 Y24.993 Z-2.845
X99.957 Y24.967 Z-2.869
X99.997 Y24.955 Z-2.894
X100.038 Y24.959 Z-2.918
X100.076 Y24.978 Z-2.942
X100.103 Y25.009 Z-2.967
X100.117 Y25.049 Z-2.991
X100.115 Y25.09 Z-3.015
X100.097 Y25.128 Z-3.04
X100.067 Y25.157 Z-3.064
X100.028 Y25.172 Z-3.088
X99.986 Z-3.112
X99.948 Y25.156 Z-3.137
X99.918 Y25.127 Z-3.161
X99.901 Y25.089 Z-3.185
X99.899 Y25.047 Z-3.21
X99.913 Y25.008 Z-3.234
X99.941 Y24.977 Z-3.258
X99.978 Y24.958 Z-3.283
X100.02 Y24.955 Z-3.307
X100.06 Y24.967 Z-3.331
X100.092 Y24.994 Z-3.356
X100.112 Y25.03 Z-3.38
X100.118 Y25.072 Z-3.404
X100.107 Y25.112 Z-3.429
X100.082 Y25.145 Z-3.453
X100.046 Y25.167 Z-3.477
X100.005 Y25.174 Z-3.502
X99.964 Y25.165 Z-3.526
X99.93 Y25.142 Z-3.55
X99.907 Y25.107 Z-3.574
X99.898 Y25.066 Z-3.599
X99.905 Y25.025 Z-3.623
X99.927 Y24.99 Z-3.647
X99.961 Y24.965 Z-3.672
X100.001 Y24.954 Z-3.696
X100.042 Y24.96 Z-3.72
X100.079 Y24.98 Z-3.745
X100.105 Y25.013 Z-3.769
X100.117 Y25.053 Z-3.793
X100.114 Y25.094 Z-3.818
X100.095 Y25.132 Z-3.842
X100.063 Y25.159 Z-3.866
X100.024 Y25.173 Z-3.891
X99.982 Y25.171 Z-3.915
X99.944 Y25.154 Z-3.939
X99.915 Y25.124 Z-3.964
X99.9 Y25.085 Z-3.988
Y25.043 Z-4.012
X99.915 Y25.005 Z-4.036
X99.944 Y24.974 Z-4.061
X99.982 Y24.957 Z-4.085
X100.024 Y24.955 Z-4.109
X100.063 Y24.969 Z-4.134
X100.095 Y24.997 Z-4.158
X100.114 Y25.034 Z-4.182
X100.117 Y25.076 Z-4.207
X100.105 Y25.116 Z-4.231
X100.079 Y25.148 Z-4.255
X100.042 Y25.169 Z-4.28
X100.001 Y25.174 Z-4.304
X99.961 Y25.164 Z-4.328
X99.927 Y25.139 Z-4.353
X99.905 Y25.103 Z-4.377
X99.898 Y25.062 Z-4.401
X99.907 Y25.021 Z-4.426
X99.93 Y24.987 Z-4.45
X99.964 Y24.963 Z-4.474
X100.005 Y24.954 Z-4.498
X100.046 Y24.961 Z-4.523
X100.082 Y24.983 Z-4.547
X100.107 Y25.016 Z-4.571
X100.118 Y25.057 Z-4.596
X100.112 Y25.098 Z-4.62
X100.092 Y25.135 Z-4.644
X100.06 Y25.161 Z-4.669
X100.02 Y25.174 Z-4.693
X99.978 Y25.17 Z-4.717
X99.941 Y25.152 Z-4.742
X99.913 Y25.12 Z-4.766
X99.899 Y25.081 Z-4.79
X99.901 Y25.039 Z-4.815
X99.918 Y25.001 Z-4.839
X99.948 Y24.972 Z-4.863
X99.986 Y24.956 Z-4.888
X100.028 Z-4.912
X100.067 Y24.972 Z-4.936
X100.097 Y25 Z-4.96
X100.115 Y25.038 Z-4.985
X100.117 Y25.08 Z-5.009
X100.103 Y25.119 Z-5.033
X100.076 Y25.151 Z-5.058
X100.038 Y25.17 Z-5.082
X99.997 Y25.174 Z-5.106
X99.957 Y25.162 Z-5.131
X99.924 Y25.136 Z-5.155
X99.904 Y25.099 Z-5.179
X99.898 Y25.058 Z-5.204
X99.908 Y25.017 Z-5.228
X99.933 Y24.984 Z-5.252
X99.968 Y24.962 Z-5.277
X100.009 Y24.954 Z-5.301
X100.05 Y24.963 Z-5.325
X100.085 Y24.986 Z-5.35
X100.109 Y25.02 Z-5.374
X100.118 Y25.061 Z-5.398
X100.111 Y25.102 Z-5.422
X100.089 Y25.138 Z-5.447
X100.056 Y25.163 Z-5.471
X100.016 Y25.174 Z-5.495
X99.974 Y25.169 Z-5.52
X99.938 Y25.149 Z-5.544
X99.911 Y25.117 Z-5.568
X99.899 Y25.077 Z-5.593
X99.902 Y25.035 Z-5.617
X99.92 Y24.998 Z-5.641
X99.951 Y24.97 Z-5.666
X99.991 Y24.956 Z-5.69
X100.032 Y24.957 Z-5.714
X100.071 Y24.974 Z-5.739
X100.1 Y25.004 Z-5.763
X100.116 Y25.042 Z-5.787
Y25.084 Z-5.812
X100.101 Y25.123 Z-5.836
X100.072 Y25.153 Z-5.86
X100.034 Y25.171 Z-5.884
X99.993 Y25.173 Z-5.909
X99.953 Y25.16 Z-5.933
X99.921 Y25.132 Z-5.957
X99.902 Y25.095 Z-5.982
X99.898 Y25.054 Z-6.006
X99.91 Y25.014 Z-6.03
X99.936 Y24.981 Z-6.055
X99.972 Y24.96 Z-6.079
X100.014 Y24.954 Z-6.103
X100.054 Y24.964 Z-6.128
X100.088 Y24.989 Z-6.152
X100.11 Y25.024 Z-6.176
X100.118 Y25.065 Z-6.201
X100.109 Y25.106 Z-6.225
X100.087 Y25.141 Z-6.249
X100.052 Y25.165 Z-6.274
X100.011 Y25.174 Z-6.298
X99.97 Y25.168 Z-6.322
X99.934 Y25.146 Z-6.347
X99.909 Y25.113 Z-6.371
X99.898 Y25.073 Z-6.395
X99.903 Y25.031 Z-6.419
X99.923 Y24.994 Z-6.444
X99.955 Y24.968 Z-6.468
X99.995 Y24.955 Z-6.492
X100.036 Y24.958 Z-6.517
X100.074 Y24.976 Z-6.541
X100.102 Y25.007 Z-6.565
X100.116 Y25.046 Z-6.59
X100.115 Y25.088 Z-6.614
X100.099 Y25.126 Z-6.638
X100.069 Y25.156 Z-6.663
X100.03 Y25.172 Z-6.687
X99.988 Y25.173 Z-6.711
X99.95 Y25.158 Z-6.736
X99.919 Y25.129 Z-6.76
X99.901 Y25.091 Z-6.784
X99.899 Y25.05 Z-6.809
X99.912 Y25.01 Z-6.833
X99.939 Y24.978 Z-6.857
X99.976 Y24.959 Z-6.881
X100.018 Y24.955 Z-6.906
X100.058 Y24.966 Z-6.93
X100.091 Y24.992 Z-6.954
X100.112 Y25.028 Z-6.979
X100.118 Y25.069 Z-7.003
X100.108 Y25.11 Z-7.027
X100.084 Y25.144 Z-7.052
X100.048 Y25.166 Z-7.076
X100.007 Y25.174 Z-7.1
X99.966 Y25.166 Z-7.125
X99.931 Y25.143 Z-7.149
X99.907 Y25.109 Z-7.173
X99.898 Y25.068 Z-7.198
X99.904 Y25.027 Z-7.222
X99.926 Y24.991 Z-7.246
X99.959 Y24.966 Z-7.271
X99.999 Y24.955 Z-7.295
X100.04 Y24.959 Z-7.319
X100.077 Y24.979 Z-7.343
X100.104 Y25.011 Z-7.368
X100.117 Y25.051 Z-7.392
X100.114 Y25.092 Z-7.416
X100.096 Y25.13 Z-7.441
X100.065 Y25.158 Z-7.465
X100.026 Y25.173 Z-7.489
X99.984 Y25.172 Z-7.514
X99.946 Y25.155 Z-7.538
X99.917 Y25.126 Z-7.562
X99.9 Y25.087 Z-7.587
X99.899 Y25.045 Z-7.611
X99.914 Y25.006 Z-7.635
X99.943 Y24.976 Z-7.66
X99.98 Y24.958 Z-7.684
X100.022 Y24.955 Z-7.708
X100.062 Y24.968 Z-7.733
X100.093 Y24.995 Z-7.757
X100.113 Y25.032 Z-7.781
X100.117 Y25.074 Z-7.805
X100.106 Y25.114 Z-7.83
X100.08 Y25.147 Z-7.854
X100.044 Y25.168 Z-7.878
X100.003 Y25.174 Z-7.903
X99.962 Y25.164 Z-7.927
X99.928 Y25.14 Z-7.951
X99.906 Y25.105 Z-7.976
X99.898 Y25.064 Z-8
G3 X100.118 Y25.064 I0.11 J0
X99.898 Y25.064 I-0.11 J0
G1 X99.905 Y25.037
X99.925 Y25.017
X99.953 Y25.009
X100.008 Y25.064
Z6
X88.008 Y37.064
Z1.522
Z0
X87.953 Y37.119
X87.925 Y37.112
X87.905 Y37.092
X87.898 Y37.064
X87.906 Y37.023 Z-0.024
X87.928 Y36.988 Z-0.049
X87.962 Y36.964 Z-0.073
X88.003 Y36.954 Z-0.097
X88.044 Y36.96 Z-0.122
X88.08 Y36.982 Z-0.146
X88.106 Y37.015 Z-0.17
X88.117 Y37.055 Z-0.195
X88.113 Y37.096 Z-0.219
X88.093 Y37.133 Z-0.243
X88.062 Y37.16 Z-0.267
X88.022 Y37.173 Z-0.292
X87.98 Y37.171 Z-0.316
X87.943 Y37.153 Z-0.34
X87.914 Y37.122 Z-0.365
X87.899 Y37.083 Z-0.389
X87.9 Y37.041 Z-0.413
X87.917 Y37.003 Z-0.438
X87.946 Y36.973 Z-0.462
X87.984 Y36.957 Z-0.486
X88.026 Y36.956 Z-0.511
X88.065 Y36.97 Z-0.535
X88.096 Y36.999 Z-0.559
X88.114 Y37.036 Z-0.584
X88.117 Y37.078 Z-0.608
X88.104 Y37.118 Z-0.632
X88.077 Y37.15 Z-0.657
X88.04 Y37.169 Z-0.681
X87.999 Y37.174 Z-0.705
X87.959 Y37.163 Z-0.729
X87.926 Y37.137 Z-0.754
X87.904 Y37.101 Z-0.778
X87.898 Y37.06 Z-0.802
X87.907 Y37.019 Z-0.827
X87.931 Y36.985 Z-0.851
X87.966 Y36.962 Z-0.875
X88.007 Y36.954 Z-0.9
X88.048 Y36.962 Z-0.924
X88.084 Y36.984 Z-0.948
X88.108 Y37.018 Z-0.973
X88.118 Y37.059 Z-0.997
X88.112 Y37.1 Z-1.021
X88.091 Y37.136 Z-1.046
X88.058 Y37.162 Z-1.07
X88.018 Y37.174 Z-1.094
X87.976 Y37.17 Z-1.119
X87.939 Y37.15 Z-1.143
X87.912 Y37.118 Z-1.167
X87.899 Y37.079 Z-1.191
X87.901 Y37.037 Z-1.216
X87.919 Y36.999 Z-1.24
X87.95 Y36.971 Z-1.264
X87.988 Y36.956 Z-1.289
X88.03 Y36.957 Z-1.313
X88.069 Y36.973 Z-1.337
X88.099 Y37.002 Z-1.362
X88.115 Y37.04 Z-1.386
X88.116 Y37.082 Z-1.41
X88.102 Y37.121 Z-1.435
X88.074 Y37.152 Z-1.459
X88.036 Y37.17 Z-1.483
X87.995 Y37.173 Z-1.508
X87.955 Y37.161 Z-1.532
X87.923 Y37.134 Z-1.556
X87.903 Y37.097 Z-1.581
X87.898 Y37.056 Z-1.605
X87.909 Y37.016 Z-1.629
X87.934 Y36.982 Z-1.653
X87.97 Y36.961 Z-1.678
X88.011 Y36.954 Z-1.702
X88.052 Y36.964 Z-1.726
X88.087 Y36.987 Z-1.751
X88.109 Y37.022 Z-1.775
X88.118 Y37.063 Z-1.799
X88.11 Y37.104 Z-1.824
X88.088 Y37.14 Z-1.848
X88.054 Y37.164 Z-1.872
X88.014 Y37.174 Z-1.897
X87.972 Y37.168 Z-1.921
X87.936 Y37.148 Z-1.945
X87.91 Y37.115 Z-1.97
X87.898 Y37.075 Z-1.994
X87.902 Y37.033 Z-2.018
X87.921 Y36.996 Z-2.043
X87.953 Y36.969 Z-2.067
X87.993 Y36.955 Z-2.091
X88.034 Y36.957 Z-2.116
X88.072 Y36.975 Z-2.14
X88.101 Y37.005 Z-2.164
X88.116 Y37.044 Z-2.188
Y37.086 Z-2.213
X88.1 Y37.125 Z-2.237
X88.071 Y37.155 Z-2.261
X88.032 Y37.171 Z-2.286
X87.991 Y37.173 Z-2.31
X87.951 Y37.159 Z-2.334
X87.92 Y37.131 Z-2.359
X87.902 Y37.093 Z-2.383
X87.899 Y37.052 Z-2.407
X87.911 Y37.012 Z-2.432
X87.938 Y36.98 Z-2.456
X87.974 Y36.959 Z-2.48
X88.016 Y36.955 Z-2.505
X88.056 Y36.965 Z-2.529
X88.089 Y36.99 Z-2.553
X88.111 Y37.026 Z-2.578
X88.118 Y37.067 Z-2.602
X88.109 Y37.108 Z-2.626
X88.085 Y37.143 Z-2.65
X88.05 Y37.166 Z-2.675
X88.009 Y37.174 Z-2.699
X87.968 Y37.167 Z-2.723
X87.933 Y37.145 Z-2.748
X87.908 Y37.111 Z-2.772
X87.898 Y37.071 Z-2.796
X87.904 Y37.029 Z-2.821
X87.924 Y36.993 Z-2.845
X87.957 Y36.967 Z-2.869
X87.997 Y36.955 Z-2.894
X88.038 Y36.959 Z-2.918
X88.076 Y36.978 Z-2.942
X88.103 Y37.009 Z-2.967
X88.117 Y37.049 Z-2.991
X88.115 Y37.09 Z-3.015
X88.097 Y37.128 Z-3.04
X88.067 Y37.157 Z-3.064
X88.028 Y37.172 Z-3.088
X87.986 Z-3.112
X87.948 Y37.156 Z-3.137
X87.918 Y37.127 Z-3.161
X87.901 Y37.089 Z-3.185
X87.899 Y37.047 Z-3.21
X87.913 Y37.008 Z-3.234
X87.941 Y36.977 Z-3.258
X87.978 Y36.958 Z-3.283
X88.02 Y36.955 Z-3.307
X88.06 Y36.967 Z-3.331
X88.092 Y36.994 Z-3.356
X88.112 Y37.03 Z-3.38
X88.118 Y37.072 Z-3.404
X88.107 Y37.112 Z-3.429
X88.082 Y37.145 Z-3.453
X88.046 Y37.167 Z-3.477
X88.005 Y37.174 Z-3.502
X87.964 Y37.165 Z-3.526
X87.93 Y37.142 Z-3.55
X87.907 Y37.107 Z-3.574
X87.898 Y37.066 Z-3.599
X87.905 Y37.025 Z-3.623
X87.927 Y36.99 Z-3.647
X87.961 Y36.965 Z-3.672
X88.001 Y36.954 Z-3.696
X88.042 Y36.96 Z-3.72
X88.079 Y36.98 Z-3.745
X88.105 Y37.013 Z-3.769
X88.117 Y37.053 Z-3.793
X88.114 Y37.094 Z-3.818
X88.095 Y37.132 Z-3.842
X88.063 Y37.159 Z-3.866
X88.024 Y37.173 Z-3.891
X87.982 Y37.171 Z-3.915
X87.944 Y37.154 Z-3.939
X87.915 Y37.124 Z-3.964
X87.9 Y37.085 Z-3.988
Y37.043 Z-4.012
X87.915 Y37.005 Z-4.036
X87.944 Y36.974 Z-4.061
X87.982 Y36.957 Z-4.085
X88.024 Y36.955 Z-4.109
X88.063 Y36.969 Z-4.134
X88.095 Y36.997 Z-4.158
X88.114 Y37.034 Z-4.182
X88.117 Y37.076 Z-4.207
X88.105 Y37.116 Z-4.231
X88.079 Y37.148 Z-4.255
X88.042 Y37.169 Z-4.28
X88.001 Y37.174 Z-4.304
X87.961 Y37.164 Z-4.328
X87.927 Y37.139 Z-4.353
X87.905 Y37.103 Z-4.377
X87.898 Y37.062 Z-4.401
X87.907 Y37.021 Z-4.426
X87.93 Y36.987 Z-4.45
X87.964 Y36.963 Z-4.474
X88.005 Y36.954 Z-4.498
X88.046 Y36.961 Z-4.523
X88.082 Y36.983 Z-4.547
X88.107 Y37.016 Z-4.571
X88.118 Y37.057 Z-4.596
X88.112 Y37.098 Z-4.62
X88.092 Y37.135 Z-4.644
X88.06 Y37.161 Z-4.669
X88.02 Y37.174 Z-4.693
X87.978 Y37.17 Z-4.717
X87.941 Y37.152 Z-4.742
X87.913 Y37.12 Z-4.766
X87.899 Y37.081 Z-4.79
X87.901 Y37.039 Z-4.815
X87.918 Y37.001 Z-4.839
X87.948 Y36.972 Z-4.863
X87.986 Y36.956 Z-4.888
X88.028 Z-4.912
X88.067 Y36.972 Z-4.936
X88.097 Y37 Z-4.96
X88.115 Y37.038 Z-4.985
X88.117 Y37.08 Z-5.009
X88.103 Y37.119 Z-5.033
X88.076 Y37.151 Z-5.058
X88.038 Y37.17 Z-5.082
X87.997 Y37.174 Z-5.106
X87.957 Y37.162 Z-5.131
X87.924 Y37.136 Z-5.155
X87.904 Y37.099 Z-5.179
X87.898 Y37.058 Z-5.204
X87.908 Y37.017 Z-5.228
X87.933 Y36.984 Z-5.252
X87.968 Y36.962 Z-5.277
X88.009 Y36.954 Z-5.301
X88.05 Y36.963 Z-5.325
X88.085 Y36.986 Z-5.35
X88.109 Y37.02 Z-5.374
X88.118 Y37.061 Z-5.398
X88.111 Y37.102 Z-5.422
X88.089 Y37.138 Z-5.447
X88.056 Y37.163 Z-5.471
X88.016 Y37.174 Z-5.495
X87.974 Y37.169 Z-5.52
X87.938 Y37.149 Z-5.544
X87.911 Y37.117 Z-5.568
X87.899 Y37.077 Z-5.593
X87.902 Y37.035 Z-5.617
X87.92 Y36.998 Z-5.641
X87.951 Y36.97 Z-5.666
X87.991 Y36.956 Z-5.69
X88.032 Y36.957 Z-5.714
X88.071 Y36.974 Z-5.739
X88.1 Y37.004 Z-5.763
X88.116 Y37.042 Z-5.787
Y37.084 Z-5.812
X88.101 Y37.123 Z-5.836
X88.072 Y37.153 Z-5.86
X88.034 Y37.171 Z-5.884
X87.993 Y37.173 Z-5.909
X87.953 Y37.16 Z-5.933
X87.921 Y37.132 Z-5.957
X87.902 Y37.095 Z-5.982
X87.898 Y37.054 Z-6.006
X87.91 Y37.014 Z-6.03
X87.936 Y36.981 Z-6.055
X87.972 Y36.96 Z-6.079
X88.014 Y36.954 Z-6.103
X88.054 Y36.964 Z-6.128
X88.088 Y36.989 Z-6.152
X88.11 Y37.024 Z-6.176
X88.118 Y37.065 Z-6.201
X88.109 Y37.106 Z-6.225
X88.087 Y37.141 Z-6.249
X88.052 Y37.165 Z-6.274
X88.011 Y37.174 Z-6.298
X87.97 Y37.168 Z-6.322
X87.934 Y37.146 Z-6.347
X87.909 Y37.113 Z-6.371
X87.898 Y37.073 Z-6.395
X87.903 Y37.031 Z-6.419
X87.923 Y36.994 Z-6.444
X87.955 Y36.968 Z-6.468
X87.995 Y36.955 Z-6.492
X88.036 Y36.958 Z-6.517
X88.074 Y36.976 Z-6.541
X88.102 Y37.007 Z-6.565
X88.116 Y37.046 Z-6.59
X88.115 Y37.088 Z-6.614
X88.099 Y37.126 Z-6.638
X88.069 Y37.156 Z-6.663
X88.03 Y37.172 Z-6.687
X87.988 Y37.173 Z-6.711
X87.95 Y37.158 Z-6.736
X87.919 Y37.129 Z-6.76
X87.901 Y37.091 Z-6.784
X87.899 Y37.05 Z-6.809
X87.912 Y37.01 Z-6.833
X87.939 Y36.978 Z-6.857
X87.976 Y36.959 Z-6.881
X88.018 Y36.955 Z-6.906
X88.058 Y36.966 Z-6.93
X88.091 Y36.992 Z-6.954
X88.112 Y37.028 Z-6.979
X88.118 Y37.069 Z-7.003
X88.108 Y37.11 Z-7.027
X88.084 Y37.144 Z-7.052
X88.048 Y37.166 Z-7.076
X88.007 Y37.174 Z-7.1
X87.966 Y37.166 Z-7.125
X87.931 Y37.143 Z-7.149
X87.907 Y37.109 Z-7.173
X87.898 Y37.068 Z-7.198
X87.904 Y37.027 Z-7.222
X87.926 Y36.991 Z-7.246
X87.959 Y36.966 Z-7.271
X87.999 Y36.955 Z-7.295
X88.04 Y36.959 Z-7.319
X88.077 Y36.979 Z-7.343
X88.104 Y37.011 Z-7.368
X88.117 Y37.051 Z-7.392
X88.114 Y37.092 Z-7.416
X88.096 Y37.13 Z-7.441
X88.065 Y37.158 Z-7.465
X88.026 Y37.173 Z-7.489
X87.984 Y37.172 Z-7.514
X87.946 Y37.155 Z-7.538
X87.917 Y37.126 Z-7.562
X87.9 Y37.087 Z-7.587
X87.899 Y37.045 Z-7.611
X87.914 Y37.006 Z-7.635
X87.943 Y36.976 Z-7.66
X87.98 Y36.958 Z-7.684
X88.022 Y36.955 Z-7.708
X88.062 Y36.968 Z-7.733
X88.093 Y36.995 Z-7.757
X88.113 Y37.032 Z-7.781
X88.117 Y37.074 Z-7.805
X88.106 Y37.114 Z-7.83
X88.08 Y37.147 Z-7.854
X88.044 Y37.168 Z-7.878
X88.003 Y37.174 Z-7.903
X87.962 Y37.164 Z-7.927
X87.928 Y37.14 Z-7.951
X87.906 Y37.105 Z-7.976
X87.898 Y37.064 Z-8
G3 X88.118 Y37.064 I0.11 J0
X87.898 Y37.064 I-0.11 J0
G1 X87.905 Y37.037
X87.925 Y37.017
X87.953 Y37.009
X88.008 Y37.064
Z6
X100.008 Y49.064
Z1.522
Z0
X99.953 Y49.119
X99.925 Y49.112
X99.905 Y49.092
X99.898 Y49.064
X99.906 Y49.023 Z-0.024
X99.928 Y48.988 Z-0.049
X99.962 Y48.964 Z-0.073
X100.003 Y48.954 Z-0.097
X100.044 Y48.96 Z-0.122
X100.08 Y48.982 Z-0.146
X100.106 Y49.015 Z-0.17
X100.117 Y49.055 Z-0.195
X100.113 Y49.096 Z-0.219
X100.093 Y49.133 Z-0.243
X100.062 Y49.16 Z-0.267
X100.022 Y49.173 Z-0.292
X99.98 Y49.171 Z-0.316
X99.943 Y49.153 Z-0.34
X99.914 Y49.122 Z-0.365
X99.899 Y49.083 Z-0.389
X99.9 Y49.041 Z-0.413
X99.917 Y49.003 Z-0.438
X99.946 Y48.973 Z-0.462
X99.984 Y48.957 Z-0.486
X100.026 Y48.956 Z-0.511
X100.065 Y48.97 Z-0.535
X100.096 Y48.999 Z-0.559
X100.114 Y49.036 Z-0.584
X100.117 Y49.078 Z-0.608
X100.104 Y49.118 Z-0.632
X100.077 Y49.15 Z-0.657
X100.04 Y49.169 Z-0.681
X99.999 Y49.174 Z-0.705
X99.959 Y49.163 Z-0.729
X99.926 Y49.137 Z-0.754
X99.904 Y49.101 Z-0.778
X99.898 Y49.06 Z-0.802
X99.907 Y49.019 Z-0.827
X99.931 Y48.985 Z-0.851
X99.966 Y48.962 Z-0.875
X100.007 Y48.954 Z-0.9
X100.048 Y48.962 Z-0.924
X100.084 Y48.984 Z-0.948
X100.108 Y49.018 Z-0.973
X100.118 Y49.059 Z-0.997
X100.112 Y49.1 Z-1.021
X100.091 Y49.136 Z-1.046
X100.058 Y49.162 Z-1.07
X100.018 Y49.174 Z-1.094
X99.976 Y49.17 Z-1.119
X99.939 Y49.15 Z-1.143
X99.912 Y49.118 Z-1.167
X99.899 Y49.079 Z-1.191
X99.901 Y49.037 Z-1.216
X99.919 Y48.999 Z-1.24
X99.95 Y48.971 Z-1.264
X99.988 Y48.956 Z-1.289
X100.03 Y48.957 Z-1.313
X100.069 Y48.973 Z-1.337
X100.099 Y49.002 Z-1.362
X100.115 Y49.04 Z-1.386
X100.116 Y49.082 Z-1.41
X100.102 Y49.121 Z-1.435
X100.074 Y49.152 Z-1.459
X100.036 Y49.17 Z-1.483
X99.995 Y49.173 Z-1.508
X99.955 Y49.161 Z-1.532
X99.923 Y49.134 Z-1.556
X99.903 Y49.097 Z-1.581
X99.898 Y49.056 Z-1.605
X99.909 Y49.016 Z-1.629
X99.934 Y48.982 Z-1.653
X99.97 Y48.961 Z-1.678
X100.011 Y48.954 Z-1.702
X100.052 Y48.964 Z-1.726
X100.087 Y48.987 Z-1.751
X100.109 Y49.022 Z-1.775
X100.118 Y49.063 Z-1.799
X100.11 Y49.104 Z-1.824
X100.088 Y49.14 Z-1.848
X100.054 Y49.164 Z-1.872
X100.014 Y49.174 Z-1.897
X99.972 Y49.168 Z-1.921
X99.936 Y49.148 Z-1.945
X99.91 Y49.115 Z-1.97
X99.898 Y49.075 Z-1.994
X99.902 Y49.033 Z-2.018
X99.921 Y48.996 Z-2.043
X99.953 Y48.969 Z-2.067
X99.993 Y48.955 Z-2.091
X100.034 Y48.957 Z-2.116
X100.072 Y48.975 Z-2.14
X100.101 Y49.005 Z-2.164
X100.116 Y49.044 Z-2.188
Y49.086 Z-2.213
X100.1 Y49.125 Z-2.237
X100.071 Y49.155 Z-2.261
X100.032 Y49.171 Z-2.286
X99.991 Y49.173 Z-2.31
X99.951 Y49.159 Z-2.334
X99.92 Y49.131 Z-2.359
X99.902 Y49.093 Z-2.383
X99.899 Y49.052 Z-2.407
X99.911 Y49.012 Z-2.432
X99.938 Y48.98 Z-2.456
X99.974 Y48.959 Z-2.48
X100.016 Y48.955 Z-2.505
X100.056 Y48.965 Z-2.529
X100.089 Y48.99 Z-2.553
X100.111 Y49.026 Z-2.578
X100.118 Y49.067 Z-2.602
X100.109 Y49.108 Z-2.626
X100.085 Y49.143 Z-2.65
X100.05 Y49.166 Z-2.675
X100.009 Y49.174 Z-2.699
X99.968 Y49.167 Z-2.723
X99.933 Y49.145 Z-2.748
X99.908 Y49.111 Z-2.772
X99.898 Y49.071 Z-2.796
X99.904 Y49.029 Z-2.821
X99.924 Y48.993 Z-2.845
X99.957 Y48.967 Z-2.869
X99.997 Y48.955 Z-2.894
X100.038 Y48.959 Z-2.918
X100.076 Y48.978 Z-2.942
X100.103 Y49.009 Z-2.967
X100.117 Y49.049 Z-2.991
X100.115 Y49.09 Z-3.015
X100.097 Y49.128 Z-3.04
X100.067 Y49.157 Z-3.064
X100.028 Y49.172 Z-3.088
X99.986 Z-3.112
X99.948 Y49.156 Z-3.137
X99.918 Y49.127 Z-3.161
X99.901 Y49.089 Z-3.185
X99.899 Y49.047 Z-3.21
X99.913 Y49.008 Z-3.234
X99.941 Y48.977 Z-3.258
X99.978 Y48.958 Z-3.283
X100.02 Y48.955 Z-3.307
X100.06 Y48.967 Z-3.331
X100.092 Y48.994 Z-3.356
X100.112 Y49.03 Z-3.38
X100.118 Y49.072 Z-3.404
X100.107 Y49.112 Z-3.429
X100.082 Y49.145 Z-3.453
X100.046 Y49.167 Z-3.477
X100.005 Y49.174 Z-3.502
X99.964 Y49.165 Z-3.526
X99.93 Y49.142 Z-3.55
X99.907 Y49.107 Z-3.574
X99.898 Y49.066 Z-3.599
X99.905 Y49.025 Z-3.623
X99.927 Y48.99 Z-3.647
X99.961 Y48.965 Z-3.672
X100.001 Y48.954 Z-3.696
X100.042 Y48.96 Z-3.72
X100.079 Y48.98 Z-3.745
X100.105 Y49.013 Z-3.769
X100.117 Y49.053 Z-3.793
X100.114 Y49.094 Z-3.818
X100.095 Y49.132 Z-3.842
X100.063 Y49.159 Z-3.866
X100.024 Y49.173 Z-3.891
X99.982 Y49.171 Z-3.915
X99.944 Y49.154 Z-3.939
X99.915 Y49.124 Z-3.964
X99.9 Y49.085 Z-3.988
Y49.043 Z-4.012
X99.915 Y49.005 Z-4.036
X99.944 Y48.974 Z-4.061
X99.982 Y48.957 Z-4.085
X100.024 Y48.955 Z-4.109
X100.063 Y48.969 Z-4.134
X100.095 Y48.997 Z-4.158
X100.114 Y49.034 Z-4.182
X100.117 Y49.076 Z-4.207
X100.105 Y49.116 Z-4.231
X100.079 Y49.148 Z-4.255
X100.042 Y49.169 Z-4.28
X100.001 Y49.174 Z-4.304
X99.961 Y49.164 Z-4.328
X99.927 Y49.139 Z-4.353
X99.905 Y49.103 Z-4.377
X99.898 Y49.062 Z-4.401
X99.907 Y49.021 Z-4.426
X99.93 Y48.987 Z-4.45
X99.964 Y48.963 Z-4.474
X100.005 Y48.954 Z-4.498
X100.046 Y48.961 Z-4.523
X100.082 Y48.983 Z-4.547
X100.107 Y49.016 Z-4.571
X100.118 Y49.057 Z-4.596
X100.112 Y49.098 Z-4.62
X100.092 Y49.135 Z-4.644
X100.06 Y49.161 Z-4.669
X100.02 Y49.174 Z-4.693
X99.978 Y49.17 Z-4.717
X99.941 Y49.152 Z-4.742
X99.913 Y49.12 Z-4.766
X99.899 Y49.081 Z-4.79
X99.901 Y49.039 Z-4.815
X99.918 Y49.001 Z-4.839
X99.948 Y48.972 Z-4.863
X99.986 Y48.956 Z-4.888
X100.028 Z-4.912
X100.067 Y48.972 Z-4.936
X100.097 Y49 Z-4.96
X100.115 Y49.038 Z-4.985
X100.117 Y49.08 Z-5.009
X100.103 Y49.119 Z-5.033
X100.076 Y49.151 Z-5.058
X100.038 Y49.17 Z-5.082
X99.997 Y49.174 Z-5.106
X99.957 Y49.162 Z-5.131
X99.924 Y49.136 Z-5.155
X99.904 Y49.099 Z-5.179
X99.898 Y49.058 Z-5.204
X99.908 Y49.017 Z-5.228
X99.933 Y48.984 Z-5.252
X99.968 Y48.962 Z-5.277
X100.009 Y48.954 Z-5.301
X100.05 Y48.963 Z-5.325
X100.085 Y48.986 Z-5.35
X100.109 Y49.02 Z-5.374
X100.118 Y49.061 Z-5.398
X100.111 Y49.102 Z-5.422
X100.089 Y49.138 Z-5.447
X100.056 Y49.163 Z-5.471
X100.016 Y49.174 Z-5.495
X99.974 Y49.169 Z-5.52
X99.938 Y49.149 Z-5.544
X99.911 Y49.117 Z-5.568
X99.899 Y49.077 Z-5.593
X99.902 Y49.035 Z-5.617
X99.92 Y48.998 Z-5.641
X99.951 Y48.97 Z-5.666
X99.991 Y48.956 Z-5.69
X100.032 Y48.957 Z-5.714
X100.071 Y48.974 Z-5.739
X100.1 Y49.004 Z-5.763
X100.116 Y49.042 Z-5.787
Y49.084 Z-5.812
X100.101 Y49.123 Z-5.836
X100.072 Y49.153 Z-5.86
X100.034 Y49.171 Z-5.884
X99.993 Y49.173 Z-5.909
X99.953 Y49.16 Z-5.933
X99.921 Y49.132 Z-5.957
X99.902 Y49.095 Z-5.982
X99.898 Y49.054 Z-6.006
X99.91 Y49.014 Z-6.03
X99.936 Y48.981 Z-6.055
X99.972 Y48.96 Z-6.079
X100.014 Y48.954 Z-6.103
X100.054 Y48.964 Z-6.128
X100.088 Y48.989 Z-6.152
X100.11 Y49.024 Z-6.176
X100.118 Y49.065 Z-6.201
X100.109 Y49.106 Z-6.225
X100.087 Y49.141 Z-6.249
X100.052 Y49.165 Z-6.274
X100.011 Y49.174 Z-6.298
X99.97 Y49.168 Z-6.322
X99.934 Y49.146 Z-6.347
X99.909 Y49.113 Z-6.371
X99.898 Y49.073 Z-6.395
X99.903 Y49.031 Z-6.419
X99.923 Y48.994 Z-6.444
X99.955 Y48.968 Z-6.468
X99.995 Y48.955 Z-6.492
X100.036 Y48.958 Z-6.517
X100.074 Y48.976 Z-6.541
X100.102 Y49.007 Z-6.565
X100.116 Y49.046 Z-6.59
X100.115 Y49.088 Z-6.614
X100.099 Y49.126 Z-6.638
X100.069 Y49.156 Z-6.663
X100.03 Y49.172 Z-6.687
X99.988 Y49.173 Z-6.711
X99.95 Y49.158 Z-6.736
X99.919 Y49.129 Z-6.76
X99.901 Y49.091 Z-6.784
X99.899 Y49.05 Z-6.809
X99.912 Y49.01 Z-6.833
X99.939 Y48.978 Z-6.857
X99.976 Y48.959 Z-6.881
X100.018 Y48.955 Z-6.906
X100.058 Y48.966 Z-6.93
X100.091 Y48.992 Z-6.954
X100.112 Y49.028 Z-6.979
X100.118 Y49.069 Z-7.003
X100.108 Y49.11 Z-7.027
X100.084 Y49.144 Z-7.052
X100.048 Y49.166 Z-7.076
X100.007 Y49.174 Z-7.1
X99.966 Y49.166 Z-7.125
X99.931 Y49.143 Z-7.149
X99.907 Y49.109 Z-7.173
X99.898 Y49.068 Z-7.198
X99.904 Y49.027 Z-7.222
X99.926 Y48.991 Z-7.246
X99.959 Y48.966 Z-7.271
X99.999 Y48.955 Z-7.295
X100.04 Y48.959 Z-7.319
X100.077 Y48.979 Z-7.343
X100.104 Y49.011 Z-7.368
X100.117 Y49.051 Z-7.392
X100.114 Y49.092 Z-7.416
X100.096 Y49.13 Z-7.441
X100.065 Y49.158 Z-7.465
X100.026 Y49.173 Z-7.489
X99.984 Y49.172 Z-7.514
X99.946 Y49.155 Z-7.538
X99.917 Y49.126 Z-7.562
X99.9 Y49.087 Z-7.587
X99.899 Y49.045 Z-7.611
X99.914 Y49.006 Z-7.635
X99.943 Y48.976 Z-7.66
X99.98 Y48.958 Z-7.684
X100.022 Y48.955 Z-7.708
X100.062 Y48.968 Z-7.733
X100.093 Y48.995 Z-7.757
X100.113 Y49.032 Z-7.781
X100.117 Y49.074 Z-7.805
X100.106 Y49.114 Z-7.83
X100.08 Y49.147 Z-7.854
X100.044 Y49.168 Z-7.878
X100.003 Y49.174 Z-7.903
X99.962 Y49.164 Z-7.927
X99.928 Y49.14 Z-7.951
X99.906 Y49.105 Z-7.976
X99.898 Y49.064 Z-8
G3 X100.118 Y49.064 I0.11 J0
X99.898 Y49.064 I-0.11 J0
G1 X99.905 Y49.037
X99.925 Y49.017
X99.953 Y49.009
X100.008 Y49.064
Z6
X112.008 Y37.064
Z1.522
Z0
X111.953 Y37.119
X111.925 Y37.112
X111.905 Y37.092
X111.898 Y37.064
X111.906 Y37.023 Z-0.024
X111.928 Y36.988 Z-0.049
X111.962 Y36.964 Z-0.073
X112.003 Y36.954 Z-0.097
X112.044 Y36.96 Z-0.122
X112.08 Y36.982 Z-0.146
X112.106 Y37.015 Z-0.17
X112.117 Y37.055 Z-0.195
X112.113 Y37.096 Z-0.219
X112.093 Y37.133 Z-0.243
X112.062 Y37.16 Z-0.267
X112.022 Y37.173 Z-0.292
X111.98 Y37.171 Z-0.316
X111.943 Y37.153 Z-0.34
X111.914 Y37.122 Z-0.365
X111.899 Y37.083 Z-0.389
X111.9 Y37.041 Z-0.413
X111.917 Y37.003 Z-0.438
X111.946 Y36.973 Z-0.462
X111.984 Y36.957 Z-0.486
X112.026 Y36.956 Z-0.511
X112.065 Y36.97 Z-0.535
X112.096 Y36.999 Z-0.559
X112.114 Y37.036 Z-0.584
X112.117 Y37.078 Z-0.608
X112.104 Y37.118 Z-0.632
X112.077 Y37.15 Z-0.657
X112.04 Y37.169 Z-0.681
X111.999 Y37.174 Z-0.705
X111.959 Y37.163 Z-0.729
X111.926 Y37.137 Z-0.754
X111.904 Y37.101 Z-0.778
X111.898 Y37.06 Z-0.802
X111.907 Y37.019 Z-0.827
X111.931 Y36.985 Z-0.851
X111.966 Y36.962 Z-0.875
X112.007 Y36.954 Z-0.9
X112.048 Y36.962 Z-0.924
X112.084 Y36.984 Z-0.948
X112.108 Y37.018 Z-0.973
X112.118 Y37.059 Z-0.997
X112.112 Y37.1 Z-1.021
X112.091 Y37.136 Z-1.046
X112.058 Y37.162 Z-1.07
X112.018 Y37.174 Z-1.094
X111.976 Y37.17 Z-1.119
X111.939 Y37.15 Z-1.143
X111.912 Y37.118 Z-1.167
X111.899 Y37.079 Z-1.191
X111.901 Y37.037 Z-1.216
X111.919 Y36.999 Z-1.24
X111.95 Y36.971 Z-1.264
X111.988 Y36.956 Z-1.289
X112.03 Y36.957 Z-1.313
X112.069 Y36.973 Z-1.337
X112.099 Y37.002 Z-1.362
X112.115 Y37.04 Z-1.386
X112.116 Y37.082 Z-1.41
X112.102 Y37.121 Z-1.435
X112.074 Y37.152 Z-1.459
X112.036 Y37.17 Z-1.483
X111.995 Y37.173 Z-1.508
X111.955 Y37.161 Z-1.532
X111.923 Y37.134 Z-1.556
X111.903 Y37.097 Z-1.581
X111.898 Y37.056 Z-1.605
X111.909 Y37.016 Z-1.629
X111.934 Y36.982 Z-1.653
X111.97 Y36.961 Z-1.678
X112.011 Y36.954 Z-1.702
X112.052 Y36.964 Z-1.726
X112.087 Y36.987 Z-1.751
X112.109 Y37.022 Z-1.775
X112.118 Y37.063 Z-1.799
X112.11 Y37.104 Z-1.824
X112.088 Y37.14 Z-1.848
X112.054 Y37.164 Z-1.872
X112.014 Y37.174 Z-1.897
X111.972 Y37.168 Z-1.921
X111.936 Y37.148 Z-1.945
X111.91 Y37.115 Z-1.97
X111.898 Y37.075 Z-1.994
X111.902 Y37.033 Z-2.018
X111.921 Y36.996 Z-2.043
X111.953 Y36.969 Z-2.067
X111.993 Y36.955 Z-2.091
X112.034 Y36.957 Z-2.116
X112.072 Y36.975 Z-2.14
X112.101 Y37.005 Z-2.164
X112.116 Y37.044 Z-2.188
Y37.086 Z-2.213
X112.1 Y37.125 Z-2.237
X112.071 Y37.155 Z-2.261
X112.032 Y37.171 Z-2.286
X111.991 Y37.173 Z-2.31
X111.951 Y37.159 Z-2.334
X111.92 Y37.131 Z-2.359
X111.902 Y37.093 Z-2.383
X111.899 Y37.052 Z-2.407
X111.911 Y37.012 Z-2.432
X111.938 Y36.98 Z-2.456
X111.974 Y36.959 Z-2.48
X112.016 Y36.955 Z-2.505
X112.056 Y36.965 Z-2.529
X112.089 Y36.99 Z-2.553
X112.111 Y37.026 Z-2.578
X112.118 Y37.067 Z-2.602
X112.109 Y37.108 Z-2.626
X112.085 Y37.143 Z-2.65
X112.05 Y37.166 Z-2.675
X112.009 Y37.174 Z-2.699
X111.968 Y37.167 Z-2.723
X111.933 Y37.145 Z-2.748
X111.908 Y37.111 Z-2.772
X111.898 Y37.071 Z-2.796
X111.904 Y37.029 Z-2.821
X111.924 Y36.993 Z-2.845
X111.957 Y36.967 Z-2.869
X111.997 Y36.955 Z-2.894
X112.038 Y36.959 Z-2.918
X112.076 Y36.978 Z-2.942
X112.103 Y37.009 Z-2.967
X112.117 Y37.049 Z-2.991
X112.115 Y37.09 Z-3.015
X112.097 Y37.128 Z-3.04
X112.067 Y37.157 Z-3.064
X112.028 Y37.172 Z-3.088
X111.986 Z-3.112
X111.948 Y37.156 Z-3.137
X111.918 Y37.127 Z-3.161
X111.901 Y37.089 Z-3.185
X111.899 Y37.047 Z-3.21
X111.913 Y37.008 Z-3.234
X111.941 Y36.977 Z-3.258
X111.978 Y36.958 Z-3.283
X112.02 Y36.955 Z-3.307
X112.06 Y36.967 Z-3.331
X112.092 Y36.994 Z-3.356
X112.112 Y37.03 Z-3.38
X112.118 Y37.072 Z-3.404
X112.107 Y37.112 Z-3.429
X112.082 Y37.145 Z-3.453
X112.046 Y37.167 Z-3.477
X112.005 Y37.174 Z-3.502
X111.964 Y37.165 Z-3.526
X111.93 Y37.142 Z-3.55
X111.907 Y37.107 Z-3.574
X111.898 Y37.066 Z-3.599
X111.905 Y37.025 Z-3.623
X111.927 Y36.99 Z-3.647
X111.961 Y36.965 Z-3.672
X112.001 Y36.954 Z-3.696
X112.042 Y36.96 Z-3.72
X112.079 Y36.98 Z-3.745
X112.105 Y37.013 Z-3.769
X112.117 Y37.053 Z-3.793
X112.114 Y37.094 Z-3.818
X112.095 Y37.132 Z-3.842
X112.063 Y37.159 Z-3.866
X112.024 Y37.173 Z-3.891
X111.982 Y37.171 Z-3.915
X111.944 Y37.154 Z-3.939
X111.915 Y37.124 Z-3.964
X111.9 Y37.085 Z-3.988
Y37.043 Z-4.012
X111.915 Y37.005 Z-4.036
X111.944 Y36.974 Z-4.061
X111.982 Y36.957 Z-4.085
X112.024 Y36.955 Z-4.109
X112.063 Y36.969 Z-4.134
X112.095 Y36.997 Z-4.158
X112.114 Y37.034 Z-4.182
X112.117 Y37.076 Z-4.207
X112.105 Y37.116 Z-4.231
X112.079 Y37.148 Z-4.255
X112.042 Y37.169 Z-4.28
X112.001 Y37.174 Z-4.304
X111.961 Y37.164 Z-4.328
X111.927 Y37.139 Z-4.353
X111.905 Y37.103 Z-4.377
X111.898 Y37.062 Z-4.401
X111.907 Y37.021 Z-4.426
X111.93 Y36.987 Z-4.45
X111.964 Y36.963 Z-4.474
X112.005 Y36.954 Z-4.498
X112.046 Y36.961 Z-4.523
X112.082 Y36.983 Z-4.547
X112.107 Y37.016 Z-4.571
X112.118 Y37.057 Z-4.596
X112.112 Y37.098 Z-4.62
X112.092 Y37.135 Z-4.644
X112.06 Y37.161 Z-4.669
X112.02 Y37.174 Z-4.693
X111.978 Y37.17 Z-4.717
X111.941 Y37.152 Z-4.742
X111.913 Y37.12 Z-4.766
X111.899 Y37.081 Z-4.79
X111.901 Y37.039 Z-4.815
X111.918 Y37.001 Z-4.839
X111.948 Y36.972 Z-4.863
X111.986 Y36.956 Z-4.888
X112.028 Z-4.912
X112.067 Y36.972 Z-4.936
X112.097 Y37 Z-4.96
X112.115 Y37.038 Z-4.985
X112.117 Y37.08 Z-5.009
X112.103 Y37.119 Z-5.033
X112.076 Y37.151 Z-5.058
X112.038 Y37.17 Z-5.082
X111.997 Y37.174 Z-5.106
X111.957 Y37.162 Z-5.131
X111.924 Y37.136 Z-5.155
X111.904 Y37.099 Z-5.179
X111.898 Y37.058 Z-5.204
X111.908 Y37.017 Z-5.228
X111.933 Y36.984 Z-5.252
X111.968 Y36.962 Z-5.277
X112.009 Y36.954 Z-5.301
X112.05 Y36.963 Z-5.325
X112.085 Y36.986 Z-5.35
X112.109 Y37.02 Z-5.374
X112.118 Y37.061 Z-5.398
X112.111 Y37.102 Z-5.422
X112.089 Y37.138 Z-5.447
X112.056 Y37.163 Z-5.471
X112.016 Y37.174 Z-5.495
X111.974 Y37.169 Z-5.52
X111.938 Y37.149 Z-5.544
X111.911 Y37.117 Z-5.568
X111.899 Y37.077 Z-5.593
X111.902 Y37.035 Z-5.617
X111.92 Y36.998 Z-5.641
X111.951 Y36.97 Z-5.666
X111.991 Y36.956 Z-5.69
X112.032 Y36.957 Z-5.714
X112.071 Y36.974 Z-5.739
X112.1 Y37.004 Z-5.763
X112.116 Y37.042 Z-5.787
Y37.084 Z-5.812
X112.101 Y37.123 Z-5.836
X112.072 Y37.153 Z-5.86
X112.034 Y37.171 Z-5.884
X111.993 Y37.173 Z-5.909
X111.953 Y37.16 Z-5.933
X111.921 Y37.132 Z-5.957
X111.902 Y37.095 Z-5.982
X111.898 Y37.054 Z-6.006
X111.91 Y37.014 Z-6.03
X111.936 Y36.981 Z-6.055
X111.972 Y36.96 Z-6.079
X112.014 Y36.954 Z-6.103
X112.054 Y36.964 Z-6.128
X112.088 Y36.989 Z-6.152
X112.11 Y37.024 Z-6.176
X112.118 Y37.065 Z-6.201
X112.109 Y37.106 Z-6.225
X112.087 Y37.141 Z-6.249
X112.052 Y37.165 Z-6.274
X112.011 Y37.174 Z-6.298
X111.97 Y37.168 Z-6.322
X111.934 Y37.146 Z-6.347
X111.909 Y37.113 Z-6.371
X111.898 Y37.073 Z-6.395
X111.903 Y37.031 Z-6.419
X111.923 Y36.994 Z-6.444
X111.955 Y36.968 Z-6.468
X111.995 Y36.955 Z-6.492
X112.036 Y36.958 Z-6.517
X112.074 Y36.976 Z-6.541
X112.102 Y37.007 Z-6.565
X112.116 Y37.046 Z-6.59
X112.115 Y37.088 Z-6.614
X112.099 Y37.126 Z-6.638
X112.069 Y37.156 Z-6.663
X112.03 Y37.172 Z-6.687
X111.988 Y37.173 Z-6.711
X111.95 Y37.158 Z-6.736
X111.919 Y37.129 Z-6.76
X111.901 Y37.091 Z-6.784
X111.899 Y37.05 Z-6.809
X111.912 Y37.01 Z-6.833
X111.939 Y36.978 Z-6.857
X111.976 Y36.959 Z-6.881
X112.018 Y36.955 Z-6.906
X112.058 Y36.966 Z-6.93
X112.091 Y36.992 Z-6.954
X112.112 Y37.028 Z-6.979
X112.118 Y37.069 Z-7.003
X112.108 Y37.11 Z-7.027
X112.084 Y37.144 Z-7.052
X112.048 Y37.166 Z-7.076
X112.007 Y37.174 Z-7.1
X111.966 Y37.166 Z-7.125
X111.931 Y37.143 Z-7.149
X111.907 Y37.109 Z-7.173
X111.898 Y37.068 Z-7.198
X111.904 Y37.027 Z-7.222
X111.926 Y36.991 Z-7.246
X111.959 Y36.966 Z-7.271
X111.999 Y36.955 Z-7.295
X112.04 Y36.959 Z-7.319
X112.077 Y36.979 Z-7.343
X112.104 Y37.011 Z-7.368
X112.117 Y37.051 Z-7.392
X112.114 Y37.092 Z-7.416
X112.096 Y37.13 Z-7.441
X112.065 Y37.158 Z-7.465
X112.026 Y37.173 Z-7.489
X111.984 Y37.172 Z-7.514
X111.946 Y37.155 Z-7.538
X111.917 Y37.126 Z-7.562
X111.9 Y37.087 Z-7.587
X111.899 Y37.045 Z-7.611
X111.914 Y37.006 Z-7.635
X111.943 Y36.976 Z-7.66
X111.98 Y36.958 Z-7.684
X112.022 Y36.955 Z-7.708
X112.062 Y36.968 Z-7.733
X112.093 Y36.995 Z-7.757
X112.113 Y37.032 Z-7.781
X112.117 Y37.074 Z-7.805
X112.106 Y37.114 Z-7.83
X112.08 Y37.147 Z-7.854
X112.044 Y37.168 Z-7.878
X112.003 Y37.174 Z-7.903
X111.962 Y37.164 Z-7.927
X111.928 Y37.14 Z-7.951
X111.906 Y37.105 Z-7.976
X111.898 Y37.064 Z-8
G3 X112.118 Y37.064 I0.11 J0
X111.898 Y37.064 I-0.11 J0
G1 X111.905 Y37.037
X111.925 Y37.017
X111.953 Y37.009
X112.008 Y37.064
Z16
M9
G28 G91 Z0
G90
G28 G91 X0 Y0
G90
M5
M30
