(actuator_ln_inside)
(Machine)
(  vendor: Autodesk)
(  model: GARAGE CNC)
(  description: GARAGE CNC)
(T2  D=6.35 CR=3.175 - ZMIN=-7.5 - ball end mill)
G90 G94
G17
G21
(When using Fusion 360 for Personal Use, the feedrate of)
(rapid moves is reduced to match the feedrate of cutting)
(moves, which can increase machining time. Unrestricted rapid)
(moves are available with a Fusion 360 Subscription.)
G28 G91 Z0
G90

(Circular2)
T2
S24000 M3
G54
M8
G0 X40.402 Y37.429
Z15
G1 Z0 F150
Z-1.365
G18 G2 X41.037 Z-2 I0.635 K0
G1 X41.354
G17 G3 X41.989 Y38.064 I0 J0.635
X34.139 Y38.064 I-3.925 J0
X41.989 Y38.064 I3.925 J0
X41.354 Y38.699 I-0.635 J0
G1 X41.037
G18 G3 X40.402 Z-1.365 I0 K0.635
G1 Z5
Y37.429
Z-1
Z-2.365
G2 X41.037 Z-3 I0.635 K0
G1 X41.354
G17 G3 X41.989 Y38.064 I0 J0.635
X34.139 Y38.064 I-3.925 J0
X41.989 Y38.064 I3.925 J0
X41.354 Y38.699 I-0.635 J0
G1 X41.037
G18 G3 X40.402 Z-2.365 I0 K0.635
G1 Z5
Y37.429
Z-2
Z-3.365
G2 X41.037 Z-4 I0.635 K0
G1 X41.354
G17 G3 X41.989 Y38.064 I0 J0.635
X34.139 Y38.064 I-3.925 J0
X41.989 Y38.064 I3.925 J0
X41.354 Y38.699 I-0.635 J0
G1 X41.037
G18 G3 X40.402 Z-3.365 I0 K0.635
G1 Z5
Y37.429
Z-3
Z-4.365
G2 X41.037 Z-5 I0.635 K0
G1 X41.354
G17 G3 X41.989 Y38.064 I0 J0.635
X34.139 Y38.064 I-3.925 J0
X41.989 Y38.064 I3.925 J0
X41.354 Y38.699 I-0.635 J0
G1 X41.037
G18 G3 X40.402 Z-4.365 I0 K0.635
G1 Z5
Y37.429
Z-4
Z-5.365
G2 X41.037 Z-6 I0.635 K0
G1 X41.354
G17 G3 X41.989 Y38.064 I0 J0.635
X34.139 Y38.064 I-3.925 J0
X41.989 Y38.064 I3.925 J0
X41.354 Y38.699 I-0.635 J0
G1 X41.037
G18 G3 X40.402 Z-5.365 I0 K0.635
G1 Z5
Y37.429
Z-4.75
Z-6.115
G2 X41.037 Z-6.75 I0.635 K0
G1 X41.354
G17 G3 X41.989 Y38.064 I0 J0.635
X34.139 Y38.064 I-3.925 J0
X41.989 Y38.064 I3.925 J0
X41.354 Y38.699 I-0.635 J0
G1 X41.037
G18 G3 X40.402 Z-6.115 I0 K0.635
G1 Z5
Y37.429
Z-5.5
Z-6.865
G2 X41.037 Z-7.5 I0.635 K0
G1 X41.354
G17 G3 X41.989 Y38.064 I0 J0.635
X34.139 Y38.064 I-3.925 J0
X41.989 Y38.064 I3.925 J0
X41.354 Y38.699 I-0.635 J0
G1 X41.037
G18 G3 X40.402 Z-6.865 I0 K0.635
G1 Z15
G17
M9
G28 G91 Z0
G90
G28 G91 X0 Y0
G90
M5
M30
