(actuator_ln_outside)
(Machine)
(  vendor: Autodesk)
(  model: GARAGE CNC)
(  description: GARAGE CNC)
(T2  D=6.35 CR=3.175 - ZMIN=-8.5 - ball end mill)
G90 G94
G17
G21
(When using Fusion 360 for Personal Use, the feedrate of)
(rapid moves is reduced to match the feedrate of cutting)
(moves, which can increase machining time. Unrestricted rapid)
(moves are available with a Fusion 360 Subscription.)
G28 G91 Z0
G90

(2D Contour_outline)
T2
S19000 M3
G54
M8
G0 X38.699 Y-4.08
Z10
G1 Z5 F150
Z1.6 F333.3
Z0.035
G19 G3 Y-3.445 Z-0.6 J0.635 K0 F150
G1 Y-2.81
G17 G3 X38.064 Y-2.175 I-0.635 J0
G2 X38.064 Y78.303 I0 J40.239
X38.064 Y-2.175 I0 J-40.239
G3 X37.429 Y-2.81 I0 J-0.635
G1 Y-3.445
G19 G2 Y-4.08 Z0.035 J0 K0.635
G1 Z5
X38.699
Z3.47 F333.3
Z-0.565
G3 Y-3.445 Z-1.2 J0.635 K0 F150
G1 Y-2.81
G17 G3 X38.064 Y-2.175 I-0.635 J0
G2 X38.064 Y78.303 I0 J40.239
X38.064 Y-2.175 I0 J-40.239
G3 X37.429 Y-2.81 I0 J-0.635
G1 Y-3.445
G19 G2 Y-4.08 Z-0.565 J0 K0.635
G1 Z5
X38.699
Z2.87 F333.3
Z-1.165
G3 Y-3.445 Z-1.8 J0.635 K0 F150
G1 Y-2.81
G17 G3 X38.064 Y-2.175 I-0.635 J0
G2 X38.064 Y78.303 I0 J40.239
X38.064 Y-2.175 I0 J-40.239
G3 X37.429 Y-2.81 I0 J-0.635
G1 Y-3.445
G19 G2 Y-4.08 Z-1.165 J0 K0.635
G1 Z5
X38.699
Z2.27 F333.3
Z-1.765
G3 Y-3.445 Z-2.4 J0.635 K0 F150
G1 Y-2.81
G17 G3 X38.064 Y-2.175 I-0.635 J0
G2 X38.064 Y78.303 I0 J40.239
X38.064 Y-2.175 I0 J-40.239
G3 X37.429 Y-2.81 I0 J-0.635
G1 Y-3.445
G19 G2 Y-4.08 Z-1.765 J0 K0.635
G1 Z5
X38.699
Z1.67 F333.3
Z-2.365
G3 Y-3.445 Z-3 J0.635 K0 F150
G1 Y-2.81
G17 G3 X38.064 Y-2.175 I-0.635 J0
G2 X38.064 Y78.303 I0 J40.239
X38.064 Y-2.175 I0 J-40.239
G3 X37.429 Y-2.81 I0 J-0.635
G1 Y-3.445
G19 G2 Y-4.08 Z-2.365 J0 K0.635
G1 Z5
X38.699
Z1.07 F333.3
Z-2.965
G3 Y-3.445 Z-3.6 J0.635 K0 F150
G1 Y-2.81
G17 G3 X38.064 Y-2.175 I-0.635 J0
G2 X38.064 Y78.303 I0 J40.239
X38.064 Y-2.175 I0 J-40.239
G3 X37.429 Y-2.81 I0 J-0.635
G1 Y-3.445
G19 G2 Y-4.08 Z-2.965 J0 K0.635
G1 Z5
X38.699
Z0.47 F333.3
Z-3.565
G3 Y-3.445 Z-4.2 J0.635 K0 F150
G1 Y-2.81
G17 G3 X38.064 Y-2.175 I-0.635 J0
G2 X38.064 Y78.303 I0 J40.239
X38.064 Y-2.175 I0 J-40.239
G3 X37.429 Y-2.81 I0 J-0.635
G1 Y-3.445
G19 G2 Y-4.08 Z-3.565 J0 K0.635
G1 Z5
X38.699
Z-0.13 F333.3
Z-4.165
G3 Y-3.445 Z-4.8 J0.635 K0 F150
G1 Y-2.81
G17 G3 X38.064 Y-2.175 I-0.635 J0
G2 X38.064 Y78.303 I0 J40.239
X38.064 Y-2.175 I0 J-40.239
G3 X37.429 Y-2.81 I0 J-0.635
G1 Y-3.445
G19 G2 Y-4.08 Z-4.165 J0 K0.635
G1 Z5
X38.699
Z-0.73 F333.3
Z-4.765
G3 Y-3.445 Z-5.4 J0.635 K0 F150
G1 Y-2.81
G17 G3 X38.064 Y-2.175 I-0.635 J0
G2 X38.064 Y78.303 I0 J40.239
X38.064 Y-2.175 I0 J-40.239
G3 X37.429 Y-2.81 I0 J-0.635
G1 Y-3.445
G19 G2 Y-4.08 Z-4.765 J0 K0.635
G1 Z5
X38.699
Z-1.33 F333.3
Z-5.365
G3 Y-3.445 Z-6 J0.635 K0 F150
G1 Y-2.81
G17 G3 X38.064 Y-2.175 I-0.635 J0
G2 X38.064 Y78.303 I0 J40.239
X38.064 Y-2.175 I0 J-40.239
G3 X37.429 Y-2.81 I0 J-0.635
G1 Y-3.445
G19 G2 Y-4.08 Z-5.365 J0 K0.635
G1 Z5
X38.699
Z-1.93 F333.3
Z-5.965
G3 Y-3.445 Z-6.6 J0.635 K0 F150
G1 Y-2.81
G17 G3 X38.064 Y-2.175 I-0.635 J0
G2 X38.064 Y78.303 I0 J40.239
X38.064 Y-2.175 I0 J-40.239
G3 X37.429 Y-2.81 I0 J-0.635
G1 Y-3.445
G19 G2 Y-4.08 Z-5.965 J0 K0.635
G1 Z5
X38.699
Z-2.53 F333.3
Z-6.565
G3 Y-3.445 Z-7.2 J0.635 K0 F150
G1 Y-2.81
G17 G3 X38.064 Y-2.175 I-0.635 J0
G2 X38.064 Y78.303 I0 J40.239
X38.064 Y-2.175 I0 J-40.239
G3 X37.429 Y-2.81 I0 J-0.635
G1 Y-3.445
G19 G2 Y-4.08 Z-6.565 J0 K0.635
G1 Z5
X38.699
Z-3.13 F333.3
Z-7.165
G3 Y-3.445 Z-7.8 J0.635 K0 F150
G1 Y-2.81
G17 G3 X38.064 Y-2.175 I-0.635 J0
G2 X38.064 Y78.303 I0 J40.239
X38.064 Y-2.175 I0 J-40.239
G3 X37.429 Y-2.81 I0 J-0.635
G1 Y-3.445
G19 G2 Y-4.08 Z-7.165 J0 K0.635
G1 Z5
X38.699
Z-3.73 F333.3
Z-7.515
G3 Y-3.445 Z-8.15 J0.635 K0 F150
G1 Y-2.81
G17 G3 X38.064 Y-2.175 I-0.635 J0
G2 X38.064 Y78.303 I0 J40.239
X38.064 Y-2.175 I0 J-40.239
G3 X37.429 Y-2.81 I0 J-0.635
G1 Y-3.445
G19 G2 Y-4.08 Z-7.515 J0 K0.635
G1 Z5
X38.699
Z-4.08 F333.3
Z-7.865
G3 Y-3.445 Z-8.5 J0.635 K0 F150
G1 Y-2.81
G17 G3 X38.064 Y-2.175 I-0.635 J0
G2 X38.064 Y78.303 I0 J40.239
X38.064 Y-2.175 I0 J-40.239
G3 X37.429 Y-2.81 I0 J-0.635
G1 Y-3.445
G19 G2 Y-4.08 Z-7.865 J0 K0.635
G1 Z10
G17
M9
G28 G91 Z0
G90
G28 G91 X0 Y0
G90
M5
M30
