(actuator_outline)
(Machine)
(  vendor: Autodesk)
(  model: GARAGE CNC)
(  description: GARAGE CNC)
(T1  D=4.78 CR=2.39 - ZMIN=-8 - ball end mill)
G90 G94
G17
G21
(When using Fusion 360 for Personal Use, the feedrate of)
(rapid moves is reduced to match the feedrate of cutting)
(moves, which can increase machining time. Unrestricted rapid)
(moves are available with a Fusion 360 Subscription.)
G28 G91 Z0
G90

(2D Contour1)
T1
S24000 M3
G54
M8
G0 X-0.478 Y77.824
Z16
G1 Z6 F50
Z3 F16.7
Z0.478
G19 G2 Y77.346 Z0 J-0.478 K0 F50
G1 Y76.868
G17 G3 X0 Y76.39 I0.478 J0
G1 X96.825
G2 X133.256 Y58.306 I3.183 J-39.326
X139.325 Y40.346 I-33.248 J-21.242
X100 Y-2.39 I-39.317 J-3.282
G1 X0
G2 X-2.39 Y0 I0 J2.39
G1 Y74
G2 X0 Y76.39 I2.39 J0
G3 X0.478 Y76.868 I0 J0.478
G1 Y77.346
G19 G3 Y77.824 Z0.478 J0 K0.478
G1 Z6
X-0.478
Z3.859 F16.7
Z-0.522
G2 Y77.346 Z-1 J-0.478 K0 F50
G1 Y76.868
G17 G3 X0 Y76.39 I0.478 J0
G1 X96.825
G2 X133.256 Y58.306 I3.183 J-39.326
X139.325 Y40.346 I-33.248 J-21.242
X100 Y-2.39 I-39.317 J-3.282
G1 X0
G2 X-2.39 Y0 I0 J2.39
G1 Y74
G2 X0 Y76.39 I2.39 J0
G3 X0.478 Y76.868 I0 J0.478
G1 Y77.346
G19 G3 Y77.824 Z-0.522 J0 K0.478
G1 Z6
X-0.478
Z2.859 F16.7
Z-1.522
G2 Y77.346 Z-2 J-0.478 K0 F50
G1 Y76.868
G17 G3 X0 Y76.39 I0.478 J0
G1 X96.825
G2 X133.256 Y58.306 I3.183 J-39.326
X139.325 Y40.346 I-33.248 J-21.242
X100 Y-2.39 I-39.317 J-3.282
G1 X0
G2 X-2.39 Y0 I0 J2.39
G1 Y74
G2 X0 Y76.39 I2.39 J0
G3 X0.478 Y76.868 I0 J0.478
G1 Y77.346
G19 G3 Y77.824 Z-1.522 J0 K0.478
G1 Z6
X-0.478
Z1.859 F16.7
Z-2.522
G2 Y77.346 Z-3 J-0.478 K0 F50
G1 Y76.868
G17 G3 X0 Y76.39 I0.478 J0
G1 X96.825
G2 X133.256 Y58.306 I3.183 J-39.326
X139.325 Y40.346 I-33.248 J-21.242
X100 Y-2.39 I-39.317 J-3.282
G1 X0
G2 X-2.39 Y0 I0 J2.39
G1 Y74
G2 X0 Y76.39 I2.39 J0
G3 X0.478 Y76.868 I0 J0.478
G1 Y77.346
G19 G3 Y77.824 Z-2.522 J0 K0.478
G1 Z6
X-0.478
Z0.859 F16.7
Z-3.522
G2 Y77.346 Z-4 J-0.478 K0 F50
G1 Y76.868
G17 G3 X0 Y76.39 I0.478 J0
G1 X96.825
G2 X133.256 Y58.306 I3.183 J-39.326
X139.325 Y40.346 I-33.248 J-21.242
X100 Y-2.39 I-39.317 J-3.282
G1 X0
G2 X-2.39 Y0 I0 J2.39
G1 Y74
G2 X0 Y76.39 I2.39 J0
G3 X0.478 Y76.868 I0 J0.478
G1 Y77.346
G19 G3 Y77.824 Z-3.522 J0 K0.478
G1 Z6
X-0.478
Z-0.141 F16.7
Z-4.522
G2 Y77.346 Z-5 J-0.478 K0 F50
G1 Y76.868
G17 G3 X0 Y76.39 I0.478 J0
G1 X96.825
G2 X133.256 Y58.306 I3.183 J-39.326
X139.325 Y40.346 I-33.248 J-21.242
X100 Y-2.39 I-39.317 J-3.282
G1 X0
G2 X-2.39 Y0 I0 J2.39
G1 Y74
G2 X0 Y76.39 I2.39 J0
G3 X0.478 Y76.868 I0 J0.478
G1 Y77.346
G19 G3 Y77.824 Z-4.522 J0 K0.478
G1 Z6
X-0.478
Z-1.141 F16.7
Z-5.522
G2 Y77.346 Z-6 J-0.478 K0 F50
G1 Y76.868
G17 G3 X0 Y76.39 I0.478 J0
G1 X96.825
G2 X133.256 Y58.306 I3.183 J-39.326
X139.325 Y40.346 I-33.248 J-21.242
X100 Y-2.39 I-39.317 J-3.282
G1 X0
G2 X-2.39 Y0 I0 J2.39
G1 Y74
G2 X0 Y76.39 I2.39 J0
G3 X0.478 Y76.868 I0 J0.478
G1 Y77.346
G19 G3 Y77.824 Z-5.522 J0 K0.478
G1 Z6
X-0.478
Z-2.141 F16.7
Z-6.522
G2 Y77.346 Z-7 J-0.478 K0 F50
G1 Y76.868
G17 G3 X0 Y76.39 I0.478 J0
G1 X96.825
G2 X133.256 Y58.306 I3.183 J-39.326
X139.325 Y40.346 I-33.248 J-21.242
X100 Y-2.39 I-39.317 J-3.282
G1 X0
G2 X-2.39 Y0 I0 J2.39
G1 Y74
G2 X0 Y76.39 I2.39 J0
G3 X0.478 Y76.868 I0 J0.478
G1 Y77.346
G19 G3 Y77.824 Z-6.522 J0 K0.478
G1 Z6
X-0.478
Z-3.141 F16.7
Z-7.522
G2 Y77.346 Z-8 J-0.478 K0 F50
G1 Y76.868
G17 G3 X0 Y76.39 I0.478 J0
G1 X96.825
G2 X133.256 Y58.306 I3.183 J-39.326
X139.325 Y40.346 I-33.248 J-21.242
X100 Y-2.39 I-39.317 J-3.282
G1 X0
G2 X-2.39 Y0 I0 J2.39
G1 Y74
G2 X0 Y76.39 I2.39 J0
G3 X0.478 Y76.868 I0 J0.478
G1 Y77.346
G19 G3 Y77.824 Z-7.522 J0 K0.478
G1 Z16
G17
M9
G28 G91 Z0
G90
G28 G91 X0 Y0
G90
M5
M30
