(actuator_ln_outline)
(Machine)
(  vendor: Autodesk)
(  model: GARAGE CNC)
(  description: GARAGE CNC)
(T2  D=6.35 CR=3.175 - ZMIN=-8.5 - ball end mill)
G90 G94
G17
G21
(When using Fusion 360 for Personal Use, the feedrate of)
(rapid moves is reduced to match the feedrate of cutting)
(moves, which can increase machining time. Unrestricted rapid)
(moves are available with a Fusion 360 Subscription.)
G28 G91 Z0
G90

(2D Contour_outline)
T2
S24000 M3
G54
M8
G0 X38.699 Y-4.08
Z10
G1 Z5 F150
Z2 F333.3
Z-0.365
G19 G3 Y-3.445 Z-1 J0.635 K0 F150
G1 Y-2.81
G17 G3 X38.064 Y-2.175 I-0.635 J0
G2 X38.064 Y78.303 I0 J40.239
X38.064 Y-2.175 I0 J-40.239
G3 X37.429 Y-2.81 I0 J-0.635
G1 Y-3.445
G19 G2 Y-4.08 Z-0.365 J0 K0.635
G1 Z5
X38.699
Z3.47 F333.3
Z-1.365
G3 Y-3.445 Z-2 J0.635 K0 F150
G1 Y-2.81
G17 G3 X38.064 Y-2.175 I-0.635 J0
G2 X38.064 Y78.303 I0 J40.239
X38.064 Y-2.175 I0 J-40.239
G3 X37.429 Y-2.81 I0 J-0.635
G1 Y-3.445
G19 G2 Y-4.08 Z-1.365 J0 K0.635
G1 Z5
X38.699
Z2.47 F333.3
Z-2.365
G3 Y-3.445 Z-3 J0.635 K0 F150
G1 Y-2.81
G17 G3 X38.064 Y-2.175 I-0.635 J0
G2 X38.064 Y78.303 I0 J40.239
X38.064 Y-2.175 I0 J-40.239
G3 X37.429 Y-2.81 I0 J-0.635
G1 Y-3.445
G19 G2 Y-4.08 Z-2.365 J0 K0.635
G1 Z5
X38.699
Z1.47 F333.3
Z-3.365
G3 Y-3.445 Z-4 J0.635 K0 F150
G1 Y-2.81
G17 G3 X38.064 Y-2.175 I-0.635 J0
G2 X38.064 Y78.303 I0 J40.239
X38.064 Y-2.175 I0 J-40.239
G3 X37.429 Y-2.81 I0 J-0.635
G1 Y-3.445
G19 G2 Y-4.08 Z-3.365 J0 K0.635
G1 Z5
X38.699
Z0.47 F333.3
Z-4.365
G3 Y-3.445 Z-5 J0.635 K0 F150
G1 Y-2.81
G17 G3 X38.064 Y-2.175 I-0.635 J0
G2 X38.064 Y78.303 I0 J40.239
X38.064 Y-2.175 I0 J-40.239
G3 X37.429 Y-2.81 I0 J-0.635
G1 Y-3.445
G19 G2 Y-4.08 Z-4.365 J0 K0.635
G1 Z5
X38.699
Z-0.53 F333.3
Z-5.365
G3 Y-3.445 Z-6 J0.635 K0 F150
G1 Y-2.81
G17 G3 X38.064 Y-2.175 I-0.635 J0
G2 X38.064 Y78.303 I0 J40.239
X38.064 Y-2.175 I0 J-40.239
G3 X37.429 Y-2.81 I0 J-0.635
G1 Y-3.445
G19 G2 Y-4.08 Z-5.365 J0 K0.635
G1 Z5
X38.699
Z-1.53 F333.3
Z-6.365
G3 Y-3.445 Z-7 J0.635 K0 F150
G1 Y-2.81
G17 G3 X38.064 Y-2.175 I-0.635 J0
G2 X38.064 Y78.303 I0 J40.239
X38.064 Y-2.175 I0 J-40.239
G3 X37.429 Y-2.81 I0 J-0.635
G1 Y-3.445
G19 G2 Y-4.08 Z-6.365 J0 K0.635
G1 Z5
X38.699
Z-2.53 F333.3
Z-7.365
G3 Y-3.445 Z-8 J0.635 K0 F150
G1 Y-2.81
G17 G3 X38.064 Y-2.175 I-0.635 J0
G2 X38.064 Y78.303 I0 J40.239
X38.064 Y-2.175 I0 J-40.239
G3 X37.429 Y-2.81 I0 J-0.635
G1 Y-3.445
G19 G2 Y-4.08 Z-7.365 J0 K0.635
G1 Z5
X38.699
Z-3.53 F333.3
Z-7.865
G3 Y-3.445 Z-8.5 J0.635 K0 F150
G1 Y-2.81
G17 G3 X38.064 Y-2.175 I-0.635 J0
G2 X38.064 Y78.303 I0 J40.239
X38.064 Y-2.175 I0 J-40.239
G3 X37.429 Y-2.81 I0 J-0.635
G1 Y-3.445
G19 G2 Y-4.08 Z-7.865 J0 K0.635
G1 Z10
G17
M9
G28 G91 Z0
G90
G28 G91 X0 Y0
G90
M5
M30
