(actuator_inside)
(Machine)
(  vendor: Autodesk)
(  model: GARAGE CNC)
(  description: GARAGE CNC)
(T2  D=6.35 CR=3.175 - ZMIN=-7 - ball end mill)
G90 G94
G17
G21
(When using Fusion 360 for Personal Use, the feedrate of)
(rapid moves is reduced to match the feedrate of cutting)
(moves, which can increase machining time. Unrestricted rapid)
(moves are available with a Fusion 360 Subscription.)
G28 G91 Z0
G90

(Circular6)
T2
S24000 M3
G54
M8
G0 X97.67 Y37.699
Z16
G1 Z1 F150
Z-0.365
G18 G3 X97.035 Z-1 I-0.635 K0
G1 X96.718
G17 G3 X96.083 Y37.064 I0 J-0.635
X103.933 Y37.064 I3.925 J0
X96.083 Y37.064 I-3.925 J0
X96.718 Y36.429 I0.635 J0
G1 X97.035
G18 G2 X97.67 Z-0.365 I0 K0.635
G1 Z6
Y37.699
Z0
Z-1.365
G3 X97.035 Z-2 I-0.635 K0
G1 X96.718
G17 G3 X96.083 Y37.064 I0 J-0.635
X103.933 Y37.064 I3.925 J0
X96.083 Y37.064 I-3.925 J0
X96.718 Y36.429 I0.635 J0
G1 X97.035
G18 G2 X97.67 Z-1.365 I0 K0.635
G1 Z6
Y37.699
Z-1
Z-2.365
G3 X97.035 Z-3 I-0.635 K0
G1 X96.718
G17 G3 X96.083 Y37.064 I0 J-0.635
X103.933 Y37.064 I3.925 J0
X96.083 Y37.064 I-3.925 J0
X96.718 Y36.429 I0.635 J0
G1 X97.035
G18 G2 X97.67 Z-2.365 I0 K0.635
G1 Z6
Y37.699
Z-2
Z-3.365
G3 X97.035 Z-4 I-0.635 K0
G1 X96.718
G17 G3 X96.083 Y37.064 I0 J-0.635
X103.933 Y37.064 I3.925 J0
X96.083 Y37.064 I-3.925 J0
X96.718 Y36.429 I0.635 J0
G1 X97.035
G18 G2 X97.67 Z-3.365 I0 K0.635
G1 Z6
Y37.699
Z-3
Z-4.365
G3 X97.035 Z-5 I-0.635 K0
G1 X96.718
G17 G3 X96.083 Y37.064 I0 J-0.635
X103.933 Y37.064 I3.925 J0
X96.083 Y37.064 I-3.925 J0
X96.718 Y36.429 I0.635 J0
G1 X97.035
G18 G2 X97.67 Z-4.365 I0 K0.635
G1 Z6
Y37.699
Z-4
Z-5.365
G3 X97.035 Z-6 I-0.635 K0
G1 X96.718
G17 G3 X96.083 Y37.064 I0 J-0.635
X103.933 Y37.064 I3.925 J0
X96.083 Y37.064 I-3.925 J0
X96.718 Y36.429 I0.635 J0
G1 X97.035
G18 G2 X97.67 Z-5.365 I0 K0.635
G1 Z6
Y37.699
Z-4.5
Z-5.865
G3 X97.035 Z-6.5 I-0.635 K0
G1 X96.718
G17 G3 X96.083 Y37.064 I0 J-0.635
X103.933 Y37.064 I3.925 J0
X96.083 Y37.064 I-3.925 J0
X96.718 Y36.429 I0.635 J0
G1 X97.035
G18 G2 X97.67 Z-5.865 I0 K0.635
G1 Z6
Y37.699
Z-5
Z-6.365
G3 X97.035 Z-7 I-0.635 K0
G1 X96.718
G17 G3 X96.083 Y37.064 I0 J-0.635
X103.933 Y37.064 I3.925 J0
X96.083 Y37.064 I-3.925 J0
X96.718 Y36.429 I0.635 J0
G1 X97.035
G18 G2 X97.67 Z-6.365 I0 K0.635
G1 Z16
G17
M9
G28 G91 Z0
G90
G28 G91 X0 Y0
G90
M5
M30
