(actuator_ln)
(Machine)
(  vendor: Autodesk)
(  model: GARAGE CNC)
(  description: GARAGE CNC)
(T1  D=4.78 CR=2.39 - ZMIN=-7.5 - ball end mill)
G90 G94
G17
G21
(When using Fusion 360 for Personal Use, the feedrate of)
(rapid moves is reduced to match the feedrate of cutting)
(moves, which can increase machining time. Unrestricted rapid)
(moves are available with a Fusion 360 Subscription.)
G28 G91 Z0
G90

(Circular2)
T1
S24000 M3
G54
M8
G0 X41.579 Y37.586
Z15
G1 Z0.7 F150
Z-0.822 F50
G18 G2 X42.057 Z-1.3 I0.478 K0
G1 X42.296
G17 G3 X42.774 Y38.064 I0 J0.478
X33.354 Y38.064 I-4.71 J0 F150
X42.774 Y38.064 I4.71 J0
X42.296 Y38.542 I-0.478 J0
G1 X42.057
G18 G3 X41.579 Z-0.822 I0 K0.478
G1 Z5
Y37.586
Z0.4
Z-1.122 F50
G2 X42.057 Z-1.6 I0.478 K0
G1 X42.296
G17 G3 X42.774 Y38.064 I0 J0.478
X33.354 Y38.064 I-4.71 J0 F150
X42.774 Y38.064 I4.71 J0
X42.296 Y38.542 I-0.478 J0
G1 X42.057
G18 G3 X41.579 Z-1.122 I0 K0.478
G1 Z5
Y37.586
Z0.1
Z-1.422 F50
G2 X42.057 Z-1.9 I0.478 K0
G1 X42.296
G17 G3 X42.774 Y38.064 I0 J0.478
X33.354 Y38.064 I-4.71 J0 F150
X42.774 Y38.064 I4.71 J0
X42.296 Y38.542 I-0.478 J0
G1 X42.057
G18 G3 X41.579 Z-1.422 I0 K0.478
G1 Z5
Y37.586
Z-0.2
Z-1.722 F50
G2 X42.057 Z-2.2 I0.478 K0
G1 X42.296
G17 G3 X42.774 Y38.064 I0 J0.478
X33.354 Y38.064 I-4.71 J0 F150
X42.774 Y38.064 I4.71 J0
X42.296 Y38.542 I-0.478 J0
G1 X42.057
G18 G3 X41.579 Z-1.722 I0 K0.478
G1 Z5
Y37.586
Z-0.5
Z-2.022 F50
G2 X42.057 Z-2.5 I0.478 K0
G1 X42.296
G17 G3 X42.774 Y38.064 I0 J0.478
X33.354 Y38.064 I-4.71 J0 F150
X42.774 Y38.064 I4.71 J0
X42.296 Y38.542 I-0.478 J0
G1 X42.057
G18 G3 X41.579 Z-2.022 I0 K0.478
G1 Z5
Y37.586
Z-0.8
Z-2.322 F50
G2 X42.057 Z-2.8 I0.478 K0
G1 X42.296
G17 G3 X42.774 Y38.064 I0 J0.478
X33.354 Y38.064 I-4.71 J0 F150
X42.774 Y38.064 I4.71 J0
X42.296 Y38.542 I-0.478 J0
G1 X42.057
G18 G3 X41.579 Z-2.322 I0 K0.478
G1 Z5
Y37.586
Z-1.1
Z-2.622 F50
G2 X42.057 Z-3.1 I0.478 K0
G1 X42.296
G17 G3 X42.774 Y38.064 I0 J0.478
X33.354 Y38.064 I-4.71 J0 F150
X42.774 Y38.064 I4.71 J0
X42.296 Y38.542 I-0.478 J0
G1 X42.057
G18 G3 X41.579 Z-2.622 I0 K0.478
G1 Z5
Y37.586
Z-1.4
Z-2.922 F50
G2 X42.057 Z-3.4 I0.478 K0
G1 X42.296
G17 G3 X42.774 Y38.064 I0 J0.478
X33.354 Y38.064 I-4.71 J0 F150
X42.774 Y38.064 I4.71 J0
X42.296 Y38.542 I-0.478 J0
G1 X42.057
G18 G3 X41.579 Z-2.922 I0 K0.478
G1 Z5
Y37.586
Z-1.7
Z-3.222 F50
G2 X42.057 Z-3.7 I0.478 K0
G1 X42.296
G17 G3 X42.774 Y38.064 I0 J0.478
X33.354 Y38.064 I-4.71 J0 F150
X42.774 Y38.064 I4.71 J0
X42.296 Y38.542 I-0.478 J0
G1 X42.057
G18 G3 X41.579 Z-3.222 I0 K0.478
G1 Z5
Y37.586
Z-2
Z-3.522 F50
G2 X42.057 Z-4 I0.478 K0
G1 X42.296
G17 G3 X42.774 Y38.064 I0 J0.478
X33.354 Y38.064 I-4.71 J0 F150
X42.774 Y38.064 I4.71 J0
X42.296 Y38.542 I-0.478 J0
G1 X42.057
G18 G3 X41.579 Z-3.522 I0 K0.478
G1 Z5
Y37.586
Z-2.3
Z-3.822 F50
G2 X42.057 Z-4.3 I0.478 K0
G1 X42.296
G17 G3 X42.774 Y38.064 I0 J0.478
X33.354 Y38.064 I-4.71 J0 F150
X42.774 Y38.064 I4.71 J0
X42.296 Y38.542 I-0.478 J0
G1 X42.057
G18 G3 X41.579 Z-3.822 I0 K0.478
G1 Z5
Y37.586
Z-2.6
Z-4.122 F50
G2 X42.057 Z-4.6 I0.478 K0
G1 X42.296
G17 G3 X42.774 Y38.064 I0 J0.478
X33.354 Y38.064 I-4.71 J0 F150
X42.774 Y38.064 I4.71 J0
X42.296 Y38.542 I-0.478 J0
G1 X42.057
G18 G3 X41.579 Z-4.122 I0 K0.478
G1 Z5
Y37.586
Z-2.9
Z-4.422 F50
G2 X42.057 Z-4.9 I0.478 K0
G1 X42.296
G17 G3 X42.774 Y38.064 I0 J0.478
X33.354 Y38.064 I-4.71 J0 F150
X42.774 Y38.064 I4.71 J0
X42.296 Y38.542 I-0.478 J0
G1 X42.057
G18 G3 X41.579 Z-4.422 I0 K0.478
G1 Z5
Y37.586
Z-3.2
Z-4.722 F50
G2 X42.057 Z-5.2 I0.478 K0
G1 X42.296
G17 G3 X42.774 Y38.064 I0 J0.478
X33.354 Y38.064 I-4.71 J0 F150
X42.774 Y38.064 I4.71 J0
X42.296 Y38.542 I-0.478 J0
G1 X42.057
G18 G3 X41.579 Z-4.722 I0 K0.478
G1 Z5
Y37.586
Z-3.5
Z-5.022 F50
G2 X42.057 Z-5.5 I0.478 K0
G1 X42.296
G17 G3 X42.774 Y38.064 I0 J0.478
X33.354 Y38.064 I-4.71 J0 F150
X42.774 Y38.064 I4.71 J0
X42.296 Y38.542 I-0.478 J0
G1 X42.057
G18 G3 X41.579 Z-5.022 I0 K0.478
G1 Z5
Y37.586
Z-3.8
Z-5.322 F50
G2 X42.057 Z-5.8 I0.478 K0
G1 X42.296
G17 G3 X42.774 Y38.064 I0 J0.478
X33.354 Y38.064 I-4.71 J0 F150
X42.774 Y38.064 I4.71 J0
X42.296 Y38.542 I-0.478 J0
G1 X42.057
G18 G3 X41.579 Z-5.322 I0 K0.478
G1 Z5
Y37.586
Z-4.1
Z-5.622 F50
G2 X42.057 Z-6.1 I0.478 K0
G1 X42.296
G17 G3 X42.774 Y38.064 I0 J0.478
X33.354 Y38.064 I-4.71 J0 F150
X42.774 Y38.064 I4.71 J0
X42.296 Y38.542 I-0.478 J0
G1 X42.057
G18 G3 X41.579 Z-5.622 I0 K0.478
G1 Z5
Y37.586
Z-4.4
Z-5.922 F50
G2 X42.057 Z-6.4 I0.478 K0
G1 X42.296
G17 G3 X42.774 Y38.064 I0 J0.478
X33.354 Y38.064 I-4.71 J0 F150
X42.774 Y38.064 I4.71 J0
X42.296 Y38.542 I-0.478 J0
G1 X42.057
G18 G3 X41.579 Z-5.922 I0 K0.478
G1 Z5
Y37.586
Z-4.7
Z-6.222 F50
G2 X42.057 Z-6.7 I0.478 K0
G1 X42.296
G17 G3 X42.774 Y38.064 I0 J0.478
X33.354 Y38.064 I-4.71 J0 F150
X42.774 Y38.064 I4.71 J0
X42.296 Y38.542 I-0.478 J0
G1 X42.057
G18 G3 X41.579 Z-6.222 I0 K0.478
G1 Z5
Y37.586
Z-5
Z-6.522 F50
G2 X42.057 Z-7 I0.478 K0
G1 X42.296
G17 G3 X42.774 Y38.064 I0 J0.478
X33.354 Y38.064 I-4.71 J0 F150
X42.774 Y38.064 I4.71 J0
X42.296 Y38.542 I-0.478 J0
G1 X42.057
G18 G3 X41.579 Z-6.522 I0 K0.478
G1 Z5
Y37.586
Z-5.25
Z-6.772 F50
G2 X42.057 Z-7.25 I0.478 K0
G1 X42.296
G17 G3 X42.774 Y38.064 I0 J0.478
X33.354 Y38.064 I-4.71 J0 F150
X42.774 Y38.064 I4.71 J0
X42.296 Y38.542 I-0.478 J0
G1 X42.057
G18 G3 X41.579 Z-6.772 I0 K0.478
G1 Z5
Y37.586
Z-5.5
Z-7.022 F50
G2 X42.057 Z-7.5 I0.478 K0
G1 X42.296
G17 G3 X42.774 Y38.064 I0 J0.478
X33.354 Y38.064 I-4.71 J0 F150
X42.774 Y38.064 I4.71 J0
X42.296 Y38.542 I-0.478 J0
G1 X42.057
G18 G3 X41.579 Z-7.022 I0 K0.478
G1 Z15
G17
M9
G28 G91 Z0
G90
G28 G91 X0 Y0
G90
M5
M30
