(actuator_ln_inside)
(Machine)
(  vendor: Autodesk)
(  model: GARAGE CNC)
(  description: GARAGE CNC)
(T2  D=6.35 CR=3.175 - ZMIN=-8.5 - ball end mill)
G90 G94
G17
G21
(When using Fusion 360 for Personal Use, the feedrate of)
(rapid moves is reduced to match the feedrate of cutting)
(moves, which can increase machining time. Unrestricted rapid)
(moves are available with a Fusion 360 Subscription.)
G28 G91 Z0
G90

(Circular2)
T2
S19000 M3
G54
M8
G0 X40.402 Y37.429
Z10
G1 Z0.4 F150
Z-0.965
G18 G2 X41.037 Z-1.6 I0.635 K0
G1 X41.354
G17 G3 X41.989 Y38.064 I0 J0.635
X34.139 Y38.064 I-3.925 J0
X41.989 Y38.064 I3.925 J0
X41.354 Y38.699 I-0.635 J0
G1 X41.037
G18 G3 X40.402 Z-0.965 I0 K0.635
G1 Z5
Y37.429
Z-0.2
Z-1.565
G2 X41.037 Z-2.2 I0.635 K0
G1 X41.354
G17 G3 X41.989 Y38.064 I0 J0.635
X34.139 Y38.064 I-3.925 J0
X41.989 Y38.064 I3.925 J0
X41.354 Y38.699 I-0.635 J0
G1 X41.037
G18 G3 X40.402 Z-1.565 I0 K0.635
G1 Z5
Y37.429
Z-0.8
Z-2.165
G2 X41.037 Z-2.8 I0.635 K0
G1 X41.354
G17 G3 X41.989 Y38.064 I0 J0.635
X34.139 Y38.064 I-3.925 J0
X41.989 Y38.064 I3.925 J0
X41.354 Y38.699 I-0.635 J0
G1 X41.037
G18 G3 X40.402 Z-2.165 I0 K0.635
G1 Z5
Y37.429
Z-1.4
Z-2.765
G2 X41.037 Z-3.4 I0.635 K0
G1 X41.354
G17 G3 X41.989 Y38.064 I0 J0.635
X34.139 Y38.064 I-3.925 J0
X41.989 Y38.064 I3.925 J0
X41.354 Y38.699 I-0.635 J0
G1 X41.037
G18 G3 X40.402 Z-2.765 I0 K0.635
G1 Z5
Y37.429
Z-2
Z-3.365
G2 X41.037 Z-4 I0.635 K0
G1 X41.354
G17 G3 X41.989 Y38.064 I0 J0.635
X34.139 Y38.064 I-3.925 J0
X41.989 Y38.064 I3.925 J0
X41.354 Y38.699 I-0.635 J0
G1 X41.037
G18 G3 X40.402 Z-3.365 I0 K0.635
G1 Z5
Y37.429
Z-2.6
Z-3.965
G2 X41.037 Z-4.6 I0.635 K0
G1 X41.354
G17 G3 X41.989 Y38.064 I0 J0.635
X34.139 Y38.064 I-3.925 J0
X41.989 Y38.064 I3.925 J0
X41.354 Y38.699 I-0.635 J0
G1 X41.037
G18 G3 X40.402 Z-3.965 I0 K0.635
G1 Z5
Y37.429
Z-3.2
Z-4.565
G2 X41.037 Z-5.2 I0.635 K0
G1 X41.354
G17 G3 X41.989 Y38.064 I0 J0.635
X34.139 Y38.064 I-3.925 J0
X41.989 Y38.064 I3.925 J0
X41.354 Y38.699 I-0.635 J0
G1 X41.037
G18 G3 X40.402 Z-4.565 I0 K0.635
G1 Z5
Y37.429
Z-3.8
Z-5.165
G2 X41.037 Z-5.8 I0.635 K0
G1 X41.354
G17 G3 X41.989 Y38.064 I0 J0.635
X34.139 Y38.064 I-3.925 J0
X41.989 Y38.064 I3.925 J0
X41.354 Y38.699 I-0.635 J0
G1 X41.037
G18 G3 X40.402 Z-5.165 I0 K0.635
G1 Z5
Y37.429
Z-4.4
Z-5.765
G2 X41.037 Z-6.4 I0.635 K0
G1 X41.354
G17 G3 X41.989 Y38.064 I0 J0.635
X34.139 Y38.064 I-3.925 J0
X41.989 Y38.064 I3.925 J0
X41.354 Y38.699 I-0.635 J0
G1 X41.037
G18 G3 X40.402 Z-5.765 I0 K0.635
G1 Z5
Y37.429
Z-5
Z-6.365
G2 X41.037 Z-7 I0.635 K0
G1 X41.354
G17 G3 X41.989 Y38.064 I0 J0.635
X34.139 Y38.064 I-3.925 J0
X41.989 Y38.064 I3.925 J0
X41.354 Y38.699 I-0.635 J0
G1 X41.037
G18 G3 X40.402 Z-6.365 I0 K0.635
G1 Z5
Y37.429
Z-5.6
Z-6.965
G2 X41.037 Z-7.6 I0.635 K0
G1 X41.354
G17 G3 X41.989 Y38.064 I0 J0.635
X34.139 Y38.064 I-3.925 J0
X41.989 Y38.064 I3.925 J0
X41.354 Y38.699 I-0.635 J0
G1 X41.037
G18 G3 X40.402 Z-6.965 I0 K0.635
G1 Z5
Y37.429
Z-6.05
Z-7.415
G2 X41.037 Z-8.05 I0.635 K0
G1 X41.354
G17 G3 X41.989 Y38.064 I0 J0.635
X34.139 Y38.064 I-3.925 J0
X41.989 Y38.064 I3.925 J0
X41.354 Y38.699 I-0.635 J0
G1 X41.037
G18 G3 X40.402 Z-7.415 I0 K0.635
G1 Z5
Y37.429
Z-6.5
Z-7.865
G2 X41.037 Z-8.5 I0.635 K0
G1 X41.354
G17 G3 X41.989 Y38.064 I0 J0.635
X34.139 Y38.064 I-3.925 J0
X41.989 Y38.064 I3.925 J0
X41.354 Y38.699 I-0.635 J0
G1 X41.037
G18 G3 X40.402 Z-7.865 I0 K0.635
G1 Z10
G17
M9
G28 G91 Z0
G90
G28 G91 X0 Y0
G90
M5
M30
