(actuator_inside)
(Machine)
(  vendor: Autodesk)
(  model: GARAGE CNC)
(  description: GARAGE CNC)
(T1  D=4.78 CR=2.39 - ZMIN=-8 - ball end mill)
G90 G94
G17
G21
(When using Fusion 360 for Personal Use, the feedrate of)
(rapid moves is reduced to match the feedrate of cutting)
(moves, which can increase machining time. Unrestricted rapid)
(moves are available with a Fusion 360 Subscription.)
G28 G91 Z0
G90

(Circular6)
T1
S24000 M3
G54
M8
G0 X96.493 Y37.542
Z16
G1 Z1 F50
Z-0.522
G18 G3 X96.015 Z-1 I-0.478 K0
G1 X95.776
G17 G3 X95.298 Y37.064 I0 J-0.478
X104.718 Y37.064 I4.71 J0
X95.298 Y37.064 I-4.71 J0
X95.776 Y36.586 I0.478 J0
G1 X96.015
G18 G2 X96.493 Z-0.522 I0 K0.478
G1 Z6
Y37.542
Z0
Z-1.522
G3 X96.015 Z-2 I-0.478 K0
G1 X95.776
G17 G3 X95.298 Y37.064 I0 J-0.478
X104.718 Y37.064 I4.71 J0
X95.298 Y37.064 I-4.71 J0
X95.776 Y36.586 I0.478 J0
G1 X96.015
G18 G2 X96.493 Z-1.522 I0 K0.478
G1 Z6
Y37.542
Z-1
Z-2.522
G3 X96.015 Z-3 I-0.478 K0
G1 X95.776
G17 G3 X95.298 Y37.064 I0 J-0.478
X104.718 Y37.064 I4.71 J0
X95.298 Y37.064 I-4.71 J0
X95.776 Y36.586 I0.478 J0
G1 X96.015
G18 G2 X96.493 Z-2.522 I0 K0.478
G1 Z6
Y37.542
Z-2
Z-3.522
G3 X96.015 Z-4 I-0.478 K0
G1 X95.776
G17 G3 X95.298 Y37.064 I0 J-0.478
X104.718 Y37.064 I4.71 J0
X95.298 Y37.064 I-4.71 J0
X95.776 Y36.586 I0.478 J0
G1 X96.015
G18 G2 X96.493 Z-3.522 I0 K0.478
G1 Z6
Y37.542
Z-3
Z-4.522
G3 X96.015 Z-5 I-0.478 K0
G1 X95.776
G17 G3 X95.298 Y37.064 I0 J-0.478
X104.718 Y37.064 I4.71 J0
X95.298 Y37.064 I-4.71 J0
X95.776 Y36.586 I0.478 J0
G1 X96.015
G18 G2 X96.493 Z-4.522 I0 K0.478
G1 Z6
Y37.542
Z-4
Z-5.522
G3 X96.015 Z-6 I-0.478 K0
G1 X95.776
G17 G3 X95.298 Y37.064 I0 J-0.478
X104.718 Y37.064 I4.71 J0
X95.298 Y37.064 I-4.71 J0
X95.776 Y36.586 I0.478 J0
G1 X96.015
G18 G2 X96.493 Z-5.522 I0 K0.478
G1 Z6
Y37.542
Z-5
Z-6.522
G3 X96.015 Z-7 I-0.478 K0
G1 X95.776
G17 G3 X95.298 Y37.064 I0 J-0.478
X104.718 Y37.064 I4.71 J0
X95.298 Y37.064 I-4.71 J0
X95.776 Y36.586 I0.478 J0
G1 X96.015
G18 G2 X96.493 Z-6.522 I0 K0.478
G1 Z6
Y37.542
Z-5.5
Z-7.022
G3 X96.015 Z-7.5 I-0.478 K0
G1 X95.776
G17 G3 X95.298 Y37.064 I0 J-0.478
X104.718 Y37.064 I4.71 J0
X95.298 Y37.064 I-4.71 J0
X95.776 Y36.586 I0.478 J0
G1 X96.015
G18 G2 X96.493 Z-7.022 I0 K0.478
G1 Z6
Y37.542
Z-6
Z-7.522
G3 X96.015 Z-8 I-0.478 K0
G1 X95.776
G17 G3 X95.298 Y37.064 I0 J-0.478
X104.718 Y37.064 I4.71 J0
X95.298 Y37.064 I-4.71 J0
X95.776 Y36.586 I0.478 J0
G1 X96.015
G18 G2 X96.493 Z-7.522 I0 K0.478
G1 Z16
G17
M9
G28 G91 Z0
G90
G28 G91 X0 Y0
G90
M5
M30
