(actuator_outside)
(Machine)
(  vendor: Autodesk)
(  model: GARAGE CNC)
(  description: GARAGE CNC)
(T2  D=6.35 CR=3.175 - ZMIN=-7 - ball end mill)
G90 G94
G17
G21
(When using Fusion 360 for Personal Use, the feedrate of)
(rapid moves is reduced to match the feedrate of cutting)
(moves, which can increase machining time. Unrestricted rapid)
(moves are available with a Fusion 360 Subscription.)
G28 G91 Z0
G90

(2D Contour1)
T2
S24000 M3
G54
M8
G0 X-0.635 Y79.08
Z9
G1 Z5 F150
Z3 F333.3
Z0.635
G19 G2 Y78.445 Z0 J-0.635 K0 F150
G1 Y77.81
G17 G3 X0 Y77.175 I0.635 J0
G1 X96.793
G2 X133.918 Y58.728 I3.215 J-40.111
X140.108 Y40.411 I-33.91 J-21.664
X100 Y-3.175 I-40.1 J-3.347
G1 X0
G2 X-3.175 Y0 I0 J3.175
G1 Y74
G2 X0 Y77.175 I3.175 J0
G3 X0.635 Y77.81 I0 J0.635
G1 Y78.445
G19 G3 Y79.08 Z0.635 J0 K0.635
G1 Z5
X-0.635
Z4.47 F333.3
Z-0.365
G2 Y78.445 Z-1 J-0.635 K0 F150
G1 Y77.81
G17 G3 X0 Y77.175 I0.635 J0
G1 X96.793
G2 X133.918 Y58.728 I3.215 J-40.111
X140.108 Y40.411 I-33.91 J-21.664
X100 Y-3.175 I-40.1 J-3.347
G1 X0
G2 X-3.175 Y0 I0 J3.175
G1 Y74
G2 X0 Y77.175 I3.175 J0
G3 X0.635 Y77.81 I0 J0.635
G1 Y78.445
G19 G3 Y79.08 Z-0.365 J0 K0.635
G1 Z5
X-0.635
Z3.47 F333.3
Z-1.365
G2 Y78.445 Z-2 J-0.635 K0 F150
G1 Y77.81
G17 G3 X0 Y77.175 I0.635 J0
G1 X96.793
G2 X133.918 Y58.728 I3.215 J-40.111
X140.108 Y40.411 I-33.91 J-21.664
X100 Y-3.175 I-40.1 J-3.347
G1 X0
G2 X-3.175 Y0 I0 J3.175
G1 Y74
G2 X0 Y77.175 I3.175 J0
G3 X0.635 Y77.81 I0 J0.635
G1 Y78.445
G19 G3 Y79.08 Z-1.365 J0 K0.635
G1 Z5
X-0.635
Z2.47 F333.3
Z-2.365
G2 Y78.445 Z-3 J-0.635 K0 F150
G1 Y77.81
G17 G3 X0 Y77.175 I0.635 J0
G1 X96.793
G2 X133.918 Y58.728 I3.215 J-40.111
X140.108 Y40.411 I-33.91 J-21.664
X100 Y-3.175 I-40.1 J-3.347
G1 X0
G2 X-3.175 Y0 I0 J3.175
G1 Y74
G2 X0 Y77.175 I3.175 J0
G3 X0.635 Y77.81 I0 J0.635
G1 Y78.445
G19 G3 Y79.08 Z-2.365 J0 K0.635
G1 Z5
X-0.635
Z1.47 F333.3
Z-3.365
G2 Y78.445 Z-4 J-0.635 K0 F150
G1 Y77.81
G17 G3 X0 Y77.175 I0.635 J0
G1 X96.793
G2 X133.918 Y58.728 I3.215 J-40.111
X140.108 Y40.411 I-33.91 J-21.664
X100 Y-3.175 I-40.1 J-3.347
G1 X0
G2 X-3.175 Y0 I0 J3.175
G1 Y74
G2 X0 Y77.175 I3.175 J0
G3 X0.635 Y77.81 I0 J0.635
G1 Y78.445
G19 G3 Y79.08 Z-3.365 J0 K0.635
G1 Z5
X-0.635
Z0.47 F333.3
Z-4.365
G2 Y78.445 Z-5 J-0.635 K0 F150
G1 Y77.81
G17 G3 X0 Y77.175 I0.635 J0
G1 X96.793
G2 X133.918 Y58.728 I3.215 J-40.111
X140.108 Y40.411 I-33.91 J-21.664
X100 Y-3.175 I-40.1 J-3.347
G1 X0
G2 X-3.175 Y0 I0 J3.175
G1 Y74
G2 X0 Y77.175 I3.175 J0
G3 X0.635 Y77.81 I0 J0.635
G1 Y78.445
G19 G3 Y79.08 Z-4.365 J0 K0.635
G1 Z5
X-0.635
Z-0.53 F333.3
Z-5.365
G2 Y78.445 Z-6 J-0.635 K0 F150
G1 Y77.81
G17 G3 X0 Y77.175 I0.635 J0
G1 X96.793
G2 X133.918 Y58.728 I3.215 J-40.111
X140.108 Y40.411 I-33.91 J-21.664
X100 Y-3.175 I-40.1 J-3.347
G1 X0
G2 X-3.175 Y0 I0 J3.175
G1 Y74
G2 X0 Y77.175 I3.175 J0
G3 X0.635 Y77.81 I0 J0.635
G1 Y78.445
G19 G3 Y79.08 Z-5.365 J0 K0.635
G1 Z5
X-0.635
Z-1.53 F333.3
Z-6.365
G2 Y78.445 Z-7 J-0.635 K0 F150
G1 Y77.81
G17 G3 X0 Y77.175 I0.635 J0
G1 X96.793
G2 X133.918 Y58.728 I3.215 J-40.111
X140.108 Y40.411 I-33.91 J-21.664
X100 Y-3.175 I-40.1 J-3.347
G1 X0
G2 X-3.175 Y0 I0 J3.175
G1 Y74
G2 X0 Y77.175 I3.175 J0
G3 X0.635 Y77.81 I0 J0.635
G1 Y78.445
G19 G3 Y79.08 Z-6.365 J0 K0.635
G1 Z9
G17
M9
G28 G91 Z0
G90
G28 G91 X0 Y0
G90
M5
M30
