(actuator_ln)
(Machine)
(  vendor: Autodesk)
(  model: GARAGE CNC)
(  description: GARAGE CNC)
(T1  D=4.78 CR=2.39 - ZMIN=-7.5 - ball end mill)
G90 G94
G17
G21
(When using Fusion 360 for Personal Use, the feedrate of)
(rapid moves is reduced to match the feedrate of cutting)
(moves, which can increase machining time. Unrestricted rapid)
(moves are available with a Fusion 360 Subscription.)
G28 G91 Z0
G90

(Circular1)
T1
S24000 M3
G54
M8
G0 X-2.585 Y37.586
Z15
G1 Z0.7 F150
Z-0.822 F50
G18 G2 X-2.107 Z-1.3 I0.478 K0
G1 X-1.868
G17 G3 X-1.39 Y38.064 I0 J0.478
G2 X77.518 Y38.064 I39.454 J0 F150
X-1.39 Y38.064 I-39.454 J0
G3 X-1.868 Y38.542 I-0.478 J0
G1 X-2.107
G18 G3 X-2.585 Z-0.822 I0 K0.478
G1 Z5
Y37.586
Z0.4
Z-1.122 F50
G2 X-2.107 Z-1.6 I0.478 K0
G1 X-1.868
G17 G3 X-1.39 Y38.064 I0 J0.478
G2 X77.518 Y38.064 I39.454 J0 F150
X-1.39 Y38.064 I-39.454 J0
G3 X-1.868 Y38.542 I-0.478 J0
G1 X-2.107
G18 G3 X-2.585 Z-1.122 I0 K0.478
G1 Z5
Y37.586
Z0.1
Z-1.422 F50
G2 X-2.107 Z-1.9 I0.478 K0
G1 X-1.868
G17 G3 X-1.39 Y38.064 I0 J0.478
G2 X77.518 Y38.064 I39.454 J0 F150
X-1.39 Y38.064 I-39.454 J0
G3 X-1.868 Y38.542 I-0.478 J0
G1 X-2.107
G18 G3 X-2.585 Z-1.422 I0 K0.478
G1 Z5
Y37.586
Z-0.2
Z-1.722 F50
G2 X-2.107 Z-2.2 I0.478 K0
G1 X-1.868
G17 G3 X-1.39 Y38.064 I0 J0.478
G2 X77.518 Y38.064 I39.454 J0 F150
X-1.39 Y38.064 I-39.454 J0
G3 X-1.868 Y38.542 I-0.478 J0
G1 X-2.107
G18 G3 X-2.585 Z-1.722 I0 K0.478
G1 Z5
Y37.586
Z-0.5
Z-2.022 F50
G2 X-2.107 Z-2.5 I0.478 K0
G1 X-1.868
G17 G3 X-1.39 Y38.064 I0 J0.478
G2 X77.518 Y38.064 I39.454 J0 F150
X-1.39 Y38.064 I-39.454 J0
G3 X-1.868 Y38.542 I-0.478 J0
G1 X-2.107
G18 G3 X-2.585 Z-2.022 I0 K0.478
G1 Z5
Y37.586
Z-0.8
Z-2.322 F50
G2 X-2.107 Z-2.8 I0.478 K0
G1 X-1.868
G17 G3 X-1.39 Y38.064 I0 J0.478
G2 X77.518 Y38.064 I39.454 J0 F150
X-1.39 Y38.064 I-39.454 J0
G3 X-1.868 Y38.542 I-0.478 J0
G1 X-2.107
G18 G3 X-2.585 Z-2.322 I0 K0.478
G1 Z5
Y37.586
Z-1.1
Z-2.622 F50
G2 X-2.107 Z-3.1 I0.478 K0
G1 X-1.868
G17 G3 X-1.39 Y38.064 I0 J0.478
G2 X77.518 Y38.064 I39.454 J0 F150
X-1.39 Y38.064 I-39.454 J0
G3 X-1.868 Y38.542 I-0.478 J0
G1 X-2.107
G18 G3 X-2.585 Z-2.622 I0 K0.478
G1 Z5
Y37.586
Z-1.4
Z-2.922 F50
G2 X-2.107 Z-3.4 I0.478 K0
G1 X-1.868
G17 G3 X-1.39 Y38.064 I0 J0.478
G2 X77.518 Y38.064 I39.454 J0 F150
X-1.39 Y38.064 I-39.454 J0
G3 X-1.868 Y38.542 I-0.478 J0
G1 X-2.107
G18 G3 X-2.585 Z-2.922 I0 K0.478
G1 Z5
Y37.586
Z-1.7
Z-3.222 F50
G2 X-2.107 Z-3.7 I0.478 K0
G1 X-1.868
G17 G3 X-1.39 Y38.064 I0 J0.478
G2 X77.518 Y38.064 I39.454 J0 F150
X-1.39 Y38.064 I-39.454 J0
G3 X-1.868 Y38.542 I-0.478 J0
G1 X-2.107
G18 G3 X-2.585 Z-3.222 I0 K0.478
G1 Z5
Y37.586
Z-2
Z-3.522 F50
G2 X-2.107 Z-4 I0.478 K0
G1 X-1.868
G17 G3 X-1.39 Y38.064 I0 J0.478
G2 X77.518 Y38.064 I39.454 J0 F150
X-1.39 Y38.064 I-39.454 J0
G3 X-1.868 Y38.542 I-0.478 J0
G1 X-2.107
G18 G3 X-2.585 Z-3.522 I0 K0.478
G1 Z5
Y37.586
Z-2.3
Z-3.822 F50
G2 X-2.107 Z-4.3 I0.478 K0
G1 X-1.868
G17 G3 X-1.39 Y38.064 I0 J0.478
G2 X77.518 Y38.064 I39.454 J0 F150
X-1.39 Y38.064 I-39.454 J0
G3 X-1.868 Y38.542 I-0.478 J0
G1 X-2.107
G18 G3 X-2.585 Z-3.822 I0 K0.478
G1 Z5
Y37.586
Z-2.6
Z-4.122 F50
G2 X-2.107 Z-4.6 I0.478 K0
G1 X-1.868
G17 G3 X-1.39 Y38.064 I0 J0.478
G2 X77.518 Y38.064 I39.454 J0 F150
X-1.39 Y38.064 I-39.454 J0
G3 X-1.868 Y38.542 I-0.478 J0
G1 X-2.107
G18 G3 X-2.585 Z-4.122 I0 K0.478
G1 Z5
Y37.586
Z-2.9
Z-4.422 F50
G2 X-2.107 Z-4.9 I0.478 K0
G1 X-1.868
G17 G3 X-1.39 Y38.064 I0 J0.478
G2 X77.518 Y38.064 I39.454 J0 F150
X-1.39 Y38.064 I-39.454 J0
G3 X-1.868 Y38.542 I-0.478 J0
G1 X-2.107
G18 G3 X-2.585 Z-4.422 I0 K0.478
G1 Z5
Y37.586
Z-3.2
Z-4.722 F50
G2 X-2.107 Z-5.2 I0.478 K0
G1 X-1.868
G17 G3 X-1.39 Y38.064 I0 J0.478
G2 X77.518 Y38.064 I39.454 J0 F150
X-1.39 Y38.064 I-39.454 J0
G3 X-1.868 Y38.542 I-0.478 J0
G1 X-2.107
G18 G3 X-2.585 Z-4.722 I0 K0.478
G1 Z5
Y37.586
Z-3.5
Z-5.022 F50
G2 X-2.107 Z-5.5 I0.478 K0
G1 X-1.868
G17 G3 X-1.39 Y38.064 I0 J0.478
G2 X77.518 Y38.064 I39.454 J0 F150
X-1.39 Y38.064 I-39.454 J0
G3 X-1.868 Y38.542 I-0.478 J0
G1 X-2.107
G18 G3 X-2.585 Z-5.022 I0 K0.478
G1 Z5
Y37.586
Z-3.8
Z-5.322 F50
G2 X-2.107 Z-5.8 I0.478 K0
G1 X-1.868
G17 G3 X-1.39 Y38.064 I0 J0.478
G2 X77.518 Y38.064 I39.454 J0 F150
X-1.39 Y38.064 I-39.454 J0
G3 X-1.868 Y38.542 I-0.478 J0
G1 X-2.107
G18 G3 X-2.585 Z-5.322 I0 K0.478
G1 Z5
Y37.586
Z-4.1
Z-5.622 F50
G2 X-2.107 Z-6.1 I0.478 K0
G1 X-1.868
G17 G3 X-1.39 Y38.064 I0 J0.478
G2 X77.518 Y38.064 I39.454 J0 F150
X-1.39 Y38.064 I-39.454 J0
G3 X-1.868 Y38.542 I-0.478 J0
G1 X-2.107
G18 G3 X-2.585 Z-5.622 I0 K0.478
G1 Z5
Y37.586
Z-4.4
Z-5.922 F50
G2 X-2.107 Z-6.4 I0.478 K0
G1 X-1.868
G17 G3 X-1.39 Y38.064 I0 J0.478
G2 X77.518 Y38.064 I39.454 J0 F150
X-1.39 Y38.064 I-39.454 J0
G3 X-1.868 Y38.542 I-0.478 J0
G1 X-2.107
G18 G3 X-2.585 Z-5.922 I0 K0.478
G1 Z5
Y37.586
Z-4.7
Z-6.222 F50
G2 X-2.107 Z-6.7 I0.478 K0
G1 X-1.868
G17 G3 X-1.39 Y38.064 I0 J0.478
G2 X77.518 Y38.064 I39.454 J0 F150
X-1.39 Y38.064 I-39.454 J0
G3 X-1.868 Y38.542 I-0.478 J0
G1 X-2.107
G18 G3 X-2.585 Z-6.222 I0 K0.478
G1 Z5
Y37.586
Z-5
Z-6.522 F50
G2 X-2.107 Z-7 I0.478 K0
G1 X-1.868
G17 G3 X-1.39 Y38.064 I0 J0.478
G2 X77.518 Y38.064 I39.454 J0 F150
X-1.39 Y38.064 I-39.454 J0
G3 X-1.868 Y38.542 I-0.478 J0
G1 X-2.107
G18 G3 X-2.585 Z-6.522 I0 K0.478
G1 Z5
Y37.586
Z-5.25
Z-6.772 F50
G2 X-2.107 Z-7.25 I0.478 K0
G1 X-1.868
G17 G3 X-1.39 Y38.064 I0 J0.478
G2 X77.518 Y38.064 I39.454 J0 F150
X-1.39 Y38.064 I-39.454 J0
G3 X-1.868 Y38.542 I-0.478 J0
G1 X-2.107
G18 G3 X-2.585 Z-6.772 I0 K0.478
G1 Z5
Y37.586
Z-5.5
Z-7.022 F50
G2 X-2.107 Z-7.5 I0.478 K0
G1 X-1.868
G17 G3 X-1.39 Y38.064 I0 J0.478
G2 X77.518 Y38.064 I39.454 J0 F150
X-1.39 Y38.064 I-39.454 J0
G3 X-1.868 Y38.542 I-0.478 J0
G1 X-2.107
G18 G3 X-2.585 Z-7.022 I0 K0.478
G1 Z15
G17
(When using Fusion 360 for Personal Use, the feedrate of)
(rapid moves is reduced to match the feedrate of cutting)
(moves, which can increase machining time. Unrestricted rapid)
(moves are available with a Fusion 360 Subscription.)

(Circular2)
G0 X41.579 Y37.586
G1 Z15 F150
Z0.7
Z-0.822 F50
G18 G2 X42.057 Z-1.3 I0.478 K0
G1 X42.296
G17 G3 X42.774 Y38.064 I0 J0.478
X33.354 Y38.064 I-4.71 J0 F150
X42.774 Y38.064 I4.71 J0
X42.296 Y38.542 I-0.478 J0
G1 X42.057
G18 G3 X41.579 Z-0.822 I0 K0.478
G1 Z5
Y37.586
Z0.4
Z-1.122 F50
G2 X42.057 Z-1.6 I0.478 K0
G1 X42.296
G17 G3 X42.774 Y38.064 I0 J0.478
X33.354 Y38.064 I-4.71 J0 F150
X42.774 Y38.064 I4.71 J0
X42.296 Y38.542 I-0.478 J0
G1 X42.057
G18 G3 X41.579 Z-1.122 I0 K0.478
G1 Z5
Y37.586
Z0.1
Z-1.422 F50
G2 X42.057 Z-1.9 I0.478 K0
G1 X42.296
G17 G3 X42.774 Y38.064 I0 J0.478
X33.354 Y38.064 I-4.71 J0 F150
X42.774 Y38.064 I4.71 J0
X42.296 Y38.542 I-0.478 J0
G1 X42.057
G18 G3 X41.579 Z-1.422 I0 K0.478
G1 Z5
Y37.586
Z-0.2
Z-1.722 F50
G2 X42.057 Z-2.2 I0.478 K0
G1 X42.296
G17 G3 X42.774 Y38.064 I0 J0.478
X33.354 Y38.064 I-4.71 J0 F150
X42.774 Y38.064 I4.71 J0
X42.296 Y38.542 I-0.478 J0
G1 X42.057
G18 G3 X41.579 Z-1.722 I0 K0.478
G1 Z5
Y37.586
Z-0.5
Z-2.022 F50
G2 X42.057 Z-2.5 I0.478 K0
G1 X42.296
G17 G3 X42.774 Y38.064 I0 J0.478
X33.354 Y38.064 I-4.71 J0 F150
X42.774 Y38.064 I4.71 J0
X42.296 Y38.542 I-0.478 J0
G1 X42.057
G18 G3 X41.579 Z-2.022 I0 K0.478
G1 Z5
Y37.586
Z-0.8
Z-2.322 F50
G2 X42.057 Z-2.8 I0.478 K0
G1 X42.296
G17 G3 X42.774 Y38.064 I0 J0.478
X33.354 Y38.064 I-4.71 J0 F150
X42.774 Y38.064 I4.71 J0
X42.296 Y38.542 I-0.478 J0
G1 X42.057
G18 G3 X41.579 Z-2.322 I0 K0.478
G1 Z5
Y37.586
Z-1.1
Z-2.622 F50
G2 X42.057 Z-3.1 I0.478 K0
G1 X42.296
G17 G3 X42.774 Y38.064 I0 J0.478
X33.354 Y38.064 I-4.71 J0 F150
X42.774 Y38.064 I4.71 J0
X42.296 Y38.542 I-0.478 J0
G1 X42.057
G18 G3 X41.579 Z-2.622 I0 K0.478
G1 Z5
Y37.586
Z-1.4
Z-2.922 F50
G2 X42.057 Z-3.4 I0.478 K0
G1 X42.296
G17 G3 X42.774 Y38.064 I0 J0.478
X33.354 Y38.064 I-4.71 J0 F150
X42.774 Y38.064 I4.71 J0
X42.296 Y38.542 I-0.478 J0
G1 X42.057
G18 G3 X41.579 Z-2.922 I0 K0.478
G1 Z5
Y37.586
Z-1.7
Z-3.222 F50
G2 X42.057 Z-3.7 I0.478 K0
G1 X42.296
G17 G3 X42.774 Y38.064 I0 J0.478
X33.354 Y38.064 I-4.71 J0 F150
X42.774 Y38.064 I4.71 J0
X42.296 Y38.542 I-0.478 J0
G1 X42.057
G18 G3 X41.579 Z-3.222 I0 K0.478
G1 Z5
Y37.586
Z-2
Z-3.522 F50
G2 X42.057 Z-4 I0.478 K0
G1 X42.296
G17 G3 X42.774 Y38.064 I0 J0.478
X33.354 Y38.064 I-4.71 J0 F150
X42.774 Y38.064 I4.71 J0
X42.296 Y38.542 I-0.478 J0
G1 X42.057
G18 G3 X41.579 Z-3.522 I0 K0.478
G1 Z5
Y37.586
Z-2.3
Z-3.822 F50
G2 X42.057 Z-4.3 I0.478 K0
G1 X42.296
G17 G3 X42.774 Y38.064 I0 J0.478
X33.354 Y38.064 I-4.71 J0 F150
X42.774 Y38.064 I4.71 J0
X42.296 Y38.542 I-0.478 J0
G1 X42.057
G18 G3 X41.579 Z-3.822 I0 K0.478
G1 Z5
Y37.586
Z-2.6
Z-4.122 F50
G2 X42.057 Z-4.6 I0.478 K0
G1 X42.296
G17 G3 X42.774 Y38.064 I0 J0.478
X33.354 Y38.064 I-4.71 J0 F150
X42.774 Y38.064 I4.71 J0
X42.296 Y38.542 I-0.478 J0
G1 X42.057
G18 G3 X41.579 Z-4.122 I0 K0.478
G1 Z5
Y37.586
Z-2.9
Z-4.422 F50
G2 X42.057 Z-4.9 I0.478 K0
G1 X42.296
G17 G3 X42.774 Y38.064 I0 J0.478
X33.354 Y38.064 I-4.71 J0 F150
X42.774 Y38.064 I4.71 J0
X42.296 Y38.542 I-0.478 J0
G1 X42.057
G18 G3 X41.579 Z-4.422 I0 K0.478
G1 Z5
Y37.586
Z-3.2
Z-4.722 F50
G2 X42.057 Z-5.2 I0.478 K0
G1 X42.296
G17 G3 X42.774 Y38.064 I0 J0.478
X33.354 Y38.064 I-4.71 J0 F150
X42.774 Y38.064 I4.71 J0
X42.296 Y38.542 I-0.478 J0
G1 X42.057
G18 G3 X41.579 Z-4.722 I0 K0.478
G1 Z5
Y37.586
Z-3.5
Z-5.022 F50
G2 X42.057 Z-5.5 I0.478 K0
G1 X42.296
G17 G3 X42.774 Y38.064 I0 J0.478
X33.354 Y38.064 I-4.71 J0 F150
X42.774 Y38.064 I4.71 J0
X42.296 Y38.542 I-0.478 J0
G1 X42.057
G18 G3 X41.579 Z-5.022 I0 K0.478
G1 Z5
Y37.586
Z-3.8
Z-5.322 F50
G2 X42.057 Z-5.8 I0.478 K0
G1 X42.296
G17 G3 X42.774 Y38.064 I0 J0.478
X33.354 Y38.064 I-4.71 J0 F150
X42.774 Y38.064 I4.71 J0
X42.296 Y38.542 I-0.478 J0
G1 X42.057
G18 G3 X41.579 Z-5.322 I0 K0.478
G1 Z5
Y37.586
Z-4.1
Z-5.622 F50
G2 X42.057 Z-6.1 I0.478 K0
G1 X42.296
G17 G3 X42.774 Y38.064 I0 J0.478
X33.354 Y38.064 I-4.71 J0 F150
X42.774 Y38.064 I4.71 J0
X42.296 Y38.542 I-0.478 J0
G1 X42.057
G18 G3 X41.579 Z-5.622 I0 K0.478
G1 Z5
Y37.586
Z-4.4
Z-5.922 F50
G2 X42.057 Z-6.4 I0.478 K0
G1 X42.296
G17 G3 X42.774 Y38.064 I0 J0.478
X33.354 Y38.064 I-4.71 J0 F150
X42.774 Y38.064 I4.71 J0
X42.296 Y38.542 I-0.478 J0
G1 X42.057
G18 G3 X41.579 Z-5.922 I0 K0.478
G1 Z5
Y37.586
Z-4.7
Z-6.222 F50
G2 X42.057 Z-6.7 I0.478 K0
G1 X42.296
G17 G3 X42.774 Y38.064 I0 J0.478
X33.354 Y38.064 I-4.71 J0 F150
X42.774 Y38.064 I4.71 J0
X42.296 Y38.542 I-0.478 J0
G1 X42.057
G18 G3 X41.579 Z-6.222 I0 K0.478
G1 Z5
Y37.586
Z-5
Z-6.522 F50
G2 X42.057 Z-7 I0.478 K0
G1 X42.296
G17 G3 X42.774 Y38.064 I0 J0.478
X33.354 Y38.064 I-4.71 J0 F150
X42.774 Y38.064 I4.71 J0
X42.296 Y38.542 I-0.478 J0
G1 X42.057
G18 G3 X41.579 Z-6.522 I0 K0.478
G1 Z5
Y37.586
Z-5.25
Z-6.772 F50
G2 X42.057 Z-7.25 I0.478 K0
G1 X42.296
G17 G3 X42.774 Y38.064 I0 J0.478
X33.354 Y38.064 I-4.71 J0 F150
X42.774 Y38.064 I4.71 J0
X42.296 Y38.542 I-0.478 J0
G1 X42.057
G18 G3 X41.579 Z-6.772 I0 K0.478
G1 Z5
Y37.586
Z-5.5
Z-7.022 F50
G2 X42.057 Z-7.5 I0.478 K0
G1 X42.296
G17 G3 X42.774 Y38.064 I0 J0.478
X33.354 Y38.064 I-4.71 J0 F150
X42.774 Y38.064 I4.71 J0
X42.296 Y38.542 I-0.478 J0
G1 X42.057
G18 G3 X41.579 Z-7.022 I0 K0.478
G1 Z15
G17
(When using Fusion 360 for Personal Use, the feedrate of)
(rapid moves is reduced to match the feedrate of cutting)
(moves, which can increase machining time. Unrestricted rapid)
(moves are available with a Fusion 360 Subscription.)

(Bore2)
G0 X26.064 Y38.064
G1 Z15 F50
Z0.522
Z-1
X26.009 Y38.119
X25.982 Y38.112
X25.962 Y38.092
X25.954 Y38.064
X25.962 Y38.023 Z-1.061
X25.985 Y37.988 Z-1.121
X26.019 Y37.964 Z-1.182
X26.059 Y37.954 Z-1.243
X26.101 Y37.96 Z-1.304
X26.137 Y37.981 Z-1.364
X26.162 Y38.014 Z-1.425
X26.174 Y38.055 Z-1.486
X26.17 Y38.096 Z-1.547
X26.15 Y38.133 Z-1.607
X26.118 Y38.16 Z-1.668
X26.079 Y38.173 Z-1.729
X26.037 Y38.171 Z-1.79
X25.999 Y38.153 Z-1.85
X25.971 Y38.122 Z-1.911
X25.956 Y38.083 Z-1.972
X25.957 Y38.042 Z-2.033
X25.973 Y38.003 Z-2.093
X26.002 Y37.974 Z-2.154
X26.04 Y37.957 Z-2.215
X26.082 Y37.956 Z-2.276
X26.121 Y37.97 Z-2.336
X26.152 Y37.998 Z-2.397
X26.17 Y38.035 Z-2.458
X26.173 Y38.077 Z-2.519
X26.161 Y38.117 Z-2.579
X26.134 Y38.149 Z-2.64
X26.098 Y38.169 Z-2.701
X26.056 Y38.174 Z-2.762
X26.016 Y38.163 Z-2.822
X25.983 Y38.138 Z-2.883
X25.961 Y38.102 Z-2.944
X25.954 Y38.061 Z-3.005
X25.963 Y38.02 Z-3.065
X25.987 Y37.986 Z-3.126
X26.022 Y37.963 Z-3.187
X26.063 Y37.954 Z-3.248
X26.104 Y37.962 Z-3.308
X26.139 Y37.984 Z-3.369
X26.164 Y38.017 Z-3.43
X26.174 Y38.058 Z-3.491
X26.169 Y38.099 Z-3.551
X26.148 Y38.135 Z-3.612
X26.115 Y38.162 Z-3.673
X26.076 Y38.174 Z-3.734
X26.034 Y38.17 Z-3.794
X25.997 Y38.151 Z-3.855
X25.969 Y38.12 Z-3.916
X25.955 Y38.08 Z-3.977
X25.957 Y38.039 Z-4.037
X25.974 Y38.001 Z-4.098
X26.005 Y37.972 Z-4.159
X26.043 Y37.956 Z-4.22
X26.085 Z-4.28
X26.124 Y37.972 Z-4.341
X26.154 Y38.001 Z-4.402
X26.171 Y38.039 Z-4.463
X26.173 Y38.08 Z-4.523
X26.159 Y38.12 Z-4.584
X26.132 Y38.151 Z-4.645
X26.095 Y38.17 Z-4.706
X26.053 Y38.174 Z-4.766
X26.013 Y38.162 Z-4.827
X25.98 Y38.135 Z-4.888
X25.96 Y38.099 Z-4.949
X25.954 Y38.058 Z-5.009
X25.965 Y38.017 Z-5.07
X25.989 Y37.984 Z-5.131
X26.025 Y37.962 Z-5.192
X26.066 Y37.954 Z-5.252
X26.107 Y37.963 Z-5.313
X26.141 Y37.986 Z-5.374
X26.165 Y38.02 Z-5.435
X26.174 Y38.061 Z-5.495
X26.167 Y38.102 Z-5.556
X26.146 Y38.138 Z-5.617
X26.113 Y38.163 Z-5.678
X26.072 Y38.174 Z-5.738
X26.031 Y38.169 Z-5.799
X25.994 Y38.149 Z-5.86
X25.968 Y38.117 Z-5.921
X25.955 Y38.077 Z-5.981
X25.958 Y38.035 Z-6.042
X25.976 Y37.998 Z-6.103
X26.007 Y37.97 Z-6.164
X26.047 Y37.956 Z-6.224
X26.088 Y37.957 Z-6.285
X26.127 Y37.974 Z-6.346
X26.156 Y38.003 Z-6.407
X26.172 Y38.042 Z-6.467
X26.173 Y38.083 Z-6.528
X26.158 Y38.122 Z-6.589
X26.129 Y38.153 Z-6.65
X26.091 Y38.171 Z-6.71
X26.05 Y38.173 Z-6.771
X26.01 Y38.16 Z-6.832
X25.978 Y38.133 Z-6.893
X25.959 Y38.096 Z-6.953
X25.955 Y38.055 Z-7.014
X25.966 Y38.014 Z-7.075
X25.992 Y37.981 Z-7.136
X26.028 Y37.96 Z-7.196
X26.069 Y37.954 Z-7.257
X26.11 Y37.964 Z-7.318
X26.144 Y37.988 Z-7.379
X26.166 Y38.023 Z-7.439
X26.174 Y38.064 Z-7.5
G3 X25.954 Y38.064 I-0.11 J0
X26.174 Y38.064 I0.11 J0
G1 X26.167 Y38.092
X26.147 Y38.112
X26.119 Y38.119
X26.064 Y38.064
Z5
X38.064 Y50.064
Z0.522
Z-1
X38.009 Y50.119
X37.982 Y50.112
X37.962 Y50.092
X37.954 Y50.064
X37.962 Y50.023 Z-1.061
X37.985 Y49.988 Z-1.121
X38.019 Y49.964 Z-1.182
X38.059 Y49.954 Z-1.243
X38.101 Y49.96 Z-1.304
X38.137 Y49.981 Z-1.364
X38.162 Y50.014 Z-1.425
X38.174 Y50.055 Z-1.486
X38.17 Y50.096 Z-1.547
X38.15 Y50.133 Z-1.607
X38.118 Y50.16 Z-1.668
X38.079 Y50.173 Z-1.729
X38.037 Y50.171 Z-1.79
X37.999 Y50.153 Z-1.85
X37.971 Y50.122 Z-1.911
X37.956 Y50.083 Z-1.972
X37.957 Y50.042 Z-2.033
X37.973 Y50.003 Z-2.093
X38.002 Y49.974 Z-2.154
X38.04 Y49.957 Z-2.215
X38.082 Y49.956 Z-2.276
X38.121 Y49.97 Z-2.336
X38.152 Y49.998 Z-2.397
X38.17 Y50.035 Z-2.458
X38.173 Y50.077 Z-2.519
X38.161 Y50.117 Z-2.579
X38.134 Y50.149 Z-2.64
X38.098 Y50.169 Z-2.701
X38.056 Y50.174 Z-2.762
X38.016 Y50.163 Z-2.822
X37.983 Y50.138 Z-2.883
X37.961 Y50.102 Z-2.944
X37.954 Y50.061 Z-3.005
X37.963 Y50.02 Z-3.065
X37.987 Y49.986 Z-3.126
X38.022 Y49.963 Z-3.187
X38.063 Y49.954 Z-3.248
X38.104 Y49.962 Z-3.308
X38.139 Y49.984 Z-3.369
X38.164 Y50.017 Z-3.43
X38.174 Y50.058 Z-3.491
X38.169 Y50.099 Z-3.551
X38.148 Y50.135 Z-3.612
X38.115 Y50.162 Z-3.673
X38.076 Y50.174 Z-3.734
X38.034 Y50.17 Z-3.794
X37.997 Y50.151 Z-3.855
X37.969 Y50.12 Z-3.916
X37.955 Y50.08 Z-3.977
X37.957 Y50.039 Z-4.037
X37.974 Y50.001 Z-4.098
X38.005 Y49.972 Z-4.159
X38.043 Y49.956 Z-4.22
X38.085 Z-4.28
X38.124 Y49.972 Z-4.341
X38.154 Y50.001 Z-4.402
X38.171 Y50.039 Z-4.463
X38.173 Y50.08 Z-4.523
X38.159 Y50.12 Z-4.584
X38.132 Y50.151 Z-4.645
X38.095 Y50.17 Z-4.706
X38.053 Y50.174 Z-4.766
X38.013 Y50.162 Z-4.827
X37.98 Y50.135 Z-4.888
X37.96 Y50.099 Z-4.949
X37.954 Y50.058 Z-5.009
X37.965 Y50.017 Z-5.07
X37.989 Y49.984 Z-5.131
X38.025 Y49.962 Z-5.192
X38.066 Y49.954 Z-5.252
X38.107 Y49.963 Z-5.313
X38.141 Y49.986 Z-5.374
X38.165 Y50.02 Z-5.435
X38.174 Y50.061 Z-5.495
X38.167 Y50.102 Z-5.556
X38.146 Y50.138 Z-5.617
X38.113 Y50.163 Z-5.678
X38.072 Y50.174 Z-5.738
X38.031 Y50.169 Z-5.799
X37.994 Y50.149 Z-5.86
X37.968 Y50.117 Z-5.921
X37.955 Y50.077 Z-5.981
X37.958 Y50.035 Z-6.042
X37.976 Y49.998 Z-6.103
X38.007 Y49.97 Z-6.164
X38.047 Y49.956 Z-6.224
X38.088 Y49.957 Z-6.285
X38.127 Y49.974 Z-6.346
X38.156 Y50.003 Z-6.407
X38.172 Y50.042 Z-6.467
X38.173 Y50.083 Z-6.528
X38.158 Y50.122 Z-6.589
X38.129 Y50.153 Z-6.65
X38.091 Y50.171 Z-6.71
X38.05 Y50.173 Z-6.771
X38.01 Y50.16 Z-6.832
X37.978 Y50.133 Z-6.893
X37.959 Y50.096 Z-6.953
X37.955 Y50.055 Z-7.014
X37.966 Y50.014 Z-7.075
X37.992 Y49.981 Z-7.136
X38.028 Y49.96 Z-7.196
X38.069 Y49.954 Z-7.257
X38.11 Y49.964 Z-7.318
X38.144 Y49.988 Z-7.379
X38.166 Y50.023 Z-7.439
X38.174 Y50.064 Z-7.5
G3 X37.954 Y50.064 I-0.11 J0
X38.174 Y50.064 I0.11 J0
G1 X38.167 Y50.092
X38.147 Y50.112
X38.119 Y50.119
X38.064 Y50.064
Z5
X50.064 Y38.064
Z0.522
Z-1
X50.009 Y38.119
X49.982 Y38.112
X49.962 Y38.092
X49.954 Y38.064
X49.962 Y38.023 Z-1.061
X49.985 Y37.988 Z-1.121
X50.019 Y37.964 Z-1.182
X50.059 Y37.954 Z-1.243
X50.101 Y37.96 Z-1.304
X50.137 Y37.981 Z-1.364
X50.162 Y38.014 Z-1.425
X50.174 Y38.055 Z-1.486
X50.17 Y38.096 Z-1.547
X50.15 Y38.133 Z-1.607
X50.118 Y38.16 Z-1.668
X50.079 Y38.173 Z-1.729
X50.037 Y38.171 Z-1.79
X49.999 Y38.153 Z-1.85
X49.971 Y38.122 Z-1.911
X49.956 Y38.083 Z-1.972
X49.957 Y38.042 Z-2.033
X49.973 Y38.003 Z-2.093
X50.002 Y37.974 Z-2.154
X50.04 Y37.957 Z-2.215
X50.082 Y37.956 Z-2.276
X50.121 Y37.97 Z-2.336
X50.152 Y37.998 Z-2.397
X50.17 Y38.035 Z-2.458
X50.173 Y38.077 Z-2.519
X50.161 Y38.117 Z-2.579
X50.134 Y38.149 Z-2.64
X50.098 Y38.169 Z-2.701
X50.056 Y38.174 Z-2.762
X50.016 Y38.163 Z-2.822
X49.983 Y38.138 Z-2.883
X49.961 Y38.102 Z-2.944
X49.954 Y38.061 Z-3.005
X49.963 Y38.02 Z-3.065
X49.987 Y37.986 Z-3.126
X50.022 Y37.963 Z-3.187
X50.063 Y37.954 Z-3.248
X50.104 Y37.962 Z-3.308
X50.139 Y37.984 Z-3.369
X50.164 Y38.017 Z-3.43
X50.174 Y38.058 Z-3.491
X50.169 Y38.099 Z-3.551
X50.148 Y38.135 Z-3.612
X50.115 Y38.162 Z-3.673
X50.076 Y38.174 Z-3.734
X50.034 Y38.17 Z-3.794
X49.997 Y38.151 Z-3.855
X49.969 Y38.12 Z-3.916
X49.955 Y38.08 Z-3.977
X49.957 Y38.039 Z-4.037
X49.974 Y38.001 Z-4.098
X50.005 Y37.972 Z-4.159
X50.043 Y37.956 Z-4.22
X50.085 Z-4.28
X50.124 Y37.972 Z-4.341
X50.154 Y38.001 Z-4.402
X50.171 Y38.039 Z-4.463
X50.173 Y38.08 Z-4.523
X50.159 Y38.12 Z-4.584
X50.132 Y38.151 Z-4.645
X50.095 Y38.17 Z-4.706
X50.053 Y38.174 Z-4.766
X50.013 Y38.162 Z-4.827
X49.98 Y38.135 Z-4.888
X49.96 Y38.099 Z-4.949
X49.954 Y38.058 Z-5.009
X49.965 Y38.017 Z-5.07
X49.989 Y37.984 Z-5.131
X50.025 Y37.962 Z-5.192
X50.066 Y37.954 Z-5.252
X50.107 Y37.963 Z-5.313
X50.141 Y37.986 Z-5.374
X50.165 Y38.02 Z-5.435
X50.174 Y38.061 Z-5.495
X50.167 Y38.102 Z-5.556
X50.146 Y38.138 Z-5.617
X50.113 Y38.163 Z-5.678
X50.072 Y38.174 Z-5.738
X50.031 Y38.169 Z-5.799
X49.994 Y38.149 Z-5.86
X49.968 Y38.117 Z-5.921
X49.955 Y38.077 Z-5.981
X49.958 Y38.035 Z-6.042
X49.976 Y37.998 Z-6.103
X50.007 Y37.97 Z-6.164
X50.047 Y37.956 Z-6.224
X50.088 Y37.957 Z-6.285
X50.127 Y37.974 Z-6.346
X50.156 Y38.003 Z-6.407
X50.172 Y38.042 Z-6.467
X50.173 Y38.083 Z-6.528
X50.158 Y38.122 Z-6.589
X50.129 Y38.153 Z-6.65
X50.091 Y38.171 Z-6.71
X50.05 Y38.173 Z-6.771
X50.01 Y38.16 Z-6.832
X49.978 Y38.133 Z-6.893
X49.959 Y38.096 Z-6.953
X49.955 Y38.055 Z-7.014
X49.966 Y38.014 Z-7.075
X49.992 Y37.981 Z-7.136
X50.028 Y37.96 Z-7.196
X50.069 Y37.954 Z-7.257
X50.11 Y37.964 Z-7.318
X50.144 Y37.988 Z-7.379
X50.166 Y38.023 Z-7.439
X50.174 Y38.064 Z-7.5
G3 X49.954 Y38.064 I-0.11 J0
X50.174 Y38.064 I0.11 J0
G1 X50.167 Y38.092
X50.147 Y38.112
X50.119 Y38.119
X50.064 Y38.064
Z5
X38.064 Y26.064
Z0.522
Z-1
X38.009 Y26.119
X37.982 Y26.112
X37.962 Y26.092
X37.954 Y26.064
X37.962 Y26.023 Z-1.061
X37.985 Y25.988 Z-1.121
X38.019 Y25.964 Z-1.182
X38.059 Y25.954 Z-1.243
X38.101 Y25.96 Z-1.304
X38.137 Y25.981 Z-1.364
X38.162 Y26.014 Z-1.425
X38.174 Y26.055 Z-1.486
X38.17 Y26.096 Z-1.547
X38.15 Y26.133 Z-1.607
X38.118 Y26.16 Z-1.668
X38.079 Y26.173 Z-1.729
X38.037 Y26.171 Z-1.79
X37.999 Y26.153 Z-1.85
X37.971 Y26.122 Z-1.911
X37.956 Y26.083 Z-1.972
X37.957 Y26.042 Z-2.033
X37.973 Y26.003 Z-2.093
X38.002 Y25.974 Z-2.154
X38.04 Y25.957 Z-2.215
X38.082 Y25.956 Z-2.276
X38.121 Y25.97 Z-2.336
X38.152 Y25.998 Z-2.397
X38.17 Y26.035 Z-2.458
X38.173 Y26.077 Z-2.519
X38.161 Y26.117 Z-2.579
X38.134 Y26.149 Z-2.64
X38.098 Y26.169 Z-2.701
X38.056 Y26.174 Z-2.762
X38.016 Y26.163 Z-2.822
X37.983 Y26.138 Z-2.883
X37.961 Y26.102 Z-2.944
X37.954 Y26.061 Z-3.005
X37.963 Y26.02 Z-3.065
X37.987 Y25.986 Z-3.126
X38.022 Y25.963 Z-3.187
X38.063 Y25.954 Z-3.248
X38.104 Y25.962 Z-3.308
X38.139 Y25.984 Z-3.369
X38.164 Y26.017 Z-3.43
X38.174 Y26.058 Z-3.491
X38.169 Y26.099 Z-3.551
X38.148 Y26.135 Z-3.612
X38.115 Y26.162 Z-3.673
X38.076 Y26.174 Z-3.734
X38.034 Y26.17 Z-3.794
X37.997 Y26.151 Z-3.855
X37.969 Y26.12 Z-3.916
X37.955 Y26.08 Z-3.977
X37.957 Y26.039 Z-4.037
X37.974 Y26.001 Z-4.098
X38.005 Y25.972 Z-4.159
X38.043 Y25.956 Z-4.22
X38.085 Z-4.28
X38.124 Y25.972 Z-4.341
X38.154 Y26.001 Z-4.402
X38.171 Y26.039 Z-4.463
X38.173 Y26.08 Z-4.523
X38.159 Y26.12 Z-4.584
X38.132 Y26.151 Z-4.645
X38.095 Y26.17 Z-4.706
X38.053 Y26.174 Z-4.766
X38.013 Y26.162 Z-4.827
X37.98 Y26.135 Z-4.888
X37.96 Y26.099 Z-4.949
X37.954 Y26.058 Z-5.009
X37.965 Y26.017 Z-5.07
X37.989 Y25.984 Z-5.131
X38.025 Y25.962 Z-5.192
X38.066 Y25.954 Z-5.252
X38.107 Y25.963 Z-5.313
X38.141 Y25.986 Z-5.374
X38.165 Y26.02 Z-5.435
X38.174 Y26.061 Z-5.495
X38.167 Y26.102 Z-5.556
X38.146 Y26.138 Z-5.617
X38.113 Y26.163 Z-5.678
X38.072 Y26.174 Z-5.738
X38.031 Y26.169 Z-5.799
X37.994 Y26.149 Z-5.86
X37.968 Y26.117 Z-5.921
X37.955 Y26.077 Z-5.981
X37.958 Y26.035 Z-6.042
X37.976 Y25.998 Z-6.103
X38.007 Y25.97 Z-6.164
X38.047 Y25.956 Z-6.224
X38.088 Y25.957 Z-6.285
X38.127 Y25.974 Z-6.346
X38.156 Y26.003 Z-6.407
X38.172 Y26.042 Z-6.467
X38.173 Y26.083 Z-6.528
X38.158 Y26.122 Z-6.589
X38.129 Y26.153 Z-6.65
X38.091 Y26.171 Z-6.71
X38.05 Y26.173 Z-6.771
X38.01 Y26.16 Z-6.832
X37.978 Y26.133 Z-6.893
X37.959 Y26.096 Z-6.953
X37.955 Y26.055 Z-7.014
X37.966 Y26.014 Z-7.075
X37.992 Y25.981 Z-7.136
X38.028 Y25.96 Z-7.196
X38.069 Y25.954 Z-7.257
X38.11 Y25.964 Z-7.318
X38.144 Y25.988 Z-7.379
X38.166 Y26.023 Z-7.439
X38.174 Y26.064 Z-7.5
G3 X37.954 Y26.064 I-0.11 J0
X38.174 Y26.064 I0.11 J0
G1 X38.167 Y26.092
X38.147 Y26.112
X38.119 Y26.119
X38.064 Y26.064
Z15
M9
G28 G91 Z0
G90
G28 G91 X0 Y0
G90
M5
M30
