(40mm_actuator_link)
(Machine)
(  vendor: Autodesk)
(  model: Generic 3-axis)
(  description: This machine has XY axis on the Table and Z axis on the Head)
(T3  D=3.1 CR=0 - ZMIN=-7 - flat end mill)
G90 G94
G17
G21
(When using Fusion 360 for Personal Use, the feedrate of)
(rapid moves is reduced to match the feedrate of cutting)
(moves, which can increase machining time. Unrestricted rapid)
(moves are available with a Fusion 360 Subscription.)

(2D Contour8)
T3
S24000 M3
G54
M8
G0 X28.02 Y25.94
Z10
G1 Z5 F300
Z1.3 F150
Z0.01
G18 G2 X28.33 Z-0.3 I0.31 K0
G1 X28.64
G17 G3 X28.95 Y26.25 I0 J0.31
X23.55 Y26.25 I-2.7 J0 F300
X28.95 Y26.25 I2.7 J0
X28.64 Y26.56 I-0.31 J0
G1 X28.33
G18 G3 X28.02 Z0.01 I0 K0.31
G1 Z5
Y25.94
Z1 F150
Z-0.29
G2 X28.33 Z-0.6 I0.31 K0
G1 X28.64
G17 G3 X28.95 Y26.25 I0 J0.31
X23.55 Y26.25 I-2.7 J0 F300
X28.95 Y26.25 I2.7 J0
X28.64 Y26.56 I-0.31 J0
G1 X28.33
G18 G3 X28.02 Z-0.29 I0 K0.31
G1 Z5
Y25.94
Z0.7 F150
Z-0.59
G2 X28.33 Z-0.9 I0.31 K0
G1 X28.64
G17 G3 X28.95 Y26.25 I0 J0.31
X23.55 Y26.25 I-2.7 J0 F300
X28.95 Y26.25 I2.7 J0
X28.64 Y26.56 I-0.31 J0
G1 X28.33
G18 G3 X28.02 Z-0.59 I0 K0.31
G1 Z5
Y25.94
Z0.4 F150
Z-0.89
G2 X28.33 Z-1.2 I0.31 K0
G1 X28.64
G17 G3 X28.95 Y26.25 I0 J0.31
X23.55 Y26.25 I-2.7 J0 F300
X28.95 Y26.25 I2.7 J0
X28.64 Y26.56 I-0.31 J0
G1 X28.33
G18 G3 X28.02 Z-0.89 I0 K0.31
G1 Z5
Y25.94
Z0.1 F150
Z-1.19
G2 X28.33 Z-1.5 I0.31 K0
G1 X28.64
G17 G3 X28.95 Y26.25 I0 J0.31
X23.55 Y26.25 I-2.7 J0 F300
X28.95 Y26.25 I2.7 J0
X28.64 Y26.56 I-0.31 J0
G1 X28.33
G18 G3 X28.02 Z-1.19 I0 K0.31
G1 Z5
Y25.94
Z-0.2 F150
Z-1.49
G2 X28.33 Z-1.8 I0.31 K0
G1 X28.64
G17 G3 X28.95 Y26.25 I0 J0.31
X23.55 Y26.25 I-2.7 J0 F300
X28.95 Y26.25 I2.7 J0
X28.64 Y26.56 I-0.31 J0
G1 X28.33
G18 G3 X28.02 Z-1.49 I0 K0.31
G1 Z5
Y25.94
Z-0.5 F150
Z-1.79
G2 X28.33 Z-2.1 I0.31 K0
G1 X28.64
G17 G3 X28.95 Y26.25 I0 J0.31
X23.55 Y26.25 I-2.7 J0 F300
X28.95 Y26.25 I2.7 J0
X28.64 Y26.56 I-0.31 J0
G1 X28.33
G18 G3 X28.02 Z-1.79 I0 K0.31
G1 Z5
Y25.94
Z-0.8 F150
Z-2.09
G2 X28.33 Z-2.4 I0.31 K0
G1 X28.64
G17 G3 X28.95 Y26.25 I0 J0.31
X23.55 Y26.25 I-2.7 J0 F300
X28.95 Y26.25 I2.7 J0
X28.64 Y26.56 I-0.31 J0
G1 X28.33
G18 G3 X28.02 Z-2.09 I0 K0.31
G1 Z5
Y25.94
Z-1.1 F150
Z-2.39
G2 X28.33 Z-2.7 I0.31 K0
G1 X28.64
G17 G3 X28.95 Y26.25 I0 J0.31
X23.55 Y26.25 I-2.7 J0 F300
X28.95 Y26.25 I2.7 J0
X28.64 Y26.56 I-0.31 J0
G1 X28.33
G18 G3 X28.02 Z-2.39 I0 K0.31
G1 Z5
Y25.94
Z-1.4 F150
Z-2.69
G2 X28.33 Z-3 I0.31 K0
G1 X28.64
G17 G3 X28.95 Y26.25 I0 J0.31
X23.55 Y26.25 I-2.7 J0 F300
X28.95 Y26.25 I2.7 J0
X28.64 Y26.56 I-0.31 J0
G1 X28.33
G18 G3 X28.02 Z-2.69 I0 K0.31
G1 Z5
Y25.94
Z-1.7 F150
Z-2.99
G2 X28.33 Z-3.3 I0.31 K0
G1 X28.64
G17 G3 X28.95 Y26.25 I0 J0.31
X23.55 Y26.25 I-2.7 J0 F300
X28.95 Y26.25 I2.7 J0
X28.64 Y26.56 I-0.31 J0
G1 X28.33
G18 G3 X28.02 Z-2.99 I0 K0.31
G1 Z5
Y25.94
Z-2 F150
Z-3.29
G2 X28.33 Z-3.6 I0.31 K0
G1 X28.64
G17 G3 X28.95 Y26.25 I0 J0.31
X23.55 Y26.25 I-2.7 J0 F300
X28.95 Y26.25 I2.7 J0
X28.64 Y26.56 I-0.31 J0
G1 X28.33
G18 G3 X28.02 Z-3.29 I0 K0.31
G1 Z5
Y25.94
Z-2.3 F150
Z-3.59
G2 X28.33 Z-3.9 I0.31 K0
G1 X28.64
G17 G3 X28.95 Y26.25 I0 J0.31
X23.55 Y26.25 I-2.7 J0 F300
X28.95 Y26.25 I2.7 J0
X28.64 Y26.56 I-0.31 J0
G1 X28.33
G18 G3 X28.02 Z-3.59 I0 K0.31
G1 Z5
Y25.94
Z-2.6 F150
Z-3.89
G2 X28.33 Z-4.2 I0.31 K0
G1 X28.64
G17 G3 X28.95 Y26.25 I0 J0.31
X23.55 Y26.25 I-2.7 J0 F300
X28.95 Y26.25 I2.7 J0
X28.64 Y26.56 I-0.31 J0
G1 X28.33
G18 G3 X28.02 Z-3.89 I0 K0.31
G1 Z5
Y25.94
Z-2.9 F150
Z-4.19
G2 X28.33 Z-4.5 I0.31 K0
G1 X28.64
G17 G3 X28.95 Y26.25 I0 J0.31
X23.55 Y26.25 I-2.7 J0 F300
X28.95 Y26.25 I2.7 J0
X28.64 Y26.56 I-0.31 J0
G1 X28.33
G18 G3 X28.02 Z-4.19 I0 K0.31
G1 Z5
Y25.94
Z-3.2 F150
Z-4.49
G2 X28.33 Z-4.8 I0.31 K0
G1 X28.64
G17 G3 X28.95 Y26.25 I0 J0.31
X23.55 Y26.25 I-2.7 J0 F300
X28.95 Y26.25 I2.7 J0
X28.64 Y26.56 I-0.31 J0
G1 X28.33
G18 G3 X28.02 Z-4.49 I0 K0.31
G1 Z5
Y25.94
Z-3.5 F150
Z-4.79
G2 X28.33 Z-5.1 I0.31 K0
G1 X28.64
G17 G3 X28.95 Y26.25 I0 J0.31
X23.55 Y26.25 I-2.7 J0 F300
X28.95 Y26.25 I2.7 J0
X28.64 Y26.56 I-0.31 J0
G1 X28.33
G18 G3 X28.02 Z-4.79 I0 K0.31
G1 Z5
Y25.94
Z-3.8 F150
Z-5.09
G2 X28.33 Z-5.4 I0.31 K0
G1 X28.64
G17 G3 X28.95 Y26.25 I0 J0.31
X23.55 Y26.25 I-2.7 J0 F300
X28.95 Y26.25 I2.7 J0
X28.64 Y26.56 I-0.31 J0
G1 X28.33
G18 G3 X28.02 Z-5.09 I0 K0.31
G1 Z5
Y25.94
Z-4.1 F150
Z-5.39
G2 X28.33 Z-5.7 I0.31 K0
G1 X28.64
G17 G3 X28.95 Y26.25 I0 J0.31
X23.55 Y26.25 I-2.7 J0 F300
X28.95 Y26.25 I2.7 J0
X28.64 Y26.56 I-0.31 J0
G1 X28.33
G18 G3 X28.02 Z-5.39 I0 K0.31
G1 Z5
Y25.94
Z-4.4 F150
Z-5.69
G2 X28.33 Z-6 I0.31 K0
G1 X28.64
G17 G3 X28.95 Y26.25 I0 J0.31
X23.55 Y26.25 I-2.7 J0 F300
X28.95 Y26.25 I2.7 J0
X28.64 Y26.56 I-0.31 J0
G1 X28.33
G18 G3 X28.02 Z-5.69 I0 K0.31
G1 Z5
Y25.94
Z-4.7 F150
Z-5.99
G2 X28.33 Z-6.3 I0.31 K0
G1 X28.64
G17 G3 X28.95 Y26.25 I0 J0.31
X23.55 Y26.25 I-2.7 J0 F300
X28.95 Y26.25 I2.7 J0
X28.64 Y26.56 I-0.31 J0
G1 X28.33
G18 G3 X28.02 Z-5.99 I0 K0.31
G1 Z5
Y25.94
Z-5 F150
Z-6.29
G2 X28.33 Z-6.6 I0.31 K0
G1 X28.64
G17 G3 X28.95 Y26.25 I0 J0.31
X23.55 Y26.25 I-2.7 J0 F300
X28.95 Y26.25 I2.7 J0
X28.64 Y26.56 I-0.31 J0
G1 X28.33
G18 G3 X28.02 Z-6.29 I0 K0.31
G1 Z5
Y25.94
Z-5.3 F150
Z-6.59
G2 X28.33 Z-6.9 I0.31 K0
G1 X28.64
G17 G3 X28.95 Y26.25 I0 J0.31
X23.55 Y26.25 I-2.7 J0 F300
X28.95 Y26.25 I2.7 J0
X28.64 Y26.56 I-0.31 J0
G1 X28.33
G18 G3 X28.02 Z-6.59 I0 K0.31
G1 Z5
Y25.94
Z-5.6 F150
Z-6.69
G2 X28.33 Z-7 I0.31 K0
G1 X28.64
G17 G3 X28.95 Y26.25 I0 J0.31
X23.55 Y26.25 I-2.7 J0 F300
X28.95 Y26.25 I2.7 J0
X28.64 Y26.56 I-0.31 J0
G1 X28.33
G18 G3 X28.02 Z-6.69 I0 K0.31
G1 Z10
G17
(When using Fusion 360 for Personal Use, the feedrate of)
(rapid moves is reduced to match the feedrate of cutting)
(moves, which can increase machining time. Unrestricted rapid)
(moves are available with a Fusion 360 Subscription.)

(2D Pocket1)
G0 X3.536 Y-1.454
G1 Z10 F300
Z5
Z0.01 F150
X3.53 Y-1.449 Z-0.059
X3.513 Y-1.433 Z-0.125
X3.486 Y-1.408 Z-0.183
X3.449 Y-1.375 Z-0.232
X3.406 Y-1.336 Z-0.269
X3.358 Y-1.291 Z-0.292
X3.307 Y-1.245 Z-0.3
X2.136 Y-0.177
G2 X-0.187 Y2.147 I24.114 J26.427 F300
G3 X-1.25 Y1.203 I-0.526 J-0.479
G1 X-0.342 Y0.152
G3 X-0.058 Y-0.047 I0.538 J0.465
G1 X1.657 Y-0.702
X1.725 Y-0.724
X1.796 Y-0.739
X6.128 Y-1.447
G3 X6.667 Y-0.174 I0.115 J0.702
G2 X-0.243 Y6.759 I19.684 J26.525
G3 X-1.257 Y6.895 I-0.573 J-0.422
X-1.358 Y5.877 I0.441 J-0.558
G1 X1.79 Y2.168
X1.863 Y2.094
X1.946 Y2.031
X6.243 Y-0.745
G3 X6.535 Y-0.853 I0.386 J0.597
G1 X11.435 Y-1.505
G3 X11.869 Y-0.175 I0.094 J0.705
G2 X-0.298 Y12.096 I14.381 J26.426
G3 X-1.303 Y12.364 I-0.628 J-0.335
X-1.499 Y11.342 I0.378 J-0.602
G1 X3.683 Y4.247
G3 X3.876 Y4.066 I0.574 J0.42
G1 X11.529 Y-0.8
G3 X11.847 Y-0.908 I0.382 J0.6
G1 X19.356 Y-1.58
G3 X19.592 Y-0.182 I0.063 J0.708
G2 X6.917 Y7.059 I6.558 J26.192
X-0.389 Y20.636 I19.578 J19.291
G1 X-0.392 Y20.647
X-0.406 Y20.715 Z-0.292
X-0.42 Y20.779 Z-0.269
X-0.432 Y20.837 Z-0.232
X-0.442 Y20.885 Z-0.183
X-0.45 Y20.921 Z-0.125
X-0.455 Y20.943 Z-0.059
X-0.456 Y20.951 Z0.01
Z5
X54.21 Y3.785
Z0.01 F150
X54.205 Y3.78 Z-0.059
X54.19 Y3.763 Z-0.125
X54.165 Y3.735 Z-0.183
X54.132 Y3.699 Z-0.232
X54.093 Y3.655 Z-0.269
X54.049 Y3.606 Z-0.292
X54.003 Y3.554 Z-0.3
X52.94 Y2.366
G2 X50.425 Y-0.177 I-26.59 J23.784 F300
G3 X51.378 Y-1.233 I0.48 J-0.525
G1 X52.54 Y-0.201
G3 X52.726 Y0.063 I-0.472 J0.532
G1 X53.47 Y1.891
X53.496 Y1.968
X53.513 Y2.047
X54.222 Y6.459
G3 X52.942 Y6.987 I-0.702 J0.113
G2 X49.606 Y3.036 I-26.937 J19.364
X45.905 Y-0.187 I-23.256 J22.974
G3 X45.776 Y-1.202 I0.425 J-0.57
X46.795 Y-1.295 I0.554 J0.446
G1 X50.579 Y1.976
X50.652 Y2.05
X50.715 Y2.134
X53.52 Y6.572
G3 X53.624 Y6.859 I-0.601 J0.38
G1 X54.282 Y11.88
G3 X52.946 Y12.301 I-0.705 J0.092
G2 X40.693 Y-0.182 I-26.595 J13.848
G3 X40.435 Y-1.191 I0.34 J-0.625
X41.459 Y-1.376 I0.599 J0.384
G1 X48.585 Y3.953
G3 X48.765 Y4.15 I-0.426 J0.57
G1 X53.576 Y11.973
G3 X53.679 Y12.288 I-0.606 J0.373
G1 X54.352 Y20.56
G3 X52.947 Y20.76 I-0.709 J0.058
G2 X45.441 Y6.917 I-26.457 J5.389
X32.765 Y-0.182 I-19.291 J19.578
X30.286 Y0.757 I-0.561 J2.261
G3 X27.898 Y1.911 I-2.206 J-1.52
G2 X26.15 Y1.855 I-1.649 J24.339
X8.929 Y9.071 I0 J24.155
X1.855 Y26.35 I17.566 J17.279
X26.25 Y50.645 I24.295 J0
X50.645 Y26.25 I0 J-24.395
X27.898 Y1.911 I-24.395 J0
X25.557 Y3.313 I-0.162 J2.385
G3 X23.37 Y4.944 I-2.565 J-1.157
G2 X4.75 Y26.25 I2.88 J21.306
G1 Y26.35
G2 X26.25 Y47.75 I21.5 J-0.101
X47.701 Y24.807 I0 J-21.5
X23.37 Y4.944 I-21.451 J1.443
G3 X22.774 Y4.902 Z-0.308 I-0.197 J-1.459 F150
G1 X3.527 Y-0.506 Z-0.58
G2 X2.136 Y-0.177 Z-0.6 I-0.398 J1.418
X-0.187 Y2.147 I24.114 J26.427 F300
G3 X-1.25 Y1.203 I-0.526 J-0.479
G1 X-0.342 Y0.152
G3 X-0.058 Y-0.047 I0.538 J0.465
G1 X1.657 Y-0.702
X1.725 Y-0.724
X1.796 Y-0.739
X6.128 Y-1.447
G3 X6.667 Y-0.174 I0.115 J0.702
G2 X-0.243 Y6.759 I19.684 J26.525
G3 X-1.257 Y6.895 I-0.573 J-0.422
X-1.358 Y5.877 I0.441 J-0.558
G1 X1.79 Y2.168
X1.863 Y2.094
X1.946 Y2.031
X6.243 Y-0.745
G3 X6.535 Y-0.853 I0.386 J0.597
G1 X11.435 Y-1.505
G3 X11.869 Y-0.175 I0.094 J0.705
G2 X-0.298 Y12.096 I14.381 J26.426
G3 X-1.303 Y12.364 I-0.628 J-0.335
X-1.499 Y11.342 I0.378 J-0.602
G1 X3.683 Y4.247
G3 X3.876 Y4.066 I0.574 J0.42
G1 X11.529 Y-0.8
G3 X11.847 Y-0.908 I0.382 J0.6
G1 X19.356 Y-1.58
G3 X19.592 Y-0.182 I0.063 J0.708
G2 X6.917 Y7.059 I6.558 J26.192
X-0.389 Y20.636 I19.578 J19.291
G1 X-0.392 Y20.647
X-0.406 Y20.715 Z-0.592
X-0.42 Y20.779 Z-0.569
X-0.432 Y20.837 Z-0.532
X-0.442 Y20.885 Z-0.483
X-0.45 Y20.921 Z-0.425
X-0.455 Y20.943 Z-0.359
X-0.456 Y20.951 Z-0.29
Z5
X54.21 Y3.785
Z-0.29 F150
X54.205 Y3.78 Z-0.359
X54.19 Y3.763 Z-0.425
X54.165 Y3.735 Z-0.483
X54.132 Y3.699 Z-0.532
X54.093 Y3.655 Z-0.569
X54.049 Y3.606 Z-0.592
X54.003 Y3.554 Z-0.6
X52.94 Y2.366
G2 X50.425 Y-0.177 I-26.59 J23.784 F300
G3 X51.378 Y-1.233 I0.48 J-0.525
G1 X52.54 Y-0.201
G3 X52.726 Y0.063 I-0.472 J0.532
G1 X53.47 Y1.891
X53.496 Y1.968
X53.513 Y2.047
X54.222 Y6.459
G3 X52.942 Y6.987 I-0.702 J0.113
G2 X49.606 Y3.036 I-26.937 J19.364
X45.905 Y-0.187 I-23.256 J22.974
G3 X45.776 Y-1.202 I0.425 J-0.57
X46.795 Y-1.295 I0.554 J0.446
G1 X50.579 Y1.976
X50.652 Y2.05
X50.715 Y2.134
X53.52 Y6.572
G3 X53.624 Y6.859 I-0.601 J0.38
G1 X54.282 Y11.88
G3 X52.946 Y12.301 I-0.705 J0.092
G2 X40.693 Y-0.182 I-26.595 J13.848
G3 X40.435 Y-1.191 I0.34 J-0.625
X41.459 Y-1.376 I0.599 J0.384
G1 X48.585 Y3.953
G3 X48.765 Y4.15 I-0.426 J0.57
G1 X53.576 Y11.973
G3 X53.679 Y12.288 I-0.606 J0.373
G1 X54.352 Y20.56
G3 X52.947 Y20.76 I-0.709 J0.058
G2 X45.441 Y6.917 I-26.457 J5.389
X32.765 Y-0.182 I-19.291 J19.578
X30.286 Y0.757 I-0.561 J2.261
G3 X27.898 Y1.911 I-2.206 J-1.52
G2 X26.15 Y1.855 I-1.649 J24.339
X8.929 Y9.071 I0 J24.155
X1.855 Y26.35 I17.566 J17.279
X26.25 Y50.645 I24.295 J0
X50.645 Y26.25 I0 J-24.395
X27.898 Y1.911 I-24.395 J0
X25.557 Y3.313 I-0.162 J2.385
G3 X23.37 Y4.944 I-2.565 J-1.157
G2 X4.75 Y26.25 I2.88 J21.306
G1 Y26.35
G2 X26.25 Y47.75 I21.5 J-0.101
X47.701 Y24.807 I0 J-21.5
X23.37 Y4.944 I-21.451 J1.443
G3 X22.774 Y4.902 Z-0.608 I-0.197 J-1.459 F150
G1 X3.527 Y-0.506 Z-0.88
G2 X2.136 Y-0.177 Z-0.9 I-0.398 J1.418
X-0.187 Y2.147 I24.114 J26.427 F300
G3 X-1.25 Y1.203 I-0.526 J-0.479
G1 X-0.342 Y0.152
G3 X-0.058 Y-0.047 I0.538 J0.465
G1 X1.657 Y-0.702
X1.725 Y-0.724
X1.796 Y-0.739
X6.128 Y-1.447
G3 X6.667 Y-0.174 I0.115 J0.702
G2 X-0.243 Y6.759 I19.684 J26.525
G3 X-1.257 Y6.895 I-0.573 J-0.422
X-1.358 Y5.877 I0.441 J-0.558
G1 X1.79 Y2.168
X1.863 Y2.094
X1.946 Y2.031
X6.243 Y-0.745
G3 X6.535 Y-0.853 I0.386 J0.597
G1 X11.435 Y-1.505
G3 X11.869 Y-0.175 I0.094 J0.705
G2 X-0.298 Y12.096 I14.381 J26.426
G3 X-1.303 Y12.364 I-0.628 J-0.335
X-1.499 Y11.342 I0.378 J-0.602
G1 X3.683 Y4.247
G3 X3.876 Y4.066 I0.574 J0.42
G1 X11.529 Y-0.8
G3 X11.847 Y-0.908 I0.382 J0.6
G1 X19.356 Y-1.58
G3 X19.592 Y-0.182 I0.063 J0.708
G2 X6.917 Y7.059 I6.558 J26.192
X-0.389 Y20.636 I19.578 J19.291
G1 X-0.392 Y20.647
X-0.406 Y20.715 Z-0.892
X-0.42 Y20.779 Z-0.869
X-0.432 Y20.837 Z-0.832
X-0.442 Y20.885 Z-0.783
X-0.45 Y20.921 Z-0.725
X-0.455 Y20.943 Z-0.659
X-0.456 Y20.951 Z-0.59
Z5
X54.21 Y3.785
Z-0.59 F150
X54.205 Y3.78 Z-0.659
X54.19 Y3.763 Z-0.725
X54.165 Y3.735 Z-0.783
X54.132 Y3.699 Z-0.832
X54.093 Y3.655 Z-0.869
X54.049 Y3.606 Z-0.892
X54.003 Y3.554 Z-0.9
X52.94 Y2.366
G2 X50.425 Y-0.177 I-26.59 J23.784 F300
G3 X51.378 Y-1.233 I0.48 J-0.525
G1 X52.54 Y-0.201
G3 X52.726 Y0.063 I-0.472 J0.532
G1 X53.47 Y1.891
X53.496 Y1.968
X53.513 Y2.047
X54.222 Y6.459
G3 X52.942 Y6.987 I-0.702 J0.113
G2 X49.606 Y3.036 I-26.937 J19.364
X45.905 Y-0.187 I-23.256 J22.974
G3 X45.776 Y-1.202 I0.425 J-0.57
X46.795 Y-1.295 I0.554 J0.446
G1 X50.579 Y1.976
X50.652 Y2.05
X50.715 Y2.134
X53.52 Y6.572
G3 X53.624 Y6.859 I-0.601 J0.38
G1 X54.282 Y11.88
G3 X52.946 Y12.301 I-0.705 J0.092
G2 X40.693 Y-0.182 I-26.595 J13.848
G3 X40.435 Y-1.191 I0.34 J-0.625
X41.459 Y-1.376 I0.599 J0.384
G1 X48.585 Y3.953
G3 X48.765 Y4.15 I-0.426 J0.57
G1 X53.576 Y11.973
G3 X53.679 Y12.288 I-0.606 J0.373
G1 X54.352 Y20.56
G3 X52.947 Y20.76 I-0.709 J0.058
G2 X45.441 Y6.917 I-26.457 J5.389
X32.765 Y-0.182 I-19.291 J19.578
X30.286 Y0.757 I-0.561 J2.261
G3 X27.898 Y1.911 I-2.206 J-1.52
G2 X26.15 Y1.855 I-1.649 J24.339
X8.929 Y9.071 I0 J24.155
X1.855 Y26.35 I17.566 J17.279
X26.25 Y50.645 I24.295 J0
X50.645 Y26.25 I0 J-24.395
X27.898 Y1.911 I-24.395 J0
X25.557 Y3.313 I-0.162 J2.385
G3 X23.37 Y4.944 I-2.565 J-1.157
G2 X4.75 Y26.25 I2.88 J21.306
G1 Y26.35
G2 X26.25 Y47.75 I21.5 J-0.101
X47.701 Y24.807 I0 J-21.5
X23.37 Y4.944 I-21.451 J1.443
G3 X22.774 Y4.902 Z-0.908 I-0.197 J-1.459 F150
G1 X3.527 Y-0.506 Z-1.18
G2 X2.136 Y-0.177 Z-1.2 I-0.398 J1.418
X-0.187 Y2.147 I24.114 J26.427 F300
G3 X-1.25 Y1.203 I-0.526 J-0.479
G1 X-0.342 Y0.152
G3 X-0.058 Y-0.047 I0.538 J0.465
G1 X1.657 Y-0.702
X1.725 Y-0.724
X1.796 Y-0.739
X6.128 Y-1.447
G3 X6.667 Y-0.174 I0.115 J0.702
G2 X-0.243 Y6.759 I19.684 J26.525
G3 X-1.257 Y6.895 I-0.573 J-0.422
X-1.358 Y5.877 I0.441 J-0.558
G1 X1.79 Y2.168
X1.863 Y2.094
X1.946 Y2.031
X6.243 Y-0.745
G3 X6.535 Y-0.853 I0.386 J0.597
G1 X11.435 Y-1.505
G3 X11.869 Y-0.175 I0.094 J0.705
G2 X-0.298 Y12.096 I14.381 J26.426
G3 X-1.303 Y12.364 I-0.628 J-0.335
X-1.499 Y11.342 I0.378 J-0.602
G1 X3.683 Y4.247
G3 X3.876 Y4.066 I0.574 J0.42
G1 X11.529 Y-0.8
G3 X11.847 Y-0.908 I0.382 J0.6
G1 X19.356 Y-1.58
G3 X19.592 Y-0.182 I0.063 J0.708
G2 X6.917 Y7.059 I6.558 J26.192
X-0.389 Y20.636 I19.578 J19.291
G1 X-0.392 Y20.647
X-0.406 Y20.715 Z-1.192
X-0.42 Y20.779 Z-1.169
X-0.432 Y20.837 Z-1.132
X-0.442 Y20.885 Z-1.083
X-0.45 Y20.921 Z-1.025
X-0.455 Y20.943 Z-0.959
X-0.456 Y20.951 Z-0.89
Z5
X54.21 Y3.785
Z-0.89 F150
X54.205 Y3.78 Z-0.959
X54.19 Y3.763 Z-1.025
X54.165 Y3.735 Z-1.083
X54.132 Y3.699 Z-1.132
X54.093 Y3.655 Z-1.169
X54.049 Y3.606 Z-1.192
X54.003 Y3.554 Z-1.2
X52.94 Y2.366
G2 X50.425 Y-0.177 I-26.59 J23.784 F300
G3 X51.378 Y-1.233 I0.48 J-0.525
G1 X52.54 Y-0.201
G3 X52.726 Y0.063 I-0.472 J0.532
G1 X53.47 Y1.891
X53.496 Y1.968
X53.513 Y2.047
X54.222 Y6.459
G3 X52.942 Y6.987 I-0.702 J0.113
G2 X49.606 Y3.036 I-26.937 J19.364
X45.905 Y-0.187 I-23.256 J22.974
G3 X45.776 Y-1.202 I0.425 J-0.57
X46.795 Y-1.295 I0.554 J0.446
G1 X50.579 Y1.976
X50.652 Y2.05
X50.715 Y2.134
X53.52 Y6.572
G3 X53.624 Y6.859 I-0.601 J0.38
G1 X54.282 Y11.88
G3 X52.946 Y12.301 I-0.705 J0.092
G2 X40.693 Y-0.182 I-26.595 J13.848
G3 X40.435 Y-1.191 I0.34 J-0.625
X41.459 Y-1.376 I0.599 J0.384
G1 X48.585 Y3.953
G3 X48.765 Y4.15 I-0.426 J0.57
G1 X53.576 Y11.973
G3 X53.679 Y12.288 I-0.606 J0.373
G1 X54.352 Y20.56
G3 X52.947 Y20.76 I-0.709 J0.058
G2 X45.441 Y6.917 I-26.457 J5.389
X32.765 Y-0.182 I-19.291 J19.578
X30.286 Y0.757 I-0.561 J2.261
G3 X27.898 Y1.911 I-2.206 J-1.52
G2 X26.15 Y1.855 I-1.649 J24.339
X8.929 Y9.071 I0 J24.155
X1.855 Y26.35 I17.566 J17.279
X26.25 Y50.645 I24.295 J0
X50.645 Y26.25 I0 J-24.395
X27.898 Y1.911 I-24.395 J0
X25.557 Y3.313 I-0.162 J2.385
G3 X23.37 Y4.944 I-2.565 J-1.157
G2 X4.75 Y26.25 I2.88 J21.306
G1 Y26.35
G2 X26.25 Y47.75 I21.5 J-0.101
X47.701 Y24.807 I0 J-21.5
X23.37 Y4.944 I-21.451 J1.443
G3 X22.774 Y4.902 Z-1.208 I-0.197 J-1.459 F150
G1 X3.527 Y-0.506 Z-1.48
G2 X2.136 Y-0.177 Z-1.5 I-0.398 J1.418
X-0.187 Y2.147 I24.114 J26.427 F300
G3 X-1.25 Y1.203 I-0.526 J-0.479
G1 X-0.342 Y0.152
G3 X-0.058 Y-0.047 I0.538 J0.465
G1 X1.657 Y-0.702
X1.725 Y-0.724
X1.796 Y-0.739
X6.128 Y-1.447
G3 X6.667 Y-0.174 I0.115 J0.702
G2 X-0.243 Y6.759 I19.684 J26.525
G3 X-1.257 Y6.895 I-0.573 J-0.422
X-1.358 Y5.877 I0.441 J-0.558
G1 X1.79 Y2.168
X1.863 Y2.094
X1.946 Y2.031
X6.243 Y-0.745
G3 X6.535 Y-0.853 I0.386 J0.597
G1 X11.435 Y-1.505
G3 X11.869 Y-0.175 I0.094 J0.705
G2 X-0.298 Y12.096 I14.381 J26.426
G3 X-1.303 Y12.364 I-0.628 J-0.335
X-1.499 Y11.342 I0.378 J-0.602
G1 X3.683 Y4.247
G3 X3.876 Y4.066 I0.574 J0.42
G1 X11.529 Y-0.8
G3 X11.847 Y-0.908 I0.382 J0.6
G1 X19.356 Y-1.58
G3 X19.592 Y-0.182 I0.063 J0.708
G2 X6.917 Y7.059 I6.558 J26.192
X-0.389 Y20.636 I19.578 J19.291
G1 X-0.392 Y20.647
X-0.406 Y20.715 Z-1.492
X-0.42 Y20.779 Z-1.469
X-0.432 Y20.837 Z-1.432
X-0.442 Y20.885 Z-1.383
X-0.45 Y20.921 Z-1.325
X-0.455 Y20.943 Z-1.259
X-0.456 Y20.951 Z-1.19
Z5
X54.21 Y3.785
Z-1.19 F150
X54.205 Y3.78 Z-1.259
X54.19 Y3.763 Z-1.325
X54.165 Y3.735 Z-1.383
X54.132 Y3.699 Z-1.432
X54.093 Y3.655 Z-1.469
X54.049 Y3.606 Z-1.492
X54.003 Y3.554 Z-1.5
X52.94 Y2.366
G2 X50.425 Y-0.177 I-26.59 J23.784 F300
G3 X51.378 Y-1.233 I0.48 J-0.525
G1 X52.54 Y-0.201
G3 X52.726 Y0.063 I-0.472 J0.532
G1 X53.47 Y1.891
X53.496 Y1.968
X53.513 Y2.047
X54.222 Y6.459
G3 X52.942 Y6.987 I-0.702 J0.113
G2 X49.606 Y3.036 I-26.937 J19.364
X45.905 Y-0.187 I-23.256 J22.974
G3 X45.776 Y-1.202 I0.425 J-0.57
X46.795 Y-1.295 I0.554 J0.446
G1 X50.579 Y1.976
X50.652 Y2.05
X50.715 Y2.134
X53.52 Y6.572
G3 X53.624 Y6.859 I-0.601 J0.38
G1 X54.282 Y11.88
G3 X52.946 Y12.301 I-0.705 J0.092
G2 X40.693 Y-0.182 I-26.595 J13.848
G3 X40.435 Y-1.191 I0.34 J-0.625
X41.459 Y-1.376 I0.599 J0.384
G1 X48.585 Y3.953
G3 X48.765 Y4.15 I-0.426 J0.57
G1 X53.576 Y11.973
G3 X53.679 Y12.288 I-0.606 J0.373
G1 X54.352 Y20.56
G3 X52.947 Y20.76 I-0.709 J0.058
G2 X45.441 Y6.917 I-26.457 J5.389
X32.765 Y-0.182 I-19.291 J19.578
X30.286 Y0.757 I-0.561 J2.261
G3 X27.898 Y1.911 I-2.206 J-1.52
G2 X26.15 Y1.855 I-1.649 J24.339
X8.929 Y9.071 I0 J24.155
X1.855 Y26.35 I17.566 J17.279
X26.25 Y50.645 I24.295 J0
X50.645 Y26.25 I0 J-24.395
X27.898 Y1.911 I-24.395 J0
X25.557 Y3.313 I-0.162 J2.385
G3 X23.37 Y4.944 I-2.565 J-1.157
G2 X4.75 Y26.25 I2.88 J21.306
G1 Y26.35
G2 X26.25 Y47.75 I21.5 J-0.101
X47.701 Y24.807 I0 J-21.5
X23.37 Y4.944 I-21.451 J1.443
G3 X22.774 Y4.902 Z-1.508 I-0.197 J-1.459 F150
G1 X3.527 Y-0.506 Z-1.78
G2 X2.136 Y-0.177 Z-1.8 I-0.398 J1.418
X-0.187 Y2.147 I24.114 J26.427 F300
G3 X-1.25 Y1.203 I-0.526 J-0.479
G1 X-0.342 Y0.152
G3 X-0.058 Y-0.047 I0.538 J0.465
G1 X1.657 Y-0.702
X1.725 Y-0.724
X1.796 Y-0.739
X6.128 Y-1.447
G3 X6.667 Y-0.174 I0.115 J0.702
G2 X-0.243 Y6.759 I19.684 J26.525
G3 X-1.257 Y6.895 I-0.573 J-0.422
X-1.358 Y5.877 I0.441 J-0.558
G1 X1.79 Y2.168
X1.863 Y2.094
X1.946 Y2.031
X6.243 Y-0.745
G3 X6.535 Y-0.853 I0.386 J0.597
G1 X11.435 Y-1.505
G3 X11.869 Y-0.175 I0.094 J0.705
G2 X-0.298 Y12.096 I14.381 J26.426
G3 X-1.303 Y12.364 I-0.628 J-0.335
X-1.499 Y11.342 I0.378 J-0.602
G1 X3.683 Y4.247
G3 X3.876 Y4.066 I0.574 J0.42
G1 X11.529 Y-0.8
G3 X11.847 Y-0.908 I0.382 J0.6
G1 X19.356 Y-1.58
G3 X19.592 Y-0.182 I0.063 J0.708
G2 X6.917 Y7.059 I6.558 J26.192
X-0.389 Y20.636 I19.578 J19.291
G1 X-0.392 Y20.647
X-0.406 Y20.715 Z-1.792
X-0.42 Y20.779 Z-1.769
X-0.432 Y20.837 Z-1.732
X-0.442 Y20.885 Z-1.683
X-0.45 Y20.921 Z-1.625
X-0.455 Y20.943 Z-1.559
X-0.456 Y20.951 Z-1.49
Z5
X54.21 Y3.785
Z-1.49 F150
X54.205 Y3.78 Z-1.559
X54.19 Y3.763 Z-1.625
X54.165 Y3.735 Z-1.683
X54.132 Y3.699 Z-1.732
X54.093 Y3.655 Z-1.769
X54.049 Y3.606 Z-1.792
X54.003 Y3.554 Z-1.8
X52.94 Y2.366
G2 X50.425 Y-0.177 I-26.59 J23.784 F300
G3 X51.378 Y-1.233 I0.48 J-0.525
G1 X52.54 Y-0.201
G3 X52.726 Y0.063 I-0.472 J0.532
G1 X53.47 Y1.891
X53.496 Y1.968
X53.513 Y2.047
X54.222 Y6.459
G3 X52.942 Y6.987 I-0.702 J0.113
G2 X49.606 Y3.036 I-26.937 J19.364
X45.905 Y-0.187 I-23.256 J22.974
G3 X45.776 Y-1.202 I0.425 J-0.57
X46.795 Y-1.295 I0.554 J0.446
G1 X50.579 Y1.976
X50.652 Y2.05
X50.715 Y2.134
X53.52 Y6.572
G3 X53.624 Y6.859 I-0.601 J0.38
G1 X54.282 Y11.88
G3 X52.946 Y12.301 I-0.705 J0.092
G2 X40.693 Y-0.182 I-26.595 J13.848
G3 X40.435 Y-1.191 I0.34 J-0.625
X41.459 Y-1.376 I0.599 J0.384
G1 X48.585 Y3.953
G3 X48.765 Y4.15 I-0.426 J0.57
G1 X53.576 Y11.973
G3 X53.679 Y12.288 I-0.606 J0.373
G1 X54.352 Y20.56
G3 X52.947 Y20.76 I-0.709 J0.058
G2 X45.441 Y6.917 I-26.457 J5.389
X32.765 Y-0.182 I-19.291 J19.578
X30.286 Y0.757 I-0.561 J2.261
G3 X27.898 Y1.911 I-2.206 J-1.52
G2 X26.15 Y1.855 I-1.649 J24.339
X8.929 Y9.071 I0 J24.155
X1.855 Y26.35 I17.566 J17.279
X26.25 Y50.645 I24.295 J0
X50.645 Y26.25 I0 J-24.395
X27.898 Y1.911 I-24.395 J0
X25.557 Y3.313 I-0.162 J2.385
G3 X23.37 Y4.944 I-2.565 J-1.157
G2 X4.75 Y26.25 I2.88 J21.306
G1 Y26.35
G2 X26.25 Y47.75 I21.5 J-0.101
X47.701 Y24.807 I0 J-21.5
X23.37 Y4.944 I-21.451 J1.443
G3 X22.774 Y4.902 Z-1.808 I-0.197 J-1.459 F150
G1 X3.527 Y-0.506 Z-2.08
G2 X2.136 Y-0.177 Z-2.1 I-0.398 J1.418
X-0.187 Y2.147 I24.114 J26.427 F300
G3 X-1.25 Y1.203 I-0.526 J-0.479
G1 X-0.342 Y0.152
G3 X-0.058 Y-0.047 I0.538 J0.465
G1 X1.657 Y-0.702
X1.725 Y-0.724
X1.796 Y-0.739
X6.128 Y-1.447
G3 X6.667 Y-0.174 I0.115 J0.702
G2 X-0.243 Y6.759 I19.684 J26.525
G3 X-1.257 Y6.895 I-0.573 J-0.422
X-1.358 Y5.877 I0.441 J-0.558
G1 X1.79 Y2.168
X1.863 Y2.094
X1.946 Y2.031
X6.243 Y-0.745
G3 X6.535 Y-0.853 I0.386 J0.597
G1 X11.435 Y-1.505
G3 X11.869 Y-0.175 I0.094 J0.705
G2 X-0.298 Y12.096 I14.381 J26.426
G3 X-1.303 Y12.364 I-0.628 J-0.335
X-1.499 Y11.342 I0.378 J-0.602
G1 X3.683 Y4.247
G3 X3.876 Y4.066 I0.574 J0.42
G1 X11.529 Y-0.8
G3 X11.847 Y-0.908 I0.382 J0.6
G1 X19.356 Y-1.58
G3 X19.592 Y-0.182 I0.063 J0.708
G2 X6.917 Y7.059 I6.558 J26.192
X-0.389 Y20.636 I19.578 J19.291
G1 X-0.392 Y20.647
X-0.406 Y20.715 Z-2.092
X-0.42 Y20.779 Z-2.069
X-0.432 Y20.837 Z-2.032
X-0.442 Y20.885 Z-1.983
X-0.45 Y20.921 Z-1.925
X-0.455 Y20.943 Z-1.859
X-0.456 Y20.951 Z-1.79
Z5
X54.21 Y3.785
Z-1.79 F150
X54.205 Y3.78 Z-1.859
X54.19 Y3.763 Z-1.925
X54.165 Y3.735 Z-1.983
X54.132 Y3.699 Z-2.032
X54.093 Y3.655 Z-2.069
X54.049 Y3.606 Z-2.092
X54.003 Y3.554 Z-2.1
X52.94 Y2.366
G2 X50.425 Y-0.177 I-26.59 J23.784 F300
G3 X51.378 Y-1.233 I0.48 J-0.525
G1 X52.54 Y-0.201
G3 X52.726 Y0.063 I-0.472 J0.532
G1 X53.47 Y1.891
X53.496 Y1.968
X53.513 Y2.047
X54.222 Y6.459
G3 X52.942 Y6.987 I-0.702 J0.113
G2 X49.606 Y3.036 I-26.937 J19.364
X45.905 Y-0.187 I-23.256 J22.974
G3 X45.776 Y-1.202 I0.425 J-0.57
X46.795 Y-1.295 I0.554 J0.446
G1 X50.579 Y1.976
X50.652 Y2.05
X50.715 Y2.134
X53.52 Y6.572
G3 X53.624 Y6.859 I-0.601 J0.38
G1 X54.282 Y11.88
G3 X52.946 Y12.301 I-0.705 J0.092
G2 X40.693 Y-0.182 I-26.595 J13.848
G3 X40.435 Y-1.191 I0.34 J-0.625
X41.459 Y-1.376 I0.599 J0.384
G1 X48.585 Y3.953
G3 X48.765 Y4.15 I-0.426 J0.57
G1 X53.576 Y11.973
G3 X53.679 Y12.288 I-0.606 J0.373
G1 X54.352 Y20.56
G3 X52.947 Y20.76 I-0.709 J0.058
G2 X45.441 Y6.917 I-26.457 J5.389
X32.765 Y-0.182 I-19.291 J19.578
X30.286 Y0.757 I-0.561 J2.261
G3 X27.898 Y1.911 I-2.206 J-1.52
G2 X26.15 Y1.855 I-1.649 J24.339
X8.929 Y9.071 I0 J24.155
X1.855 Y26.35 I17.566 J17.279
X26.25 Y50.645 I24.295 J0
X50.645 Y26.25 I0 J-24.395
X27.898 Y1.911 I-24.395 J0
X25.557 Y3.313 I-0.162 J2.385
G3 X23.37 Y4.944 I-2.565 J-1.157
G2 X4.75 Y26.25 I2.88 J21.306
G1 Y26.35
G2 X26.25 Y47.75 I21.5 J-0.101
X47.701 Y24.807 I0 J-21.5
X23.37 Y4.944 I-21.451 J1.443
G3 X22.774 Y4.902 Z-2.108 I-0.197 J-1.459 F150
G1 X3.527 Y-0.506 Z-2.38
G2 X2.136 Y-0.177 Z-2.4 I-0.398 J1.418
X-0.187 Y2.147 I24.114 J26.427 F300
G3 X-1.25 Y1.203 I-0.526 J-0.479
G1 X-0.342 Y0.152
G3 X-0.058 Y-0.047 I0.538 J0.465
G1 X1.657 Y-0.702
X1.725 Y-0.724
X1.796 Y-0.739
X6.128 Y-1.447
G3 X6.667 Y-0.174 I0.115 J0.702
G2 X-0.243 Y6.759 I19.684 J26.525
G3 X-1.257 Y6.895 I-0.573 J-0.422
X-1.358 Y5.877 I0.441 J-0.558
G1 X1.79 Y2.168
X1.863 Y2.094
X1.946 Y2.031
X6.243 Y-0.745
G3 X6.535 Y-0.853 I0.386 J0.597
G1 X11.435 Y-1.505
G3 X11.869 Y-0.175 I0.094 J0.705
G2 X-0.298 Y12.096 I14.381 J26.426
G3 X-1.303 Y12.364 I-0.628 J-0.335
X-1.499 Y11.342 I0.378 J-0.602
G1 X3.683 Y4.247
G3 X3.876 Y4.066 I0.574 J0.42
G1 X11.529 Y-0.8
G3 X11.847 Y-0.908 I0.382 J0.6
G1 X19.356 Y-1.58
G3 X19.592 Y-0.182 I0.063 J0.708
G2 X6.917 Y7.059 I6.558 J26.192
X-0.389 Y20.636 I19.578 J19.291
G1 X-0.392 Y20.647
X-0.406 Y20.715 Z-2.392
X-0.42 Y20.779 Z-2.369
X-0.432 Y20.837 Z-2.332
X-0.442 Y20.885 Z-2.283
X-0.45 Y20.921 Z-2.225
X-0.455 Y20.943 Z-2.159
X-0.456 Y20.951 Z-2.09
Z5
X54.21 Y3.785
Z-2.09 F150
X54.205 Y3.78 Z-2.159
X54.19 Y3.763 Z-2.225
X54.165 Y3.735 Z-2.283
X54.132 Y3.699 Z-2.332
X54.093 Y3.655 Z-2.369
X54.049 Y3.606 Z-2.392
X54.003 Y3.554 Z-2.4
X52.94 Y2.366
G2 X50.425 Y-0.177 I-26.59 J23.784 F300
G3 X51.378 Y-1.233 I0.48 J-0.525
G1 X52.54 Y-0.201
G3 X52.726 Y0.063 I-0.472 J0.532
G1 X53.47 Y1.891
X53.496 Y1.968
X53.513 Y2.047
X54.222 Y6.459
G3 X52.942 Y6.987 I-0.702 J0.113
G2 X49.606 Y3.036 I-26.937 J19.364
X45.905 Y-0.187 I-23.256 J22.974
G3 X45.776 Y-1.202 I0.425 J-0.57
X46.795 Y-1.295 I0.554 J0.446
G1 X50.579 Y1.976
X50.652 Y2.05
X50.715 Y2.134
X53.52 Y6.572
G3 X53.624 Y6.859 I-0.601 J0.38
G1 X54.282 Y11.88
G3 X52.946 Y12.301 I-0.705 J0.092
G2 X40.693 Y-0.182 I-26.595 J13.848
G3 X40.435 Y-1.191 I0.34 J-0.625
X41.459 Y-1.376 I0.599 J0.384
G1 X48.585 Y3.953
G3 X48.765 Y4.15 I-0.426 J0.57
G1 X53.576 Y11.973
G3 X53.679 Y12.288 I-0.606 J0.373
G1 X54.352 Y20.56
G3 X52.947 Y20.76 I-0.709 J0.058
G2 X45.441 Y6.917 I-26.457 J5.389
X32.765 Y-0.182 I-19.291 J19.578
X30.286 Y0.757 I-0.561 J2.261
G3 X27.898 Y1.911 I-2.206 J-1.52
G2 X26.15 Y1.855 I-1.649 J24.339
X8.929 Y9.071 I0 J24.155
X1.855 Y26.35 I17.566 J17.279
X26.25 Y50.645 I24.295 J0
X50.645 Y26.25 I0 J-24.395
X27.898 Y1.911 I-24.395 J0
X25.557 Y3.313 I-0.162 J2.385
G3 X23.37 Y4.944 I-2.565 J-1.157
G2 X4.75 Y26.25 I2.88 J21.306
G1 Y26.35
G2 X26.25 Y47.75 I21.5 J-0.101
X47.701 Y24.807 I0 J-21.5
X23.37 Y4.944 I-21.451 J1.443
G3 X22.774 Y4.902 Z-2.408 I-0.197 J-1.459 F150
G1 X3.527 Y-0.506 Z-2.68
G2 X2.136 Y-0.177 Z-2.7 I-0.398 J1.418
X-0.187 Y2.147 I24.114 J26.427 F300
G3 X-1.25 Y1.203 I-0.526 J-0.479
G1 X-0.342 Y0.152
G3 X-0.058 Y-0.047 I0.538 J0.465
G1 X1.657 Y-0.702
X1.725 Y-0.724
X1.796 Y-0.739
X6.128 Y-1.447
G3 X6.667 Y-0.174 I0.115 J0.702
G2 X-0.243 Y6.759 I19.684 J26.525
G3 X-1.257 Y6.895 I-0.573 J-0.422
X-1.358 Y5.877 I0.441 J-0.558
G1 X1.79 Y2.168
X1.863 Y2.094
X1.946 Y2.031
X6.243 Y-0.745
G3 X6.535 Y-0.853 I0.386 J0.597
G1 X11.435 Y-1.505
G3 X11.869 Y-0.175 I0.094 J0.705
G2 X-0.298 Y12.096 I14.381 J26.426
G3 X-1.303 Y12.364 I-0.628 J-0.335
X-1.499 Y11.342 I0.378 J-0.602
G1 X3.683 Y4.247
G3 X3.876 Y4.066 I0.574 J0.42
G1 X11.529 Y-0.8
G3 X11.847 Y-0.908 I0.382 J0.6
G1 X19.356 Y-1.58
G3 X19.592 Y-0.182 I0.063 J0.708
G2 X6.917 Y7.059 I6.558 J26.192
X-0.389 Y20.636 I19.578 J19.291
G1 X-0.392 Y20.647
X-0.406 Y20.715 Z-2.692
X-0.42 Y20.779 Z-2.669
X-0.432 Y20.837 Z-2.632
X-0.442 Y20.885 Z-2.583
X-0.45 Y20.921 Z-2.525
X-0.455 Y20.943 Z-2.459
X-0.456 Y20.951 Z-2.39
Z5
X54.21 Y3.785
Z-2.39 F150
X54.205 Y3.78 Z-2.459
X54.19 Y3.763 Z-2.525
X54.165 Y3.735 Z-2.583
X54.132 Y3.699 Z-2.632
X54.093 Y3.655 Z-2.669
X54.049 Y3.606 Z-2.692
X54.003 Y3.554 Z-2.7
X52.94 Y2.366
G2 X50.425 Y-0.177 I-26.59 J23.784 F300
G3 X51.378 Y-1.233 I0.48 J-0.525
G1 X52.54 Y-0.201
G3 X52.726 Y0.063 I-0.472 J0.532
G1 X53.47 Y1.891
X53.496 Y1.968
X53.513 Y2.047
X54.222 Y6.459
G3 X52.942 Y6.987 I-0.702 J0.113
G2 X49.606 Y3.036 I-26.937 J19.364
X45.905 Y-0.187 I-23.256 J22.974
G3 X45.776 Y-1.202 I0.425 J-0.57
X46.795 Y-1.295 I0.554 J0.446
G1 X50.579 Y1.976
X50.652 Y2.05
X50.715 Y2.134
X53.52 Y6.572
G3 X53.624 Y6.859 I-0.601 J0.38
G1 X54.282 Y11.88
G3 X52.946 Y12.301 I-0.705 J0.092
G2 X40.693 Y-0.182 I-26.595 J13.848
G3 X40.435 Y-1.191 I0.34 J-0.625
X41.459 Y-1.376 I0.599 J0.384
G1 X48.585 Y3.953
G3 X48.765 Y4.15 I-0.426 J0.57
G1 X53.576 Y11.973
G3 X53.679 Y12.288 I-0.606 J0.373
G1 X54.352 Y20.56
G3 X52.947 Y20.76 I-0.709 J0.058
G2 X45.441 Y6.917 I-26.457 J5.389
X32.765 Y-0.182 I-19.291 J19.578
X30.286 Y0.757 I-0.561 J2.261
G3 X27.898 Y1.911 I-2.206 J-1.52
G2 X26.15 Y1.855 I-1.649 J24.339
X8.929 Y9.071 I0 J24.155
X1.855 Y26.35 I17.566 J17.279
X26.25 Y50.645 I24.295 J0
X50.645 Y26.25 I0 J-24.395
X27.898 Y1.911 I-24.395 J0
X25.557 Y3.313 I-0.162 J2.385
G3 X23.37 Y4.944 I-2.565 J-1.157
G2 X4.75 Y26.25 I2.88 J21.306
G1 Y26.35
G2 X26.25 Y47.75 I21.5 J-0.101
X47.701 Y24.807 I0 J-21.5
X23.37 Y4.944 I-21.451 J1.443
G3 X22.774 Y4.902 Z-2.708 I-0.197 J-1.459 F150
G1 X3.527 Y-0.506 Z-2.98
G2 X2.136 Y-0.177 Z-3 I-0.398 J1.418
X-0.187 Y2.147 I24.114 J26.427 F300
G3 X-1.25 Y1.203 I-0.526 J-0.479
G1 X-0.342 Y0.152
G3 X-0.058 Y-0.047 I0.538 J0.465
G1 X1.657 Y-0.702
X1.725 Y-0.724
X1.796 Y-0.739
X6.128 Y-1.447
G3 X6.667 Y-0.174 I0.115 J0.702
G2 X-0.243 Y6.759 I19.684 J26.525
G3 X-1.257 Y6.895 I-0.573 J-0.422
X-1.358 Y5.877 I0.441 J-0.558
G1 X1.79 Y2.168
X1.863 Y2.094
X1.946 Y2.031
X6.243 Y-0.745
G3 X6.535 Y-0.853 I0.386 J0.597
G1 X11.435 Y-1.505
G3 X11.869 Y-0.175 I0.094 J0.705
G2 X-0.298 Y12.096 I14.381 J26.426
G3 X-1.303 Y12.364 I-0.628 J-0.335
X-1.499 Y11.342 I0.378 J-0.602
G1 X3.683 Y4.247
G3 X3.876 Y4.066 I0.574 J0.42
G1 X11.529 Y-0.8
G3 X11.847 Y-0.908 I0.382 J0.6
G1 X19.356 Y-1.58
G3 X19.592 Y-0.182 I0.063 J0.708
G2 X6.917 Y7.059 I6.558 J26.192
X-0.389 Y20.636 I19.578 J19.291
G1 X-0.392 Y20.647
X-0.406 Y20.715 Z-2.992
X-0.42 Y20.779 Z-2.969
X-0.432 Y20.837 Z-2.932
X-0.442 Y20.885 Z-2.883
X-0.45 Y20.921 Z-2.825
X-0.455 Y20.943 Z-2.759
X-0.456 Y20.951 Z-2.69
Z5
X54.21 Y3.785
Z-2.69 F150
X54.205 Y3.78 Z-2.759
X54.19 Y3.763 Z-2.825
X54.165 Y3.735 Z-2.883
X54.132 Y3.699 Z-2.932
X54.093 Y3.655 Z-2.969
X54.049 Y3.606 Z-2.992
X54.003 Y3.554 Z-3
X52.94 Y2.366
G2 X50.425 Y-0.177 I-26.59 J23.784 F300
G3 X51.378 Y-1.233 I0.48 J-0.525
G1 X52.54 Y-0.201
G3 X52.726 Y0.063 I-0.472 J0.532
G1 X53.47 Y1.891
X53.496 Y1.968
X53.513 Y2.047
X54.222 Y6.459
G3 X52.942 Y6.987 I-0.702 J0.113
G2 X49.606 Y3.036 I-26.937 J19.364
X45.905 Y-0.187 I-23.256 J22.974
G3 X45.776 Y-1.202 I0.425 J-0.57
X46.795 Y-1.295 I0.554 J0.446
G1 X50.579 Y1.976
X50.652 Y2.05
X50.715 Y2.134
X53.52 Y6.572
G3 X53.624 Y6.859 I-0.601 J0.38
G1 X54.282 Y11.88
G3 X52.946 Y12.301 I-0.705 J0.092
G2 X40.693 Y-0.182 I-26.595 J13.848
G3 X40.435 Y-1.191 I0.34 J-0.625
X41.459 Y-1.376 I0.599 J0.384
G1 X48.585 Y3.953
G3 X48.765 Y4.15 I-0.426 J0.57
G1 X53.576 Y11.973
G3 X53.679 Y12.288 I-0.606 J0.373
G1 X54.352 Y20.56
G3 X52.947 Y20.76 I-0.709 J0.058
G2 X45.441 Y6.917 I-26.457 J5.389
X32.765 Y-0.182 I-19.291 J19.578
X30.286 Y0.757 I-0.561 J2.261
G3 X27.898 Y1.911 I-2.206 J-1.52
G2 X26.15 Y1.855 I-1.649 J24.339
X8.929 Y9.071 I0 J24.155
X1.855 Y26.35 I17.566 J17.279
X26.25 Y50.645 I24.295 J0
X50.645 Y26.25 I0 J-24.395
X27.898 Y1.911 I-24.395 J0
X25.557 Y3.313 I-0.162 J2.385
G3 X23.37 Y4.944 I-2.565 J-1.157
G2 X4.75 Y26.25 I2.88 J21.306
G1 Y26.35
G2 X26.25 Y47.75 I21.5 J-0.101
X47.701 Y24.807 I0 J-21.5
X23.37 Y4.944 I-21.451 J1.443
G3 X22.774 Y4.902 Z-3.008 I-0.197 J-1.459 F150
G1 X3.527 Y-0.506 Z-3.28
G2 X2.136 Y-0.177 Z-3.3 I-0.398 J1.418
X-0.187 Y2.147 I24.114 J26.427 F300
G3 X-1.25 Y1.203 I-0.526 J-0.479
G1 X-0.342 Y0.152
G3 X-0.058 Y-0.047 I0.538 J0.465
G1 X1.657 Y-0.702
X1.725 Y-0.724
X1.796 Y-0.739
X6.128 Y-1.447
G3 X6.667 Y-0.174 I0.115 J0.702
G2 X-0.243 Y6.759 I19.684 J26.525
G3 X-1.257 Y6.895 I-0.573 J-0.422
X-1.358 Y5.877 I0.441 J-0.558
G1 X1.79 Y2.168
X1.863 Y2.094
X1.946 Y2.031
X6.243 Y-0.745
G3 X6.535 Y-0.853 I0.386 J0.597
G1 X11.435 Y-1.505
G3 X11.869 Y-0.175 I0.094 J0.705
G2 X-0.298 Y12.096 I14.381 J26.426
G3 X-1.303 Y12.364 I-0.628 J-0.335
X-1.499 Y11.342 I0.378 J-0.602
G1 X3.683 Y4.247
G3 X3.876 Y4.066 I0.574 J0.42
G1 X11.529 Y-0.8
G3 X11.847 Y-0.908 I0.382 J0.6
G1 X19.356 Y-1.58
G3 X19.592 Y-0.182 I0.063 J0.708
G2 X6.917 Y7.059 I6.558 J26.192
X-0.389 Y20.636 I19.578 J19.291
G1 X-0.392 Y20.647
X-0.406 Y20.715 Z-3.292
X-0.42 Y20.779 Z-3.269
X-0.432 Y20.837 Z-3.232
X-0.442 Y20.885 Z-3.183
X-0.45 Y20.921 Z-3.125
X-0.455 Y20.943 Z-3.059
X-0.456 Y20.951 Z-2.99
Z5
X54.21 Y3.785
Z-2.99 F150
X54.205 Y3.78 Z-3.059
X54.19 Y3.763 Z-3.125
X54.165 Y3.735 Z-3.183
X54.132 Y3.699 Z-3.232
X54.093 Y3.655 Z-3.269
X54.049 Y3.606 Z-3.292
X54.003 Y3.554 Z-3.3
X52.94 Y2.366
G2 X50.425 Y-0.177 I-26.59 J23.784 F300
G3 X51.378 Y-1.233 I0.48 J-0.525
G1 X52.54 Y-0.201
G3 X52.726 Y0.063 I-0.472 J0.532
G1 X53.47 Y1.891
X53.496 Y1.968
X53.513 Y2.047
X54.222 Y6.459
G3 X52.942 Y6.987 I-0.702 J0.113
G2 X49.606 Y3.036 I-26.937 J19.364
X45.905 Y-0.187 I-23.256 J22.974
G3 X45.776 Y-1.202 I0.425 J-0.57
X46.795 Y-1.295 I0.554 J0.446
G1 X50.579 Y1.976
X50.652 Y2.05
X50.715 Y2.134
X53.52 Y6.572
G3 X53.624 Y6.859 I-0.601 J0.38
G1 X54.282 Y11.88
G3 X52.946 Y12.301 I-0.705 J0.092
G2 X40.693 Y-0.182 I-26.595 J13.848
G3 X40.435 Y-1.191 I0.34 J-0.625
X41.459 Y-1.376 I0.599 J0.384
G1 X48.585 Y3.953
G3 X48.765 Y4.15 I-0.426 J0.57
G1 X53.576 Y11.973
G3 X53.679 Y12.288 I-0.606 J0.373
G1 X54.352 Y20.56
G3 X52.947 Y20.76 I-0.709 J0.058
G2 X45.441 Y6.917 I-26.457 J5.389
X32.765 Y-0.182 I-19.291 J19.578
X30.286 Y0.757 I-0.561 J2.261
G3 X27.898 Y1.911 I-2.206 J-1.52
G2 X26.15 Y1.855 I-1.649 J24.339
X8.929 Y9.071 I0 J24.155
X1.855 Y26.35 I17.566 J17.279
X26.25 Y50.645 I24.295 J0
X50.645 Y26.25 I0 J-24.395
X27.898 Y1.911 I-24.395 J0
X25.557 Y3.313 I-0.162 J2.385
G3 X23.37 Y4.944 I-2.565 J-1.157
G2 X4.75 Y26.25 I2.88 J21.306
G1 Y26.35
G2 X26.25 Y47.75 I21.5 J-0.101
X47.701 Y24.807 I0 J-21.5
X23.37 Y4.944 I-21.451 J1.443
G3 X22.774 Y4.902 Z-3.308 I-0.197 J-1.459 F150
G1 X3.527 Y-0.506 Z-3.58
G2 X2.136 Y-0.177 Z-3.6 I-0.398 J1.418
X-0.187 Y2.147 I24.114 J26.427 F300
G3 X-1.25 Y1.203 I-0.526 J-0.479
G1 X-0.342 Y0.152
G3 X-0.058 Y-0.047 I0.538 J0.465
G1 X1.657 Y-0.702
X1.725 Y-0.724
X1.796 Y-0.739
X6.128 Y-1.447
G3 X6.667 Y-0.174 I0.115 J0.702
G2 X-0.243 Y6.759 I19.684 J26.525
G3 X-1.257 Y6.895 I-0.573 J-0.422
X-1.358 Y5.877 I0.441 J-0.558
G1 X1.79 Y2.168
X1.863 Y2.094
X1.946 Y2.031
X6.243 Y-0.745
G3 X6.535 Y-0.853 I0.386 J0.597
G1 X11.435 Y-1.505
G3 X11.869 Y-0.175 I0.094 J0.705
G2 X-0.298 Y12.096 I14.381 J26.426
G3 X-1.303 Y12.364 I-0.628 J-0.335
X-1.499 Y11.342 I0.378 J-0.602
G1 X3.683 Y4.247
G3 X3.876 Y4.066 I0.574 J0.42
G1 X11.529 Y-0.8
G3 X11.847 Y-0.908 I0.382 J0.6
G1 X19.356 Y-1.58
G3 X19.592 Y-0.182 I0.063 J0.708
G2 X6.917 Y7.059 I6.558 J26.192
X-0.389 Y20.636 I19.578 J19.291
G1 X-0.392 Y20.647
X-0.406 Y20.715 Z-3.592
X-0.42 Y20.779 Z-3.569
X-0.432 Y20.837 Z-3.532
X-0.442 Y20.885 Z-3.483
X-0.45 Y20.921 Z-3.425
X-0.455 Y20.943 Z-3.359
X-0.456 Y20.951 Z-3.29
Z5
X54.21 Y3.785
Z-3.29 F150
X54.205 Y3.78 Z-3.359
X54.19 Y3.763 Z-3.425
X54.165 Y3.735 Z-3.483
X54.132 Y3.699 Z-3.532
X54.093 Y3.655 Z-3.569
X54.049 Y3.606 Z-3.592
X54.003 Y3.554 Z-3.6
X52.94 Y2.366
G2 X50.425 Y-0.177 I-26.59 J23.784 F300
G3 X51.378 Y-1.233 I0.48 J-0.525
G1 X52.54 Y-0.201
G3 X52.726 Y0.063 I-0.472 J0.532
G1 X53.47 Y1.891
X53.496 Y1.968
X53.513 Y2.047
X54.222 Y6.459
G3 X52.942 Y6.987 I-0.702 J0.113
G2 X49.606 Y3.036 I-26.937 J19.364
X45.905 Y-0.187 I-23.256 J22.974
G3 X45.776 Y-1.202 I0.425 J-0.57
X46.795 Y-1.295 I0.554 J0.446
G1 X50.579 Y1.976
X50.652 Y2.05
X50.715 Y2.134
X53.52 Y6.572
G3 X53.624 Y6.859 I-0.601 J0.38
G1 X54.282 Y11.88
G3 X52.946 Y12.301 I-0.705 J0.092
G2 X40.693 Y-0.182 I-26.595 J13.848
G3 X40.435 Y-1.191 I0.34 J-0.625
X41.459 Y-1.376 I0.599 J0.384
G1 X48.585 Y3.953
G3 X48.765 Y4.15 I-0.426 J0.57
G1 X53.576 Y11.973
G3 X53.679 Y12.288 I-0.606 J0.373
G1 X54.352 Y20.56
G3 X52.947 Y20.76 I-0.709 J0.058
G2 X45.441 Y6.917 I-26.457 J5.389
X32.765 Y-0.182 I-19.291 J19.578
X30.286 Y0.757 I-0.561 J2.261
G3 X27.898 Y1.911 I-2.206 J-1.52
G2 X26.15 Y1.855 I-1.649 J24.339
X8.929 Y9.071 I0 J24.155
X1.855 Y26.35 I17.566 J17.279
X26.25 Y50.645 I24.295 J0
X50.645 Y26.25 I0 J-24.395
X27.898 Y1.911 I-24.395 J0
X25.557 Y3.313 I-0.162 J2.385
G3 X23.37 Y4.944 I-2.565 J-1.157
G2 X4.75 Y26.25 I2.88 J21.306
G1 Y26.35
G2 X26.25 Y47.75 I21.5 J-0.101
X47.701 Y24.807 I0 J-21.5
X23.37 Y4.944 I-21.451 J1.443
G3 X22.774 Y4.902 Z-3.608 I-0.197 J-1.459 F150
G1 X3.527 Y-0.506 Z-3.88
G2 X2.136 Y-0.177 Z-3.9 I-0.398 J1.418
X-0.187 Y2.147 I24.114 J26.427 F300
G3 X-1.25 Y1.203 I-0.526 J-0.479
G1 X-0.342 Y0.152
G3 X-0.058 Y-0.047 I0.538 J0.465
G1 X1.657 Y-0.702
X1.725 Y-0.724
X1.796 Y-0.739
X6.128 Y-1.447
G3 X6.667 Y-0.174 I0.115 J0.702
G2 X-0.243 Y6.759 I19.684 J26.525
G3 X-1.257 Y6.895 I-0.573 J-0.422
X-1.358 Y5.877 I0.441 J-0.558
G1 X1.79 Y2.168
X1.863 Y2.094
X1.946 Y2.031
X6.243 Y-0.745
G3 X6.535 Y-0.853 I0.386 J0.597
G1 X11.435 Y-1.505
G3 X11.869 Y-0.175 I0.094 J0.705
G2 X-0.298 Y12.096 I14.381 J26.426
G3 X-1.303 Y12.364 I-0.628 J-0.335
X-1.499 Y11.342 I0.378 J-0.602
G1 X3.683 Y4.247
G3 X3.876 Y4.066 I0.574 J0.42
G1 X11.529 Y-0.8
G3 X11.847 Y-0.908 I0.382 J0.6
G1 X19.356 Y-1.58
G3 X19.592 Y-0.182 I0.063 J0.708
G2 X6.917 Y7.059 I6.558 J26.192
X-0.389 Y20.636 I19.578 J19.291
G1 X-0.392 Y20.647
X-0.406 Y20.715 Z-3.892
X-0.42 Y20.779 Z-3.869
X-0.432 Y20.837 Z-3.832
X-0.442 Y20.885 Z-3.783
X-0.45 Y20.921 Z-3.725
X-0.455 Y20.943 Z-3.659
X-0.456 Y20.951 Z-3.59
Z5
X54.21 Y3.785
Z-3.59 F150
X54.205 Y3.78 Z-3.659
X54.19 Y3.763 Z-3.725
X54.165 Y3.735 Z-3.783
X54.132 Y3.699 Z-3.832
X54.093 Y3.655 Z-3.869
X54.049 Y3.606 Z-3.892
X54.003 Y3.554 Z-3.9
X52.94 Y2.366
G2 X50.425 Y-0.177 I-26.59 J23.784 F300
G3 X51.378 Y-1.233 I0.48 J-0.525
G1 X52.54 Y-0.201
G3 X52.726 Y0.063 I-0.472 J0.532
G1 X53.47 Y1.891
X53.496 Y1.968
X53.513 Y2.047
X54.222 Y6.459
G3 X52.942 Y6.987 I-0.702 J0.113
G2 X49.606 Y3.036 I-26.937 J19.364
X45.905 Y-0.187 I-23.256 J22.974
G3 X45.776 Y-1.202 I0.425 J-0.57
X46.795 Y-1.295 I0.554 J0.446
G1 X50.579 Y1.976
X50.652 Y2.05
X50.715 Y2.134
X53.52 Y6.572
G3 X53.624 Y6.859 I-0.601 J0.38
G1 X54.282 Y11.88
G3 X52.946 Y12.301 I-0.705 J0.092
G2 X40.693 Y-0.182 I-26.595 J13.848
G3 X40.435 Y-1.191 I0.34 J-0.625
X41.459 Y-1.376 I0.599 J0.384
G1 X48.585 Y3.953
G3 X48.765 Y4.15 I-0.426 J0.57
G1 X53.576 Y11.973
G3 X53.679 Y12.288 I-0.606 J0.373
G1 X54.352 Y20.56
G3 X52.947 Y20.76 I-0.709 J0.058
G2 X45.441 Y6.917 I-26.457 J5.389
X32.765 Y-0.182 I-19.291 J19.578
X30.286 Y0.757 I-0.561 J2.261
G3 X27.898 Y1.911 I-2.206 J-1.52
G2 X26.15 Y1.855 I-1.649 J24.339
X8.929 Y9.071 I0 J24.155
X1.855 Y26.35 I17.566 J17.279
X26.25 Y50.645 I24.295 J0
X50.645 Y26.25 I0 J-24.395
X27.898 Y1.911 I-24.395 J0
X25.557 Y3.313 I-0.162 J2.385
G3 X23.37 Y4.944 I-2.565 J-1.157
G2 X4.75 Y26.25 I2.88 J21.306
G1 Y26.35
G2 X26.25 Y47.75 I21.5 J-0.101
X47.701 Y24.807 I0 J-21.5
X23.37 Y4.944 I-21.451 J1.443
G3 X22.774 Y4.902 Z-3.903 I-0.197 J-1.459 F150
G1 X3.527 Y-0.506 Z-3.993
G2 X2.136 Y-0.177 Z-4 I-0.398 J1.418
X-0.187 Y2.147 I24.114 J26.427 F300
G3 X-1.25 Y1.203 I-0.526 J-0.479
G1 X-0.342 Y0.152
G3 X-0.058 Y-0.047 I0.538 J0.465
G1 X1.657 Y-0.702
X1.725 Y-0.724
X1.796 Y-0.739
X6.128 Y-1.447
G3 X6.667 Y-0.174 I0.115 J0.702
G2 X-0.243 Y6.759 I19.684 J26.525
G3 X-1.257 Y6.895 I-0.573 J-0.422
X-1.358 Y5.877 I0.441 J-0.558
G1 X1.79 Y2.168
X1.863 Y2.094
X1.946 Y2.031
X6.243 Y-0.745
G3 X6.535 Y-0.853 I0.386 J0.597
G1 X11.435 Y-1.505
G3 X11.869 Y-0.175 I0.094 J0.705
G2 X-0.298 Y12.096 I14.381 J26.426
G3 X-1.303 Y12.364 I-0.628 J-0.335
X-1.499 Y11.342 I0.378 J-0.602
G1 X3.683 Y4.247
G3 X3.876 Y4.066 I0.574 J0.42
G1 X11.529 Y-0.8
G3 X11.847 Y-0.908 I0.382 J0.6
G1 X19.356 Y-1.58
G3 X19.592 Y-0.182 I0.063 J0.708
G2 X6.917 Y7.059 I6.558 J26.192
X-0.389 Y20.636 I19.578 J19.291
G1 X-0.392 Y20.647
X-0.406 Y20.715 Z-3.992
X-0.42 Y20.779 Z-3.969
X-0.432 Y20.837 Z-3.932
X-0.442 Y20.885 Z-3.883
X-0.45 Y20.921 Z-3.825
X-0.455 Y20.943 Z-3.759
X-0.456 Y20.951 Z-3.69
Z5
X54.21 Y3.785
Z-3.69 F150
X54.205 Y3.78 Z-3.759
X54.19 Y3.763 Z-3.825
X54.165 Y3.735 Z-3.883
X54.132 Y3.699 Z-3.932
X54.093 Y3.655 Z-3.969
X54.049 Y3.606 Z-3.992
X54.003 Y3.554 Z-4
X52.94 Y2.366
G2 X50.425 Y-0.177 I-26.59 J23.784 F300
G3 X51.378 Y-1.233 I0.48 J-0.525
G1 X52.54 Y-0.201
G3 X52.726 Y0.063 I-0.472 J0.532
G1 X53.47 Y1.891
X53.496 Y1.968
X53.513 Y2.047
X54.222 Y6.459
G3 X52.942 Y6.987 I-0.702 J0.113
G2 X49.606 Y3.036 I-26.937 J19.364
X45.905 Y-0.187 I-23.256 J22.974
G3 X45.776 Y-1.202 I0.425 J-0.57
X46.795 Y-1.295 I0.554 J0.446
G1 X50.579 Y1.976
X50.652 Y2.05
X50.715 Y2.134
X53.52 Y6.572
G3 X53.624 Y6.859 I-0.601 J0.38
G1 X54.282 Y11.88
G3 X52.946 Y12.301 I-0.705 J0.092
G2 X40.693 Y-0.182 I-26.595 J13.848
G3 X40.435 Y-1.191 I0.34 J-0.625
X41.459 Y-1.376 I0.599 J0.384
G1 X48.585 Y3.953
G3 X48.765 Y4.15 I-0.426 J0.57
G1 X53.576 Y11.973
G3 X53.679 Y12.288 I-0.606 J0.373
G1 X54.352 Y20.56
G3 X52.947 Y20.76 I-0.709 J0.058
G2 X45.441 Y6.917 I-26.457 J5.389
X32.765 Y-0.182 I-19.291 J19.578
X30.286 Y0.757 I-0.561 J2.261
G3 X27.898 Y1.911 I-2.206 J-1.52
G2 X26.15 Y1.855 I-1.649 J24.339
X8.929 Y9.071 I0 J24.155
X1.855 Y26.35 I17.566 J17.279
X26.25 Y50.645 I24.295 J0
X50.645 Y26.25 I0 J-24.395
X27.898 Y1.911 I-24.395 J0
X25.557 Y3.313 I-0.162 J2.385
G3 X23.37 Y4.944 I-2.565 J-1.157
G2 X4.75 Y26.25 I2.88 J21.306
G1 Y26.35
G2 X26.25 Y47.75 I21.5 J-0.101
X47.701 Y24.807 I0 J-21.5
X23.37 Y4.944 I-21.451 J1.443
G1 X23.311 Y4.946 Z-3.988
X23.252 Y4.937 Z-3.976
X23.204 Y4.921 Z-3.943
X23.16 Y4.897 Z-3.909
X23.108 Y4.855 Z-3.809
X23.092 Y4.838 Z-3.69
Z10
(When using Fusion 360 for Personal Use, the feedrate of)
(rapid moves is reduced to match the feedrate of cutting)
(moves, which can increase machining time. Unrestricted rapid)
(moves are available with a Fusion 360 Subscription.)

(Bore3)
G0 X17.125 Y17.56
G1 Z10 F300
Z2
Z0.31 F150
G18 G3 X16.815 Z0 I-0.31 K0
G1 X16.66
G17 G3 X16.35 Y17.25 I0 J-0.31
X18.15 Y17.25 Z-0.5 I0.9 J0 F300
X16.35 Y17.25 Z-1 I-0.9 J0
X18.15 Y17.25 Z-1.5 I0.9 J0
X16.35 Y17.25 Z-2 I-0.9 J0
X18.15 Y17.25 Z-2.5 I0.9 J0
X16.35 Y17.25 Z-3 I-0.9 J0
X18.15 Y17.25 Z-3.5 I0.9 J0
X16.35 Y17.25 Z-4 I-0.9 J0
X18.15 Y17.25 Z-4.5 I0.9 J0
X16.35 Y17.25 Z-5 I-0.9 J0
X18.15 Y17.25 Z-5.5 I0.9 J0
X16.35 Y17.25 Z-6 I-0.9 J0
X18.15 Y17.25 Z-6.5 I0.9 J0
X16.35 Y17.25 Z-7 I-0.9 J0
X18.15 Y17.25 I0.9 J0
X16.35 Y17.25 I-0.9 J0
X16.66 Y16.94 I0.31 J0
G1 X16.815
G18 G2 X17.125 Z-6.69 I0 K0.31
G1 Z5
X35.125 Y17.56
Z2
Z0.31 F150
G3 X34.815 Z0 I-0.31 K0
G1 X34.66
G17 G3 X34.35 Y17.25 I0 J-0.31
X36.15 Y17.25 Z-0.5 I0.9 J0 F300
X34.35 Y17.25 Z-1 I-0.9 J0
X36.15 Y17.25 Z-1.5 I0.9 J0
X34.35 Y17.25 Z-2 I-0.9 J0
X36.15 Y17.25 Z-2.5 I0.9 J0
X34.35 Y17.25 Z-3 I-0.9 J0
X36.15 Y17.25 Z-3.5 I0.9 J0
X34.35 Y17.25 Z-4 I-0.9 J0
X36.15 Y17.25 Z-4.5 I0.9 J0
X34.35 Y17.25 Z-5 I-0.9 J0
X36.15 Y17.25 Z-5.5 I0.9 J0
X34.35 Y17.25 Z-6 I-0.9 J0
X36.15 Y17.25 Z-6.5 I0.9 J0
X34.35 Y17.25 Z-7 I-0.9 J0
X36.15 Y17.25 I0.9 J0
X34.35 Y17.25 I-0.9 J0
X34.66 Y16.94 I0.31 J0
G1 X34.815
G18 G2 X35.125 Z-6.69 I0 K0.31
G1 Z5
Y35.56
Z2
Z0.31 F150
G3 X34.815 Z0 I-0.31 K0
G1 X34.66
G17 G3 X34.35 Y35.25 I0 J-0.31
X36.15 Y35.25 Z-0.5 I0.9 J0 F300
X34.35 Y35.25 Z-1 I-0.9 J0
X36.15 Y35.25 Z-1.5 I0.9 J0
X34.35 Y35.25 Z-2 I-0.9 J0
X36.15 Y35.25 Z-2.5 I0.9 J0
X34.35 Y35.25 Z-3 I-0.9 J0
X36.15 Y35.25 Z-3.5 I0.9 J0
X34.35 Y35.25 Z-4 I-0.9 J0
X36.15 Y35.25 Z-4.5 I0.9 J0
X34.35 Y35.25 Z-5 I-0.9 J0
X36.15 Y35.25 Z-5.5 I0.9 J0
X34.35 Y35.25 Z-6 I-0.9 J0
X36.15 Y35.25 Z-6.5 I0.9 J0
X34.35 Y35.25 Z-7 I-0.9 J0
X36.15 Y35.25 I0.9 J0
X34.35 Y35.25 I-0.9 J0
X34.66 Y34.94 I0.31 J0
G1 X34.815
G18 G2 X35.125 Z-6.69 I0 K0.31
G1 Z5
X17.125 Y35.56
Z2
Z0.31 F150
G3 X16.815 Z0 I-0.31 K0
G1 X16.66
G17 G3 X16.35 Y35.25 I0 J-0.31
X18.15 Y35.25 Z-0.5 I0.9 J0 F300
X16.35 Y35.25 Z-1 I-0.9 J0
X18.15 Y35.25 Z-1.5 I0.9 J0
X16.35 Y35.25 Z-2 I-0.9 J0
X18.15 Y35.25 Z-2.5 I0.9 J0
X16.35 Y35.25 Z-3 I-0.9 J0
X18.15 Y35.25 Z-3.5 I0.9 J0
X16.35 Y35.25 Z-4 I-0.9 J0
X18.15 Y35.25 Z-4.5 I0.9 J0
X16.35 Y35.25 Z-5 I-0.9 J0
X18.15 Y35.25 Z-5.5 I0.9 J0
X16.35 Y35.25 Z-6 I-0.9 J0
X18.15 Y35.25 Z-6.5 I0.9 J0
X16.35 Y35.25 Z-7 I-0.9 J0
X18.15 Y35.25 I0.9 J0
X16.35 Y35.25 I-0.9 J0
X16.66 Y34.94 I0.31 J0
G1 X16.815
G18 G2 X17.125 Z-6.69 I0 K0.31
G1 Z10
G17
(When using Fusion 360 for Personal Use, the feedrate of)
(rapid moves is reduced to match the feedrate of cutting)
(moves, which can increase machining time. Unrestricted rapid)
(moves are available with a Fusion 360 Subscription.)

(Bore2)
G0 X6.25 Y4.25
G1 Z10 F300
Z-2.31
Z-4 F150
X6.2 Y4.3
X6.175 Y4.293
X6.157 Y4.275
X6.15 Y4.25
X6.158 Y4.211 Z-4.007 F300
X6.18 Y4.178 Z-4.015
X6.214 Y4.157 Z-4.022
X6.253 Y4.15 Z-4.029
X6.292 Y4.159 Z-4.037
X6.324 Y4.182 Z-4.044
X6.344 Y4.216 Z-4.051
X6.35 Y4.256 Z-4.059
X6.34 Y4.294 Z-4.066
X6.315 Y4.326 Z-4.073
X6.281 Y4.345 Z-4.081
X6.241 Y4.35 Z-4.088
X6.203 Y4.338 Z-4.095
X6.173 Y4.313 Z-4.103
X6.154 Y4.278 Z-4.11
X6.151 Y4.238 Z-4.117
X6.163 Y4.201 Z-4.125
X6.189 Y4.171 Z-4.132
X6.225 Y4.153 Z-4.139
X6.264 Y4.151 Z-4.147
X6.302 Y4.164 Z-4.154
X6.331 Y4.191 Z-4.161
X6.347 Y4.228 Z-4.169
X6.348 Y4.267 Z-4.176
X6.334 Y4.304 Z-4.183
X6.306 Y4.333 Z-4.191
X6.27 Y4.348 Z-4.198
X6.23 Z-4.205
X6.193 Y4.332 Z-4.213
X6.166 Y4.304 Z-4.22
X6.151 Y4.267 Z-4.227
X6.153 Y4.227 Z-4.235
X6.169 Y4.191 Z-4.242
X6.199 Y4.164 Z-4.249
X6.236 Y4.151 Z-4.257
X6.276 Y4.153 Z-4.264
X6.311 Y4.171 Z-4.271
X6.337 Y4.201 Z-4.279
X6.349 Y4.239 Z-4.286
X6.346 Y4.279 Z-4.293
X6.327 Y4.314 Z-4.301
X6.296 Y4.339 Z-4.308
X6.258 Y4.35 Z-4.315
X6.219 Y4.345 Z-4.323
X6.184 Y4.325 Z-4.33
X6.16 Y4.294 Z-4.337
X6.15 Y4.255 Z-4.345
X6.156 Y4.216 Z-4.352
X6.177 Y4.182 Z-4.359
X6.209 Y4.159 Z-4.367
X6.248 Y4.15 Z-4.374
X6.287 Y4.157 Z-4.381
X6.32 Y4.179 Z-4.389
X6.342 Y4.212 Z-4.396
X6.35 Y4.25 Z-4.403
X6.342 Y4.289 Z-4.411
X6.319 Y4.322 Z-4.418
X6.286 Y4.343 Z-4.425
X6.247 Y4.35 Z-4.433
X6.208 Y4.341 Z-4.44
X6.176 Y4.317 Z-4.447
X6.156 Y4.283 Z-4.455
X6.15 Y4.244 Z-4.462
X6.161 Y4.205 Z-4.469
X6.185 Y4.174 Z-4.477
X6.22 Y4.155 Z-4.484
X6.259 Y4.15 Z-4.491
X6.297 Y4.162 Z-4.499
X6.328 Y4.187 Z-4.506
X6.346 Y4.222 Z-4.513
X6.349 Y4.262 Z-4.521
X6.337 Y4.3 Z-4.528
X6.311 Y4.33 Z-4.535
X6.275 Y4.347 Z-4.543
X6.235 Y4.349 Z-4.55
X6.198 Y4.335 Z-4.557
X6.169 Y4.308 Z-4.565
X6.152 Y4.272 Z-4.572
Y4.232 Z-4.579
X6.166 Y4.195 Z-4.587
X6.194 Y4.167 Z-4.594
X6.231 Y4.152 Z-4.601
X6.271 Z-4.609
X6.307 Y4.168 Z-4.616
X6.335 Y4.197 Z-4.623
X6.349 Y4.234 Z-4.631
X6.347 Y4.273 Z-4.638
X6.33 Y4.309 Z-4.645
X6.301 Y4.336 Z-4.653
X6.263 Y4.349 Z-4.66
X6.224 Y4.347 Z-4.667
X6.188 Y4.329 Z-4.675
X6.163 Y4.298 Z-4.682
X6.151 Y4.261 Z-4.689
X6.154 Y4.221 Z-4.697
X6.173 Y4.186 Z-4.704
X6.204 Y4.161 Z-4.711
X6.242 Y4.15 Z-4.719
X6.282 Y4.155 Z-4.726
X6.316 Y4.175 Z-4.733
X6.34 Y4.207 Z-4.741
X6.35 Y4.245 Z-4.748
X6.344 Y4.284 Z-4.756
X6.323 Y4.318 Z-4.763
X6.291 Y4.341 Z-4.77
X6.252 Y4.35 Z-4.778
X6.213 Y4.343 Z-4.785
X6.18 Y4.321 Z-4.792
X6.158 Y4.288 Z-4.8
X6.15 Y4.249 Z-4.807
X6.158 Y4.21 Z-4.814
X6.181 Y4.178 Z-4.822
X6.215 Y4.156 Z-4.829
X6.254 Y4.15 Z-4.836
X6.292 Y4.159 Z-4.844
X6.324 Y4.183 Z-4.851
X6.345 Y4.217 Z-4.858
X6.35 Y4.257 Z-4.866
X6.339 Y4.295 Z-4.873
X6.315 Y4.326 Z-4.88
X6.28 Y4.345 Z-4.888
X6.24 Y4.35 Z-4.895
X6.202 Y4.338 Z-4.902
X6.172 Y4.312 Z-4.91
X6.154 Y4.277 Z-4.917
X6.151 Y4.238 Z-4.924
X6.163 Y4.2 Z-4.932
X6.19 Y4.17 Z-4.939
X6.226 Y4.153 Z-4.946
X6.265 Y4.151 Z-4.954
X6.303 Y4.165 Z-4.961
X6.332 Y4.192 Z-4.968
X6.348 Y4.228 Z-4.976
Y4.268 Z-4.983
X6.333 Y4.305 Z-4.99
X6.305 Y4.333 Z-4.998
X6.269 Y4.348 Z-5.005
X6.229 Z-5.012
X6.193 Y4.332 Z-5.02
X6.165 Y4.303 Z-5.027
X6.151 Y4.266 Z-5.034
X6.153 Y4.226 Z-5.042
X6.17 Y4.19 Z-5.049
X6.199 Y4.164 Z-5.056
X6.237 Y4.151 Z-5.064
X6.277 Y4.154 Z-5.071
X6.312 Y4.172 Z-5.078
X6.338 Y4.202 Z-5.086
X6.349 Y4.24 Z-5.093
X6.346 Y4.279 Z-5.1
X6.327 Y4.314 Z-5.108
X6.295 Y4.339 Z-5.115
X6.257 Y4.35 Z-5.122
X6.218 Y4.345 Z-5.13
X6.183 Y4.325 Z-5.137
X6.16 Y4.293 Z-5.144
X6.15 Y4.254 Z-5.152
X6.156 Y4.215 Z-5.159
X6.177 Y4.181 Z-5.166
X6.21 Y4.158 Z-5.174
X6.249 Y4.15 Z-5.181
X6.288 Y4.157 Z-5.188
X6.321 Y4.179 Z-5.196
X6.343 Y4.212 Z-5.203
X6.35 Y4.251 Z-5.21
X6.342 Y4.29 Z-5.218
X6.319 Y4.323 Z-5.225
X6.285 Y4.344 Z-5.232
X6.246 Y4.35 Z-5.24
X6.207 Y4.34 Z-5.247
X6.175 Y4.317 Z-5.254
X6.155 Y4.282 Z-5.262
X6.15 Y4.243 Z-5.269
X6.161 Y4.205 Z-5.276
X6.186 Y4.173 Z-5.284
X6.221 Y4.154 Z-5.291
X6.26 Y4.151 Z-5.298
X6.298 Y4.162 Z-5.306
X6.328 Y4.188 Z-5.313
X6.346 Y4.223 Z-5.32
X6.349 Y4.263 Z-5.328
X6.336 Y4.301 Z-5.335
X6.31 Y4.33 Z-5.342
X6.274 Y4.347 Z-5.35
X6.234 Y4.349 Z-5.357
X6.197 Y4.335 Z-5.364
X6.168 Y4.307 Z-5.372
X6.152 Y4.271 Z-5.379
Y4.231 Z-5.386
X6.167 Y4.195 Z-5.394
X6.195 Y4.167 Z-5.401
X6.232 Y4.152 Z-5.408
X6.272 Z-5.416
X6.308 Y4.168 Z-5.423
X6.335 Y4.197 Z-5.43
X6.349 Y4.235 Z-5.438
X6.347 Y4.274 Z-5.445
X6.33 Y4.31 Z-5.452
X6.3 Y4.337 Z-5.46
X6.263 Y4.349 Z-5.467
X6.223 Y4.346 Z-5.474
X6.188 Y4.328 Z-5.482
X6.162 Y4.298 Z-5.489
X6.15 Y4.26 Z-5.496
X6.155 Y4.22 Z-5.504
X6.174 Y4.185 Z-5.511
X6.205 Y4.161 Z-5.518
X6.243 Y4.15 Z-5.526
X6.283 Y4.155 Z-5.533
X6.317 Y4.176 Z-5.54
X6.341 Y4.208 Z-5.548
X6.35 Y4.246 Z-5.555
X6.344 Y4.285 Z-5.562
X6.322 Y4.319 Z-5.57
X6.29 Y4.342 Z-5.577
X6.251 Y4.35 Z-5.584
X6.212 Y4.342 Z-5.592
X6.179 Y4.32 Z-5.599
X6.157 Y4.287 Z-5.606
X6.15 Y4.248 Z-5.614
X6.159 Y4.209 Z-5.621
X6.182 Y4.177 Z-5.628
X6.216 Y4.156 Z-5.636
X6.255 Y4.15 Z-5.643
X6.293 Y4.16 Z-5.65
X6.325 Y4.184 Z-5.658
X6.345 Y4.218 Z-5.665
X6.35 Y4.258 Z-5.672
X6.339 Y4.296 Z-5.68
X6.314 Y4.327 Z-5.687
X6.279 Y4.346 Z-5.694
X6.239 Y4.349 Z-5.702
X6.202 Y4.337 Z-5.709
X6.171 Y4.312 Z-5.716
X6.153 Y4.276 Z-5.724
X6.151 Y4.237 Z-5.731
X6.164 Y4.199 Z-5.738
X6.191 Y4.17 Z-5.746
X6.227 Y4.153 Z-5.753
X6.266 Y4.151 Z-5.76
X6.303 Y4.165 Z-5.768
X6.332 Y4.193 Z-5.775
X6.348 Y4.229 Z-5.782
Y4.269 Z-5.79
X6.333 Y4.306 Z-5.797
X6.305 Y4.334 Z-5.804
X6.268 Y4.348 Z-5.812
X6.228 Z-5.819
X6.192 Y4.331 Z-5.826
X6.165 Y4.302 Z-5.834
X6.151 Y4.265 Z-5.841
X6.153 Y4.225 Z-5.848
X6.17 Y4.189 Z-5.856
X6.2 Y4.163 Z-5.863
X6.238 Y4.151 Z-5.87
X6.278 Y4.154 Z-5.878
X6.313 Y4.172 Z-5.885
X6.338 Y4.203 Z-5.892
X6.35 Y4.241 Z-5.9
X6.345 Y4.28 Z-5.907
X6.326 Y4.315 Z-5.914
X6.295 Y4.339 Z-5.922
X6.256 Y4.35 Z-5.929
X6.217 Y4.344 Z-5.936
X6.183 Y4.324 Z-5.944
X6.159 Y4.292 Z-5.951
X6.15 Y4.253 Z-5.958
X6.157 Y4.214 Z-5.966
X6.178 Y4.181 Z-5.973
X6.211 Y4.158 Z-5.98
X6.25 Y4.15 Z-5.988
X6.288 Y4.158 Z-5.995
X6.321 Y4.18 Z-6.002
X6.343 Y4.213 Z-6.01
X6.35 Y4.252 Z-6.017
X6.341 Y4.291 Z-6.024
X6.318 Y4.323 Z-6.032
X6.284 Y4.344 Z-6.039
X6.245 Y4.35 Z-6.046
X6.206 Y4.34 Z-6.054
X6.175 Y4.316 Z-6.061
X6.155 Y4.281 Z-6.068
X6.15 Y4.242 Z-6.076
X6.161 Y4.204 Z-6.083
X6.186 Y4.173 Z-6.09
X6.221 Y4.154 Z-6.098
X6.261 Y4.151 Z-6.105
X6.299 Y4.163 Z-6.112
X6.329 Y4.189 Z-6.12
X6.347 Y4.224 Z-6.127
X6.349 Y4.264 Z-6.134
X6.336 Y4.301 Z-6.142
X6.309 Y4.331 Z-6.149
X6.273 Y4.347 Z-6.156
X6.233 Y4.349 Z-6.164
X6.196 Y4.334 Z-6.171
X6.168 Y4.307 Z-6.178
X6.152 Y4.27 Z-6.186
Y4.23 Z-6.193
X6.167 Y4.194 Z-6.2
X6.196 Y4.166 Z-6.208
X6.233 Y4.152 Z-6.215
X6.272 Y4.153 Z-6.222
X6.309 Y4.169 Z-6.23
X6.336 Y4.198 Z-6.237
X6.349 Y4.236 Z-6.244
X6.347 Y4.275 Z-6.252
X6.329 Y4.311 Z-6.259
X6.299 Y4.337 Z-6.267
X6.262 Y4.349 Z-6.274
X6.222 Y4.346 Z-6.281
X6.187 Y4.327 Z-6.289
X6.162 Y4.297 Z-6.296
X6.15 Y4.259 Z-6.303
X6.155 Y4.219 Z-6.311
X6.174 Y4.185 Z-6.318
X6.206 Y4.16 Z-6.325
X6.244 Y4.15 Z-6.333
X6.284 Y4.156 Z-6.34
X6.318 Y4.176 Z-6.347
X6.341 Y4.208 Z-6.355
X6.35 Y4.247 Z-6.362
X6.343 Y4.286 Z-6.369
X6.322 Y4.32 Z-6.377
X6.289 Y4.342 Z-6.384
X6.25 Y4.35 Z-6.391
X6.211 Y4.342 Z-6.399
X6.178 Y4.32 Z-6.406
X6.157 Y4.286 Z-6.413
X6.15 Y4.247 Z-6.421
X6.159 Y4.208 Z-6.428
X6.182 Y4.176 Z-6.435
X6.216 Y4.156 Z-6.443
X6.256 Y4.15 Z-6.45
X6.294 Y4.16 Z-6.457
X6.326 Y4.185 Z-6.465
X6.345 Y4.219 Z-6.472
X6.35 Y4.259 Z-6.479
X6.338 Y4.297 Z-6.487
X6.313 Y4.327 Z-6.494
X6.278 Y4.346 Z-6.501
X6.238 Y4.349 Z-6.509
X6.201 Y4.337 Z-6.516
X6.171 Y4.311 Z-6.523
X6.153 Y4.275 Z-6.531
X6.151 Y4.236 Z-6.538
X6.164 Y4.198 Z-6.545
X6.191 Y4.169 Z-6.553
X6.228 Y4.153 Z-6.56
X6.267 Y4.151 Z-6.567
X6.304 Y4.166 Z-6.575
X6.333 Y4.194 Z-6.582
X6.348 Y4.23 Z-6.589
Y4.27 Z-6.597
X6.332 Y4.307 Z-6.604
X6.304 Y4.334 Z-6.611
X6.267 Y4.349 Z-6.619
X6.227 Y4.347 Z-6.626
X6.191 Y4.331 Z-6.633
X6.164 Y4.301 Z-6.641
X6.151 Y4.264 Z-6.648
X6.153 Y4.224 Z-6.655
X6.171 Y4.189 Z-6.663
X6.201 Y4.163 Z-6.67
X6.239 Y4.151 Z-6.677
X6.278 Y4.154 Z-6.685
X6.314 Y4.173 Z-6.692
X6.339 Y4.204 Z-6.699
X6.35 Y4.242 Z-6.707
X6.345 Y4.281 Z-6.714
X6.325 Y4.316 Z-6.721
X6.294 Y4.34 Z-6.729
X6.255 Y4.35 Z-6.736
X6.216 Y4.344 Z-6.743
X6.182 Y4.323 Z-6.751
X6.159 Y4.291 Z-6.758
X6.15 Y4.252 Z-6.765
X6.157 Y4.213 Z-6.773
X6.179 Y4.18 Z-6.78
X6.211 Y4.158 Z-6.787
X6.25 Y4.15 Z-6.795
X6.289 Y4.158 Z-6.802
X6.322 Y4.181 Z-6.809
X6.343 Y4.214 Z-6.817
X6.35 Y4.253 Z-6.824
X6.341 Y4.292 Z-6.831
X6.317 Y4.324 Z-6.839
X6.283 Y4.344 Z-6.846
X6.244 Y4.35 Z-6.853
X6.205 Y4.339 Z-6.861
X6.174 Y4.315 Z-6.868
X6.155 Y4.28 Z-6.875
X6.15 Y4.241 Z-6.883
X6.162 Y4.203 Z-6.89
X6.187 Y4.172 Z-6.897
X6.222 Y4.154 Z-6.905
X6.262 Y4.151 Z-6.912
X6.3 Y4.163 Z-6.919
X6.33 Y4.189 Z-6.927
X6.347 Y4.225 Z-6.934
X6.349 Y4.265 Z-6.941
X6.335 Y4.302 Z-6.949
X6.308 Y4.331 Z-6.956
X6.272 Y4.348 Z-6.963
X6.232 Z-6.971
X6.195 Y4.334 Z-6.978
X6.167 Y4.306 Z-6.985
X6.152 Y4.269 Z-6.993
Y4.229 Z-7
G3 X6.348 Y4.271 I0.098 J0.021
X6.152 Y4.229 I-0.098 J-0.021
G1 X6.164 Y4.206
X6.186 Y4.192
X6.211 Y4.191
X6.25 Y4.25
Z5
X46.25
Z-2.31
Z-4 F150
X46.2 Y4.3
X46.175 Y4.293
X46.157 Y4.275
X46.15 Y4.25
X46.158 Y4.211 Z-4.007 F300
X46.18 Y4.178 Z-4.015
X46.214 Y4.157 Z-4.022
X46.253 Y4.15 Z-4.029
X46.292 Y4.159 Z-4.037
X46.324 Y4.182 Z-4.044
X46.344 Y4.216 Z-4.051
X46.35 Y4.256 Z-4.059
X46.34 Y4.294 Z-4.066
X46.315 Y4.326 Z-4.073
X46.281 Y4.345 Z-4.081
X46.241 Y4.35 Z-4.088
X46.203 Y4.338 Z-4.095
X46.173 Y4.313 Z-4.103
X46.154 Y4.278 Z-4.11
X46.151 Y4.238 Z-4.117
X46.163 Y4.201 Z-4.125
X46.189 Y4.171 Z-4.132
X46.225 Y4.153 Z-4.139
X46.264 Y4.151 Z-4.147
X46.302 Y4.164 Z-4.154
X46.331 Y4.191 Z-4.161
X46.347 Y4.228 Z-4.169
X46.348 Y4.267 Z-4.176
X46.334 Y4.304 Z-4.183
X46.306 Y4.333 Z-4.191
X46.27 Y4.348 Z-4.198
X46.23 Z-4.205
X46.193 Y4.332 Z-4.213
X46.166 Y4.304 Z-4.22
X46.151 Y4.267 Z-4.227
X46.153 Y4.227 Z-4.235
X46.169 Y4.191 Z-4.242
X46.199 Y4.164 Z-4.249
X46.236 Y4.151 Z-4.257
X46.276 Y4.153 Z-4.264
X46.311 Y4.171 Z-4.271
X46.337 Y4.201 Z-4.279
X46.349 Y4.239 Z-4.286
X46.346 Y4.279 Z-4.293
X46.327 Y4.314 Z-4.301
X46.296 Y4.339 Z-4.308
X46.258 Y4.35 Z-4.315
X46.219 Y4.345 Z-4.323
X46.184 Y4.325 Z-4.33
X46.16 Y4.294 Z-4.337
X46.15 Y4.255 Z-4.345
X46.156 Y4.216 Z-4.352
X46.177 Y4.182 Z-4.359
X46.209 Y4.159 Z-4.367
X46.248 Y4.15 Z-4.374
X46.287 Y4.157 Z-4.381
X46.32 Y4.179 Z-4.389
X46.342 Y4.212 Z-4.396
X46.35 Y4.25 Z-4.403
X46.342 Y4.289 Z-4.411
X46.319 Y4.322 Z-4.418
X46.286 Y4.343 Z-4.425
X46.247 Y4.35 Z-4.433
X46.208 Y4.341 Z-4.44
X46.176 Y4.317 Z-4.447
X46.156 Y4.283 Z-4.455
X46.15 Y4.244 Z-4.462
X46.161 Y4.205 Z-4.469
X46.185 Y4.174 Z-4.477
X46.22 Y4.155 Z-4.484
X46.259 Y4.15 Z-4.491
X46.297 Y4.162 Z-4.499
X46.328 Y4.187 Z-4.506
X46.346 Y4.222 Z-4.513
X46.349 Y4.262 Z-4.521
X46.337 Y4.3 Z-4.528
X46.311 Y4.33 Z-4.535
X46.275 Y4.347 Z-4.543
X46.235 Y4.349 Z-4.55
X46.198 Y4.335 Z-4.557
X46.169 Y4.308 Z-4.565
X46.152 Y4.272 Z-4.572
Y4.232 Z-4.579
X46.166 Y4.195 Z-4.587
X46.194 Y4.167 Z-4.594
X46.231 Y4.152 Z-4.601
X46.271 Z-4.609
X46.307 Y4.168 Z-4.616
X46.335 Y4.197 Z-4.623
X46.349 Y4.234 Z-4.631
X46.347 Y4.273 Z-4.638
X46.33 Y4.309 Z-4.645
X46.301 Y4.336 Z-4.653
X46.263 Y4.349 Z-4.66
X46.224 Y4.347 Z-4.667
X46.188 Y4.329 Z-4.675
X46.163 Y4.298 Z-4.682
X46.151 Y4.261 Z-4.689
X46.154 Y4.221 Z-4.697
X46.173 Y4.186 Z-4.704
X46.204 Y4.161 Z-4.711
X46.242 Y4.15 Z-4.719
X46.282 Y4.155 Z-4.726
X46.316 Y4.175 Z-4.733
X46.34 Y4.207 Z-4.741
X46.35 Y4.245 Z-4.748
X46.344 Y4.284 Z-4.756
X46.323 Y4.318 Z-4.763
X46.291 Y4.341 Z-4.77
X46.252 Y4.35 Z-4.778
X46.213 Y4.343 Z-4.785
X46.18 Y4.321 Z-4.792
X46.158 Y4.288 Z-4.8
X46.15 Y4.249 Z-4.807
X46.158 Y4.21 Z-4.814
X46.181 Y4.178 Z-4.822
X46.215 Y4.156 Z-4.829
X46.254 Y4.15 Z-4.836
X46.292 Y4.159 Z-4.844
X46.324 Y4.183 Z-4.851
X46.345 Y4.217 Z-4.858
X46.35 Y4.257 Z-4.866
X46.339 Y4.295 Z-4.873
X46.315 Y4.326 Z-4.88
X46.28 Y4.345 Z-4.888
X46.24 Y4.35 Z-4.895
X46.202 Y4.338 Z-4.902
X46.172 Y4.312 Z-4.91
X46.154 Y4.277 Z-4.917
X46.151 Y4.238 Z-4.924
X46.163 Y4.2 Z-4.932
X46.19 Y4.17 Z-4.939
X46.226 Y4.153 Z-4.946
X46.265 Y4.151 Z-4.954
X46.303 Y4.165 Z-4.961
X46.332 Y4.192 Z-4.968
X46.348 Y4.228 Z-4.976
Y4.268 Z-4.983
X46.333 Y4.305 Z-4.99
X46.305 Y4.333 Z-4.998
X46.269 Y4.348 Z-5.005
X46.229 Z-5.012
X46.193 Y4.332 Z-5.02
X46.165 Y4.303 Z-5.027
X46.151 Y4.266 Z-5.034
X46.153 Y4.226 Z-5.042
X46.17 Y4.19 Z-5.049
X46.199 Y4.164 Z-5.056
X46.237 Y4.151 Z-5.064
X46.277 Y4.154 Z-5.071
X46.312 Y4.172 Z-5.078
X46.338 Y4.202 Z-5.086
X46.349 Y4.24 Z-5.093
X46.346 Y4.279 Z-5.1
X46.327 Y4.314 Z-5.108
X46.295 Y4.339 Z-5.115
X46.257 Y4.35 Z-5.122
X46.218 Y4.345 Z-5.13
X46.183 Y4.325 Z-5.137
X46.16 Y4.293 Z-5.144
X46.15 Y4.254 Z-5.152
X46.156 Y4.215 Z-5.159
X46.177 Y4.181 Z-5.166
X46.21 Y4.158 Z-5.174
X46.249 Y4.15 Z-5.181
X46.288 Y4.157 Z-5.188
X46.321 Y4.179 Z-5.196
X46.343 Y4.212 Z-5.203
X46.35 Y4.251 Z-5.21
X46.342 Y4.29 Z-5.218
X46.319 Y4.323 Z-5.225
X46.285 Y4.344 Z-5.232
X46.246 Y4.35 Z-5.24
X46.207 Y4.34 Z-5.247
X46.175 Y4.317 Z-5.254
X46.155 Y4.282 Z-5.262
X46.15 Y4.243 Z-5.269
X46.161 Y4.205 Z-5.276
X46.186 Y4.173 Z-5.284
X46.221 Y4.154 Z-5.291
X46.26 Y4.151 Z-5.298
X46.298 Y4.162 Z-5.306
X46.328 Y4.188 Z-5.313
X46.346 Y4.223 Z-5.32
X46.349 Y4.263 Z-5.328
X46.336 Y4.301 Z-5.335
X46.31 Y4.33 Z-5.342
X46.274 Y4.347 Z-5.35
X46.234 Y4.349 Z-5.357
X46.197 Y4.335 Z-5.364
X46.168 Y4.307 Z-5.372
X46.152 Y4.271 Z-5.379
Y4.231 Z-5.386
X46.167 Y4.195 Z-5.394
X46.195 Y4.167 Z-5.401
X46.232 Y4.152 Z-5.408
X46.272 Z-5.416
X46.308 Y4.168 Z-5.423
X46.335 Y4.197 Z-5.43
X46.349 Y4.235 Z-5.438
X46.347 Y4.274 Z-5.445
X46.33 Y4.31 Z-5.452
X46.3 Y4.337 Z-5.46
X46.263 Y4.349 Z-5.467
X46.223 Y4.346 Z-5.474
X46.188 Y4.328 Z-5.482
X46.162 Y4.298 Z-5.489
X46.15 Y4.26 Z-5.496
X46.155 Y4.22 Z-5.504
X46.174 Y4.185 Z-5.511
X46.205 Y4.161 Z-5.518
X46.243 Y4.15 Z-5.526
X46.283 Y4.155 Z-5.533
X46.317 Y4.176 Z-5.54
X46.341 Y4.208 Z-5.548
X46.35 Y4.246 Z-5.555
X46.344 Y4.285 Z-5.562
X46.322 Y4.319 Z-5.57
X46.29 Y4.342 Z-5.577
X46.251 Y4.35 Z-5.584
X46.212 Y4.342 Z-5.592
X46.179 Y4.32 Z-5.599
X46.157 Y4.287 Z-5.606
X46.15 Y4.248 Z-5.614
X46.159 Y4.209 Z-5.621
X46.182 Y4.177 Z-5.628
X46.216 Y4.156 Z-5.636
X46.255 Y4.15 Z-5.643
X46.293 Y4.16 Z-5.65
X46.325 Y4.184 Z-5.658
X46.345 Y4.218 Z-5.665
X46.35 Y4.258 Z-5.672
X46.339 Y4.296 Z-5.68
X46.314 Y4.327 Z-5.687
X46.279 Y4.346 Z-5.694
X46.239 Y4.349 Z-5.702
X46.202 Y4.337 Z-5.709
X46.171 Y4.312 Z-5.716
X46.153 Y4.276 Z-5.724
X46.151 Y4.237 Z-5.731
X46.164 Y4.199 Z-5.738
X46.191 Y4.17 Z-5.746
X46.227 Y4.153 Z-5.753
X46.266 Y4.151 Z-5.76
X46.303 Y4.165 Z-5.768
X46.332 Y4.193 Z-5.775
X46.348 Y4.229 Z-5.782
Y4.269 Z-5.79
X46.333 Y4.306 Z-5.797
X46.305 Y4.334 Z-5.804
X46.268 Y4.348 Z-5.812
X46.228 Z-5.819
X46.192 Y4.331 Z-5.826
X46.165 Y4.302 Z-5.834
X46.151 Y4.265 Z-5.841
X46.153 Y4.225 Z-5.848
X46.17 Y4.189 Z-5.856
X46.2 Y4.163 Z-5.863
X46.238 Y4.151 Z-5.87
X46.278 Y4.154 Z-5.878
X46.313 Y4.172 Z-5.885
X46.338 Y4.203 Z-5.892
X46.35 Y4.241 Z-5.9
X46.345 Y4.28 Z-5.907
X46.326 Y4.315 Z-5.914
X46.295 Y4.339 Z-5.922
X46.256 Y4.35 Z-5.929
X46.217 Y4.344 Z-5.936
X46.183 Y4.324 Z-5.944
X46.159 Y4.292 Z-5.951
X46.15 Y4.253 Z-5.958
X46.157 Y4.214 Z-5.966
X46.178 Y4.181 Z-5.973
X46.211 Y4.158 Z-5.98
X46.25 Y4.15 Z-5.988
X46.288 Y4.158 Z-5.995
X46.321 Y4.18 Z-6.002
X46.343 Y4.213 Z-6.01
X46.35 Y4.252 Z-6.017
X46.341 Y4.291 Z-6.024
X46.318 Y4.323 Z-6.032
X46.284 Y4.344 Z-6.039
X46.245 Y4.35 Z-6.046
X46.206 Y4.34 Z-6.054
X46.175 Y4.316 Z-6.061
X46.155 Y4.281 Z-6.068
X46.15 Y4.242 Z-6.076
X46.161 Y4.204 Z-6.083
X46.186 Y4.173 Z-6.09
X46.221 Y4.154 Z-6.098
X46.261 Y4.151 Z-6.105
X46.299 Y4.163 Z-6.112
X46.329 Y4.189 Z-6.12
X46.347 Y4.224 Z-6.127
X46.349 Y4.264 Z-6.134
X46.336 Y4.301 Z-6.142
X46.309 Y4.331 Z-6.149
X46.273 Y4.347 Z-6.156
X46.233 Y4.349 Z-6.164
X46.196 Y4.334 Z-6.171
X46.168 Y4.307 Z-6.178
X46.152 Y4.27 Z-6.186
Y4.23 Z-6.193
X46.167 Y4.194 Z-6.2
X46.196 Y4.166 Z-6.208
X46.233 Y4.152 Z-6.215
X46.272 Y4.153 Z-6.222
X46.309 Y4.169 Z-6.23
X46.336 Y4.198 Z-6.237
X46.349 Y4.236 Z-6.244
X46.347 Y4.275 Z-6.252
X46.329 Y4.311 Z-6.259
X46.299 Y4.337 Z-6.267
X46.262 Y4.349 Z-6.274
X46.222 Y4.346 Z-6.281
X46.187 Y4.327 Z-6.289
X46.162 Y4.297 Z-6.296
X46.15 Y4.259 Z-6.303
X46.155 Y4.219 Z-6.311
X46.174 Y4.185 Z-6.318
X46.206 Y4.16 Z-6.325
X46.244 Y4.15 Z-6.333
X46.284 Y4.156 Z-6.34
X46.318 Y4.176 Z-6.347
X46.341 Y4.208 Z-6.355
X46.35 Y4.247 Z-6.362
X46.343 Y4.286 Z-6.369
X46.322 Y4.32 Z-6.377
X46.289 Y4.342 Z-6.384
X46.25 Y4.35 Z-6.391
X46.211 Y4.342 Z-6.399
X46.178 Y4.32 Z-6.406
X46.157 Y4.286 Z-6.413
X46.15 Y4.247 Z-6.421
X46.159 Y4.208 Z-6.428
X46.182 Y4.176 Z-6.435
X46.216 Y4.156 Z-6.443
X46.256 Y4.15 Z-6.45
X46.294 Y4.16 Z-6.457
X46.326 Y4.185 Z-6.465
X46.345 Y4.219 Z-6.472
X46.35 Y4.259 Z-6.479
X46.338 Y4.297 Z-6.487
X46.313 Y4.327 Z-6.494
X46.278 Y4.346 Z-6.501
X46.238 Y4.349 Z-6.509
X46.201 Y4.337 Z-6.516
X46.171 Y4.311 Z-6.523
X46.153 Y4.275 Z-6.531
X46.151 Y4.236 Z-6.538
X46.164 Y4.198 Z-6.545
X46.191 Y4.169 Z-6.553
X46.228 Y4.153 Z-6.56
X46.267 Y4.151 Z-6.567
X46.304 Y4.166 Z-6.575
X46.333 Y4.194 Z-6.582
X46.348 Y4.23 Z-6.589
Y4.27 Z-6.597
X46.332 Y4.307 Z-6.604
X46.304 Y4.334 Z-6.611
X46.267 Y4.349 Z-6.619
X46.227 Y4.347 Z-6.626
X46.191 Y4.331 Z-6.633
X46.164 Y4.301 Z-6.641
X46.151 Y4.264 Z-6.648
X46.153 Y4.224 Z-6.655
X46.171 Y4.189 Z-6.663
X46.201 Y4.163 Z-6.67
X46.239 Y4.151 Z-6.677
X46.278 Y4.154 Z-6.685
X46.314 Y4.173 Z-6.692
X46.339 Y4.204 Z-6.699
X46.35 Y4.242 Z-6.707
X46.345 Y4.281 Z-6.714
X46.325 Y4.316 Z-6.721
X46.294 Y4.34 Z-6.729
X46.255 Y4.35 Z-6.736
X46.216 Y4.344 Z-6.743
X46.182 Y4.323 Z-6.751
X46.159 Y4.291 Z-6.758
X46.15 Y4.252 Z-6.765
X46.157 Y4.213 Z-6.773
X46.179 Y4.18 Z-6.78
X46.211 Y4.158 Z-6.787
X46.25 Y4.15 Z-6.795
X46.289 Y4.158 Z-6.802
X46.322 Y4.181 Z-6.809
X46.343 Y4.214 Z-6.817
X46.35 Y4.253 Z-6.824
X46.341 Y4.292 Z-6.831
X46.317 Y4.324 Z-6.839
X46.283 Y4.344 Z-6.846
X46.244 Y4.35 Z-6.853
X46.205 Y4.339 Z-6.861
X46.174 Y4.315 Z-6.868
X46.155 Y4.28 Z-6.875
X46.15 Y4.241 Z-6.883
X46.162 Y4.203 Z-6.89
X46.187 Y4.172 Z-6.897
X46.222 Y4.154 Z-6.905
X46.262 Y4.151 Z-6.912
X46.3 Y4.163 Z-6.919
X46.33 Y4.189 Z-6.927
X46.347 Y4.225 Z-6.934
X46.349 Y4.265 Z-6.941
X46.335 Y4.302 Z-6.949
X46.308 Y4.331 Z-6.956
X46.272 Y4.348 Z-6.963
X46.232 Z-6.971
X46.195 Y4.334 Z-6.978
X46.167 Y4.306 Z-6.985
X46.152 Y4.269 Z-6.993
Y4.229 Z-7
G3 X46.348 Y4.271 I0.098 J0.021
X46.152 Y4.229 I-0.098 J-0.021
G1 X46.164 Y4.206
X46.186 Y4.192
X46.211 Y4.191
X46.25 Y4.25
Z10
(When using Fusion 360 for Personal Use, the feedrate of)
(rapid moves is reduced to match the feedrate of cutting)
(moves, which can increase machining time. Unrestricted rapid)
(moves are available with a Fusion 360 Subscription.)

(2D Contour7)
G0 X26.56 Y-1.48
G1 Z10 F300
Z5
Z1.3 F150
Z0.01
G19 G3 Y-1.17 Z-0.3 J0.31 K0
G1 Y-0.86
G17 G3 X26.25 Y-0.55 I-0.31 J0
G2 X22.473 Y-0.282 I0 J26.8 F300
G1 X1.262 Y-0.278
G2 X-0.287 Y1.255 I0 J1.55
G1 X-0.549 Y25.967
G2 X26.111 Y53.05 I26.799 J0.283
X53.05 Y26.245 I0.139 J-26.8
G1 X53.045 Y1.261
G2 X51.495 Y-0.288 I-1.55 J0
G1 X30.016 Y-0.284
G2 X26.25 Y-0.55 I-3.766 J26.534
G3 X25.94 Y-0.86 I0 J-0.31
G1 Y-1.17
G19 G2 Y-1.48 Z0.01 J0 K0.31
G1 Z5
X26.56
Z1 F150
Z-0.29
G3 Y-1.17 Z-0.6 J0.31 K0
G1 Y-0.86
G17 G3 X26.25 Y-0.55 I-0.31 J0
G2 X22.473 Y-0.282 I0 J26.8 F300
G1 X1.262 Y-0.278
G2 X-0.287 Y1.255 I0 J1.55
G1 X-0.549 Y25.967
G2 X26.111 Y53.05 I26.799 J0.283
X53.05 Y26.245 I0.139 J-26.8
G1 X53.045 Y1.261
G2 X51.495 Y-0.288 I-1.55 J0
G1 X30.016 Y-0.284
G2 X26.25 Y-0.55 I-3.766 J26.534
G3 X25.94 Y-0.86 I0 J-0.31
G1 Y-1.17
G19 G2 Y-1.48 Z-0.29 J0 K0.31
G1 Z5
X26.56
Z0.7 F150
Z-0.59
G3 Y-1.17 Z-0.9 J0.31 K0
G1 Y-0.86
G17 G3 X26.25 Y-0.55 I-0.31 J0
G2 X22.473 Y-0.282 I0 J26.8 F300
G1 X1.262 Y-0.278
G2 X-0.287 Y1.255 I0 J1.55
G1 X-0.549 Y25.967
G2 X26.111 Y53.05 I26.799 J0.283
X53.05 Y26.245 I0.139 J-26.8
G1 X53.045 Y1.261
G2 X51.495 Y-0.288 I-1.55 J0
G1 X30.016 Y-0.284
G2 X26.25 Y-0.55 I-3.766 J26.534
G3 X25.94 Y-0.86 I0 J-0.31
G1 Y-1.17
G19 G2 Y-1.48 Z-0.59 J0 K0.31
G1 Z5
X26.56
Z0.4 F150
Z-0.89
G3 Y-1.17 Z-1.2 J0.31 K0
G1 Y-0.86
G17 G3 X26.25 Y-0.55 I-0.31 J0
G2 X22.473 Y-0.282 I0 J26.8 F300
G1 X1.262 Y-0.278
G2 X-0.287 Y1.255 I0 J1.55
G1 X-0.549 Y25.967
G2 X26.111 Y53.05 I26.799 J0.283
X53.05 Y26.245 I0.139 J-26.8
G1 X53.045 Y1.261
G2 X51.495 Y-0.288 I-1.55 J0
G1 X30.016 Y-0.284
G2 X26.25 Y-0.55 I-3.766 J26.534
G3 X25.94 Y-0.86 I0 J-0.31
G1 Y-1.17
G19 G2 Y-1.48 Z-0.89 J0 K0.31
G1 Z5
X26.56
Z0.1 F150
Z-1.19
G3 Y-1.17 Z-1.5 J0.31 K0
G1 Y-0.86
G17 G3 X26.25 Y-0.55 I-0.31 J0
G2 X22.473 Y-0.282 I0 J26.8 F300
G1 X1.262 Y-0.278
G2 X-0.287 Y1.255 I0 J1.55
G1 X-0.549 Y25.967
G2 X26.111 Y53.05 I26.799 J0.283
X53.05 Y26.245 I0.139 J-26.8
G1 X53.045 Y1.261
G2 X51.495 Y-0.288 I-1.55 J0
G1 X30.016 Y-0.284
G2 X26.25 Y-0.55 I-3.766 J26.534
G3 X25.94 Y-0.86 I0 J-0.31
G1 Y-1.17
G19 G2 Y-1.48 Z-1.19 J0 K0.31
G1 Z5
X26.56
Z-0.2 F150
Z-1.49
G3 Y-1.17 Z-1.8 J0.31 K0
G1 Y-0.86
G17 G3 X26.25 Y-0.55 I-0.31 J0
G2 X22.473 Y-0.282 I0 J26.8 F300
G1 X1.262 Y-0.278
G2 X-0.287 Y1.255 I0 J1.55
G1 X-0.549 Y25.967
G2 X26.111 Y53.05 I26.799 J0.283
X53.05 Y26.245 I0.139 J-26.8
G1 X53.045 Y1.261
G2 X51.495 Y-0.288 I-1.55 J0
G1 X30.016 Y-0.284
G2 X26.25 Y-0.55 I-3.766 J26.534
G3 X25.94 Y-0.86 I0 J-0.31
G1 Y-1.17
G19 G2 Y-1.48 Z-1.49 J0 K0.31
G1 Z5
X26.56
Z-0.5 F150
Z-1.79
G3 Y-1.17 Z-2.1 J0.31 K0
G1 Y-0.86
G17 G3 X26.25 Y-0.55 I-0.31 J0
G2 X22.473 Y-0.282 I0 J26.8 F300
G1 X1.262 Y-0.278
G2 X-0.287 Y1.255 I0 J1.55
G1 X-0.549 Y25.967
G2 X26.111 Y53.05 I26.799 J0.283
X53.05 Y26.245 I0.139 J-26.8
G1 X53.045 Y1.261
G2 X51.495 Y-0.288 I-1.55 J0
G1 X30.016 Y-0.284
G2 X26.25 Y-0.55 I-3.766 J26.534
G3 X25.94 Y-0.86 I0 J-0.31
G1 Y-1.17
G19 G2 Y-1.48 Z-1.79 J0 K0.31
G1 Z5
X26.56
Z-0.8 F150
Z-2.09
G3 Y-1.17 Z-2.4 J0.31 K0
G1 Y-0.86
G17 G3 X26.25 Y-0.55 I-0.31 J0
G2 X22.473 Y-0.282 I0 J26.8 F300
G1 X1.262 Y-0.278
G2 X-0.287 Y1.255 I0 J1.55
G1 X-0.549 Y25.967
G2 X26.111 Y53.05 I26.799 J0.283
X53.05 Y26.245 I0.139 J-26.8
G1 X53.045 Y1.261
G2 X51.495 Y-0.288 I-1.55 J0
G1 X30.016 Y-0.284
G2 X26.25 Y-0.55 I-3.766 J26.534
G3 X25.94 Y-0.86 I0 J-0.31
G1 Y-1.17
G19 G2 Y-1.48 Z-2.09 J0 K0.31
G1 Z5
X26.56
Z-1.1 F150
Z-2.39
G3 Y-1.17 Z-2.7 J0.31 K0
G1 Y-0.86
G17 G3 X26.25 Y-0.55 I-0.31 J0
G2 X22.473 Y-0.282 I0 J26.8 F300
G1 X1.262 Y-0.278
G2 X-0.287 Y1.255 I0 J1.55
G1 X-0.549 Y25.967
G2 X26.111 Y53.05 I26.799 J0.283
X53.05 Y26.245 I0.139 J-26.8
G1 X53.045 Y1.261
G2 X51.495 Y-0.288 I-1.55 J0
G1 X30.016 Y-0.284
G2 X26.25 Y-0.55 I-3.766 J26.534
G3 X25.94 Y-0.86 I0 J-0.31
G1 Y-1.17
G19 G2 Y-1.48 Z-2.39 J0 K0.31
G1 Z5
X26.56
Z-1.4 F150
Z-2.69
G3 Y-1.17 Z-3 J0.31 K0
G1 Y-0.86
G17 G3 X26.25 Y-0.55 I-0.31 J0
G2 X22.473 Y-0.282 I0 J26.8 F300
G1 X1.262 Y-0.278
G2 X-0.287 Y1.255 I0 J1.55
G1 X-0.549 Y25.967
G2 X26.111 Y53.05 I26.799 J0.283
X53.05 Y26.245 I0.139 J-26.8
G1 X53.045 Y1.261
G2 X51.495 Y-0.288 I-1.55 J0
G1 X30.016 Y-0.284
G2 X26.25 Y-0.55 I-3.766 J26.534
G3 X25.94 Y-0.86 I0 J-0.31
G1 Y-1.17
G19 G2 Y-1.48 Z-2.69 J0 K0.31
G1 Z5
X26.56
Z-1.7 F150
Z-2.99
G3 Y-1.17 Z-3.3 J0.31 K0
G1 Y-0.86
G17 G3 X26.25 Y-0.55 I-0.31 J0
G2 X22.473 Y-0.282 I0 J26.8 F300
G1 X1.262 Y-0.278
G2 X-0.287 Y1.255 I0 J1.55
G1 X-0.549 Y25.967
G2 X26.111 Y53.05 I26.799 J0.283
X53.05 Y26.245 I0.139 J-26.8
G1 X53.045 Y1.261
G2 X51.495 Y-0.288 I-1.55 J0
G1 X30.016 Y-0.284
G2 X26.25 Y-0.55 I-3.766 J26.534
G3 X25.94 Y-0.86 I0 J-0.31
G1 Y-1.17
G19 G2 Y-1.48 Z-2.99 J0 K0.31
G1 Z5
X26.56
Z-2 F150
Z-3.29
G3 Y-1.17 Z-3.6 J0.31 K0
G1 Y-0.86
G17 G3 X26.25 Y-0.55 I-0.31 J0
G2 X22.473 Y-0.282 I0 J26.8 F300
G1 X1.262 Y-0.278
G2 X-0.287 Y1.255 I0 J1.55
G1 X-0.549 Y25.967
G2 X26.111 Y53.05 I26.799 J0.283
X53.05 Y26.245 I0.139 J-26.8
G1 X53.045 Y1.261
G2 X51.495 Y-0.288 I-1.55 J0
G1 X30.016 Y-0.284
G2 X26.25 Y-0.55 I-3.766 J26.534
G3 X25.94 Y-0.86 I0 J-0.31
G1 Y-1.17
G19 G2 Y-1.48 Z-3.29 J0 K0.31
G1 Z5
X26.56
Z-2.3 F150
Z-3.59
G3 Y-1.17 Z-3.9 J0.31 K0
G1 Y-0.86
G17 G3 X26.25 Y-0.55 I-0.31 J0
G2 X22.473 Y-0.282 I0 J26.8 F300
G1 X1.262 Y-0.278
G2 X-0.287 Y1.255 I0 J1.55
G1 X-0.549 Y25.967
G2 X26.111 Y53.05 I26.799 J0.283
X53.05 Y26.245 I0.139 J-26.8
G1 X53.045 Y1.261
G2 X51.495 Y-0.288 I-1.55 J0
G1 X30.016 Y-0.284
G2 X26.25 Y-0.55 I-3.766 J26.534
G3 X25.94 Y-0.86 I0 J-0.31
G1 Y-1.17
G19 G2 Y-1.48 Z-3.59 J0 K0.31
G1 Z5
X26.56
Z-2.6 F150
Z-3.89
G3 Y-1.17 Z-4.2 J0.31 K0
G1 Y-0.86
G17 G3 X26.25 Y-0.55 I-0.31 J0
G2 X22.473 Y-0.282 I0 J26.8 F300
G1 X1.262 Y-0.278
G2 X-0.287 Y1.255 I0 J1.55
G1 X-0.549 Y25.967
G2 X26.111 Y53.05 I26.799 J0.283
X53.05 Y26.245 I0.139 J-26.8
G1 X53.045 Y1.261
G2 X51.495 Y-0.288 I-1.55 J0
G1 X30.016 Y-0.284
G2 X26.25 Y-0.55 I-3.766 J26.534
G3 X25.94 Y-0.86 I0 J-0.31
G1 Y-1.17
G19 G2 Y-1.48 Z-3.89 J0 K0.31
G1 Z5
X26.56
Z-2.9 F150
Z-4.19
G3 Y-1.17 Z-4.5 J0.31 K0
G1 Y-0.86
G17 G3 X26.25 Y-0.55 I-0.31 J0
G2 X22.473 Y-0.282 I0 J26.8 F300
G1 X1.262 Y-0.278
G2 X-0.287 Y1.255 I0 J1.55
G1 X-0.549 Y25.967
G2 X26.111 Y53.05 I26.799 J0.283
X53.05 Y26.245 I0.139 J-26.8
G1 X53.045 Y1.261
G2 X51.495 Y-0.288 I-1.55 J0
G1 X30.016 Y-0.284
G2 X26.25 Y-0.55 I-3.766 J26.534
G3 X25.94 Y-0.86 I0 J-0.31
G1 Y-1.17
G19 G2 Y-1.48 Z-4.19 J0 K0.31
G1 Z5
X26.56
Z-3.2 F150
Z-4.49
G3 Y-1.17 Z-4.8 J0.31 K0
G1 Y-0.86
G17 G3 X26.25 Y-0.55 I-0.31 J0
G2 X22.473 Y-0.282 I0 J26.8 F300
G1 X1.262 Y-0.278
G2 X-0.287 Y1.255 I0 J1.55
G1 X-0.549 Y25.967
G2 X26.111 Y53.05 I26.799 J0.283
X53.05 Y26.245 I0.139 J-26.8
G1 X53.045 Y1.261
G2 X51.495 Y-0.288 I-1.55 J0
G1 X30.016 Y-0.284
G2 X26.25 Y-0.55 I-3.766 J26.534
G3 X25.94 Y-0.86 I0 J-0.31
G1 Y-1.17
G19 G2 Y-1.48 Z-4.49 J0 K0.31
G1 Z5
X26.56
Z-3.5 F150
Z-4.79
G3 Y-1.17 Z-5.1 J0.31 K0
G1 Y-0.86
G17 G3 X26.25 Y-0.55 I-0.31 J0
G2 X22.473 Y-0.282 I0 J26.8 F300
G1 X1.262 Y-0.278
G2 X-0.287 Y1.255 I0 J1.55
G1 X-0.549 Y25.967
G2 X26.111 Y53.05 I26.799 J0.283
X53.05 Y26.245 I0.139 J-26.8
G1 X53.045 Y1.261
G2 X51.495 Y-0.288 I-1.55 J0
G1 X30.016 Y-0.284
G2 X26.25 Y-0.55 I-3.766 J26.534
G3 X25.94 Y-0.86 I0 J-0.31
G1 Y-1.17
G19 G2 Y-1.48 Z-4.79 J0 K0.31
G1 Z5
X26.56
Z-3.8 F150
Z-5.09
G3 Y-1.17 Z-5.4 J0.31 K0
G1 Y-0.86
G17 G3 X26.25 Y-0.55 I-0.31 J0
G2 X22.473 Y-0.282 I0 J26.8 F300
G1 X1.262 Y-0.278
G2 X-0.287 Y1.255 I0 J1.55
G1 X-0.549 Y25.967
G2 X26.111 Y53.05 I26.799 J0.283
X53.05 Y26.245 I0.139 J-26.8
G1 X53.045 Y1.261
G2 X51.495 Y-0.288 I-1.55 J0
G1 X30.016 Y-0.284
G2 X26.25 Y-0.55 I-3.766 J26.534
G3 X25.94 Y-0.86 I0 J-0.31
G1 Y-1.17
G19 G2 Y-1.48 Z-5.09 J0 K0.31
G1 Z5
X26.56
Z-4.1 F150
Z-5.39
G3 Y-1.17 Z-5.7 J0.31 K0
G1 Y-0.86
G17 G3 X26.25 Y-0.55 I-0.31 J0
G2 X22.473 Y-0.282 I0 J26.8 F300
G1 X1.262 Y-0.278
G2 X-0.287 Y1.255 I0 J1.55
G1 X-0.549 Y25.967
G2 X26.111 Y53.05 I26.799 J0.283
X53.05 Y26.245 I0.139 J-26.8
G1 X53.045 Y1.261
G2 X51.495 Y-0.288 I-1.55 J0
G1 X30.016 Y-0.284
G2 X26.25 Y-0.55 I-3.766 J26.534
G3 X25.94 Y-0.86 I0 J-0.31
G1 Y-1.17
G19 G2 Y-1.48 Z-5.39 J0 K0.31
G1 Z5
X26.56
Z-4.4 F150
Z-5.69
G3 Y-1.17 Z-6 J0.31 K0
G1 Y-0.86
G17 G3 X26.25 Y-0.55 I-0.31 J0
G2 X22.473 Y-0.282 I0 J26.8 F300
G1 X1.262 Y-0.278
G2 X-0.287 Y1.255 I0 J1.55
G1 X-0.549 Y25.967
G2 X26.111 Y53.05 I26.799 J0.283
X53.05 Y26.245 I0.139 J-26.8
G1 X53.045 Y1.261
G2 X51.495 Y-0.288 I-1.55 J0
G1 X30.016 Y-0.284
G2 X26.25 Y-0.55 I-3.766 J26.534
G3 X25.94 Y-0.86 I0 J-0.31
G1 Y-1.17
G19 G2 Y-1.48 Z-5.69 J0 K0.31
G1 Z5
X26.56
Z-4.7 F150
Z-5.99
G3 Y-1.17 Z-6.3 J0.31 K0
G1 Y-0.86
G17 G3 X26.25 Y-0.55 I-0.31 J0
G2 X22.473 Y-0.282 I0 J26.8 F300
G1 X1.262 Y-0.278
G2 X-0.287 Y1.255 I0 J1.55
G1 X-0.549 Y25.967
G2 X26.111 Y53.05 I26.799 J0.283
X53.05 Y26.245 I0.139 J-26.8
G1 X53.045 Y1.261
G2 X51.495 Y-0.288 I-1.55 J0
G1 X30.016 Y-0.284
G2 X26.25 Y-0.55 I-3.766 J26.534
G3 X25.94 Y-0.86 I0 J-0.31
G1 Y-1.17
G19 G2 Y-1.48 Z-5.99 J0 K0.31
G1 Z5
X26.56
Z-5 F150
Z-6.29
G3 Y-1.17 Z-6.6 J0.31 K0
G1 Y-0.86
G17 G3 X26.25 Y-0.55 I-0.31 J0
G2 X22.473 Y-0.282 I0 J26.8 F300
G1 X1.262 Y-0.278
G2 X-0.287 Y1.255 I0 J1.55
G1 X-0.549 Y25.967
G2 X26.111 Y53.05 I26.799 J0.283
X53.05 Y26.245 I0.139 J-26.8
G1 X53.045 Y1.261
G2 X51.495 Y-0.288 I-1.55 J0
G1 X30.016 Y-0.284
G2 X26.25 Y-0.55 I-3.766 J26.534
G3 X25.94 Y-0.86 I0 J-0.31
G1 Y-1.17
G19 G2 Y-1.48 Z-6.29 J0 K0.31
G1 Z5
X26.56
Z-5.3 F150
Z-6.59
G3 Y-1.17 Z-6.9 J0.31 K0
G1 Y-0.86
G17 G3 X26.25 Y-0.55 I-0.31 J0
G2 X22.473 Y-0.282 I0 J26.8 F300
G1 X1.262 Y-0.278
G2 X-0.287 Y1.255 I0 J1.55
G1 X-0.549 Y25.967
G2 X26.111 Y53.05 I26.799 J0.283
X53.05 Y26.245 I0.139 J-26.8
G1 X53.045 Y1.261
G2 X51.495 Y-0.288 I-1.55 J0
G1 X30.016 Y-0.284
G2 X26.25 Y-0.55 I-3.766 J26.534
G3 X25.94 Y-0.86 I0 J-0.31
G1 Y-1.17
G19 G2 Y-1.48 Z-6.59 J0 K0.31
G1 Z5
X26.56
Z-5.6 F150
Z-6.69
G3 Y-1.17 Z-7 J0.31 K0
G1 Y-0.86
G17 G3 X26.25 Y-0.55 I-0.31 J0
G2 X22.473 Y-0.282 I0 J26.8 F300
G1 X1.262 Y-0.278
G2 X-0.287 Y1.255 I0 J1.55
G1 X-0.549 Y25.967
G2 X26.111 Y53.05 I26.799 J0.283
X53.05 Y26.245 I0.139 J-26.8
G1 X53.045 Y1.261
G2 X51.495 Y-0.288 I-1.55 J0
G1 X30.016 Y-0.284
G2 X26.25 Y-0.55 I-3.766 J26.534
G3 X25.94 Y-0.86 I0 J-0.31
G1 Y-1.17
G19 G2 Y-1.48 Z-6.69 J0 K0.31
G1 Z10
G17
M9
M5
M30
