(arm_bushing_csf-14)
(Machine)
(  vendor: Autodesk)
(  model: Generic 3-axis)
(  description: This machine has XYZ axis on the Head)
(T3 D=3.1 CR=0 - ZMIN=-14 - flat end mill)
G90 G94
G17
G21
(-Attention- Property Safe Retracts is set to Clearance Height.)
(Ensure the clearance height will clear the part and or fixtures.)
(Raise the Z-axis to a safe height before starting the program.)
(When using Fusion for Personal Use, the feedrate of rapid)
(moves is reduced to match the feedrate of cutting moves,)
(which can increase machining time. Unrestricted rapid moves)
(are available with a Fusion Subscription.)

(2D Contour11)
T3
S14000 M3
G17 G90 G94
G54
M8
G0 X34.345 Y22.789
Z15
G1 Z5 F100
Z0.62
Z-0.3
G3 X33.655 Y22.211 I-0.345 J-0.289
X34.345 Y22.789 I0.345 J0.289
G1 Z-0.6
G3 X33.655 Y22.211 I-0.345 J-0.289
X34.345 Y22.789 I0.345 J0.289
G1 Z-0.9
G3 X33.655 Y22.211 I-0.345 J-0.289
X34.345 Y22.789 I0.345 J0.289
G1 Z-1.2
G3 X33.655 Y22.211 I-0.345 J-0.289
X34.345 Y22.789 I0.345 J0.289
G1 Z-1.5
G3 X33.655 Y22.211 I-0.345 J-0.289
X34.345 Y22.789 I0.345 J0.289
G1 Z-1.8
G3 X33.655 Y22.211 I-0.345 J-0.289
X34.345 Y22.789 I0.345 J0.289
G1 Z-2.1
G3 X33.655 Y22.211 I-0.345 J-0.289
X34.345 Y22.789 I0.345 J0.289
G1 Z-2.4
G3 X33.655 Y22.211 I-0.345 J-0.289
X34.345 Y22.789 I0.345 J0.289
G1 Z-2.7
G3 X33.655 Y22.211 I-0.345 J-0.289
X34.345 Y22.789 I0.345 J0.289
G1 Z-3
G3 X33.655 Y22.211 I-0.345 J-0.289
X34.345 Y22.789 I0.345 J0.289
G1 Z-3.3
G3 X33.655 Y22.211 I-0.345 J-0.289
X34.345 Y22.789 I0.345 J0.289
G1 Z-3.6
G3 X33.655 Y22.211 I-0.345 J-0.289
X34.345 Y22.789 I0.345 J0.289
G1 Z-3.9
G3 X33.655 Y22.211 I-0.345 J-0.289
X34.345 Y22.789 I0.345 J0.289
G1 Z-4.2
G3 X33.655 Y22.211 I-0.345 J-0.289
X34.345 Y22.789 I0.345 J0.289
G1 Z-4.5
G3 X33.655 Y22.211 I-0.345 J-0.289
X34.345 Y22.789 I0.345 J0.289
G1 Z-4.8
G3 X33.655 Y22.211 I-0.345 J-0.289
X34.345 Y22.789 I0.345 J0.289
G1 Z-5.1
G3 X33.655 Y22.211 I-0.345 J-0.289
X34.345 Y22.789 I0.345 J0.289
G1 Z-5.4
G3 X33.655 Y22.211 I-0.345 J-0.289
X34.345 Y22.789 I0.345 J0.289
G1 Z-5.7
G3 X33.655 Y22.211 I-0.345 J-0.289
X34.345 Y22.789 I0.345 J0.289
G1 Z-6
G3 X33.655 Y22.211 I-0.345 J-0.289
X34.345 Y22.789 I0.345 J0.289
G1 Z-6.3
G3 X33.655 Y22.211 I-0.345 J-0.289
X34.345 Y22.789 I0.345 J0.289
G1 Z-6.6
G3 X33.655 Y22.211 I-0.345 J-0.289
X34.345 Y22.789 I0.345 J0.289
G1 Z-6.9
G3 X33.655 Y22.211 I-0.345 J-0.289
X34.345 Y22.789 I0.345 J0.289
G1 Z-7.2
G3 X33.655 Y22.211 I-0.345 J-0.289
X34.345 Y22.789 I0.345 J0.289
G1 Z-7.5
G3 X33.655 Y22.211 I-0.345 J-0.289
X34.345 Y22.789 I0.345 J0.289
G1 Z-7.8
G3 X33.655 Y22.211 I-0.345 J-0.289
X34.345 Y22.789 I0.345 J0.289
G1 Z-8.1
G3 X33.655 Y22.211 I-0.345 J-0.289
X34.345 Y22.789 I0.345 J0.289
G1 Z-8.4
G3 X33.655 Y22.211 I-0.345 J-0.289
X34.345 Y22.789 I0.345 J0.289
G1 Z-8.7
G3 X33.655 Y22.211 I-0.345 J-0.289
X34.345 Y22.789 I0.345 J0.289
G1 Z-9
G3 X33.655 Y22.211 I-0.345 J-0.289
X34.345 Y22.789 I0.345 J0.289
G1 Z-9.3
G3 X33.655 Y22.211 I-0.345 J-0.289
X34.345 Y22.789 I0.345 J0.289
G1 Z-9.6
G3 X33.655 Y22.211 I-0.345 J-0.289
X34.345 Y22.789 I0.345 J0.289
G1 Z-9.9
G3 X33.655 Y22.211 I-0.345 J-0.289
X34.345 Y22.789 I0.345 J0.289
G1 Z-10.2
G3 X33.655 Y22.211 I-0.345 J-0.289
X34.345 Y22.789 I0.345 J0.289
G1 Z-10.5
G3 X33.655 Y22.211 I-0.345 J-0.289
X34.345 Y22.789 I0.345 J0.289
G1 Z-10.8
G3 X33.655 Y22.211 I-0.345 J-0.289
X34.345 Y22.789 I0.345 J0.289
G1 Z-11.1
G3 X33.655 Y22.211 I-0.345 J-0.289
X34.345 Y22.789 I0.345 J0.289
G1 Z-11.4
G3 X33.655 Y22.211 I-0.345 J-0.289
X34.345 Y22.789 I0.345 J0.289
G1 Z-11.7
G3 X33.655 Y22.211 I-0.345 J-0.289
X34.345 Y22.789 I0.345 J0.289
G1 Z-12
G3 X33.655 Y22.211 I-0.345 J-0.289
X34.345 Y22.789 I0.345 J0.289
G1 Z-12.3
G3 X33.655 Y22.211 I-0.345 J-0.289
X34.345 Y22.789 I0.345 J0.289
G1 Z-12.6
G3 X33.655 Y22.211 I-0.345 J-0.289
X34.345 Y22.789 I0.345 J0.289
G1 Z-12.9
G3 X33.655 Y22.211 I-0.345 J-0.289
X34.345 Y22.789 I0.345 J0.289
G1 Z-13.2
G3 X33.655 Y22.211 I-0.345 J-0.289
X34.345 Y22.789 I0.345 J0.289
G1 Z-13.5
G3 X33.655 Y22.211 I-0.345 J-0.289
X34.345 Y22.789 I0.345 J0.289
G1 Z-13.8
G3 X33.655 Y22.211 I-0.345 J-0.289
X34.345 Y22.789 I0.345 J0.289
G1 Z-14
G3 X33.655 Y22.211 I-0.345 J-0.289
X34.345 Y22.789 I0.345 J0.289
G1 Z5
X28.7 Y32.459
Z0.62
Z-0.3
G3 X27.8 Y32.459 I-0.45 J0
X28.7 Y32.459 I0.45 J0
G1 Z-0.6
G3 X27.8 Y32.459 I-0.45 J0
X28.7 Y32.459 I0.45 J0
G1 Z-0.9
G3 X27.8 Y32.459 I-0.45 J0
X28.7 Y32.459 I0.45 J0
G1 Z-1.2
G3 X27.8 Y32.459 I-0.45 J0
X28.7 Y32.459 I0.45 J0
G1 Z-1.5
G3 X27.8 Y32.459 I-0.45 J0
X28.7 Y32.459 I0.45 J0
G1 Z-1.8
G3 X27.8 Y32.459 I-0.45 J0
X28.7 Y32.459 I0.45 J0
G1 Z-2.1
G3 X27.8 Y32.459 I-0.45 J0
X28.7 Y32.459 I0.45 J0
G1 Z-2.4
G3 X27.8 Y32.459 I-0.45 J0
X28.7 Y32.459 I0.45 J0
G1 Z-2.7
G3 X27.8 Y32.459 I-0.45 J0
X28.7 Y32.459 I0.45 J0
G1 Z-3
G3 X27.8 Y32.459 I-0.45 J0
X28.7 Y32.459 I0.45 J0
G1 Z-3.3
G3 X27.8 Y32.459 I-0.45 J0
X28.7 Y32.459 I0.45 J0
G1 Z-3.6
G3 X27.8 Y32.459 I-0.45 J0
X28.7 Y32.459 I0.45 J0
G1 Z-3.9
G3 X27.8 Y32.459 I-0.45 J0
X28.7 Y32.459 I0.45 J0
G1 Z-4.2
G3 X27.8 Y32.459 I-0.45 J0
X28.7 Y32.459 I0.45 J0
G1 Z-4.5
G3 X27.8 Y32.459 I-0.45 J0
X28.7 Y32.459 I0.45 J0
G1 Z-4.8
G3 X27.8 Y32.459 I-0.45 J0
X28.7 Y32.459 I0.45 J0
G1 Z-5.1
G3 X27.8 Y32.459 I-0.45 J0
X28.7 Y32.459 I0.45 J0
G1 Z-5.4
G3 X27.8 Y32.459 I-0.45 J0
X28.7 Y32.459 I0.45 J0
G1 Z-5.7
G3 X27.8 Y32.459 I-0.45 J0
X28.7 Y32.459 I0.45 J0
G1 Z-6
G3 X27.8 Y32.459 I-0.45 J0
X28.7 Y32.459 I0.45 J0
G1 Z-6.3
G3 X27.8 Y32.459 I-0.45 J0
X28.7 Y32.459 I0.45 J0
G1 Z-6.6
G3 X27.8 Y32.459 I-0.45 J0
X28.7 Y32.459 I0.45 J0
G1 Z-6.9
G3 X27.8 Y32.459 I-0.45 J0
X28.7 Y32.459 I0.45 J0
G1 Z-7.2
G3 X27.8 Y32.459 I-0.45 J0
X28.7 Y32.459 I0.45 J0
G1 Z-7.5
G3 X27.8 Y32.459 I-0.45 J0
X28.7 Y32.459 I0.45 J0
G1 Z-7.8
G3 X27.8 Y32.459 I-0.45 J0
X28.7 Y32.459 I0.45 J0
G1 Z-8.1
G3 X27.8 Y32.459 I-0.45 J0
X28.7 Y32.459 I0.45 J0
G1 Z-8.4
G3 X27.8 Y32.459 I-0.45 J0
X28.7 Y32.459 I0.45 J0
G1 Z-8.7
G3 X27.8 Y32.459 I-0.45 J0
X28.7 Y32.459 I0.45 J0
G1 Z-9
G3 X27.8 Y32.459 I-0.45 J0
X28.7 Y32.459 I0.45 J0
G1 Z-9.3
G3 X27.8 Y32.459 I-0.45 J0
X28.7 Y32.459 I0.45 J0
G1 Z-9.6
G3 X27.8 Y32.459 I-0.45 J0
X28.7 Y32.459 I0.45 J0
G1 Z-9.9
G3 X27.8 Y32.459 I-0.45 J0
X28.7 Y32.459 I0.45 J0
G1 Z-10.2
G3 X27.8 Y32.459 I-0.45 J0
X28.7 Y32.459 I0.45 J0
G1 Z-10.5
G3 X27.8 Y32.459 I-0.45 J0
X28.7 Y32.459 I0.45 J0
G1 Z-10.8
G3 X27.8 Y32.459 I-0.45 J0
X28.7 Y32.459 I0.45 J0
G1 Z-11.1
G3 X27.8 Y32.459 I-0.45 J0
X28.7 Y32.459 I0.45 J0
G1 Z-11.4
G3 X27.8 Y32.459 I-0.45 J0
X28.7 Y32.459 I0.45 J0
G1 Z-11.7
G3 X27.8 Y32.459 I-0.45 J0
X28.7 Y32.459 I0.45 J0
G1 Z-12
G3 X27.8 Y32.459 I-0.45 J0
X28.7 Y32.459 I0.45 J0
G1 Z-12.3
G3 X27.8 Y32.459 I-0.45 J0
X28.7 Y32.459 I0.45 J0
G1 Z-12.6
G3 X27.8 Y32.459 I-0.45 J0
X28.7 Y32.459 I0.45 J0
G1 Z-12.9
G3 X27.8 Y32.459 I-0.45 J0
X28.7 Y32.459 I0.45 J0
G1 Z-13.2
G3 X27.8 Y32.459 I-0.45 J0
X28.7 Y32.459 I0.45 J0
G1 Z-13.5
G3 X27.8 Y32.459 I-0.45 J0
X28.7 Y32.459 I0.45 J0
G1 Z-13.8
G3 X27.8 Y32.459 I-0.45 J0
X28.7 Y32.459 I0.45 J0
G1 Z-14
G3 X27.8 Y32.459 I-0.45 J0
X28.7 Y32.459 I0.45 J0
G1 Z5
X17.095 Y32.749
Z0.62
Z-0.3
G3 X16.405 Y32.17 I-0.345 J-0.289
X17.095 Y32.749 I0.345 J0.289
G1 Z-0.6
G3 X16.405 Y32.17 I-0.345 J-0.289
X17.095 Y32.749 I0.345 J0.289
G1 Z-0.9
G3 X16.405 Y32.17 I-0.345 J-0.289
X17.095 Y32.749 I0.345 J0.289
G1 Z-1.2
G3 X16.405 Y32.17 I-0.345 J-0.289
X17.095 Y32.749 I0.345 J0.289
G1 Z-1.5
G3 X16.405 Y32.17 I-0.345 J-0.289
X17.095 Y32.749 I0.345 J0.289
G1 Z-1.8
G3 X16.405 Y32.17 I-0.345 J-0.289
X17.095 Y32.749 I0.345 J0.289
G1 Z-2.1
G3 X16.405 Y32.17 I-0.345 J-0.289
X17.095 Y32.749 I0.345 J0.289
G1 Z-2.4
G3 X16.405 Y32.17 I-0.345 J-0.289
X17.095 Y32.749 I0.345 J0.289
G1 Z-2.7
G3 X16.405 Y32.17 I-0.345 J-0.289
X17.095 Y32.749 I0.345 J0.289
G1 Z-3
G3 X16.405 Y32.17 I-0.345 J-0.289
X17.095 Y32.749 I0.345 J0.289
G1 Z-3.3
G3 X16.405 Y32.17 I-0.345 J-0.289
X17.095 Y32.749 I0.345 J0.289
G1 Z-3.6
G3 X16.405 Y32.17 I-0.345 J-0.289
X17.095 Y32.749 I0.345 J0.289
G1 Z-3.9
G3 X16.405 Y32.17 I-0.345 J-0.289
X17.095 Y32.749 I0.345 J0.289
G1 Z-4.2
G3 X16.405 Y32.17 I-0.345 J-0.289
X17.095 Y32.749 I0.345 J0.289
G1 Z-4.5
G3 X16.405 Y32.17 I-0.345 J-0.289
X17.095 Y32.749 I0.345 J0.289
G1 Z-4.8
G3 X16.405 Y32.17 I-0.345 J-0.289
X17.095 Y32.749 I0.345 J0.289
G1 Z-5.1
G3 X16.405 Y32.17 I-0.345 J-0.289
X17.095 Y32.749 I0.345 J0.289
G1 Z-5.4
G3 X16.405 Y32.17 I-0.345 J-0.289
X17.095 Y32.749 I0.345 J0.289
G1 Z-5.7
G3 X16.405 Y32.17 I-0.345 J-0.289
X17.095 Y32.749 I0.345 J0.289
G1 Z-6
G3 X16.405 Y32.17 I-0.345 J-0.289
X17.095 Y32.749 I0.345 J0.289
G1 Z-6.3
G3 X16.405 Y32.17 I-0.345 J-0.289
X17.095 Y32.749 I0.345 J0.289
G1 Z-6.6
G3 X16.405 Y32.17 I-0.345 J-0.289
X17.095 Y32.749 I0.345 J0.289
G1 Z-6.9
G3 X16.405 Y32.17 I-0.345 J-0.289
X17.095 Y32.749 I0.345 J0.289
G1 Z-7.2
G3 X16.405 Y32.17 I-0.345 J-0.289
X17.095 Y32.749 I0.345 J0.289
G1 Z-7.5
G3 X16.405 Y32.17 I-0.345 J-0.289
X17.095 Y32.749 I0.345 J0.289
G1 Z-7.8
G3 X16.405 Y32.17 I-0.345 J-0.289
X17.095 Y32.749 I0.345 J0.289
G1 Z-8.1
G3 X16.405 Y32.17 I-0.345 J-0.289
X17.095 Y32.749 I0.345 J0.289
G1 Z-8.4
G3 X16.405 Y32.17 I-0.345 J-0.289
X17.095 Y32.749 I0.345 J0.289
G1 Z-8.7
G3 X16.405 Y32.17 I-0.345 J-0.289
X17.095 Y32.749 I0.345 J0.289
G1 Z-9
G3 X16.405 Y32.17 I-0.345 J-0.289
X17.095 Y32.749 I0.345 J0.289
G1 Z-9.3
G3 X16.405 Y32.17 I-0.345 J-0.289
X17.095 Y32.749 I0.345 J0.289
G1 Z-9.6
G3 X16.405 Y32.17 I-0.345 J-0.289
X17.095 Y32.749 I0.345 J0.289
G1 Z-9.9
G3 X16.405 Y32.17 I-0.345 J-0.289
X17.095 Y32.749 I0.345 J0.289
G1 Z-10.2
G3 X16.405 Y32.17 I-0.345 J-0.289
X17.095 Y32.749 I0.345 J0.289
G1 Z-10.5
G3 X16.405 Y32.17 I-0.345 J-0.289
X17.095 Y32.749 I0.345 J0.289
G1 Z-10.8
G3 X16.405 Y32.17 I-0.345 J-0.289
X17.095 Y32.749 I0.345 J0.289
G1 Z-11.1
G3 X16.405 Y32.17 I-0.345 J-0.289
X17.095 Y32.749 I0.345 J0.289
G1 Z-11.4
G3 X16.405 Y32.17 I-0.345 J-0.289
X17.095 Y32.749 I0.345 J0.289
G1 Z-11.7
G3 X16.405 Y32.17 I-0.345 J-0.289
X17.095 Y32.749 I0.345 J0.289
G1 Z-12
G3 X16.405 Y32.17 I-0.345 J-0.289
X17.095 Y32.749 I0.345 J0.289
G1 Z-12.3
G3 X16.405 Y32.17 I-0.345 J-0.289
X17.095 Y32.749 I0.345 J0.289
G1 Z-12.6
G3 X16.405 Y32.17 I-0.345 J-0.289
X17.095 Y32.749 I0.345 J0.289
G1 Z-12.9
G3 X16.405 Y32.17 I-0.345 J-0.289
X17.095 Y32.749 I0.345 J0.289
G1 Z-13.2
G3 X16.405 Y32.17 I-0.345 J-0.289
X17.095 Y32.749 I0.345 J0.289
G1 Z-13.5
G3 X16.405 Y32.17 I-0.345 J-0.289
X17.095 Y32.749 I0.345 J0.289
G1 Z-13.8
G3 X16.405 Y32.17 I-0.345 J-0.289
X17.095 Y32.749 I0.345 J0.289
G1 Z-14
G3 X16.405 Y32.17 I-0.345 J-0.289
X17.095 Y32.749 I0.345 J0.289
G1 Z5
X11.45 Y22.5
Z0.62
Z-0.3
G3 X10.55 Y22.5 I-0.45 J0
X11.45 Y22.5 I0.45 J0
G1 Z-0.6
G3 X10.55 Y22.5 I-0.45 J0
X11.45 Y22.5 I0.45 J0
G1 Z-0.9
G3 X10.55 Y22.5 I-0.45 J0
X11.45 Y22.5 I0.45 J0
G1 Z-1.2
G3 X10.55 Y22.5 I-0.45 J0
X11.45 Y22.5 I0.45 J0
G1 Z-1.5
G3 X10.55 Y22.5 I-0.45 J0
X11.45 Y22.5 I0.45 J0
G1 Z-1.8
G3 X10.55 Y22.5 I-0.45 J0
X11.45 Y22.5 I0.45 J0
G1 Z-2.1
G3 X10.55 Y22.5 I-0.45 J0
X11.45 Y22.5 I0.45 J0
G1 Z-2.4
G3 X10.55 Y22.5 I-0.45 J0
X11.45 Y22.5 I0.45 J0
G1 Z-2.7
G3 X10.55 Y22.5 I-0.45 J0
X11.45 Y22.5 I0.45 J0
G1 Z-3
G3 X10.55 Y22.5 I-0.45 J0
X11.45 Y22.5 I0.45 J0
G1 Z-3.3
G3 X10.55 Y22.5 I-0.45 J0
X11.45 Y22.5 I0.45 J0
G1 Z-3.6
G3 X10.55 Y22.5 I-0.45 J0
X11.45 Y22.5 I0.45 J0
G1 Z-3.9
G3 X10.55 Y22.5 I-0.45 J0
X11.45 Y22.5 I0.45 J0
G1 Z-4.2
G3 X10.55 Y22.5 I-0.45 J0
X11.45 Y22.5 I0.45 J0
G1 Z-4.5
G3 X10.55 Y22.5 I-0.45 J0
X11.45 Y22.5 I0.45 J0
G1 Z-4.8
G3 X10.55 Y22.5 I-0.45 J0
X11.45 Y22.5 I0.45 J0
G1 Z-5.1
G3 X10.55 Y22.5 I-0.45 J0
X11.45 Y22.5 I0.45 J0
G1 Z-5.4
G3 X10.55 Y22.5 I-0.45 J0
X11.45 Y22.5 I0.45 J0
G1 Z-5.7
G3 X10.55 Y22.5 I-0.45 J0
X11.45 Y22.5 I0.45 J0
G1 Z-6
G3 X10.55 Y22.5 I-0.45 J0
X11.45 Y22.5 I0.45 J0
G1 Z-6.3
G3 X10.55 Y22.5 I-0.45 J0
X11.45 Y22.5 I0.45 J0
G1 Z-6.6
G3 X10.55 Y22.5 I-0.45 J0
X11.45 Y22.5 I0.45 J0
G1 Z-6.9
G3 X10.55 Y22.5 I-0.45 J0
X11.45 Y22.5 I0.45 J0
G1 Z-7.2
G3 X10.55 Y22.5 I-0.45 J0
X11.45 Y22.5 I0.45 J0
G1 Z-7.5
G3 X10.55 Y22.5 I-0.45 J0
X11.45 Y22.5 I0.45 J0
G1 Z-7.8
G3 X10.55 Y22.5 I-0.45 J0
X11.45 Y22.5 I0.45 J0
G1 Z-8.1
G3 X10.55 Y22.5 I-0.45 J0
X11.45 Y22.5 I0.45 J0
G1 Z-8.4
G3 X10.55 Y22.5 I-0.45 J0
X11.45 Y22.5 I0.45 J0
G1 Z-8.7
G3 X10.55 Y22.5 I-0.45 J0
X11.45 Y22.5 I0.45 J0
G1 Z-9
G3 X10.55 Y22.5 I-0.45 J0
X11.45 Y22.5 I0.45 J0
G1 Z-9.3
G3 X10.55 Y22.5 I-0.45 J0
X11.45 Y22.5 I0.45 J0
G1 Z-9.6
G3 X10.55 Y22.5 I-0.45 J0
X11.45 Y22.5 I0.45 J0
G1 Z-9.9
G3 X10.55 Y22.5 I-0.45 J0
X11.45 Y22.5 I0.45 J0
G1 Z-10.2
G3 X10.55 Y22.5 I-0.45 J0
X11.45 Y22.5 I0.45 J0
G1 Z-10.5
G3 X10.55 Y22.5 I-0.45 J0
X11.45 Y22.5 I0.45 J0
G1 Z-10.8
G3 X10.55 Y22.5 I-0.45 J0
X11.45 Y22.5 I0.45 J0
G1 Z-11.1
G3 X10.55 Y22.5 I-0.45 J0
X11.45 Y22.5 I0.45 J0
G1 Z-11.4
G3 X10.55 Y22.5 I-0.45 J0
X11.45 Y22.5 I0.45 J0
G1 Z-11.7
G3 X10.55 Y22.5 I-0.45 J0
X11.45 Y22.5 I0.45 J0
G1 Z-12
G3 X10.55 Y22.5 I-0.45 J0
X11.45 Y22.5 I0.45 J0
G1 Z-12.3
G3 X10.55 Y22.5 I-0.45 J0
X11.45 Y22.5 I0.45 J0
G1 Z-12.6
G3 X10.55 Y22.5 I-0.45 J0
X11.45 Y22.5 I0.45 J0
G1 Z-12.9
G3 X10.55 Y22.5 I-0.45 J0
X11.45 Y22.5 I0.45 J0
G1 Z-13.2
G3 X10.55 Y22.5 I-0.45 J0
X11.45 Y22.5 I0.45 J0
G1 Z-13.5
G3 X10.55 Y22.5 I-0.45 J0
X11.45 Y22.5 I0.45 J0
G1 Z-13.8
G3 X10.55 Y22.5 I-0.45 J0
X11.45 Y22.5 I0.45 J0
G1 Z-14
G3 X10.55 Y22.5 I-0.45 J0
X11.45 Y22.5 I0.45 J0
G1 Z5
X17.2 Y12.541
Z0.62
Z-0.3
G3 X16.3 Y12.541 I-0.45 J0
X17.2 Y12.541 I0.45 J0
G1 Z-0.6
G3 X16.3 Y12.541 I-0.45 J0
X17.2 Y12.541 I0.45 J0
G1 Z-0.9
G3 X16.3 Y12.541 I-0.45 J0
X17.2 Y12.541 I0.45 J0
G1 Z-1.2
G3 X16.3 Y12.541 I-0.45 J0
X17.2 Y12.541 I0.45 J0
G1 Z-1.5
G3 X16.3 Y12.541 I-0.45 J0
X17.2 Y12.541 I0.45 J0
G1 Z-1.8
G3 X16.3 Y12.541 I-0.45 J0
X17.2 Y12.541 I0.45 J0
G1 Z-2.1
G3 X16.3 Y12.541 I-0.45 J0
X17.2 Y12.541 I0.45 J0
G1 Z-2.4
G3 X16.3 Y12.541 I-0.45 J0
X17.2 Y12.541 I0.45 J0
G1 Z-2.7
G3 X16.3 Y12.541 I-0.45 J0
X17.2 Y12.541 I0.45 J0
G1 Z-3
G3 X16.3 Y12.541 I-0.45 J0
X17.2 Y12.541 I0.45 J0
G1 Z-3.3
G3 X16.3 Y12.541 I-0.45 J0
X17.2 Y12.541 I0.45 J0
G1 Z-3.6
G3 X16.3 Y12.541 I-0.45 J0
X17.2 Y12.541 I0.45 J0
G1 Z-3.9
G3 X16.3 Y12.541 I-0.45 J0
X17.2 Y12.541 I0.45 J0
G1 Z-4.2
G3 X16.3 Y12.541 I-0.45 J0
X17.2 Y12.541 I0.45 J0
G1 Z-4.5
G3 X16.3 Y12.541 I-0.45 J0
X17.2 Y12.541 I0.45 J0
G1 Z-4.8
G3 X16.3 Y12.541 I-0.45 J0
X17.2 Y12.541 I0.45 J0
G1 Z-5.1
G3 X16.3 Y12.541 I-0.45 J0
X17.2 Y12.541 I0.45 J0
G1 Z-5.4
G3 X16.3 Y12.541 I-0.45 J0
X17.2 Y12.541 I0.45 J0
G1 Z-5.7
G3 X16.3 Y12.541 I-0.45 J0
X17.2 Y12.541 I0.45 J0
G1 Z-6
G3 X16.3 Y12.541 I-0.45 J0
X17.2 Y12.541 I0.45 J0
G1 Z-6.3
G3 X16.3 Y12.541 I-0.45 J0
X17.2 Y12.541 I0.45 J0
G1 Z-6.6
G3 X16.3 Y12.541 I-0.45 J0
X17.2 Y12.541 I0.45 J0
G1 Z-6.9
G3 X16.3 Y12.541 I-0.45 J0
X17.2 Y12.541 I0.45 J0
G1 Z-7.2
G3 X16.3 Y12.541 I-0.45 J0
X17.2 Y12.541 I0.45 J0
G1 Z-7.5
G3 X16.3 Y12.541 I-0.45 J0
X17.2 Y12.541 I0.45 J0
G1 Z-7.8
G3 X16.3 Y12.541 I-0.45 J0
X17.2 Y12.541 I0.45 J0
G1 Z-8.1
G3 X16.3 Y12.541 I-0.45 J0
X17.2 Y12.541 I0.45 J0
G1 Z-8.4
G3 X16.3 Y12.541 I-0.45 J0
X17.2 Y12.541 I0.45 J0
G1 Z-8.7
G3 X16.3 Y12.541 I-0.45 J0
X17.2 Y12.541 I0.45 J0
G1 Z-9
G3 X16.3 Y12.541 I-0.45 J0
X17.2 Y12.541 I0.45 J0
G1 Z-9.3
G3 X16.3 Y12.541 I-0.45 J0
X17.2 Y12.541 I0.45 J0
G1 Z-9.6
G3 X16.3 Y12.541 I-0.45 J0
X17.2 Y12.541 I0.45 J0
G1 Z-9.9
G3 X16.3 Y12.541 I-0.45 J0
X17.2 Y12.541 I0.45 J0
G1 Z-10.2
G3 X16.3 Y12.541 I-0.45 J0
X17.2 Y12.541 I0.45 J0
G1 Z-10.5
G3 X16.3 Y12.541 I-0.45 J0
X17.2 Y12.541 I0.45 J0
G1 Z-10.8
G3 X16.3 Y12.541 I-0.45 J0
X17.2 Y12.541 I0.45 J0
G1 Z-11.1
G3 X16.3 Y12.541 I-0.45 J0
X17.2 Y12.541 I0.45 J0
G1 Z-11.4
G3 X16.3 Y12.541 I-0.45 J0
X17.2 Y12.541 I0.45 J0
G1 Z-11.7
G3 X16.3 Y12.541 I-0.45 J0
X17.2 Y12.541 I0.45 J0
G1 Z-12
G3 X16.3 Y12.541 I-0.45 J0
X17.2 Y12.541 I0.45 J0
G1 Z-12.3
G3 X16.3 Y12.541 I-0.45 J0
X17.2 Y12.541 I0.45 J0
G1 Z-12.6
G3 X16.3 Y12.541 I-0.45 J0
X17.2 Y12.541 I0.45 J0
G1 Z-12.9
G3 X16.3 Y12.541 I-0.45 J0
X17.2 Y12.541 I0.45 J0
G1 Z-13.2
G3 X16.3 Y12.541 I-0.45 J0
X17.2 Y12.541 I0.45 J0
G1 Z-13.5
G3 X16.3 Y12.541 I-0.45 J0
X17.2 Y12.541 I0.45 J0
G1 Z-13.8
G3 X16.3 Y12.541 I-0.45 J0
X17.2 Y12.541 I0.45 J0
G1 Z-14
G3 X16.3 Y12.541 I-0.45 J0
X17.2 Y12.541 I0.45 J0
G1 Z5
X28.595 Y12.83
Z0.62
Z-0.3
G3 X27.905 Y12.251 I-0.345 J-0.289
X28.595 Y12.83 I0.345 J0.289
G1 Z-0.6
G3 X27.905 Y12.251 I-0.345 J-0.289
X28.595 Y12.83 I0.345 J0.289
G1 Z-0.9
G3 X27.905 Y12.251 I-0.345 J-0.289
X28.595 Y12.83 I0.345 J0.289
G1 Z-1.2
G3 X27.905 Y12.251 I-0.345 J-0.289
X28.595 Y12.83 I0.345 J0.289
G1 Z-1.5
G3 X27.905 Y12.251 I-0.345 J-0.289
X28.595 Y12.83 I0.345 J0.289
G1 Z-1.8
G3 X27.905 Y12.251 I-0.345 J-0.289
X28.595 Y12.83 I0.345 J0.289
G1 Z-2.1
G3 X27.905 Y12.251 I-0.345 J-0.289
X28.595 Y12.83 I0.345 J0.289
G1 Z-2.4
G3 X27.905 Y12.251 I-0.345 J-0.289
X28.595 Y12.83 I0.345 J0.289
G1 Z-2.7
G3 X27.905 Y12.251 I-0.345 J-0.289
X28.595 Y12.83 I0.345 J0.289
G1 Z-3
G3 X27.905 Y12.251 I-0.345 J-0.289
X28.595 Y12.83 I0.345 J0.289
G1 Z-3.3
G3 X27.905 Y12.251 I-0.345 J-0.289
X28.595 Y12.83 I0.345 J0.289
G1 Z-3.6
G3 X27.905 Y12.251 I-0.345 J-0.289
X28.595 Y12.83 I0.345 J0.289
G1 Z-3.9
G3 X27.905 Y12.251 I-0.345 J-0.289
X28.595 Y12.83 I0.345 J0.289
G1 Z-4.2
G3 X27.905 Y12.251 I-0.345 J-0.289
X28.595 Y12.83 I0.345 J0.289
G1 Z-4.5
G3 X27.905 Y12.251 I-0.345 J-0.289
X28.595 Y12.83 I0.345 J0.289
G1 Z-4.8
G3 X27.905 Y12.251 I-0.345 J-0.289
X28.595 Y12.83 I0.345 J0.289
G1 Z-5.1
G3 X27.905 Y12.251 I-0.345 J-0.289
X28.595 Y12.83 I0.345 J0.289
G1 Z-5.4
G3 X27.905 Y12.251 I-0.345 J-0.289
X28.595 Y12.83 I0.345 J0.289
G1 Z-5.7
G3 X27.905 Y12.251 I-0.345 J-0.289
X28.595 Y12.83 I0.345 J0.289
G1 Z-6
G3 X27.905 Y12.251 I-0.345 J-0.289
X28.595 Y12.83 I0.345 J0.289
G1 Z-6.3
G3 X27.905 Y12.251 I-0.345 J-0.289
X28.595 Y12.83 I0.345 J0.289
G1 Z-6.6
G3 X27.905 Y12.251 I-0.345 J-0.289
X28.595 Y12.83 I0.345 J0.289
G1 Z-6.9
G3 X27.905 Y12.251 I-0.345 J-0.289
X28.595 Y12.83 I0.345 J0.289
G1 Z-7.2
G3 X27.905 Y12.251 I-0.345 J-0.289
X28.595 Y12.83 I0.345 J0.289
G1 Z-7.5
G3 X27.905 Y12.251 I-0.345 J-0.289
X28.595 Y12.83 I0.345 J0.289
G1 Z-7.8
G3 X27.905 Y12.251 I-0.345 J-0.289
X28.595 Y12.83 I0.345 J0.289
G1 Z-8.1
G3 X27.905 Y12.251 I-0.345 J-0.289
X28.595 Y12.83 I0.345 J0.289
G1 Z-8.4
G3 X27.905 Y12.251 I-0.345 J-0.289
X28.595 Y12.83 I0.345 J0.289
G1 Z-8.7
G3 X27.905 Y12.251 I-0.345 J-0.289
X28.595 Y12.83 I0.345 J0.289
G1 Z-9
G3 X27.905 Y12.251 I-0.345 J-0.289
X28.595 Y12.83 I0.345 J0.289
G1 Z-9.3
G3 X27.905 Y12.251 I-0.345 J-0.289
X28.595 Y12.83 I0.345 J0.289
G1 Z-9.6
G3 X27.905 Y12.251 I-0.345 J-0.289
X28.595 Y12.83 I0.345 J0.289
G1 Z-9.9
G3 X27.905 Y12.251 I-0.345 J-0.289
X28.595 Y12.83 I0.345 J0.289
G1 Z-10.2
G3 X27.905 Y12.251 I-0.345 J-0.289
X28.595 Y12.83 I0.345 J0.289
G1 Z-10.5
G3 X27.905 Y12.251 I-0.345 J-0.289
X28.595 Y12.83 I0.345 J0.289
G1 Z-10.8
G3 X27.905 Y12.251 I-0.345 J-0.289
X28.595 Y12.83 I0.345 J0.289
G1 Z-11.1
G3 X27.905 Y12.251 I-0.345 J-0.289
X28.595 Y12.83 I0.345 J0.289
G1 Z-11.4
G3 X27.905 Y12.251 I-0.345 J-0.289
X28.595 Y12.83 I0.345 J0.289
G1 Z-11.7
G3 X27.905 Y12.251 I-0.345 J-0.289
X28.595 Y12.83 I0.345 J0.289
G1 Z-12
G3 X27.905 Y12.251 I-0.345 J-0.289
X28.595 Y12.83 I0.345 J0.289
G1 Z-12.3
G3 X27.905 Y12.251 I-0.345 J-0.289
X28.595 Y12.83 I0.345 J0.289
G1 Z-12.6
G3 X27.905 Y12.251 I-0.345 J-0.289
X28.595 Y12.83 I0.345 J0.289
G1 Z-12.9
G3 X27.905 Y12.251 I-0.345 J-0.289
X28.595 Y12.83 I0.345 J0.289
G1 Z-13.2
G3 X27.905 Y12.251 I-0.345 J-0.289
X28.595 Y12.83 I0.345 J0.289
G1 Z-13.5
G3 X27.905 Y12.251 I-0.345 J-0.289
X28.595 Y12.83 I0.345 J0.289
G1 Z-13.8
G3 X27.905 Y12.251 I-0.345 J-0.289
X28.595 Y12.83 I0.345 J0.289
G1 Z-14
G3 X27.905 Y12.251 I-0.345 J-0.289
X28.595 Y12.83 I0.345 J0.289
G1 Z15
(When using Fusion for Personal Use, the feedrate of rapid)
(moves is reduced to match the feedrate of cutting moves,)
(which can increase machining time. Unrestricted rapid moves)
(are available with a Fusion Subscription.)

(2D Pocket4)
G0 X6.57 Y4.341
G1 Z15 F150
Z5
Z0.62
Z0.015
X6.571 Y4.349 Z-0.054
X6.572 Y4.372 Z-0.119
X6.575 Y4.409 Z-0.178
X6.579 Y4.458 Z-0.227
X6.584 Y4.516 Z-0.264
X6.589 Y4.581 Z-0.287
X6.594 Y4.65 Z-0.295
G3 X6.07 Y6.07 I-1.802 J0.142
G2 X38.93 Y38.93 I16.43 J16.43
X6.07 Y6.07 I-16.43 J-16.43
X5.761 Y7.72 I1.051 J1.051
G3 X5.557 Y9.386 I-1.502 J0.662
G2 X39.443 Y35.614 I16.943 J13.114
X5.557 Y9.386 I-16.943 J-13.114
G3 X2.944 Y8.218 Z-0.384 I-1.164 J-0.901
G1 X3.581 Y4.762 Z-0.464
G3 X6.477 Y5.296 Z-0.57 I1.448 J0.267
X6.07 Y6.07 Z-0.59 I-1.448 J-0.267
G2 X38.93 Y38.93 I16.43 J16.43
X6.07 Y6.07 I-16.43 J-16.43
X5.761 Y7.72 I1.051 J1.051
G3 X5.557 Y9.386 I-1.502 J0.662
G2 X39.443 Y35.614 I16.943 J13.114
X5.557 Y9.386 I-16.943 J-13.114
G3 X2.944 Y8.218 Z-0.679 I-1.164 J-0.901
G1 X3.581 Y4.762 Z-0.759
G3 X6.477 Y5.296 Z-0.864 I1.448 J0.267
X6.07 Y6.07 Z-0.885 I-1.448 J-0.267
G2 X38.93 Y38.93 I16.43 J16.43
X6.07 Y6.07 I-16.43 J-16.43
X5.761 Y7.72 I1.051 J1.051
G3 X5.557 Y9.386 I-1.502 J0.662
G2 X39.443 Y35.614 I16.943 J13.114
X5.557 Y9.386 I-16.943 J-13.114
G3 X2.944 Y8.218 Z-0.974 I-1.164 J-0.901
G1 X3.581 Y4.762 Z-1.054
G3 X6.477 Y5.296 Z-1.159 I1.448 J0.267
X6.07 Y6.07 Z-1.179 I-1.448 J-0.267
G2 X38.93 Y38.93 I16.43 J16.43
X6.07 Y6.07 I-16.43 J-16.43
X5.761 Y7.72 I1.051 J1.051
G3 X5.557 Y9.386 I-1.502 J0.662
G2 X39.443 Y35.614 I16.943 J13.114
X5.557 Y9.386 I-16.943 J-13.114
G3 X2.944 Y8.218 Z-1.269 I-1.164 J-0.901
G1 X3.581 Y4.762 Z-1.349
G3 X6.477 Y5.296 Z-1.454 I1.448 J0.267
X6.07 Y6.07 Z-1.474 I-1.448 J-0.267
G2 X38.93 Y38.93 I16.43 J16.43
X6.07 Y6.07 I-16.43 J-16.43
X5.761 Y7.72 I1.051 J1.051
G3 X5.557 Y9.386 I-1.502 J0.662
G2 X39.443 Y35.614 I16.943 J13.114
X5.557 Y9.386 I-16.943 J-13.114
G3 X2.944 Y8.218 Z-1.564 I-1.164 J-0.901
G1 X3.581 Y4.762 Z-1.644
G3 X6.477 Y5.296 Z-1.749 I1.448 J0.267
X6.07 Y6.07 Z-1.769 I-1.448 J-0.267
G2 X38.93 Y38.93 I16.43 J16.43
X6.07 Y6.07 I-16.43 J-16.43
X5.761 Y7.72 I1.051 J1.051
G3 X5.557 Y9.386 I-1.502 J0.662
G2 X39.443 Y35.614 I16.943 J13.114
X5.557 Y9.386 I-16.943 J-13.114
G3 X2.944 Y8.218 Z-1.859 I-1.164 J-0.901
G1 X3.581 Y4.762 Z-1.939
G3 X6.477 Y5.296 Z-2.044 I1.448 J0.267
X6.07 Y6.07 Z-2.064 I-1.448 J-0.267
G2 X38.93 Y38.93 I16.43 J16.43
X6.07 Y6.07 I-16.43 J-16.43
X5.761 Y7.72 I1.051 J1.051
G3 X5.557 Y9.386 I-1.502 J0.662
G2 X39.443 Y35.614 I16.943 J13.114
X5.557 Y9.386 I-16.943 J-13.114
G3 X2.944 Y8.218 Z-2.153 I-1.164 J-0.901
G1 X3.581 Y4.762 Z-2.233
G3 X6.477 Y5.296 Z-2.339 I1.448 J0.267
X6.07 Y6.07 Z-2.359 I-1.448 J-0.267
G2 X38.93 Y38.93 I16.43 J16.43
X6.07 Y6.07 I-16.43 J-16.43
X5.761 Y7.72 I1.051 J1.051
G3 X5.557 Y9.386 I-1.502 J0.662
G2 X39.443 Y35.614 I16.943 J13.114
X5.557 Y9.386 I-16.943 J-13.114
G3 X2.944 Y8.218 Z-2.448 I-1.164 J-0.901
G1 X3.581 Y4.762 Z-2.528
G3 X6.477 Y5.296 Z-2.634 I1.448 J0.267
X6.07 Y6.07 Z-2.654 I-1.448 J-0.267
G2 X38.93 Y38.93 I16.43 J16.43
X6.07 Y6.07 I-16.43 J-16.43
X5.761 Y7.72 I1.051 J1.051
G3 X5.557 Y9.386 I-1.502 J0.662
G2 X39.443 Y35.614 I16.943 J13.114
X5.557 Y9.386 I-16.943 J-13.114
G3 X2.944 Y8.218 Z-2.743 I-1.164 J-0.901
G1 X3.581 Y4.762 Z-2.823
G3 X6.477 Y5.296 Z-2.928 I1.448 J0.267
X6.07 Y6.07 Z-2.949 I-1.448 J-0.267
G2 X38.93 Y38.93 I16.43 J16.43
X6.07 Y6.07 I-16.43 J-16.43
X5.761 Y7.72 I1.051 J1.051
G3 X5.557 Y9.386 I-1.502 J0.662
G2 X39.443 Y35.614 I16.943 J13.114
X5.557 Y9.386 I-16.943 J-13.114
G3 X2.944 Y8.218 Z-3.038 I-1.164 J-0.901
G1 X3.581 Y4.762 Z-3.118
G3 X6.477 Y5.296 Z-3.223 I1.448 J0.267
X6.07 Y6.07 Z-3.244 I-1.448 J-0.267
G2 X38.93 Y38.93 I16.43 J16.43
X6.07 Y6.07 I-16.43 J-16.43
X5.761 Y7.72 I1.051 J1.051
G3 X5.557 Y9.386 I-1.502 J0.662
G2 X39.443 Y35.614 I16.943 J13.114
X5.557 Y9.386 I-16.943 J-13.114
G3 X2.944 Y8.218 Z-3.333 I-1.164 J-0.901
G1 X3.581 Y4.762 Z-3.413
G3 X6.477 Y5.296 Z-3.518 I1.448 J0.267
X6.07 Y6.07 Z-3.538 I-1.448 J-0.267
G2 X38.93 Y38.93 I16.43 J16.43
X6.07 Y6.07 I-16.43 J-16.43
X5.761 Y7.72 I1.051 J1.051
G3 X5.557 Y9.386 I-1.502 J0.662
G2 X39.443 Y35.614 I16.943 J13.114
X5.557 Y9.386 I-16.943 J-13.114
G3 X2.944 Y8.218 Z-3.628 I-1.164 J-0.901
G1 X3.581 Y4.762 Z-3.708
G3 X6.477 Y5.296 Z-3.813 I1.448 J0.267
X6.07 Y6.07 Z-3.833 I-1.448 J-0.267
G2 X38.93 Y38.93 I16.43 J16.43
X6.07 Y6.07 I-16.43 J-16.43
X5.761 Y7.72 I1.051 J1.051
G3 X5.557 Y9.386 I-1.502 J0.662
G2 X39.443 Y35.614 I16.943 J13.114
X5.557 Y9.386 I-16.943 J-13.114
G3 X2.944 Y8.218 Z-3.923 I-1.164 J-0.901
G1 X3.581 Y4.762 Z-4.003
G3 X6.477 Y5.296 Z-4.108 I1.448 J0.267
X6.07 Y6.07 Z-4.128 I-1.448 J-0.267
G2 X38.93 Y38.93 I16.43 J16.43
X6.07 Y6.07 I-16.43 J-16.43
X5.761 Y7.72 I1.051 J1.051
G3 X5.557 Y9.386 I-1.502 J0.662
G2 X39.443 Y35.614 I16.943 J13.114
X5.557 Y9.386 I-16.943 J-13.114
G3 X2.944 Y8.218 Z-4.218 I-1.164 J-0.901
G1 X3.581 Y4.762 Z-4.298
G3 X6.477 Y5.296 Z-4.403 I1.448 J0.267
X6.07 Y6.07 Z-4.423 I-1.448 J-0.267
G2 X38.93 Y38.93 I16.43 J16.43
X6.07 Y6.07 I-16.43 J-16.43
X5.761 Y7.72 I1.051 J1.051
G3 X5.557 Y9.386 I-1.502 J0.662
G2 X39.443 Y35.614 I16.943 J13.114
X5.557 Y9.386 I-16.943 J-13.114
G3 X2.944 Y8.218 Z-4.512 I-1.164 J-0.901
G1 X3.581 Y4.762 Z-4.592
G3 X6.477 Y5.296 Z-4.698 I1.448 J0.267
X6.07 Y6.07 Z-4.718 I-1.448 J-0.267
G2 X38.93 Y38.93 I16.43 J16.43
X6.07 Y6.07 I-16.43 J-16.43
X5.761 Y7.72 I1.051 J1.051
G3 X5.557 Y9.386 I-1.502 J0.662
G2 X39.443 Y35.614 I16.943 J13.114
X5.557 Y9.386 I-16.943 J-13.114
G3 X2.944 Y8.218 Z-4.807 I-1.164 J-0.901
G1 X3.581 Y4.762 Z-4.887
G3 X6.477 Y5.296 Z-4.993 I1.448 J0.267
X6.07 Y6.07 Z-5.013 I-1.448 J-0.267
G2 X38.93 Y38.93 I16.43 J16.43
X6.07 Y6.07 I-16.43 J-16.43
X5.761 Y7.72 I1.051 J1.051
G3 X5.557 Y9.386 I-1.502 J0.662
G2 X39.443 Y35.614 I16.943 J13.114
X5.557 Y9.386 I-16.943 J-13.114
G3 X2.944 Y8.218 Z-5.102 I-1.164 J-0.901
G1 X3.581 Y4.762 Z-5.182
G3 X6.477 Y5.296 Z-5.287 I1.448 J0.267
X6.07 Y6.07 Z-5.308 I-1.448 J-0.267
G2 X38.93 Y38.93 I16.43 J16.43
X6.07 Y6.07 I-16.43 J-16.43
X5.761 Y7.72 I1.051 J1.051
G3 X5.557 Y9.386 I-1.502 J0.662
G2 X39.443 Y35.614 I16.943 J13.114
X5.557 Y9.386 I-16.943 J-13.114
G3 X2.944 Y8.218 Z-5.397 I-1.164 J-0.901
G1 X3.581 Y4.762 Z-5.477
G3 X6.477 Y5.296 Z-5.582 I1.448 J0.267
X6.07 Y6.07 Z-5.603 I-1.448 J-0.267
G2 X38.93 Y38.93 I16.43 J16.43
X6.07 Y6.07 I-16.43 J-16.43
X5.761 Y7.72 I1.051 J1.051
G3 X5.557 Y9.386 I-1.502 J0.662
G2 X39.443 Y35.614 I16.943 J13.114
X5.557 Y9.386 I-16.943 J-13.114
G3 X2.944 Y8.218 Z-5.692 I-1.164 J-0.901
G1 X3.581 Y4.762 Z-5.772
G3 X6.477 Y5.296 Z-5.877 I1.448 J0.267
X6.07 Y6.07 Z-5.897 I-1.448 J-0.267
G2 X38.93 Y38.93 I16.43 J16.43
X6.07 Y6.07 I-16.43 J-16.43
X5.761 Y7.72 I1.051 J1.051
G3 X5.557 Y9.386 I-1.502 J0.662
G2 X39.443 Y35.614 I16.943 J13.114
X5.557 Y9.386 I-16.943 J-13.114
G3 X2.944 Y8.218 Z-5.987 I-1.164 J-0.901
G1 X3.581 Y4.762 Z-6.067
G3 X6.477 Y5.296 Z-6.172 I1.448 J0.267
X6.07 Y6.07 Z-6.192 I-1.448 J-0.267
G2 X38.93 Y38.93 I16.43 J16.43
X6.07 Y6.07 I-16.43 J-16.43
X5.761 Y7.72 I1.051 J1.051
G3 X5.557 Y9.386 I-1.502 J0.662
G2 X39.443 Y35.614 I16.943 J13.114
X5.557 Y9.386 I-16.943 J-13.114
G3 X2.944 Y8.218 Z-6.282 I-1.164 J-0.901
G1 X3.581 Y4.762 Z-6.362
G3 X6.477 Y5.296 Z-6.467 I1.448 J0.267
X6.07 Y6.07 Z-6.487 I-1.448 J-0.267
G2 X38.93 Y38.93 I16.43 J16.43
X6.07 Y6.07 I-16.43 J-16.43
X5.761 Y7.72 I1.051 J1.051
G3 X5.557 Y9.386 I-1.502 J0.662
G2 X39.443 Y35.614 I16.943 J13.114
X5.557 Y9.386 I-16.943 J-13.114
G3 X2.944 Y8.218 Z-6.577 I-1.164 J-0.901
G1 X3.581 Y4.762 Z-6.657
G3 X6.477 Y5.296 Z-6.762 I1.448 J0.267
X6.07 Y6.07 Z-6.782 I-1.448 J-0.267
G2 X38.93 Y38.93 I16.43 J16.43
X6.07 Y6.07 I-16.43 J-16.43
X5.761 Y7.72 I1.051 J1.051
G3 X5.557 Y9.386 I-1.502 J0.662
G2 X39.443 Y35.614 I16.943 J13.114
X5.557 Y9.386 I-16.943 J-13.114
G3 X2.944 Y8.218 Z-6.871 I-1.164 J-0.901
G1 X3.581 Y4.762 Z-6.951
G3 X6.477 Y5.296 Z-7.057 I1.448 J0.267
X6.07 Y6.07 Z-7.077 I-1.448 J-0.267
G2 X38.93 Y38.93 I16.43 J16.43
X6.07 Y6.07 I-16.43 J-16.43
X5.761 Y7.72 I1.051 J1.051
G3 X5.557 Y9.386 I-1.502 J0.662
G2 X39.443 Y35.614 I16.943 J13.114
X5.557 Y9.386 I-16.943 J-13.114
G3 X2.944 Y8.218 Z-7.166 I-1.164 J-0.901
G1 X3.581 Y4.762 Z-7.246
G3 X6.477 Y5.296 Z-7.352 I1.448 J0.267
X6.07 Y6.07 Z-7.372 I-1.448 J-0.267
G2 X38.93 Y38.93 I16.43 J16.43
X6.07 Y6.07 I-16.43 J-16.43
X5.761 Y7.72 I1.051 J1.051
G3 X5.557 Y9.386 I-1.502 J0.662
G2 X39.443 Y35.614 I16.943 J13.114
X5.557 Y9.386 I-16.943 J-13.114
G3 X2.944 Y8.218 Z-7.461 I-1.164 J-0.901
G1 X3.581 Y4.762 Z-7.541
G3 X6.477 Y5.296 Z-7.646 I1.448 J0.267
X6.07 Y6.07 Z-7.667 I-1.448 J-0.267
G2 X38.93 Y38.93 I16.43 J16.43
X6.07 Y6.07 I-16.43 J-16.43
X5.761 Y7.72 I1.051 J1.051
G3 X5.557 Y9.386 I-1.502 J0.662
G2 X39.443 Y35.614 I16.943 J13.114
X5.557 Y9.386 I-16.943 J-13.114
G3 X2.944 Y8.218 Z-7.756 I-1.164 J-0.901
G1 X3.581 Y4.762 Z-7.836
G3 X6.477 Y5.296 Z-7.941 I1.448 J0.267
X6.07 Y6.07 Z-7.962 I-1.448 J-0.267
G2 X38.93 Y38.93 I16.43 J16.43
X6.07 Y6.07 I-16.43 J-16.43
X5.761 Y7.72 I1.051 J1.051
G3 X5.557 Y9.386 I-1.502 J0.662
G2 X39.443 Y35.614 I16.943 J13.114
X5.557 Y9.386 I-16.943 J-13.114
G3 X2.944 Y8.218 Z-8.051 I-1.164 J-0.901
G1 X3.581 Y4.762 Z-8.131
G3 X6.477 Y5.296 Z-8.236 I1.448 J0.267
X6.07 Y6.07 Z-8.256 I-1.448 J-0.267
G2 X38.93 Y38.93 I16.43 J16.43
X6.07 Y6.07 I-16.43 J-16.43
X5.761 Y7.72 I1.051 J1.051
G3 X5.557 Y9.386 I-1.502 J0.662
G2 X39.443 Y35.614 I16.943 J13.114
X5.557 Y9.386 I-16.943 J-13.114
G3 X2.944 Y8.218 Z-8.346 I-1.164 J-0.901
G1 X3.581 Y4.762 Z-8.426
G3 X6.477 Y5.296 Z-8.531 I1.448 J0.267
X6.07 Y6.07 Z-8.551 I-1.448 J-0.267
G2 X38.93 Y38.93 I16.43 J16.43
X6.07 Y6.07 I-16.43 J-16.43
X5.761 Y7.72 I1.051 J1.051
G3 X5.557 Y9.386 I-1.502 J0.662
G2 X39.443 Y35.614 I16.943 J13.114
X5.557 Y9.386 I-16.943 J-13.114
G3 X2.944 Y8.218 Z-8.641 I-1.164 J-0.901
G1 X3.581 Y4.762 Z-8.721
G3 X6.477 Y5.296 Z-8.826 I1.448 J0.267
X6.07 Y6.07 Z-8.846 I-1.448 J-0.267
G2 X38.93 Y38.93 I16.43 J16.43
X6.07 Y6.07 I-16.43 J-16.43
X5.761 Y7.72 I1.051 J1.051
G3 X5.557 Y9.386 I-1.502 J0.662
G2 X39.443 Y35.614 I16.943 J13.114
X5.557 Y9.386 I-16.943 J-13.114
G3 X2.944 Y8.218 Z-8.935 I-1.164 J-0.901
G1 X3.581 Y4.762 Z-9.015
G3 X6.477 Y5.296 Z-9.121 I1.448 J0.267
X6.07 Y6.07 Z-9.141 I-1.448 J-0.267
G2 X38.93 Y38.93 I16.43 J16.43
X6.07 Y6.07 I-16.43 J-16.43
X5.761 Y7.72 I1.051 J1.051
G3 X5.557 Y9.386 I-1.502 J0.662
G2 X39.443 Y35.614 I16.943 J13.114
X5.557 Y9.386 I-16.943 J-13.114
G3 X2.944 Y8.218 Z-9.23 I-1.164 J-0.901
G1 X3.581 Y4.762 Z-9.31
G3 X6.477 Y5.296 Z-9.416 I1.448 J0.267
X6.07 Y6.07 Z-9.436 I-1.448 J-0.267
G2 X38.93 Y38.93 I16.43 J16.43
X6.07 Y6.07 I-16.43 J-16.43
X5.761 Y7.72 I1.051 J1.051
G3 X5.557 Y9.386 I-1.502 J0.662
G2 X39.443 Y35.614 I16.943 J13.114
X5.557 Y9.386 I-16.943 J-13.114
G3 X2.944 Y8.218 Z-9.525 I-1.164 J-0.901
G1 X3.581 Y4.762 Z-9.605
G3 X6.477 Y5.296 Z-9.711 I1.448 J0.267
X6.07 Y6.07 Z-9.731 I-1.448 J-0.267
G2 X38.93 Y38.93 I16.43 J16.43
X6.07 Y6.07 I-16.43 J-16.43
X5.761 Y7.72 I1.051 J1.051
G3 X5.557 Y9.386 I-1.502 J0.662
G2 X39.443 Y35.614 I16.943 J13.114
X5.557 Y9.386 I-16.943 J-13.114
G3 X2.944 Y8.218 Z-9.82 I-1.164 J-0.901
G1 X3.581 Y4.762 Z-9.9
G3 X6.477 Y5.296 Z-10.005 I1.448 J0.267
X6.07 Y6.07 Z-10.026 I-1.448 J-0.267
G2 X38.93 Y38.93 I16.43 J16.43
X6.07 Y6.07 I-16.43 J-16.43
X5.761 Y7.72 I1.051 J1.051
G3 X5.557 Y9.386 I-1.502 J0.662
G2 X39.443 Y35.614 I16.943 J13.114
X5.557 Y9.386 I-16.943 J-13.114
G3 X2.944 Y8.218 Z-10.115 I-1.164 J-0.901
G1 X3.581 Y4.762 Z-10.195
G3 X6.477 Y5.296 Z-10.3 I1.448 J0.267
X6.07 Y6.07 Z-10.321 I-1.448 J-0.267
G2 X38.93 Y38.93 I16.43 J16.43
X6.07 Y6.07 I-16.43 J-16.43
X5.761 Y7.72 I1.051 J1.051
G3 X5.557 Y9.386 I-1.502 J0.662
G2 X39.443 Y35.614 I16.943 J13.114
X5.557 Y9.386 I-16.943 J-13.114
G3 X2.944 Y8.218 Z-10.41 I-1.164 J-0.901
G1 X3.581 Y4.762 Z-10.49
G3 X6.477 Y5.296 Z-10.595 I1.448 J0.267
X6.07 Y6.07 Z-10.615 I-1.448 J-0.267
G2 X38.93 Y38.93 I16.43 J16.43
X6.07 Y6.07 I-16.43 J-16.43
X5.761 Y7.72 I1.051 J1.051
G3 X5.557 Y9.386 I-1.502 J0.662
G2 X39.443 Y35.614 I16.943 J13.114
X5.557 Y9.386 I-16.943 J-13.114
G3 X2.944 Y8.218 Z-10.705 I-1.164 J-0.901
G1 X3.581 Y4.762 Z-10.785
G3 X6.477 Y5.296 Z-10.89 I1.448 J0.267
X6.07 Y6.07 Z-10.91 I-1.448 J-0.267
G2 X38.93 Y38.93 I16.43 J16.43
X6.07 Y6.07 I-16.43 J-16.43
X5.761 Y7.72 I1.051 J1.051
G3 X5.557 Y9.386 I-1.502 J0.662
G2 X39.443 Y35.614 I16.943 J13.114
X5.557 Y9.386 I-16.943 J-13.114
G3 X2.944 Y8.218 Z-11 I-1.164 J-0.901
G1 X3.581 Y4.762 Z-11.08
G3 X6.477 Y5.296 Z-11.185 I1.448 J0.267
X6.07 Y6.07 Z-11.205 I-1.448 J-0.267
G2 X38.93 Y38.93 I16.43 J16.43
X6.07 Y6.07 I-16.43 J-16.43
X5.761 Y7.72 I1.051 J1.051
G3 X5.557 Y9.386 I-1.502 J0.662
G2 X39.443 Y35.614 I16.943 J13.114
X5.557 Y9.386 I-16.943 J-13.114
G3 X2.944 Y8.218 Z-11.294 I-1.164 J-0.901
G1 X3.581 Y4.762 Z-11.374
G3 X6.477 Y5.296 Z-11.48 I1.448 J0.267
X6.07 Y6.07 Z-11.5 I-1.448 J-0.267
G2 X38.93 Y38.93 I16.43 J16.43
X6.07 Y6.07 I-16.43 J-16.43
X5.761 Y7.72 I1.051 J1.051
G3 X5.557 Y9.386 I-1.502 J0.662
G2 X39.443 Y35.614 I16.943 J13.114
X5.557 Y9.386 I-16.943 J-13.114
G1 X5.516 Y9.43 Z-11.488
X5.468 Y9.464 Z-11.476
X5.423 Y9.486 Z-11.443
X5.375 Y9.5 Z-11.409
X5.308 Y9.507 Z-11.309
X5.285 Y9.505 Z-11.19
Z15
(When using Fusion for Personal Use, the feedrate of rapid)
(moves is reduced to match the feedrate of cutting moves,)
(which can increase machining time. Unrestricted rapid moves)
(are available with a Fusion Subscription.)

(2D Contour12)
G0 X22.19 Y47.48
G1 Z15 F150
Z5
Z0.62
Z0.01
G19 G2 Y47.17 Z-0.3 J-0.31 K0
G1 Y46.86
G17 G3 X22.5 Y46.55 I0.31 J0
G2 X22.5 Y-1.55 I0 J-24.05
X22.5 Y46.55 I0 J24.05
G3 X22.81 Y46.86 I0 J0.31
G1 Y47.17
G19 G3 Y47.48 Z0.01 J0 K0.31
G1 Z5
X22.19
Z0.32
Z-0.29
G2 Y47.17 Z-0.6 J-0.31 K0
G1 Y46.86
G17 G3 X22.5 Y46.55 I0.31 J0
G2 X22.5 Y-1.55 I0 J-24.05
X22.5 Y46.55 I0 J24.05
G3 X22.81 Y46.86 I0 J0.31
G1 Y47.17
G19 G3 Y47.48 Z-0.29 J0 K0.31
G1 Z5
X22.19
Z0.02
Z-0.59
G2 Y47.17 Z-0.9 J-0.31 K0
G1 Y46.86
G17 G3 X22.5 Y46.55 I0.31 J0
G2 X22.5 Y-1.55 I0 J-24.05
X22.5 Y46.55 I0 J24.05
G3 X22.81 Y46.86 I0 J0.31
G1 Y47.17
G19 G3 Y47.48 Z-0.59 J0 K0.31
G1 Z5
X22.19
Z-0.28
Z-0.89
G2 Y47.17 Z-1.2 J-0.31 K0
G1 Y46.86
G17 G3 X22.5 Y46.55 I0.31 J0
G2 X22.5 Y-1.55 I0 J-24.05
X22.5 Y46.55 I0 J24.05
G3 X22.81 Y46.86 I0 J0.31
G1 Y47.17
G19 G3 Y47.48 Z-0.89 J0 K0.31
G1 Z5
X22.19
Z-0.58
Z-1.19
G2 Y47.17 Z-1.5 J-0.31 K0
G1 Y46.86
G17 G3 X22.5 Y46.55 I0.31 J0
G2 X22.5 Y-1.55 I0 J-24.05
X22.5 Y46.55 I0 J24.05
G3 X22.81 Y46.86 I0 J0.31
G1 Y47.17
G19 G3 Y47.48 Z-1.19 J0 K0.31
G1 Z5
X22.19
Z-0.88
Z-1.49
G2 Y47.17 Z-1.8 J-0.31 K0
G1 Y46.86
G17 G3 X22.5 Y46.55 I0.31 J0
G2 X22.5 Y-1.55 I0 J-24.05
X22.5 Y46.55 I0 J24.05
G3 X22.81 Y46.86 I0 J0.31
G1 Y47.17
G19 G3 Y47.48 Z-1.49 J0 K0.31
G1 Z5
X22.19
Z-1.18
Z-1.79
G2 Y47.17 Z-2.1 J-0.31 K0
G1 Y46.86
G17 G3 X22.5 Y46.55 I0.31 J0
G2 X22.5 Y-1.55 I0 J-24.05
X22.5 Y46.55 I0 J24.05
G3 X22.81 Y46.86 I0 J0.31
G1 Y47.17
G19 G3 Y47.48 Z-1.79 J0 K0.31
G1 Z5
X22.19
Z-1.48
Z-2.09
G2 Y47.17 Z-2.4 J-0.31 K0
G1 Y46.86
G17 G3 X22.5 Y46.55 I0.31 J0
G2 X22.5 Y-1.55 I0 J-24.05
X22.5 Y46.55 I0 J24.05
G3 X22.81 Y46.86 I0 J0.31
G1 Y47.17
G19 G3 Y47.48 Z-2.09 J0 K0.31
G1 Z5
X22.19
Z-1.78
Z-2.39
G2 Y47.17 Z-2.7 J-0.31 K0
G1 Y46.86
G17 G3 X22.5 Y46.55 I0.31 J0
G2 X22.5 Y-1.55 I0 J-24.05
X22.5 Y46.55 I0 J24.05
G3 X22.81 Y46.86 I0 J0.31
G1 Y47.17
G19 G3 Y47.48 Z-2.39 J0 K0.31
G1 Z5
X22.19
Z-2.08
Z-2.69
G2 Y47.17 Z-3 J-0.31 K0
G1 Y46.86
G17 G3 X22.5 Y46.55 I0.31 J0
G2 X22.5 Y-1.55 I0 J-24.05
X22.5 Y46.55 I0 J24.05
G3 X22.81 Y46.86 I0 J0.31
G1 Y47.17
G19 G3 Y47.48 Z-2.69 J0 K0.31
G1 Z5
X22.19
Z-2.38
Z-2.99
G2 Y47.17 Z-3.3 J-0.31 K0
G1 Y46.86
G17 G3 X22.5 Y46.55 I0.31 J0
G2 X22.5 Y-1.55 I0 J-24.05
X22.5 Y46.55 I0 J24.05
G3 X22.81 Y46.86 I0 J0.31
G1 Y47.17
G19 G3 Y47.48 Z-2.99 J0 K0.31
G1 Z5
X22.19
Z-2.68
Z-3.29
G2 Y47.17 Z-3.6 J-0.31 K0
G1 Y46.86
G17 G3 X22.5 Y46.55 I0.31 J0
G2 X22.5 Y-1.55 I0 J-24.05
X22.5 Y46.55 I0 J24.05
G3 X22.81 Y46.86 I0 J0.31
G1 Y47.17
G19 G3 Y47.48 Z-3.29 J0 K0.31
G1 Z5
X22.19
Z-2.98
Z-3.59
G2 Y47.17 Z-3.9 J-0.31 K0
G1 Y46.86
G17 G3 X22.5 Y46.55 I0.31 J0
G2 X22.5 Y-1.55 I0 J-24.05
X22.5 Y46.55 I0 J24.05
G3 X22.81 Y46.86 I0 J0.31
G1 Y47.17
G19 G3 Y47.48 Z-3.59 J0 K0.31
G1 Z5
X22.19
Z-3.28
Z-3.89
G2 Y47.17 Z-4.2 J-0.31 K0
G1 Y46.86
G17 G3 X22.5 Y46.55 I0.31 J0
G2 X22.5 Y-1.55 I0 J-24.05
X22.5 Y46.55 I0 J24.05
G3 X22.81 Y46.86 I0 J0.31
G1 Y47.17
G19 G3 Y47.48 Z-3.89 J0 K0.31
G1 Z5
X22.19
Z-3.58
Z-4.19
G2 Y47.17 Z-4.5 J-0.31 K0
G1 Y46.86
G17 G3 X22.5 Y46.55 I0.31 J0
G2 X22.5 Y-1.55 I0 J-24.05
X22.5 Y46.55 I0 J24.05
G3 X22.81 Y46.86 I0 J0.31
G1 Y47.17
G19 G3 Y47.48 Z-4.19 J0 K0.31
G1 Z5
X22.19
Z-3.88
Z-4.49
G2 Y47.17 Z-4.8 J-0.31 K0
G1 Y46.86
G17 G3 X22.5 Y46.55 I0.31 J0
G2 X22.5 Y-1.55 I0 J-24.05
X22.5 Y46.55 I0 J24.05
G3 X22.81 Y46.86 I0 J0.31
G1 Y47.17
G19 G3 Y47.48 Z-4.49 J0 K0.31
G1 Z5
X22.19
Z-4.18
Z-4.79
G2 Y47.17 Z-5.1 J-0.31 K0
G1 Y46.86
G17 G3 X22.5 Y46.55 I0.31 J0
G2 X22.5 Y-1.55 I0 J-24.05
X22.5 Y46.55 I0 J24.05
G3 X22.81 Y46.86 I0 J0.31
G1 Y47.17
G19 G3 Y47.48 Z-4.79 J0 K0.31
G1 Z5
X22.19
Z-4.48
Z-5.09
G2 Y47.17 Z-5.4 J-0.31 K0
G1 Y46.86
G17 G3 X22.5 Y46.55 I0.31 J0
G2 X22.5 Y-1.55 I0 J-24.05
X22.5 Y46.55 I0 J24.05
G3 X22.81 Y46.86 I0 J0.31
G1 Y47.17
G19 G3 Y47.48 Z-5.09 J0 K0.31
G1 Z5
X22.19
Z-4.78
Z-5.39
G2 Y47.17 Z-5.7 J-0.31 K0
G1 Y46.86
G17 G3 X22.5 Y46.55 I0.31 J0
G2 X22.5 Y-1.55 I0 J-24.05
X22.5 Y46.55 I0 J24.05
G3 X22.81 Y46.86 I0 J0.31
G1 Y47.17
G19 G3 Y47.48 Z-5.39 J0 K0.31
G1 Z5
X22.19
Z-5.08
Z-5.69
G2 Y47.17 Z-6 J-0.31 K0
G1 Y46.86
G17 G3 X22.5 Y46.55 I0.31 J0
G2 X22.5 Y-1.55 I0 J-24.05
X22.5 Y46.55 I0 J24.05
G3 X22.81 Y46.86 I0 J0.31
G1 Y47.17
G19 G3 Y47.48 Z-5.69 J0 K0.31
G1 Z5
X22.19
Z-5.38
Z-5.99
G2 Y47.17 Z-6.3 J-0.31 K0
G1 Y46.86
G17 G3 X22.5 Y46.55 I0.31 J0
G2 X22.5 Y-1.55 I0 J-24.05
X22.5 Y46.55 I0 J24.05
G3 X22.81 Y46.86 I0 J0.31
G1 Y47.17
G19 G3 Y47.48 Z-5.99 J0 K0.31
G1 Z5
X22.19
Z-5.68
Z-6.29
G2 Y47.17 Z-6.6 J-0.31 K0
G1 Y46.86
G17 G3 X22.5 Y46.55 I0.31 J0
G2 X22.5 Y-1.55 I0 J-24.05
X22.5 Y46.55 I0 J24.05
G3 X22.81 Y46.86 I0 J0.31
G1 Y47.17
G19 G3 Y47.48 Z-6.29 J0 K0.31
G1 Z5
X22.19
Z-5.98
Z-6.59
G2 Y47.17 Z-6.9 J-0.31 K0
G1 Y46.86
G17 G3 X22.5 Y46.55 I0.31 J0
G2 X22.5 Y-1.55 I0 J-24.05
X22.5 Y46.55 I0 J24.05
G3 X22.81 Y46.86 I0 J0.31
G1 Y47.17
G19 G3 Y47.48 Z-6.59 J0 K0.31
G1 Z5
X22.19
Z-6.28
Z-6.89
G2 Y47.17 Z-7.2 J-0.31 K0
G1 Y46.86
G17 G3 X22.5 Y46.55 I0.31 J0
G2 X22.5 Y-1.55 I0 J-24.05
X22.5 Y46.55 I0 J24.05
G3 X22.81 Y46.86 I0 J0.31
G1 Y47.17
G19 G3 Y47.48 Z-6.89 J0 K0.31
G1 Z5
X22.19
Z-6.58
Z-7.19
G2 Y47.17 Z-7.5 J-0.31 K0
G1 Y46.86
G17 G3 X22.5 Y46.55 I0.31 J0
G2 X22.5 Y-1.55 I0 J-24.05
X22.5 Y46.55 I0 J24.05
G3 X22.81 Y46.86 I0 J0.31
G1 Y47.17
G19 G3 Y47.48 Z-7.19 J0 K0.31
G1 Z5
X22.19
Z-6.88
Z-7.49
G2 Y47.17 Z-7.8 J-0.31 K0
G1 Y46.86
G17 G3 X22.5 Y46.55 I0.31 J0
G2 X22.5 Y-1.55 I0 J-24.05
X22.5 Y46.55 I0 J24.05
G3 X22.81 Y46.86 I0 J0.31
G1 Y47.17
G19 G3 Y47.48 Z-7.49 J0 K0.31
G1 Z5
X22.19
Z-7.18
Z-7.79
G2 Y47.17 Z-8.1 J-0.31 K0
G1 Y46.86
G17 G3 X22.5 Y46.55 I0.31 J0
G2 X22.5 Y-1.55 I0 J-24.05
X22.5 Y46.55 I0 J24.05
G3 X22.81 Y46.86 I0 J0.31
G1 Y47.17
G19 G3 Y47.48 Z-7.79 J0 K0.31
G1 Z5
X22.19
Z-7.48
Z-8.09
G2 Y47.17 Z-8.4 J-0.31 K0
G1 Y46.86
G17 G3 X22.5 Y46.55 I0.31 J0
G2 X22.5 Y-1.55 I0 J-24.05
X22.5 Y46.55 I0 J24.05
G3 X22.81 Y46.86 I0 J0.31
G1 Y47.17
G19 G3 Y47.48 Z-8.09 J0 K0.31
G1 Z5
X22.19
Z-7.78
Z-8.39
G2 Y47.17 Z-8.7 J-0.31 K0
G1 Y46.86
G17 G3 X22.5 Y46.55 I0.31 J0
G2 X22.5 Y-1.55 I0 J-24.05
X22.5 Y46.55 I0 J24.05
G3 X22.81 Y46.86 I0 J0.31
G1 Y47.17
G19 G3 Y47.48 Z-8.39 J0 K0.31
G1 Z5
X22.19
Z-8.08
Z-8.69
G2 Y47.17 Z-9 J-0.31 K0
G1 Y46.86
G17 G3 X22.5 Y46.55 I0.31 J0
G2 X22.5 Y-1.55 I0 J-24.05
X22.5 Y46.55 I0 J24.05
G3 X22.81 Y46.86 I0 J0.31
G1 Y47.17
G19 G3 Y47.48 Z-8.69 J0 K0.31
G1 Z5
X22.19
Z-8.38
Z-8.99
G2 Y47.17 Z-9.3 J-0.31 K0
G1 Y46.86
G17 G3 X22.5 Y46.55 I0.31 J0
G2 X22.5 Y-1.55 I0 J-24.05
X22.5 Y46.55 I0 J24.05
G3 X22.81 Y46.86 I0 J0.31
G1 Y47.17
G19 G3 Y47.48 Z-8.99 J0 K0.31
G1 Z5
X22.19
Z-8.68
Z-9.29
G2 Y47.17 Z-9.6 J-0.31 K0
G1 Y46.86
G17 G3 X22.5 Y46.55 I0.31 J0
G2 X22.5 Y-1.55 I0 J-24.05
X22.5 Y46.55 I0 J24.05
G3 X22.81 Y46.86 I0 J0.31
G1 Y47.17
G19 G3 Y47.48 Z-9.29 J0 K0.31
G1 Z5
X22.19
Z-8.98
Z-9.59
G2 Y47.17 Z-9.9 J-0.31 K0
G1 Y46.86
G17 G3 X22.5 Y46.55 I0.31 J0
G2 X22.5 Y-1.55 I0 J-24.05
X22.5 Y46.55 I0 J24.05
G3 X22.81 Y46.86 I0 J0.31
G1 Y47.17
G19 G3 Y47.48 Z-9.59 J0 K0.31
G1 Z5
X22.19
Z-9.28
Z-9.89
G2 Y47.17 Z-10.2 J-0.31 K0
G1 Y46.86
G17 G3 X22.5 Y46.55 I0.31 J0
G2 X22.5 Y-1.55 I0 J-24.05
X22.5 Y46.55 I0 J24.05
G3 X22.81 Y46.86 I0 J0.31
G1 Y47.17
G19 G3 Y47.48 Z-9.89 J0 K0.31
G1 Z5
X22.19
Z-9.58
Z-10.19
G2 Y47.17 Z-10.5 J-0.31 K0
G1 Y46.86
G17 G3 X22.5 Y46.55 I0.31 J0
G2 X22.5 Y-1.55 I0 J-24.05
X22.5 Y46.55 I0 J24.05
G3 X22.81 Y46.86 I0 J0.31
G1 Y47.17
G19 G3 Y47.48 Z-10.19 J0 K0.31
G1 Z5
X22.19
Z-9.88
Z-10.49
G2 Y47.17 Z-10.8 J-0.31 K0
G1 Y46.86
G17 G3 X22.5 Y46.55 I0.31 J0
G2 X22.5 Y-1.55 I0 J-24.05
X22.5 Y46.55 I0 J24.05
G3 X22.81 Y46.86 I0 J0.31
G1 Y47.17
G19 G3 Y47.48 Z-10.49 J0 K0.31
G1 Z5
X22.19
Z-10.18
Z-10.79
G2 Y47.17 Z-11.1 J-0.31 K0
G1 Y46.86
G17 G3 X22.5 Y46.55 I0.31 J0
G2 X22.5 Y-1.55 I0 J-24.05
X22.5 Y46.55 I0 J24.05
G3 X22.81 Y46.86 I0 J0.31
G1 Y47.17
G19 G3 Y47.48 Z-10.79 J0 K0.31
G1 Z5
X22.19
Z-10.48
Z-11.09
G2 Y47.17 Z-11.4 J-0.31 K0
G1 Y46.86
G17 G3 X22.5 Y46.55 I0.31 J0
G2 X22.5 Y-1.55 I0 J-24.05
X22.5 Y46.55 I0 J24.05
G3 X22.81 Y46.86 I0 J0.31
G1 Y47.17
G19 G3 Y47.48 Z-11.09 J0 K0.31
G1 Z5
X22.19
Z-10.78
Z-11.39
G2 Y47.17 Z-11.7 J-0.31 K0
G1 Y46.86
G17 G3 X22.5 Y46.55 I0.31 J0
G2 X22.5 Y-1.55 I0 J-24.05
X22.5 Y46.55 I0 J24.05
G3 X22.81 Y46.86 I0 J0.31
G1 Y47.17
G19 G3 Y47.48 Z-11.39 J0 K0.31
G1 Z5
X22.19
Z-11.08
Z-11.69
G2 Y47.17 Z-12 J-0.31 K0
G1 Y46.86
G17 G3 X22.5 Y46.55 I0.31 J0
G2 X22.5 Y-1.55 I0 J-24.05
X22.5 Y46.55 I0 J24.05
G3 X22.81 Y46.86 I0 J0.31
G1 Y47.17
G19 G3 Y47.48 Z-11.69 J0 K0.31
G1 Z5
X22.19
Z-11.38
Z-11.99
G2 Y47.17 Z-12.3 J-0.31 K0
G1 Y46.86
G17 G3 X22.5 Y46.55 I0.31 J0
G2 X22.5 Y-1.55 I0 J-24.05
X22.5 Y46.55 I0 J24.05
G3 X22.81 Y46.86 I0 J0.31
G1 Y47.17
G19 G3 Y47.48 Z-11.99 J0 K0.31
G1 Z5
X22.19
Z-11.68
Z-12.29
G2 Y47.17 Z-12.6 J-0.31 K0
G1 Y46.86
G17 G3 X22.5 Y46.55 I0.31 J0
G2 X22.5 Y-1.55 I0 J-24.05
X22.5 Y46.55 I0 J24.05
G3 X22.81 Y46.86 I0 J0.31
G1 Y47.17
G19 G3 Y47.48 Z-12.29 J0 K0.31
G1 Z5
X22.19
Z-11.98
Z-12.59
G2 Y47.17 Z-12.9 J-0.31 K0
G1 Y46.86
G17 G3 X22.5 Y46.55 I0.31 J0
G2 X22.5 Y-1.55 I0 J-24.05
X22.5 Y46.55 I0 J24.05
G3 X22.81 Y46.86 I0 J0.31
G1 Y47.17
G19 G3 Y47.48 Z-12.59 J0 K0.31
G1 Z5
X22.19
Z-12.28
Z-12.89
G2 Y47.17 Z-13.2 J-0.31 K0
G1 Y46.86
G17 G3 X22.5 Y46.55 I0.31 J0
G2 X22.5 Y-1.55 I0 J-24.05
X22.5 Y46.55 I0 J24.05
G3 X22.81 Y46.86 I0 J0.31
G1 Y47.17
G19 G3 Y47.48 Z-12.89 J0 K0.31
G1 Z5
X22.19
Z-12.58
Z-13.19
G2 Y47.17 Z-13.5 J-0.31 K0
G1 Y46.86
G17 G3 X22.5 Y46.55 I0.31 J0
G2 X22.5 Y-1.55 I0 J-24.05
X22.5 Y46.55 I0 J24.05
G3 X22.81 Y46.86 I0 J0.31
G1 Y47.17
G19 G3 Y47.48 Z-13.19 J0 K0.31
G1 Z5
X22.19
Z-12.88
Z-13.49
G2 Y47.17 Z-13.8 J-0.31 K0
G1 Y46.86
G17 G3 X22.5 Y46.55 I0.31 J0
G2 X22.5 Y-1.55 I0 J-24.05
X22.5 Y46.55 I0 J24.05
G3 X22.81 Y46.86 I0 J0.31
G1 Y47.17
G19 G3 Y47.48 Z-13.49 J0 K0.31
G1 Z5
X22.19
Z-13.18
Z-13.69
G2 Y47.17 Z-14 J-0.31 K0
G1 Y46.86
G17 G3 X22.5 Y46.55 I0.31 J0
G2 X22.5 Y-1.55 I0 J-24.05
X22.5 Y46.55 I0 J24.05
G3 X22.81 Y46.86 I0 J0.31
G1 Y47.17
G19 G3 Y47.48 Z-13.69 J0 K0.31
G1 Z15
G17

M9
M5
M30
