(atc_link_toolchanger)
(T3  D=3.1 CR=0 - ZMIN=-7 - flat end mill)
G90 G94
G17
G21
(When using Fusion 360 for Personal Use, the feedrate of)
(rapid moves is reduced to match the feedrate of cutting)
(moves, which can increase machining time. Unrestricted rapid)
(moves are available with a Fusion 360 Subscription.)

(2D Contour1)
T3
S24000 M3
G54
M8
G0 X44.472 Y33.69
Z10
G1 Z5 F300
Z1.3 F150
Z0.01
G18 G2 X44.782 Z-0.3 I0.31 K0
G1 X45.091
G17 G3 X45.402 Y34 I0 J0.31
X21.298 Y34 I-12.052 J0 F300
X45.402 Y34 I12.052 J0
X45.091 Y34.31 I-0.31 J0
G1 X44.782
G18 G3 X44.472 Z0.01 I0 K0.31
G1 Z5
Y33.69
Z1 F150
Z-0.29
G2 X44.782 Z-0.6 I0.31 K0
G1 X45.091
G17 G3 X45.402 Y34 I0 J0.31
X21.298 Y34 I-12.052 J0 F300
X45.402 Y34 I12.052 J0
X45.091 Y34.31 I-0.31 J0
G1 X44.782
G18 G3 X44.472 Z-0.29 I0 K0.31
G1 Z5
Y33.69
Z0.7 F150
Z-0.59
G2 X44.782 Z-0.9 I0.31 K0
G1 X45.091
G17 G3 X45.402 Y34 I0 J0.31
X21.298 Y34 I-12.052 J0 F300
X45.402 Y34 I12.052 J0
X45.091 Y34.31 I-0.31 J0
G1 X44.782
G18 G3 X44.472 Z-0.59 I0 K0.31
G1 Z5
Y33.69
Z0.4 F150
Z-0.89
G2 X44.782 Z-1.2 I0.31 K0
G1 X45.091
G17 G3 X45.402 Y34 I0 J0.31
X21.298 Y34 I-12.052 J0 F300
X45.402 Y34 I12.052 J0
X45.091 Y34.31 I-0.31 J0
G1 X44.782
G18 G3 X44.472 Z-0.89 I0 K0.31
G1 Z5
Y33.69
Z0.1 F150
Z-1.19
G2 X44.782 Z-1.5 I0.31 K0
G1 X45.091
G17 G3 X45.402 Y34 I0 J0.31
X21.298 Y34 I-12.052 J0 F300
X45.402 Y34 I12.052 J0
X45.091 Y34.31 I-0.31 J0
G1 X44.782
G18 G3 X44.472 Z-1.19 I0 K0.31
G1 Z5
Y33.69
Z-0.2 F150
Z-1.49
G2 X44.782 Z-1.8 I0.31 K0
G1 X45.091
G17 G3 X45.402 Y34 I0 J0.31
X21.298 Y34 I-12.052 J0 F300
X45.402 Y34 I12.052 J0
X45.091 Y34.31 I-0.31 J0
G1 X44.782
G18 G3 X44.472 Z-1.49 I0 K0.31
G1 Z5
Y33.69
Z-0.5 F150
Z-1.79
G2 X44.782 Z-2.1 I0.31 K0
G1 X45.091
G17 G3 X45.402 Y34 I0 J0.31
X21.298 Y34 I-12.052 J0 F300
X45.402 Y34 I12.052 J0
X45.091 Y34.31 I-0.31 J0
G1 X44.782
G18 G3 X44.472 Z-1.79 I0 K0.31
G1 Z5
Y33.69
Z-0.8 F150
Z-2.09
G2 X44.782 Z-2.4 I0.31 K0
G1 X45.091
G17 G3 X45.402 Y34 I0 J0.31
X21.298 Y34 I-12.052 J0 F300
X45.402 Y34 I12.052 J0
X45.091 Y34.31 I-0.31 J0
G1 X44.782
G18 G3 X44.472 Z-2.09 I0 K0.31
G1 Z5
Y33.69
Z-1.1 F150
Z-2.39
G2 X44.782 Z-2.7 I0.31 K0
G1 X45.091
G17 G3 X45.402 Y34 I0 J0.31
X21.298 Y34 I-12.052 J0 F300
X45.402 Y34 I12.052 J0
X45.091 Y34.31 I-0.31 J0
G1 X44.782
G18 G3 X44.472 Z-2.39 I0 K0.31
G1 Z5
Y33.69
Z-1.4 F150
Z-2.69
G2 X44.782 Z-3 I0.31 K0
G1 X45.091
G17 G3 X45.402 Y34 I0 J0.31
X21.298 Y34 I-12.052 J0 F300
X45.402 Y34 I12.052 J0
X45.091 Y34.31 I-0.31 J0
G1 X44.782
G18 G3 X44.472 Z-2.69 I0 K0.31
G1 Z5
Y33.69
Z-1.7 F150
Z-2.99
G2 X44.782 Z-3.3 I0.31 K0
G1 X45.091
G17 G3 X45.402 Y34 I0 J0.31
X21.298 Y34 I-12.052 J0 F300
X45.402 Y34 I12.052 J0
X45.091 Y34.31 I-0.31 J0
G1 X44.782
G18 G3 X44.472 Z-2.99 I0 K0.31
G1 Z5
Y33.69
Z-2 F150
Z-3.29
G2 X44.782 Z-3.6 I0.31 K0
G1 X45.091
G17 G3 X45.402 Y34 I0 J0.31
X21.298 Y34 I-12.052 J0 F300
X45.402 Y34 I12.052 J0
X45.091 Y34.31 I-0.31 J0
G1 X44.782
G18 G3 X44.472 Z-3.29 I0 K0.31
G1 Z5
Y33.69
Z-2.3 F150
Z-3.59
G2 X44.782 Z-3.9 I0.31 K0
G1 X45.091
G17 G3 X45.402 Y34 I0 J0.31
X21.298 Y34 I-12.052 J0 F300
X45.402 Y34 I12.052 J0
X45.091 Y34.31 I-0.31 J0
G1 X44.782
G18 G3 X44.472 Z-3.59 I0 K0.31
G1 Z5
Y33.69
Z-2.6 F150
Z-3.89
G2 X44.782 Z-4.2 I0.31 K0
G1 X45.091
G17 G3 X45.402 Y34 I0 J0.31
X21.298 Y34 I-12.052 J0 F300
X45.402 Y34 I12.052 J0
X45.091 Y34.31 I-0.31 J0
G1 X44.782
G18 G3 X44.472 Z-3.89 I0 K0.31
G1 Z5
Y33.69
Z-2.9 F150
Z-4.19
G2 X44.782 Z-4.5 I0.31 K0
G1 X45.091
G17 G3 X45.402 Y34 I0 J0.31
X21.298 Y34 I-12.052 J0 F300
X45.402 Y34 I12.052 J0
X45.091 Y34.31 I-0.31 J0
G1 X44.782
G18 G3 X44.472 Z-4.19 I0 K0.31
G1 Z5
Y33.69
Z-3.2 F150
Z-4.49
G2 X44.782 Z-4.8 I0.31 K0
G1 X45.091
G17 G3 X45.402 Y34 I0 J0.31
X21.298 Y34 I-12.052 J0 F300
X45.402 Y34 I12.052 J0
X45.091 Y34.31 I-0.31 J0
G1 X44.782
G18 G3 X44.472 Z-4.49 I0 K0.31
G1 Z5
Y33.69
Z-3.5 F150
Z-4.79
G2 X44.782 Z-5.1 I0.31 K0
G1 X45.091
G17 G3 X45.402 Y34 I0 J0.31
X21.298 Y34 I-12.052 J0 F300
X45.402 Y34 I12.052 J0
X45.091 Y34.31 I-0.31 J0
G1 X44.782
G18 G3 X44.472 Z-4.79 I0 K0.31
G1 Z5
Y33.69
Z-3.8 F150
Z-5.09
G2 X44.782 Z-5.4 I0.31 K0
G1 X45.091
G17 G3 X45.402 Y34 I0 J0.31
X21.298 Y34 I-12.052 J0 F300
X45.402 Y34 I12.052 J0
X45.091 Y34.31 I-0.31 J0
G1 X44.782
G18 G3 X44.472 Z-5.09 I0 K0.31
G1 Z5
Y33.69
Z-4.1 F150
Z-5.39
G2 X44.782 Z-5.7 I0.31 K0
G1 X45.091
G17 G3 X45.402 Y34 I0 J0.31
X21.298 Y34 I-12.052 J0 F300
X45.402 Y34 I12.052 J0
X45.091 Y34.31 I-0.31 J0
G1 X44.782
G18 G3 X44.472 Z-5.39 I0 K0.31
G1 Z5
Y33.69
Z-4.4 F150
Z-5.69
G2 X44.782 Z-6 I0.31 K0
G1 X45.091
G17 G3 X45.402 Y34 I0 J0.31
X21.298 Y34 I-12.052 J0 F300
X45.402 Y34 I12.052 J0
X45.091 Y34.31 I-0.31 J0
G1 X44.782
G18 G3 X44.472 Z-5.69 I0 K0.31
G1 Z5
Y33.69
Z-4.7 F150
Z-5.99
G2 X44.782 Z-6.3 I0.31 K0
G1 X45.091
G17 G3 X45.402 Y34 I0 J0.31
X21.298 Y34 I-12.052 J0 F300
X45.402 Y34 I12.052 J0
X45.091 Y34.31 I-0.31 J0
G1 X44.782
G18 G3 X44.472 Z-5.99 I0 K0.31
G1 Z5
Y33.69
Z-5 F150
Z-6.29
G2 X44.782 Z-6.6 I0.31 K0
G1 X45.091
G17 G3 X45.402 Y34 I0 J0.31
X21.298 Y34 I-12.052 J0 F300
X45.402 Y34 I12.052 J0
X45.091 Y34.31 I-0.31 J0
G1 X44.782
G18 G3 X44.472 Z-6.29 I0 K0.31
G1 Z5
Y33.69
Z-5.3 F150
Z-6.59
G2 X44.782 Z-6.9 I0.31 K0
G1 X45.091
G17 G3 X45.402 Y34 I0 J0.31
X21.298 Y34 I-12.052 J0 F300
X45.402 Y34 I12.052 J0
X45.091 Y34.31 I-0.31 J0
G1 X44.782
G18 G3 X44.472 Z-6.59 I0 K0.31
G1 Z5
Y33.69
Z-5.6 F150
Z-6.69
G2 X44.782 Z-7 I0.31 K0
G1 X45.091
G17 G3 X45.402 Y34 I0 J0.31
X21.298 Y34 I-12.052 J0 F300
X45.402 Y34 I12.052 J0
X45.091 Y34.31 I-0.31 J0
G1 X44.782
G18 G3 X44.472 Z-6.69 I0 K0.31
G1 Z10
G17
(When using Fusion 360 for Personal Use, the feedrate of)
(rapid moves is reduced to match the feedrate of cutting)
(moves, which can increase machining time. Unrestricted rapid)
(moves are available with a Fusion 360 Subscription.)

(2D Contour2)
G0 X18.428 Y43.29
G1 Z10 F300
Z5
Z1.3 F150
Z0.01
G18 G2 X18.738 Z-0.3 I0.31 K0
G1 X19.048
G17 G3 X19.358 Y43.6 I0 J0.31
X13.942 Y43.6 I-2.708 J0 F300
X19.358 Y43.6 I2.708 J0
X19.048 Y43.91 I-0.31 J0
G1 X18.738
G18 G3 X18.428 Z0.01 I0 K0.31
G1 Z5
Y43.29
Z1 F150
Z-0.29
G2 X18.738 Z-0.6 I0.31 K0
G1 X19.048
G17 G3 X19.358 Y43.6 I0 J0.31
X13.942 Y43.6 I-2.708 J0 F300
X19.358 Y43.6 I2.708 J0
X19.048 Y43.91 I-0.31 J0
G1 X18.738
G18 G3 X18.428 Z-0.29 I0 K0.31
G1 Z5
Y43.29
Z0.7 F150
Z-0.59
G2 X18.738 Z-0.9 I0.31 K0
G1 X19.048
G17 G3 X19.358 Y43.6 I0 J0.31
X13.942 Y43.6 I-2.708 J0 F300
X19.358 Y43.6 I2.708 J0
X19.048 Y43.91 I-0.31 J0
G1 X18.738
G18 G3 X18.428 Z-0.59 I0 K0.31
G1 Z5
Y43.29
Z0.4 F150
Z-0.89
G2 X18.738 Z-1.2 I0.31 K0
G1 X19.048
G17 G3 X19.358 Y43.6 I0 J0.31
X13.942 Y43.6 I-2.708 J0 F300
X19.358 Y43.6 I2.708 J0
X19.048 Y43.91 I-0.31 J0
G1 X18.738
G18 G3 X18.428 Z-0.89 I0 K0.31
G1 Z5
Y43.29
Z0.1 F150
Z-1.19
G2 X18.738 Z-1.5 I0.31 K0
G1 X19.048
G17 G3 X19.358 Y43.6 I0 J0.31
X13.942 Y43.6 I-2.708 J0 F300
X19.358 Y43.6 I2.708 J0
X19.048 Y43.91 I-0.31 J0
G1 X18.738
G18 G3 X18.428 Z-1.19 I0 K0.31
G1 Z5
Y43.29
Z-0.2 F150
Z-1.49
G2 X18.738 Z-1.8 I0.31 K0
G1 X19.048
G17 G3 X19.358 Y43.6 I0 J0.31
X13.942 Y43.6 I-2.708 J0 F300
X19.358 Y43.6 I2.708 J0
X19.048 Y43.91 I-0.31 J0
G1 X18.738
G18 G3 X18.428 Z-1.49 I0 K0.31
G1 Z5
Y43.29
Z-0.5 F150
Z-1.79
G2 X18.738 Z-2.1 I0.31 K0
G1 X19.048
G17 G3 X19.358 Y43.6 I0 J0.31
X13.942 Y43.6 I-2.708 J0 F300
X19.358 Y43.6 I2.708 J0
X19.048 Y43.91 I-0.31 J0
G1 X18.738
G18 G3 X18.428 Z-1.79 I0 K0.31
G1 Z5
Y43.29
Z-0.8 F150
Z-2.09
G2 X18.738 Z-2.4 I0.31 K0
G1 X19.048
G17 G3 X19.358 Y43.6 I0 J0.31
X13.942 Y43.6 I-2.708 J0 F300
X19.358 Y43.6 I2.708 J0
X19.048 Y43.91 I-0.31 J0
G1 X18.738
G18 G3 X18.428 Z-2.09 I0 K0.31
G1 Z5
Y43.29
Z-1.1 F150
Z-2.39
G2 X18.738 Z-2.7 I0.31 K0
G1 X19.048
G17 G3 X19.358 Y43.6 I0 J0.31
X13.942 Y43.6 I-2.708 J0 F300
X19.358 Y43.6 I2.708 J0
X19.048 Y43.91 I-0.31 J0
G1 X18.738
G18 G3 X18.428 Z-2.39 I0 K0.31
G1 Z5
Y43.29
Z-1.4 F150
Z-2.69
G2 X18.738 Z-3 I0.31 K0
G1 X19.048
G17 G3 X19.358 Y43.6 I0 J0.31
X13.942 Y43.6 I-2.708 J0 F300
X19.358 Y43.6 I2.708 J0
X19.048 Y43.91 I-0.31 J0
G1 X18.738
G18 G3 X18.428 Z-2.69 I0 K0.31
G1 Z5
Y43.29
Z-1.7 F150
Z-2.99
G2 X18.738 Z-3.3 I0.31 K0
G1 X19.048
G17 G3 X19.358 Y43.6 I0 J0.31
X13.942 Y43.6 I-2.708 J0 F300
X19.358 Y43.6 I2.708 J0
X19.048 Y43.91 I-0.31 J0
G1 X18.738
G18 G3 X18.428 Z-2.99 I0 K0.31
G1 Z5
Y43.29
Z-2 F150
Z-3.29
G2 X18.738 Z-3.6 I0.31 K0
G1 X19.048
G17 G3 X19.358 Y43.6 I0 J0.31
X13.942 Y43.6 I-2.708 J0 F300
X19.358 Y43.6 I2.708 J0
X19.048 Y43.91 I-0.31 J0
G1 X18.738
G18 G3 X18.428 Z-3.29 I0 K0.31
G1 Z5
Y43.29
Z-2.3 F150
Z-3.59
G2 X18.738 Z-3.9 I0.31 K0
G1 X19.048
G17 G3 X19.358 Y43.6 I0 J0.31
X13.942 Y43.6 I-2.708 J0 F300
X19.358 Y43.6 I2.708 J0
X19.048 Y43.91 I-0.31 J0
G1 X18.738
G18 G3 X18.428 Z-3.59 I0 K0.31
G1 Z5
Y43.29
Z-2.6 F150
Z-3.89
G2 X18.738 Z-4.2 I0.31 K0
G1 X19.048
G17 G3 X19.358 Y43.6 I0 J0.31
X13.942 Y43.6 I-2.708 J0 F300
X19.358 Y43.6 I2.708 J0
X19.048 Y43.91 I-0.31 J0
G1 X18.738
G18 G3 X18.428 Z-3.89 I0 K0.31
G1 Z5
Y43.29
Z-2.9 F150
Z-4.19
G2 X18.738 Z-4.5 I0.31 K0
G1 X19.048
G17 G3 X19.358 Y43.6 I0 J0.31
X13.942 Y43.6 I-2.708 J0 F300
X19.358 Y43.6 I2.708 J0
X19.048 Y43.91 I-0.31 J0
G1 X18.738
G18 G3 X18.428 Z-4.19 I0 K0.31
G1 Z5
Y43.29
Z-3.2 F150
Z-4.49
G2 X18.738 Z-4.8 I0.31 K0
G1 X19.048
G17 G3 X19.358 Y43.6 I0 J0.31
X13.942 Y43.6 I-2.708 J0 F300
X19.358 Y43.6 I2.708 J0
X19.048 Y43.91 I-0.31 J0
G1 X18.738
G18 G3 X18.428 Z-4.49 I0 K0.31
G1 Z5
Y43.29
Z-3.5 F150
Z-4.79
G2 X18.738 Z-5.1 I0.31 K0
G1 X19.048
G17 G3 X19.358 Y43.6 I0 J0.31
X13.942 Y43.6 I-2.708 J0 F300
X19.358 Y43.6 I2.708 J0
X19.048 Y43.91 I-0.31 J0
G1 X18.738
G18 G3 X18.428 Z-4.79 I0 K0.31
G1 Z5
Y43.29
Z-3.8 F150
Z-5.09
G2 X18.738 Z-5.4 I0.31 K0
G1 X19.048
G17 G3 X19.358 Y43.6 I0 J0.31
X13.942 Y43.6 I-2.708 J0 F300
X19.358 Y43.6 I2.708 J0
X19.048 Y43.91 I-0.31 J0
G1 X18.738
G18 G3 X18.428 Z-5.09 I0 K0.31
G1 Z5
Y43.29
Z-4.1 F150
Z-5.39
G2 X18.738 Z-5.7 I0.31 K0
G1 X19.048
G17 G3 X19.358 Y43.6 I0 J0.31
X13.942 Y43.6 I-2.708 J0 F300
X19.358 Y43.6 I2.708 J0
X19.048 Y43.91 I-0.31 J0
G1 X18.738
G18 G3 X18.428 Z-5.39 I0 K0.31
G1 Z5
Y43.29
Z-4.4 F150
Z-5.69
G2 X18.738 Z-6 I0.31 K0
G1 X19.048
G17 G3 X19.358 Y43.6 I0 J0.31
X13.942 Y43.6 I-2.708 J0 F300
X19.358 Y43.6 I2.708 J0
X19.048 Y43.91 I-0.31 J0
G1 X18.738
G18 G3 X18.428 Z-5.69 I0 K0.31
G1 Z5
Y43.29
Z-4.7 F150
Z-5.99
G2 X18.738 Z-6.3 I0.31 K0
G1 X19.048
G17 G3 X19.358 Y43.6 I0 J0.31
X13.942 Y43.6 I-2.708 J0 F300
X19.358 Y43.6 I2.708 J0
X19.048 Y43.91 I-0.31 J0
G1 X18.738
G18 G3 X18.428 Z-5.99 I0 K0.31
G1 Z5
Y43.29
Z-5 F150
Z-6.29
G2 X18.738 Z-6.6 I0.31 K0
G1 X19.048
G17 G3 X19.358 Y43.6 I0 J0.31
X13.942 Y43.6 I-2.708 J0 F300
X19.358 Y43.6 I2.708 J0
X19.048 Y43.91 I-0.31 J0
G1 X18.738
G18 G3 X18.428 Z-6.29 I0 K0.31
G1 Z5
Y43.29
Z-5.3 F150
Z-6.59
G2 X18.738 Z-6.9 I0.31 K0
G1 X19.048
G17 G3 X19.358 Y43.6 I0 J0.31
X13.942 Y43.6 I-2.708 J0 F300
X19.358 Y43.6 I2.708 J0
X19.048 Y43.91 I-0.31 J0
G1 X18.738
G18 G3 X18.428 Z-6.59 I0 K0.31
G1 Z5
Y43.29
Z-5.6 F150
Z-6.69
G2 X18.738 Z-7 I0.31 K0
G1 X19.048
G17 G3 X19.358 Y43.6 I0 J0.31
X13.942 Y43.6 I-2.708 J0 F300
X19.358 Y43.6 I2.708 J0
X19.048 Y43.91 I-0.31 J0
G1 X18.738
G18 G3 X18.428 Z-6.69 I0 K0.31
G1 Z10
G17

(Drill1)
G0 X33.35 Y5
Z10
Z5
Z2
G1 Z-0.3 F150
G0 Z5
Z1.7
G1 Z-0.6 F150
G0 Z5
Z1.4
G1 Z-0.9 F150
G0 Z5
Z1.1
G1 Z-1.2 F150
G0 Z5
Z0.8
G1 Z-1.5 F150
G0 Z5
Z0.5
G1 Z-1.8 F150
G0 Z5
Z0.2
G1 Z-2.1 F150
G0 Z5
Z-0.1
G1 Z-2.4 F150
G0 Z5
Z-0.4
G1 Z-2.7 F150
G0 Z5
Z-0.7
G1 Z-3 F150
G0 Z5
Z-1
G1 Z-3.3 F150
G0 Z5
Z-1.3
G1 Z-3.6 F150
G0 Z5
Z-1.6
G1 Z-3.9 F150
G0 Z5
Z-1.9
G1 Z-4.2 F150
G0 Z5
Z-2.2
G1 Z-4.5 F150
G0 Z5
Z-2.5
G1 Z-4.8 F150
G0 Z5
Z-2.8
G1 Z-5.1 F150
G0 Z5
Z-3.1
G1 Z-5.4 F150
G0 Z5
Z-3.4
G1 Z-5.7 F150
G0 Z5
Z-3.7
G1 Z-6 F150
G0 Z5
Z-4
G1 Z-6.3 F150
G0 Z5
Z-4.3
G1 Z-6.6 F150
G0 Z5
Z-4.6
G1 Z-6.9 F150
G0 Z5
Z-4.9
G1 Z-7 F150
G4 P1.
G0 Z5
X8.232 Y48.501
Z2
G1 Z-0.3 F150
G0 Z5
Z1.7
G1 Z-0.6 F150
G0 Z5
Z1.4
G1 Z-0.9 F150
G0 Z5
Z1.1
G1 Z-1.2 F150
G0 Z5
Z0.8
G1 Z-1.5 F150
G0 Z5
Z0.5
G1 Z-1.8 F150
G0 Z5
Z0.2
G1 Z-2.1 F150
G0 Z5
Z-0.1
G1 Z-2.4 F150
G0 Z5
Z-0.4
G1 Z-2.7 F150
G0 Z5
Z-0.7
G1 Z-3 F150
G0 Z5
Z-1
G1 Z-3.3 F150
G0 Z5
Z-1.3
G1 Z-3.6 F150
G0 Z5
Z-1.6
G1 Z-3.9 F150
G0 Z5
Z-1.9
G1 Z-4.2 F150
G0 Z5
Z-2.2
G1 Z-4.5 F150
G0 Z5
Z-2.5
G1 Z-4.8 F150
G0 Z5
Z-2.8
G1 Z-5.1 F150
G0 Z5
Z-3.1
G1 Z-5.4 F150
G0 Z5
Z-3.4
G1 Z-5.7 F150
G0 Z5
Z-3.7
G1 Z-6 F150
G0 Z5
Z-4
G1 Z-6.3 F150
G0 Z5
Z-4.3
G1 Z-6.6 F150
G0 Z5
Z-4.6
G1 Z-6.9 F150
G0 Z5
Z-4.9
G1 Z-7 F150
G4 P1.
G0 Z5
X58.48 Y48.497
Z2
G1 Z-0.3 F150
G0 Z5
Z1.7
G1 Z-0.6 F150
G0 Z5
Z1.4
G1 Z-0.9 F150
G0 Z5
Z1.1
G1 Z-1.2 F150
G0 Z5
Z0.8
G1 Z-1.5 F150
G0 Z5
Z0.5
G1 Z-1.8 F150
G0 Z5
Z0.2
G1 Z-2.1 F150
G0 Z5
Z-0.1
G1 Z-2.4 F150
G0 Z5
Z-0.4
G1 Z-2.7 F150
G0 Z5
Z-0.7
G1 Z-3 F150
G0 Z5
Z-1
G1 Z-3.3 F150
G0 Z5
Z-1.3
G1 Z-3.6 F150
G0 Z5
Z-1.6
G1 Z-3.9 F150
G0 Z5
Z-1.9
G1 Z-4.2 F150
G0 Z5
Z-2.2
G1 Z-4.5 F150
G0 Z5
Z-2.5
G1 Z-4.8 F150
G0 Z5
Z-2.8
G1 Z-5.1 F150
G0 Z5
Z-3.1
G1 Z-5.4 F150
G0 Z5
Z-3.4
G1 Z-5.7 F150
G0 Z5
Z-3.7
G1 Z-6 F150
G0 Z5
Z-4
G1 Z-6.3 F150
G0 Z5
Z-4.3
G1 Z-6.6 F150
G0 Z5
Z-4.6
G1 Z-6.9 F150
G0 Z5
Z-4.9
G1 Z-7 F150
G4 P1.
G0 Z5
Z10
(When using Fusion 360 for Personal Use, the feedrate of)
(rapid moves is reduced to match the feedrate of cutting)
(moves, which can increase machining time. Unrestricted rapid)
(moves are available with a Fusion 360 Subscription.)

(2D Contour4)
X33.701 Y-1.48
G1 Z10 F300
Z5
Z1.3 F150
Z0.01
G19 G3 Y-1.17 Z-0.3 J0.31 K0
G1 Y-0.86
G17 G3 X33.391 Y-0.55 I-0.31 J0
G1 X1
G2 X-0.55 Y1 I0 J1.55
G1 Y33.981
G2 X67.25 Y34.084 I33.9 J0.019
G1 X67.331 Y1.004
G2 X65.781 Y-0.55 I-1.55 J-0.004
G1 X33.391
G3 X33.081 Y-0.86 I0 J-0.31 F300
G1 Y-1.17
G19 G2 Y-1.48 Z0.01 J0 K0.31
G1 Z5
X33.701
Z1 F150
Z-0.29
G3 Y-1.17 Z-0.6 J0.31 K0
G1 Y-0.86
G17 G3 X33.391 Y-0.55 I-0.31 J0
G1 X1
G2 X-0.55 Y1 I0 J1.55
G1 Y33.981
G2 X67.25 Y34.084 I33.9 J0.019
G1 X67.331 Y1.004
G2 X65.781 Y-0.55 I-1.55 J-0.004
G1 X33.391
G3 X33.081 Y-0.86 I0 J-0.31 F300
G1 Y-1.17
G19 G2 Y-1.48 Z-0.29 J0 K0.31
G1 Z5
X33.701
Z0.7 F150
Z-0.59
G3 Y-1.17 Z-0.9 J0.31 K0
G1 Y-0.86
G17 G3 X33.391 Y-0.55 I-0.31 J0
G1 X1
G2 X-0.55 Y1 I0 J1.55
G1 Y33.981
G2 X67.25 Y34.084 I33.9 J0.019
G1 X67.331 Y1.004
G2 X65.781 Y-0.55 I-1.55 J-0.004
G1 X33.391
G3 X33.081 Y-0.86 I0 J-0.31 F300
G1 Y-1.17
G19 G2 Y-1.48 Z-0.59 J0 K0.31
G1 Z5
X33.701
Z0.4 F150
Z-0.89
G3 Y-1.17 Z-1.2 J0.31 K0
G1 Y-0.86
G17 G3 X33.391 Y-0.55 I-0.31 J0
G1 X1
G2 X-0.55 Y1 I0 J1.55
G1 Y33.981
G2 X67.25 Y34.084 I33.9 J0.019
G1 X67.331 Y1.004
G2 X65.781 Y-0.55 I-1.55 J-0.004
G1 X33.391
G3 X33.081 Y-0.86 I0 J-0.31 F300
G1 Y-1.17
G19 G2 Y-1.48 Z-0.89 J0 K0.31
G1 Z5
X33.701
Z0.1 F150
Z-1.19
G3 Y-1.17 Z-1.5 J0.31 K0
G1 Y-0.86
G17 G3 X33.391 Y-0.55 I-0.31 J0
G1 X1
G2 X-0.55 Y1 I0 J1.55
G1 Y33.981
G2 X67.25 Y34.084 I33.9 J0.019
G1 X67.331 Y1.004
G2 X65.781 Y-0.55 I-1.55 J-0.004
G1 X33.391
G3 X33.081 Y-0.86 I0 J-0.31 F300
G1 Y-1.17
G19 G2 Y-1.48 Z-1.19 J0 K0.31
G1 Z5
X33.701
Z-0.2 F150
Z-1.49
G3 Y-1.17 Z-1.8 J0.31 K0
G1 Y-0.86
G17 G3 X33.391 Y-0.55 I-0.31 J0
G1 X1
G2 X-0.55 Y1 I0 J1.55
G1 Y33.981
G2 X67.25 Y34.084 I33.9 J0.019
G1 X67.331 Y1.004
G2 X65.781 Y-0.55 I-1.55 J-0.004
G1 X33.391
G3 X33.081 Y-0.86 I0 J-0.31 F300
G1 Y-1.17
G19 G2 Y-1.48 Z-1.49 J0 K0.31
G1 Z5
X33.701
Z-0.5 F150
Z-1.79
G3 Y-1.17 Z-2.1 J0.31 K0
G1 Y-0.86
G17 G3 X33.391 Y-0.55 I-0.31 J0
G1 X1
G2 X-0.55 Y1 I0 J1.55
G1 Y33.981
G2 X67.25 Y34.084 I33.9 J0.019
G1 X67.331 Y1.004
G2 X65.781 Y-0.55 I-1.55 J-0.004
G1 X33.391
G3 X33.081 Y-0.86 I0 J-0.31 F300
G1 Y-1.17
G19 G2 Y-1.48 Z-1.79 J0 K0.31
G1 Z5
X33.701
Z-0.8 F150
Z-2.09
G3 Y-1.17 Z-2.4 J0.31 K0
G1 Y-0.86
G17 G3 X33.391 Y-0.55 I-0.31 J0
G1 X1
G2 X-0.55 Y1 I0 J1.55
G1 Y33.981
G2 X67.25 Y34.084 I33.9 J0.019
G1 X67.331 Y1.004
G2 X65.781 Y-0.55 I-1.55 J-0.004
G1 X33.391
G3 X33.081 Y-0.86 I0 J-0.31 F300
G1 Y-1.17
G19 G2 Y-1.48 Z-2.09 J0 K0.31
G1 Z5
X33.701
Z-1.1 F150
Z-2.39
G3 Y-1.17 Z-2.7 J0.31 K0
G1 Y-0.86
G17 G3 X33.391 Y-0.55 I-0.31 J0
G1 X1
G2 X-0.55 Y1 I0 J1.55
G1 Y33.981
G2 X67.25 Y34.084 I33.9 J0.019
G1 X67.331 Y1.004
G2 X65.781 Y-0.55 I-1.55 J-0.004
G1 X33.391
G3 X33.081 Y-0.86 I0 J-0.31 F300
G1 Y-1.17
G19 G2 Y-1.48 Z-2.39 J0 K0.31
G1 Z5
X33.701
Z-1.4 F150
Z-2.69
G3 Y-1.17 Z-3 J0.31 K0
G1 Y-0.86
G17 G3 X33.391 Y-0.55 I-0.31 J0
G1 X1
G2 X-0.55 Y1 I0 J1.55
G1 Y33.981
G2 X67.25 Y34.084 I33.9 J0.019
G1 X67.331 Y1.004
G2 X65.781 Y-0.55 I-1.55 J-0.004
G1 X33.391
G3 X33.081 Y-0.86 I0 J-0.31 F300
G1 Y-1.17
G19 G2 Y-1.48 Z-2.69 J0 K0.31
G1 Z5
X33.701
Z-1.7 F150
Z-2.99
G3 Y-1.17 Z-3.3 J0.31 K0
G1 Y-0.86
G17 G3 X33.391 Y-0.55 I-0.31 J0
G1 X1
G2 X-0.55 Y1 I0 J1.55
G1 Y33.981
G2 X67.25 Y34.084 I33.9 J0.019
G1 X67.331 Y1.004
G2 X65.781 Y-0.55 I-1.55 J-0.004
G1 X33.391
G3 X33.081 Y-0.86 I0 J-0.31 F300
G1 Y-1.17
G19 G2 Y-1.48 Z-2.99 J0 K0.31
G1 Z5
X33.701
Z-2 F150
Z-3.29
G3 Y-1.17 Z-3.6 J0.31 K0
G1 Y-0.86
G17 G3 X33.391 Y-0.55 I-0.31 J0
G1 X1
G2 X-0.55 Y1 I0 J1.55
G1 Y33.981
G2 X67.25 Y34.084 I33.9 J0.019
G1 X67.331 Y1.004
G2 X65.781 Y-0.55 I-1.55 J-0.004
G1 X33.391
G3 X33.081 Y-0.86 I0 J-0.31 F300
G1 Y-1.17
G19 G2 Y-1.48 Z-3.29 J0 K0.31
G1 Z5
X33.701
Z-2.3 F150
Z-3.59
G3 Y-1.17 Z-3.9 J0.31 K0
G1 Y-0.86
G17 G3 X33.391 Y-0.55 I-0.31 J0
G1 X1
G2 X-0.55 Y1 I0 J1.55
G1 Y33.981
G2 X67.25 Y34.084 I33.9 J0.019
G1 X67.331 Y1.004
G2 X65.781 Y-0.55 I-1.55 J-0.004
G1 X33.391
G3 X33.081 Y-0.86 I0 J-0.31 F300
G1 Y-1.17
G19 G2 Y-1.48 Z-3.59 J0 K0.31
G1 Z5
X33.701
Z-2.6 F150
Z-3.89
G3 Y-1.17 Z-4.2 J0.31 K0
G1 Y-0.86
G17 G3 X33.391 Y-0.55 I-0.31 J0
G1 X1
G2 X-0.55 Y1 I0 J1.55
G1 Y33.981
G2 X67.25 Y34.084 I33.9 J0.019
G1 X67.331 Y1.004
G2 X65.781 Y-0.55 I-1.55 J-0.004
G1 X33.391
G3 X33.081 Y-0.86 I0 J-0.31 F300
G1 Y-1.17
G19 G2 Y-1.48 Z-3.89 J0 K0.31
G1 Z5
X33.701
Z-2.9 F150
Z-4.19
G3 Y-1.17 Z-4.5 J0.31 K0
G1 Y-0.86
G17 G3 X33.391 Y-0.55 I-0.31 J0
G1 X1
G2 X-0.55 Y1 I0 J1.55
G1 Y33.981
G2 X67.25 Y34.084 I33.9 J0.019
G1 X67.331 Y1.004
G2 X65.781 Y-0.55 I-1.55 J-0.004
G1 X33.391
G3 X33.081 Y-0.86 I0 J-0.31 F300
G1 Y-1.17
G19 G2 Y-1.48 Z-4.19 J0 K0.31
G1 Z5
X33.701
Z-3.2 F150
Z-4.49
G3 Y-1.17 Z-4.8 J0.31 K0
G1 Y-0.86
G17 G3 X33.391 Y-0.55 I-0.31 J0
G1 X1
G2 X-0.55 Y1 I0 J1.55
G1 Y33.981
G2 X67.25 Y34.084 I33.9 J0.019
G1 X67.331 Y1.004
G2 X65.781 Y-0.55 I-1.55 J-0.004
G1 X33.391
G3 X33.081 Y-0.86 I0 J-0.31 F300
G1 Y-1.17
G19 G2 Y-1.48 Z-4.49 J0 K0.31
G1 Z5
X33.701
Z-3.5 F150
Z-4.79
G3 Y-1.17 Z-5.1 J0.31 K0
G1 Y-0.86
G17 G3 X33.391 Y-0.55 I-0.31 J0
G1 X1
G2 X-0.55 Y1 I0 J1.55
G1 Y33.981
G2 X67.25 Y34.084 I33.9 J0.019
G1 X67.331 Y1.004
G2 X65.781 Y-0.55 I-1.55 J-0.004
G1 X33.391
G3 X33.081 Y-0.86 I0 J-0.31 F300
G1 Y-1.17
G19 G2 Y-1.48 Z-4.79 J0 K0.31
G1 Z5
X33.701
Z-3.8 F150
Z-5.09
G3 Y-1.17 Z-5.4 J0.31 K0
G1 Y-0.86
G17 G3 X33.391 Y-0.55 I-0.31 J0
G1 X1
G2 X-0.55 Y1 I0 J1.55
G1 Y33.981
G2 X67.25 Y34.084 I33.9 J0.019
G1 X67.331 Y1.004
G2 X65.781 Y-0.55 I-1.55 J-0.004
G1 X33.391
G3 X33.081 Y-0.86 I0 J-0.31 F300
G1 Y-1.17
G19 G2 Y-1.48 Z-5.09 J0 K0.31
G1 Z5
X33.701
Z-4.1 F150
Z-5.39
G3 Y-1.17 Z-5.7 J0.31 K0
G1 Y-0.86
G17 G3 X33.391 Y-0.55 I-0.31 J0
G1 X1
G2 X-0.55 Y1 I0 J1.55
G1 Y33.981
G2 X67.25 Y34.084 I33.9 J0.019
G1 X67.331 Y1.004
G2 X65.781 Y-0.55 I-1.55 J-0.004
G1 X33.391
G3 X33.081 Y-0.86 I0 J-0.31 F300
G1 Y-1.17
G19 G2 Y-1.48 Z-5.39 J0 K0.31
G1 Z5
X33.701
Z-4.4 F150
Z-5.69
G3 Y-1.17 Z-6 J0.31 K0
G1 Y-0.86
G17 G3 X33.391 Y-0.55 I-0.31 J0
G1 X1
G2 X-0.55 Y1 I0 J1.55
G1 Y33.981
G2 X67.25 Y34.084 I33.9 J0.019
G1 X67.331 Y1.004
G2 X65.781 Y-0.55 I-1.55 J-0.004
G1 X33.391
G3 X33.081 Y-0.86 I0 J-0.31 F300
G1 Y-1.17
G19 G2 Y-1.48 Z-5.69 J0 K0.31
G1 Z5
X33.701
Z-4.7 F150
Z-5.99
G3 Y-1.17 Z-6.3 J0.31 K0
G1 Y-0.86
G17 G3 X33.391 Y-0.55 I-0.31 J0
G1 X1
G2 X-0.55 Y1 I0 J1.55
G1 Y33.981
G2 X67.25 Y34.084 I33.9 J0.019
G1 X67.331 Y1.004
G2 X65.781 Y-0.55 I-1.55 J-0.004
G1 X33.391
G3 X33.081 Y-0.86 I0 J-0.31 F300
G1 Y-1.17
G19 G2 Y-1.48 Z-5.99 J0 K0.31
G1 Z5
X33.701
Z-5 F150
Z-6.29
G3 Y-1.17 Z-6.6 J0.31 K0
G1 Y-0.86
G17 G3 X33.391 Y-0.55 I-0.31 J0
G1 X1
G2 X-0.55 Y1 I0 J1.55
G1 Y33.981
G2 X67.25 Y34.084 I33.9 J0.019
G1 X67.331 Y1.004
G2 X65.781 Y-0.55 I-1.55 J-0.004
G1 X33.391
G3 X33.081 Y-0.86 I0 J-0.31 F300
G1 Y-1.17
G19 G2 Y-1.48 Z-6.29 J0 K0.31
G1 Z5
X33.701
Z-5.3 F150
Z-6.59
G3 Y-1.17 Z-6.9 J0.31 K0
G1 Y-0.86
G17 G3 X33.391 Y-0.55 I-0.31 J0
G1 X1
G2 X-0.55 Y1 I0 J1.55
G1 Y33.981
G2 X67.25 Y34.084 I33.9 J0.019
G1 X67.331 Y1.004
G2 X65.781 Y-0.55 I-1.55 J-0.004
G1 X33.391
G3 X33.081 Y-0.86 I0 J-0.31 F300
G1 Y-1.17
G19 G2 Y-1.48 Z-6.59 J0 K0.31
G1 Z5
X33.701
Z-5.6 F150
Z-6.69
G3 Y-1.17 Z-7 J0.31 K0
G1 Y-0.86
G17 G3 X33.391 Y-0.55 I-0.31 J0
G1 X1
G2 X-0.55 Y1 I0 J1.55
G1 Y33.981
G2 X67.25 Y34.084 I33.9 J0.019
G1 X67.331 Y1.004
G2 X65.781 Y-0.55 I-1.55 J-0.004
G1 X33.391
G3 X33.081 Y-0.86 I0 J-0.31 F300
G1 Y-1.17
G19 G2 Y-1.48 Z-6.69 J0 K0.31
G1 Z10
G17
M9
M5
M30
