(atc_link_toolchanger)
(T3  D=3.1 CR=0 - ZMIN=-8 - flat end mill)
G90 G94
G17
G21
(When using Fusion 360 for Personal Use, the feedrate of)
(rapid moves is reduced to match the feedrate of cutting)
(moves, which can increase machining time. Unrestricted rapid)
(moves are available with a Fusion 360 Subscription.)

(2D Contour1)
T3
S24000 M3
G54
M8
G0 X43.472 Y32.69
Z10
G1 Z5 F300
Z1.3 F150
Z0.01
G18 G2 X43.782 Z-0.3 I0.31 K0
G1 X44.091
G17 G3 X44.402 Y33 I0 J0.31
X20.298 Y33 I-12.052 J0 F300
X44.402 Y33 I12.052 J0
X44.091 Y33.31 I-0.31 J0
G1 X43.782
G18 G3 X43.472 Z0.01 I0 K0.31
G1 Z5
Y32.69
Z1 F150
Z-0.29
G2 X43.782 Z-0.6 I0.31 K0
G1 X44.091
G17 G3 X44.402 Y33 I0 J0.31
X20.298 Y33 I-12.052 J0 F300
X44.402 Y33 I12.052 J0
X44.091 Y33.31 I-0.31 J0
G1 X43.782
G18 G3 X43.472 Z-0.29 I0 K0.31
G1 Z5
Y32.69
Z0.7 F150
Z-0.59
G2 X43.782 Z-0.9 I0.31 K0
G1 X44.091
G17 G3 X44.402 Y33 I0 J0.31
X20.298 Y33 I-12.052 J0 F300
X44.402 Y33 I12.052 J0
X44.091 Y33.31 I-0.31 J0
G1 X43.782
G18 G3 X43.472 Z-0.59 I0 K0.31
G1 Z5
Y32.69
Z0.4 F150
Z-0.89
G2 X43.782 Z-1.2 I0.31 K0
G1 X44.091
G17 G3 X44.402 Y33 I0 J0.31
X20.298 Y33 I-12.052 J0 F300
X44.402 Y33 I12.052 J0
X44.091 Y33.31 I-0.31 J0
G1 X43.782
G18 G3 X43.472 Z-0.89 I0 K0.31
G1 Z5
Y32.69
Z0.1 F150
Z-1.19
G2 X43.782 Z-1.5 I0.31 K0
G1 X44.091
G17 G3 X44.402 Y33 I0 J0.31
X20.298 Y33 I-12.052 J0 F300
X44.402 Y33 I12.052 J0
X44.091 Y33.31 I-0.31 J0
G1 X43.782
G18 G3 X43.472 Z-1.19 I0 K0.31
G1 Z5
Y32.69
Z-0.2 F150
Z-1.49
G2 X43.782 Z-1.8 I0.31 K0
G1 X44.091
G17 G3 X44.402 Y33 I0 J0.31
X20.298 Y33 I-12.052 J0 F300
X44.402 Y33 I12.052 J0
X44.091 Y33.31 I-0.31 J0
G1 X43.782
G18 G3 X43.472 Z-1.49 I0 K0.31
G1 Z5
Y32.69
Z-0.5 F150
Z-1.79
G2 X43.782 Z-2.1 I0.31 K0
G1 X44.091
G17 G3 X44.402 Y33 I0 J0.31
X20.298 Y33 I-12.052 J0 F300
X44.402 Y33 I12.052 J0
X44.091 Y33.31 I-0.31 J0
G1 X43.782
G18 G3 X43.472 Z-1.79 I0 K0.31
G1 Z5
Y32.69
Z-0.8 F150
Z-2.09
G2 X43.782 Z-2.4 I0.31 K0
G1 X44.091
G17 G3 X44.402 Y33 I0 J0.31
X20.298 Y33 I-12.052 J0 F300
X44.402 Y33 I12.052 J0
X44.091 Y33.31 I-0.31 J0
G1 X43.782
G18 G3 X43.472 Z-2.09 I0 K0.31
G1 Z5
Y32.69
Z-1.1 F150
Z-2.39
G2 X43.782 Z-2.7 I0.31 K0
G1 X44.091
G17 G3 X44.402 Y33 I0 J0.31
X20.298 Y33 I-12.052 J0 F300
X44.402 Y33 I12.052 J0
X44.091 Y33.31 I-0.31 J0
G1 X43.782
G18 G3 X43.472 Z-2.39 I0 K0.31
G1 Z5
Y32.69
Z-1.4 F150
Z-2.69
G2 X43.782 Z-3 I0.31 K0
G1 X44.091
G17 G3 X44.402 Y33 I0 J0.31
X20.298 Y33 I-12.052 J0 F300
X44.402 Y33 I12.052 J0
X44.091 Y33.31 I-0.31 J0
G1 X43.782
G18 G3 X43.472 Z-2.69 I0 K0.31
G1 Z5
Y32.69
Z-1.7 F150
Z-2.99
G2 X43.782 Z-3.3 I0.31 K0
G1 X44.091
G17 G3 X44.402 Y33 I0 J0.31
X20.298 Y33 I-12.052 J0 F300
X44.402 Y33 I12.052 J0
X44.091 Y33.31 I-0.31 J0
G1 X43.782
G18 G3 X43.472 Z-2.99 I0 K0.31
G1 Z5
Y32.69
Z-2 F150
Z-3.29
G2 X43.782 Z-3.6 I0.31 K0
G1 X44.091
G17 G3 X44.402 Y33 I0 J0.31
X20.298 Y33 I-12.052 J0 F300
X44.402 Y33 I12.052 J0
X44.091 Y33.31 I-0.31 J0
G1 X43.782
G18 G3 X43.472 Z-3.29 I0 K0.31
G1 Z5
Y32.69
Z-2.3 F150
Z-3.59
G2 X43.782 Z-3.9 I0.31 K0
G1 X44.091
G17 G3 X44.402 Y33 I0 J0.31
X20.298 Y33 I-12.052 J0 F300
X44.402 Y33 I12.052 J0
X44.091 Y33.31 I-0.31 J0
G1 X43.782
G18 G3 X43.472 Z-3.59 I0 K0.31
G1 Z5
Y32.69
Z-2.6 F150
Z-3.89
G2 X43.782 Z-4.2 I0.31 K0
G1 X44.091
G17 G3 X44.402 Y33 I0 J0.31
X20.298 Y33 I-12.052 J0 F300
X44.402 Y33 I12.052 J0
X44.091 Y33.31 I-0.31 J0
G1 X43.782
G18 G3 X43.472 Z-3.89 I0 K0.31
G1 Z5
Y32.69
Z-2.9 F150
Z-4.19
G2 X43.782 Z-4.5 I0.31 K0
G1 X44.091
G17 G3 X44.402 Y33 I0 J0.31
X20.298 Y33 I-12.052 J0 F300
X44.402 Y33 I12.052 J0
X44.091 Y33.31 I-0.31 J0
G1 X43.782
G18 G3 X43.472 Z-4.19 I0 K0.31
G1 Z5
Y32.69
Z-3.2 F150
Z-4.49
G2 X43.782 Z-4.8 I0.31 K0
G1 X44.091
G17 G3 X44.402 Y33 I0 J0.31
X20.298 Y33 I-12.052 J0 F300
X44.402 Y33 I12.052 J0
X44.091 Y33.31 I-0.31 J0
G1 X43.782
G18 G3 X43.472 Z-4.49 I0 K0.31
G1 Z5
Y32.69
Z-3.5 F150
Z-4.79
G2 X43.782 Z-5.1 I0.31 K0
G1 X44.091
G17 G3 X44.402 Y33 I0 J0.31
X20.298 Y33 I-12.052 J0 F300
X44.402 Y33 I12.052 J0
X44.091 Y33.31 I-0.31 J0
G1 X43.782
G18 G3 X43.472 Z-4.79 I0 K0.31
G1 Z5
Y32.69
Z-3.8 F150
Z-5.09
G2 X43.782 Z-5.4 I0.31 K0
G1 X44.091
G17 G3 X44.402 Y33 I0 J0.31
X20.298 Y33 I-12.052 J0 F300
X44.402 Y33 I12.052 J0
X44.091 Y33.31 I-0.31 J0
G1 X43.782
G18 G3 X43.472 Z-5.09 I0 K0.31
G1 Z5
Y32.69
Z-4.1 F150
Z-5.39
G2 X43.782 Z-5.7 I0.31 K0
G1 X44.091
G17 G3 X44.402 Y33 I0 J0.31
X20.298 Y33 I-12.052 J0 F300
X44.402 Y33 I12.052 J0
X44.091 Y33.31 I-0.31 J0
G1 X43.782
G18 G3 X43.472 Z-5.39 I0 K0.31
G1 Z5
Y32.69
Z-4.4 F150
Z-5.69
G2 X43.782 Z-6 I0.31 K0
G1 X44.091
G17 G3 X44.402 Y33 I0 J0.31
X20.298 Y33 I-12.052 J0 F300
X44.402 Y33 I12.052 J0
X44.091 Y33.31 I-0.31 J0
G1 X43.782
G18 G3 X43.472 Z-5.69 I0 K0.31
G1 Z5
Y32.69
Z-4.7 F150
Z-5.99
G2 X43.782 Z-6.3 I0.31 K0
G1 X44.091
G17 G3 X44.402 Y33 I0 J0.31
X20.298 Y33 I-12.052 J0 F300
X44.402 Y33 I12.052 J0
X44.091 Y33.31 I-0.31 J0
G1 X43.782
G18 G3 X43.472 Z-5.99 I0 K0.31
G1 Z5
Y32.69
Z-5 F150
Z-6.29
G2 X43.782 Z-6.6 I0.31 K0
G1 X44.091
G17 G3 X44.402 Y33 I0 J0.31
X20.298 Y33 I-12.052 J0 F300
X44.402 Y33 I12.052 J0
X44.091 Y33.31 I-0.31 J0
G1 X43.782
G18 G3 X43.472 Z-6.29 I0 K0.31
G1 Z5
Y32.69
Z-5.3 F150
Z-6.59
G2 X43.782 Z-6.9 I0.31 K0
G1 X44.091
G17 G3 X44.402 Y33 I0 J0.31
X20.298 Y33 I-12.052 J0 F300
X44.402 Y33 I12.052 J0
X44.091 Y33.31 I-0.31 J0
G1 X43.782
G18 G3 X43.472 Z-6.59 I0 K0.31
G1 Z5
Y32.69
Z-5.6 F150
Z-6.89
G2 X43.782 Z-7.2 I0.31 K0
G1 X44.091
G17 G3 X44.402 Y33 I0 J0.31
X20.298 Y33 I-12.052 J0 F300
X44.402 Y33 I12.052 J0
X44.091 Y33.31 I-0.31 J0
G1 X43.782
G18 G3 X43.472 Z-6.89 I0 K0.31
G1 Z5
Y32.69
Z-5.9 F150
Z-7.19
G2 X43.782 Z-7.5 I0.31 K0
G1 X44.091
G17 G3 X44.402 Y33 I0 J0.31
X20.298 Y33 I-12.052 J0 F300
X44.402 Y33 I12.052 J0
X44.091 Y33.31 I-0.31 J0
G1 X43.782
G18 G3 X43.472 Z-7.19 I0 K0.31
G1 Z5
Y32.69
Z-6.2 F150
Z-7.49
G2 X43.782 Z-7.8 I0.31 K0
G1 X44.091
G17 G3 X44.402 Y33 I0 J0.31
X20.298 Y33 I-12.052 J0 F300
X44.402 Y33 I12.052 J0
X44.091 Y33.31 I-0.31 J0
G1 X43.782
G18 G3 X43.472 Z-7.49 I0 K0.31
G1 Z5
Y32.69
Z-6.5 F150
Z-7.69
G2 X43.782 Z-8 I0.31 K0
G1 X44.091
G17 G3 X44.402 Y33 I0 J0.31
X20.298 Y33 I-12.052 J0 F300
X44.402 Y33 I12.052 J0
X44.091 Y33.31 I-0.31 J0
G1 X43.782
G18 G3 X43.472 Z-7.69 I0 K0.31
G1 Z10
G17
(When using Fusion 360 for Personal Use, the feedrate of)
(rapid moves is reduced to match the feedrate of cutting)
(moves, which can increase machining time. Unrestricted rapid)
(moves are available with a Fusion 360 Subscription.)

(2D Contour2)
G0 X17.428 Y42.29
G1 Z10 F300
Z5
Z1.3 F150
Z0.01
G18 G2 X17.738 Z-0.3 I0.31 K0
G1 X18.048
G17 G3 X18.358 Y42.6 I0 J0.31
X12.942 Y42.6 I-2.708 J0 F300
X18.358 Y42.6 I2.708 J0
X18.048 Y42.91 I-0.31 J0
G1 X17.738
G18 G3 X17.428 Z0.01 I0 K0.31
G1 Z5
Y42.29
Z1 F150
Z-0.29
G2 X17.738 Z-0.6 I0.31 K0
G1 X18.048
G17 G3 X18.358 Y42.6 I0 J0.31
X12.942 Y42.6 I-2.708 J0 F300
X18.358 Y42.6 I2.708 J0
X18.048 Y42.91 I-0.31 J0
G1 X17.738
G18 G3 X17.428 Z-0.29 I0 K0.31
G1 Z5
Y42.29
Z0.7 F150
Z-0.59
G2 X17.738 Z-0.9 I0.31 K0
G1 X18.048
G17 G3 X18.358 Y42.6 I0 J0.31
X12.942 Y42.6 I-2.708 J0 F300
X18.358 Y42.6 I2.708 J0
X18.048 Y42.91 I-0.31 J0
G1 X17.738
G18 G3 X17.428 Z-0.59 I0 K0.31
G1 Z5
Y42.29
Z0.4 F150
Z-0.89
G2 X17.738 Z-1.2 I0.31 K0
G1 X18.048
G17 G3 X18.358 Y42.6 I0 J0.31
X12.942 Y42.6 I-2.708 J0 F300
X18.358 Y42.6 I2.708 J0
X18.048 Y42.91 I-0.31 J0
G1 X17.738
G18 G3 X17.428 Z-0.89 I0 K0.31
G1 Z5
Y42.29
Z0.1 F150
Z-1.19
G2 X17.738 Z-1.5 I0.31 K0
G1 X18.048
G17 G3 X18.358 Y42.6 I0 J0.31
X12.942 Y42.6 I-2.708 J0 F300
X18.358 Y42.6 I2.708 J0
X18.048 Y42.91 I-0.31 J0
G1 X17.738
G18 G3 X17.428 Z-1.19 I0 K0.31
G1 Z5
Y42.29
Z-0.2 F150
Z-1.49
G2 X17.738 Z-1.8 I0.31 K0
G1 X18.048
G17 G3 X18.358 Y42.6 I0 J0.31
X12.942 Y42.6 I-2.708 J0 F300
X18.358 Y42.6 I2.708 J0
X18.048 Y42.91 I-0.31 J0
G1 X17.738
G18 G3 X17.428 Z-1.49 I0 K0.31
G1 Z5
Y42.29
Z-0.5 F150
Z-1.79
G2 X17.738 Z-2.1 I0.31 K0
G1 X18.048
G17 G3 X18.358 Y42.6 I0 J0.31
X12.942 Y42.6 I-2.708 J0 F300
X18.358 Y42.6 I2.708 J0
X18.048 Y42.91 I-0.31 J0
G1 X17.738
G18 G3 X17.428 Z-1.79 I0 K0.31
G1 Z5
Y42.29
Z-0.8 F150
Z-2.09
G2 X17.738 Z-2.4 I0.31 K0
G1 X18.048
G17 G3 X18.358 Y42.6 I0 J0.31
X12.942 Y42.6 I-2.708 J0 F300
X18.358 Y42.6 I2.708 J0
X18.048 Y42.91 I-0.31 J0
G1 X17.738
G18 G3 X17.428 Z-2.09 I0 K0.31
G1 Z5
Y42.29
Z-1.1 F150
Z-2.39
G2 X17.738 Z-2.7 I0.31 K0
G1 X18.048
G17 G3 X18.358 Y42.6 I0 J0.31
X12.942 Y42.6 I-2.708 J0 F300
X18.358 Y42.6 I2.708 J0
X18.048 Y42.91 I-0.31 J0
G1 X17.738
G18 G3 X17.428 Z-2.39 I0 K0.31
G1 Z5
Y42.29
Z-1.4 F150
Z-2.69
G2 X17.738 Z-3 I0.31 K0
G1 X18.048
G17 G3 X18.358 Y42.6 I0 J0.31
X12.942 Y42.6 I-2.708 J0 F300
X18.358 Y42.6 I2.708 J0
X18.048 Y42.91 I-0.31 J0
G1 X17.738
G18 G3 X17.428 Z-2.69 I0 K0.31
G1 Z5
Y42.29
Z-1.7 F150
Z-2.99
G2 X17.738 Z-3.3 I0.31 K0
G1 X18.048
G17 G3 X18.358 Y42.6 I0 J0.31
X12.942 Y42.6 I-2.708 J0 F300
X18.358 Y42.6 I2.708 J0
X18.048 Y42.91 I-0.31 J0
G1 X17.738
G18 G3 X17.428 Z-2.99 I0 K0.31
G1 Z5
Y42.29
Z-2 F150
Z-3.29
G2 X17.738 Z-3.6 I0.31 K0
G1 X18.048
G17 G3 X18.358 Y42.6 I0 J0.31
X12.942 Y42.6 I-2.708 J0 F300
X18.358 Y42.6 I2.708 J0
X18.048 Y42.91 I-0.31 J0
G1 X17.738
G18 G3 X17.428 Z-3.29 I0 K0.31
G1 Z5
Y42.29
Z-2.3 F150
Z-3.59
G2 X17.738 Z-3.9 I0.31 K0
G1 X18.048
G17 G3 X18.358 Y42.6 I0 J0.31
X12.942 Y42.6 I-2.708 J0 F300
X18.358 Y42.6 I2.708 J0
X18.048 Y42.91 I-0.31 J0
G1 X17.738
G18 G3 X17.428 Z-3.59 I0 K0.31
G1 Z5
Y42.29
Z-2.6 F150
Z-3.89
G2 X17.738 Z-4.2 I0.31 K0
G1 X18.048
G17 G3 X18.358 Y42.6 I0 J0.31
X12.942 Y42.6 I-2.708 J0 F300
X18.358 Y42.6 I2.708 J0
X18.048 Y42.91 I-0.31 J0
G1 X17.738
G18 G3 X17.428 Z-3.89 I0 K0.31
G1 Z5
Y42.29
Z-2.9 F150
Z-4.19
G2 X17.738 Z-4.5 I0.31 K0
G1 X18.048
G17 G3 X18.358 Y42.6 I0 J0.31
X12.942 Y42.6 I-2.708 J0 F300
X18.358 Y42.6 I2.708 J0
X18.048 Y42.91 I-0.31 J0
G1 X17.738
G18 G3 X17.428 Z-4.19 I0 K0.31
G1 Z5
Y42.29
Z-3.2 F150
Z-4.49
G2 X17.738 Z-4.8 I0.31 K0
G1 X18.048
G17 G3 X18.358 Y42.6 I0 J0.31
X12.942 Y42.6 I-2.708 J0 F300
X18.358 Y42.6 I2.708 J0
X18.048 Y42.91 I-0.31 J0
G1 X17.738
G18 G3 X17.428 Z-4.49 I0 K0.31
G1 Z5
Y42.29
Z-3.5 F150
Z-4.79
G2 X17.738 Z-5.1 I0.31 K0
G1 X18.048
G17 G3 X18.358 Y42.6 I0 J0.31
X12.942 Y42.6 I-2.708 J0 F300
X18.358 Y42.6 I2.708 J0
X18.048 Y42.91 I-0.31 J0
G1 X17.738
G18 G3 X17.428 Z-4.79 I0 K0.31
G1 Z5
Y42.29
Z-3.8 F150
Z-5.09
G2 X17.738 Z-5.4 I0.31 K0
G1 X18.048
G17 G3 X18.358 Y42.6 I0 J0.31
X12.942 Y42.6 I-2.708 J0 F300
X18.358 Y42.6 I2.708 J0
X18.048 Y42.91 I-0.31 J0
G1 X17.738
G18 G3 X17.428 Z-5.09 I0 K0.31
G1 Z5
Y42.29
Z-4.1 F150
Z-5.39
G2 X17.738 Z-5.7 I0.31 K0
G1 X18.048
G17 G3 X18.358 Y42.6 I0 J0.31
X12.942 Y42.6 I-2.708 J0 F300
X18.358 Y42.6 I2.708 J0
X18.048 Y42.91 I-0.31 J0
G1 X17.738
G18 G3 X17.428 Z-5.39 I0 K0.31
G1 Z5
Y42.29
Z-4.4 F150
Z-5.69
G2 X17.738 Z-6 I0.31 K0
G1 X18.048
G17 G3 X18.358 Y42.6 I0 J0.31
X12.942 Y42.6 I-2.708 J0 F300
X18.358 Y42.6 I2.708 J0
X18.048 Y42.91 I-0.31 J0
G1 X17.738
G18 G3 X17.428 Z-5.69 I0 K0.31
G1 Z5
Y42.29
Z-4.7 F150
Z-5.99
G2 X17.738 Z-6.3 I0.31 K0
G1 X18.048
G17 G3 X18.358 Y42.6 I0 J0.31
X12.942 Y42.6 I-2.708 J0 F300
X18.358 Y42.6 I2.708 J0
X18.048 Y42.91 I-0.31 J0
G1 X17.738
G18 G3 X17.428 Z-5.99 I0 K0.31
G1 Z5
Y42.29
Z-5 F150
Z-6.29
G2 X17.738 Z-6.6 I0.31 K0
G1 X18.048
G17 G3 X18.358 Y42.6 I0 J0.31
X12.942 Y42.6 I-2.708 J0 F300
X18.358 Y42.6 I2.708 J0
X18.048 Y42.91 I-0.31 J0
G1 X17.738
G18 G3 X17.428 Z-6.29 I0 K0.31
G1 Z5
Y42.29
Z-5.3 F150
Z-6.59
G2 X17.738 Z-6.9 I0.31 K0
G1 X18.048
G17 G3 X18.358 Y42.6 I0 J0.31
X12.942 Y42.6 I-2.708 J0 F300
X18.358 Y42.6 I2.708 J0
X18.048 Y42.91 I-0.31 J0
G1 X17.738
G18 G3 X17.428 Z-6.59 I0 K0.31
G1 Z5
Y42.29
Z-5.6 F150
Z-6.89
G2 X17.738 Z-7.2 I0.31 K0
G1 X18.048
G17 G3 X18.358 Y42.6 I0 J0.31
X12.942 Y42.6 I-2.708 J0 F300
X18.358 Y42.6 I2.708 J0
X18.048 Y42.91 I-0.31 J0
G1 X17.738
G18 G3 X17.428 Z-6.89 I0 K0.31
G1 Z5
Y42.29
Z-5.9 F150
Z-7.19
G2 X17.738 Z-7.5 I0.31 K0
G1 X18.048
G17 G3 X18.358 Y42.6 I0 J0.31
X12.942 Y42.6 I-2.708 J0 F300
X18.358 Y42.6 I2.708 J0
X18.048 Y42.91 I-0.31 J0
G1 X17.738
G18 G3 X17.428 Z-7.19 I0 K0.31
G1 Z5
Y42.29
Z-6.2 F150
Z-7.49
G2 X17.738 Z-7.8 I0.31 K0
G1 X18.048
G17 G3 X18.358 Y42.6 I0 J0.31
X12.942 Y42.6 I-2.708 J0 F300
X18.358 Y42.6 I2.708 J0
X18.048 Y42.91 I-0.31 J0
G1 X17.738
G18 G3 X17.428 Z-7.49 I0 K0.31
G1 Z5
Y42.29
Z-6.5 F150
Z-7.69
G2 X17.738 Z-8 I0.31 K0
G1 X18.048
G17 G3 X18.358 Y42.6 I0 J0.31
X12.942 Y42.6 I-2.708 J0 F300
X18.358 Y42.6 I2.708 J0
X18.048 Y42.91 I-0.31 J0
G1 X17.738
G18 G3 X17.428 Z-7.69 I0 K0.31
G1 Z10
G17

(Drill1)
G0 X32.35 Y4
Z10
Z5
Z4
Z1
G1 Z-1.3 F150
G0 Z4
Z0.7
G1 Z-1.6 F150
G0 Z4
Z0.4
G1 Z-1.9 F150
G0 Z4
Z0.1
G1 Z-2.2 F150
G0 Z4
Z-0.2
G1 Z-2.5 F150
G0 Z4
Z-0.5
G1 Z-2.8 F150
G0 Z4
Z-0.8
G1 Z-3.1 F150
G0 Z4
Z-1.1
G1 Z-3.4 F150
G0 Z4
Z-1.4
G1 Z-3.7 F150
G0 Z4
Z-1.7
G1 Z-4 F150
G0 Z4
Z-2
G1 Z-4.3 F150
G0 Z4
Z-2.3
G1 Z-4.6 F150
G0 Z4
Z-2.6
G1 Z-4.9 F150
G0 Z4
Z-2.9
G1 Z-5.2 F150
G0 Z4
Z-3.2
G1 Z-5.5 F150
G0 Z4
Z-3.5
G1 Z-5.8 F150
G0 Z4
Z-3.8
G1 Z-6.1 F150
G0 Z4
Z-4.1
G1 Z-6.4 F150
G0 Z4
Z-4.4
G1 Z-6.7 F150
G0 Z4
Z-4.7
G1 Z-7 F150
G0 Z4
Z-5
G1 Z-7.3 F150
G0 Z4
Z-5.3
G1 Z-7.6 F150
G0 Z4
Z-5.6
G1 Z-7.9 F150
G0 Z4
Z-5.9
G1 Z-8 F150
G4 P1.
G0 Z5
X7.232 Y47.501
Z4
Z1
G1 Z-1.3 F150
G0 Z4
Z0.7
G1 Z-1.6 F150
G0 Z4
Z0.4
G1 Z-1.9 F150
G0 Z4
Z0.1
G1 Z-2.2 F150
G0 Z4
Z-0.2
G1 Z-2.5 F150
G0 Z4
Z-0.5
G1 Z-2.8 F150
G0 Z4
Z-0.8
G1 Z-3.1 F150
G0 Z4
Z-1.1
G1 Z-3.4 F150
G0 Z4
Z-1.4
G1 Z-3.7 F150
G0 Z4
Z-1.7
G1 Z-4 F150
G0 Z4
Z-2
G1 Z-4.3 F150
G0 Z4
Z-2.3
G1 Z-4.6 F150
G0 Z4
Z-2.6
G1 Z-4.9 F150
G0 Z4
Z-2.9
G1 Z-5.2 F150
G0 Z4
Z-3.2
G1 Z-5.5 F150
G0 Z4
Z-3.5
G1 Z-5.8 F150
G0 Z4
Z-3.8
G1 Z-6.1 F150
G0 Z4
Z-4.1
G1 Z-6.4 F150
G0 Z4
Z-4.4
G1 Z-6.7 F150
G0 Z4
Z-4.7
G1 Z-7 F150
G0 Z4
Z-5
G1 Z-7.3 F150
G0 Z4
Z-5.3
G1 Z-7.6 F150
G0 Z4
Z-5.6
G1 Z-7.9 F150
G0 Z4
Z-5.9
G1 Z-8 F150
G4 P1.
G0 Z5
X57.48 Y47.497
Z4
Z1
G1 Z-1.3 F150
G0 Z4
Z0.7
G1 Z-1.6 F150
G0 Z4
Z0.4
G1 Z-1.9 F150
G0 Z4
Z0.1
G1 Z-2.2 F150
G0 Z4
Z-0.2
G1 Z-2.5 F150
G0 Z4
Z-0.5
G1 Z-2.8 F150
G0 Z4
Z-0.8
G1 Z-3.1 F150
G0 Z4
Z-1.1
G1 Z-3.4 F150
G0 Z4
Z-1.4
G1 Z-3.7 F150
G0 Z4
Z-1.7
G1 Z-4 F150
G0 Z4
Z-2
G1 Z-4.3 F150
G0 Z4
Z-2.3
G1 Z-4.6 F150
G0 Z4
Z-2.6
G1 Z-4.9 F150
G0 Z4
Z-2.9
G1 Z-5.2 F150
G0 Z4
Z-3.2
G1 Z-5.5 F150
G0 Z4
Z-3.5
G1 Z-5.8 F150
G0 Z4
Z-3.8
G1 Z-6.1 F150
G0 Z4
Z-4.1
G1 Z-6.4 F150
G0 Z4
Z-4.4
G1 Z-6.7 F150
G0 Z4
Z-4.7
G1 Z-7 F150
G0 Z4
Z-5
G1 Z-7.3 F150
G0 Z4
Z-5.3
G1 Z-7.6 F150
G0 Z4
Z-5.6
G1 Z-7.9 F150
G0 Z4
Z-5.9
G1 Z-8 F150
G4 P1.
G0 Z5
Z10
(When using Fusion 360 for Personal Use, the feedrate of)
(rapid moves is reduced to match the feedrate of cutting)
(moves, which can increase machining time. Unrestricted rapid)
(moves are available with a Fusion 360 Subscription.)

(2D Contour4)
X32.701 Y-2.48
G1 Z10 F300
Z5
Z1.3 F150
Z0.01
G19 G3 Y-2.17 Z-0.3 J0.31 K0
G1 Y-1.86
G17 G3 X32.391 Y-1.55 I-0.31 J0
G1 X0
G2 X-1.55 Y0 I0 J1.55
G1 Y32.981
G2 X66.25 Y33.084 I33.9 J0.019
G1 X66.331 Y0.004
G2 X64.781 Y-1.55 I-1.55 J-0.004
G1 X32.391
G3 X32.081 Y-1.86 I0 J-0.31 F300
G1 Y-2.17
G19 G2 Y-2.48 Z0.01 J0 K0.31
G1 Z5
X32.701
Z1 F150
Z-0.29
G3 Y-2.17 Z-0.6 J0.31 K0
G1 Y-1.86
G17 G3 X32.391 Y-1.55 I-0.31 J0
G1 X0
G2 X-1.55 Y0 I0 J1.55
G1 Y32.981
G2 X66.25 Y33.084 I33.9 J0.019
G1 X66.331 Y0.004
G2 X64.781 Y-1.55 I-1.55 J-0.004
G1 X32.391
G3 X32.081 Y-1.86 I0 J-0.31 F300
G1 Y-2.17
G19 G2 Y-2.48 Z-0.29 J0 K0.31
G1 Z5
X32.701
Z0.7 F150
Z-0.59
G3 Y-2.17 Z-0.9 J0.31 K0
G1 Y-1.86
G17 G3 X32.391 Y-1.55 I-0.31 J0
G1 X0
G2 X-1.55 Y0 I0 J1.55
G1 Y32.981
G2 X66.25 Y33.084 I33.9 J0.019
G1 X66.331 Y0.004
G2 X64.781 Y-1.55 I-1.55 J-0.004
G1 X32.391
G3 X32.081 Y-1.86 I0 J-0.31 F300
G1 Y-2.17
G19 G2 Y-2.48 Z-0.59 J0 K0.31
G1 Z5
X32.701
Z0.4 F150
Z-0.89
G3 Y-2.17 Z-1.2 J0.31 K0
G1 Y-1.86
G17 G3 X32.391 Y-1.55 I-0.31 J0
G1 X0
G2 X-1.55 Y0 I0 J1.55
G1 Y32.981
G2 X66.25 Y33.084 I33.9 J0.019
G1 X66.331 Y0.004
G2 X64.781 Y-1.55 I-1.55 J-0.004
G1 X32.391
G3 X32.081 Y-1.86 I0 J-0.31 F300
G1 Y-2.17
G19 G2 Y-2.48 Z-0.89 J0 K0.31
G1 Z5
X32.701
Z0.1 F150
Z-1.19
G3 Y-2.17 Z-1.5 J0.31 K0
G1 Y-1.86
G17 G3 X32.391 Y-1.55 I-0.31 J0
G1 X0
G2 X-1.55 Y0 I0 J1.55
G1 Y32.981
G2 X66.25 Y33.084 I33.9 J0.019
G1 X66.331 Y0.004
G2 X64.781 Y-1.55 I-1.55 J-0.004
G1 X32.391
G3 X32.081 Y-1.86 I0 J-0.31 F300
G1 Y-2.17
G19 G2 Y-2.48 Z-1.19 J0 K0.31
G1 Z5
X32.701
Z-0.2 F150
Z-1.49
G3 Y-2.17 Z-1.8 J0.31 K0
G1 Y-1.86
G17 G3 X32.391 Y-1.55 I-0.31 J0
G1 X0
G2 X-1.55 Y0 I0 J1.55
G1 Y32.981
G2 X66.25 Y33.084 I33.9 J0.019
G1 X66.331 Y0.004
G2 X64.781 Y-1.55 I-1.55 J-0.004
G1 X32.391
G3 X32.081 Y-1.86 I0 J-0.31 F300
G1 Y-2.17
G19 G2 Y-2.48 Z-1.49 J0 K0.31
G1 Z5
X32.701
Z-0.5 F150
Z-1.79
G3 Y-2.17 Z-2.1 J0.31 K0
G1 Y-1.86
G17 G3 X32.391 Y-1.55 I-0.31 J0
G1 X0
G2 X-1.55 Y0 I0 J1.55
G1 Y32.981
G2 X66.25 Y33.084 I33.9 J0.019
G1 X66.331 Y0.004
G2 X64.781 Y-1.55 I-1.55 J-0.004
G1 X32.391
G3 X32.081 Y-1.86 I0 J-0.31 F300
G1 Y-2.17
G19 G2 Y-2.48 Z-1.79 J0 K0.31
G1 Z5
X32.701
Z-0.8 F150
Z-2.09
G3 Y-2.17 Z-2.4 J0.31 K0
G1 Y-1.86
G17 G3 X32.391 Y-1.55 I-0.31 J0
G1 X0
G2 X-1.55 Y0 I0 J1.55
G1 Y32.981
G2 X66.25 Y33.084 I33.9 J0.019
G1 X66.331 Y0.004
G2 X64.781 Y-1.55 I-1.55 J-0.004
G1 X32.391
G3 X32.081 Y-1.86 I0 J-0.31 F300
G1 Y-2.17
G19 G2 Y-2.48 Z-2.09 J0 K0.31
G1 Z5
X32.701
Z-1.1 F150
Z-2.39
G3 Y-2.17 Z-2.7 J0.31 K0
G1 Y-1.86
G17 G3 X32.391 Y-1.55 I-0.31 J0
G1 X0
G2 X-1.55 Y0 I0 J1.55
G1 Y32.981
G2 X66.25 Y33.084 I33.9 J0.019
G1 X66.331 Y0.004
G2 X64.781 Y-1.55 I-1.55 J-0.004
G1 X32.391
G3 X32.081 Y-1.86 I0 J-0.31 F300
G1 Y-2.17
G19 G2 Y-2.48 Z-2.39 J0 K0.31
G1 Z5
X32.701
Z-1.4 F150
Z-2.69
G3 Y-2.17 Z-3 J0.31 K0
G1 Y-1.86
G17 G3 X32.391 Y-1.55 I-0.31 J0
G1 X0
G2 X-1.55 Y0 I0 J1.55
G1 Y32.981
G2 X66.25 Y33.084 I33.9 J0.019
G1 X66.331 Y0.004
G2 X64.781 Y-1.55 I-1.55 J-0.004
G1 X32.391
G3 X32.081 Y-1.86 I0 J-0.31 F300
G1 Y-2.17
G19 G2 Y-2.48 Z-2.69 J0 K0.31
G1 Z5
X32.701
Z-1.7 F150
Z-2.99
G3 Y-2.17 Z-3.3 J0.31 K0
G1 Y-1.86
G17 G3 X32.391 Y-1.55 I-0.31 J0
G1 X0
G2 X-1.55 Y0 I0 J1.55
G1 Y32.981
G2 X66.25 Y33.084 I33.9 J0.019
G1 X66.331 Y0.004
G2 X64.781 Y-1.55 I-1.55 J-0.004
G1 X32.391
G3 X32.081 Y-1.86 I0 J-0.31 F300
G1 Y-2.17
G19 G2 Y-2.48 Z-2.99 J0 K0.31
G1 Z5
X32.701
Z-2 F150
Z-3.29
G3 Y-2.17 Z-3.6 J0.31 K0
G1 Y-1.86
G17 G3 X32.391 Y-1.55 I-0.31 J0
G1 X0
G2 X-1.55 Y0 I0 J1.55
G1 Y32.981
G2 X66.25 Y33.084 I33.9 J0.019
G1 X66.331 Y0.004
G2 X64.781 Y-1.55 I-1.55 J-0.004
G1 X32.391
G3 X32.081 Y-1.86 I0 J-0.31 F300
G1 Y-2.17
G19 G2 Y-2.48 Z-3.29 J0 K0.31
G1 Z5
X32.701
Z-2.3 F150
Z-3.59
G3 Y-2.17 Z-3.9 J0.31 K0
G1 Y-1.86
G17 G3 X32.391 Y-1.55 I-0.31 J0
G1 X0
G2 X-1.55 Y0 I0 J1.55
G1 Y32.981
G2 X66.25 Y33.084 I33.9 J0.019
G1 X66.331 Y0.004
G2 X64.781 Y-1.55 I-1.55 J-0.004
G1 X32.391
G3 X32.081 Y-1.86 I0 J-0.31 F300
G1 Y-2.17
G19 G2 Y-2.48 Z-3.59 J0 K0.31
G1 Z5
X32.701
Z-2.6 F150
Z-3.89
G3 Y-2.17 Z-4.2 J0.31 K0
G1 Y-1.86
G17 G3 X32.391 Y-1.55 I-0.31 J0
G1 X0
G2 X-1.55 Y0 I0 J1.55
G1 Y32.981
G2 X66.25 Y33.084 I33.9 J0.019
G1 X66.331 Y0.004
G2 X64.781 Y-1.55 I-1.55 J-0.004
G1 X32.391
G3 X32.081 Y-1.86 I0 J-0.31 F300
G1 Y-2.17
G19 G2 Y-2.48 Z-3.89 J0 K0.31
G1 Z5
X32.701
Z-2.9 F150
Z-4.19
G3 Y-2.17 Z-4.5 J0.31 K0
G1 Y-1.86
G17 G3 X32.391 Y-1.55 I-0.31 J0
G1 X0
G2 X-1.55 Y0 I0 J1.55
G1 Y32.981
G2 X66.25 Y33.084 I33.9 J0.019
G1 X66.331 Y0.004
G2 X64.781 Y-1.55 I-1.55 J-0.004
G1 X32.391
G3 X32.081 Y-1.86 I0 J-0.31 F300
G1 Y-2.17
G19 G2 Y-2.48 Z-4.19 J0 K0.31
G1 Z5
X32.701
Z-3.2 F150
Z-4.49
G3 Y-2.17 Z-4.8 J0.31 K0
G1 Y-1.86
G17 G3 X32.391 Y-1.55 I-0.31 J0
G1 X0
G2 X-1.55 Y0 I0 J1.55
G1 Y32.981
G2 X66.25 Y33.084 I33.9 J0.019
G1 X66.331 Y0.004
G2 X64.781 Y-1.55 I-1.55 J-0.004
G1 X32.391
G3 X32.081 Y-1.86 I0 J-0.31 F300
G1 Y-2.17
G19 G2 Y-2.48 Z-4.49 J0 K0.31
G1 Z5
X32.701
Z-3.5 F150
Z-4.79
G3 Y-2.17 Z-5.1 J0.31 K0
G1 Y-1.86
G17 G3 X32.391 Y-1.55 I-0.31 J0
G1 X0
G2 X-1.55 Y0 I0 J1.55
G1 Y32.981
G2 X66.25 Y33.084 I33.9 J0.019
G1 X66.331 Y0.004
G2 X64.781 Y-1.55 I-1.55 J-0.004
G1 X32.391
G3 X32.081 Y-1.86 I0 J-0.31 F300
G1 Y-2.17
G19 G2 Y-2.48 Z-4.79 J0 K0.31
G1 Z5
X32.701
Z-3.8 F150
Z-5.09
G3 Y-2.17 Z-5.4 J0.31 K0
G1 Y-1.86
G17 G3 X32.391 Y-1.55 I-0.31 J0
G1 X0
G2 X-1.55 Y0 I0 J1.55
G1 Y32.981
G2 X66.25 Y33.084 I33.9 J0.019
G1 X66.331 Y0.004
G2 X64.781 Y-1.55 I-1.55 J-0.004
G1 X32.391
G3 X32.081 Y-1.86 I0 J-0.31 F300
G1 Y-2.17
G19 G2 Y-2.48 Z-5.09 J0 K0.31
G1 Z5
X32.701
Z-4.1 F150
Z-5.39
G3 Y-2.17 Z-5.7 J0.31 K0
G1 Y-1.86
G17 G3 X32.391 Y-1.55 I-0.31 J0
G1 X0
G2 X-1.55 Y0 I0 J1.55
G1 Y32.981
G2 X66.25 Y33.084 I33.9 J0.019
G1 X66.331 Y0.004
G2 X64.781 Y-1.55 I-1.55 J-0.004
G1 X32.391
G3 X32.081 Y-1.86 I0 J-0.31 F300
G1 Y-2.17
G19 G2 Y-2.48 Z-5.39 J0 K0.31
G1 Z5
X32.701
Z-4.4 F150
Z-5.69
G3 Y-2.17 Z-6 J0.31 K0
G1 Y-1.86
G17 G3 X32.391 Y-1.55 I-0.31 J0
G1 X0
G2 X-1.55 Y0 I0 J1.55
G1 Y32.981
G2 X66.25 Y33.084 I33.9 J0.019
G1 X66.331 Y0.004
G2 X64.781 Y-1.55 I-1.55 J-0.004
G1 X32.391
G3 X32.081 Y-1.86 I0 J-0.31 F300
G1 Y-2.17
G19 G2 Y-2.48 Z-5.69 J0 K0.31
G1 Z5
X32.701
Z-4.7 F150
Z-5.99
G3 Y-2.17 Z-6.3 J0.31 K0
G1 Y-1.86
G17 G3 X32.391 Y-1.55 I-0.31 J0
G1 X0
G2 X-1.55 Y0 I0 J1.55
G1 Y32.981
G2 X66.25 Y33.084 I33.9 J0.019
G1 X66.331 Y0.004
G2 X64.781 Y-1.55 I-1.55 J-0.004
G1 X32.391
G3 X32.081 Y-1.86 I0 J-0.31 F300
G1 Y-2.17
G19 G2 Y-2.48 Z-5.99 J0 K0.31
G1 Z5
X32.701
Z-5 F150
Z-6.29
G3 Y-2.17 Z-6.6 J0.31 K0
G1 Y-1.86
G17 G3 X32.391 Y-1.55 I-0.31 J0
G1 X0
G2 X-1.55 Y0 I0 J1.55
G1 Y32.981
G2 X66.25 Y33.084 I33.9 J0.019
G1 X66.331 Y0.004
G2 X64.781 Y-1.55 I-1.55 J-0.004
G1 X32.391
G3 X32.081 Y-1.86 I0 J-0.31 F300
G1 Y-2.17
G19 G2 Y-2.48 Z-6.29 J0 K0.31
G1 Z5
X32.701
Z-5.3 F150
Z-6.59
G3 Y-2.17 Z-6.9 J0.31 K0
G1 Y-1.86
G17 G3 X32.391 Y-1.55 I-0.31 J0
G1 X0
G2 X-1.55 Y0 I0 J1.55
G1 Y32.981
G2 X66.25 Y33.084 I33.9 J0.019
G1 X66.331 Y0.004
G2 X64.781 Y-1.55 I-1.55 J-0.004
G1 X32.391
G3 X32.081 Y-1.86 I0 J-0.31 F300
G1 Y-2.17
G19 G2 Y-2.48 Z-6.59 J0 K0.31
G1 Z5
X32.701
Z-5.6 F150
Z-6.89
G3 Y-2.17 Z-7.2 J0.31 K0
G1 Y-1.86
G17 G3 X32.391 Y-1.55 I-0.31 J0
G1 X0
G2 X-1.55 Y0 I0 J1.55
G1 Y32.981
G2 X66.25 Y33.084 I33.9 J0.019
G1 X66.331 Y0.004
G2 X64.781 Y-1.55 I-1.55 J-0.004
G1 X32.391
G3 X32.081 Y-1.86 I0 J-0.31 F300
G1 Y-2.17
G19 G2 Y-2.48 Z-6.89 J0 K0.31
G1 Z5
X32.701
Z-5.9 F150
Z-7.19
G3 Y-2.17 Z-7.5 J0.31 K0
G1 Y-1.86
G17 G3 X32.391 Y-1.55 I-0.31 J0
G1 X0
G2 X-1.55 Y0 I0 J1.55
G1 Y32.981
G2 X66.25 Y33.084 I33.9 J0.019
G1 X66.331 Y0.004
G2 X64.781 Y-1.55 I-1.55 J-0.004
G1 X32.391
G3 X32.081 Y-1.86 I0 J-0.31 F300
G1 Y-2.17
G19 G2 Y-2.48 Z-7.19 J0 K0.31
G1 Z5
X32.701
Z-6.2 F150
Z-7.49
G3 Y-2.17 Z-7.8 J0.31 K0
G1 Y-1.86
G17 G3 X32.391 Y-1.55 I-0.31 J0
G1 X0
G2 X-1.55 Y0 I0 J1.55
G1 Y32.981
G2 X66.25 Y33.084 I33.9 J0.019
G1 X66.331 Y0.004
G2 X64.781 Y-1.55 I-1.55 J-0.004
G1 X32.391
G3 X32.081 Y-1.86 I0 J-0.31 F300
G1 Y-2.17
G19 G2 Y-2.48 Z-7.49 J0 K0.31
G1 Z5
X32.701
Z-6.5 F150
Z-7.69
G3 Y-2.17 Z-8 J0.31 K0
G1 Y-1.86
G17 G3 X32.391 Y-1.55 I-0.31 J0
G1 X0
G2 X-1.55 Y0 I0 J1.55
G1 Y32.981
G2 X66.25 Y33.084 I33.9 J0.019
G1 X66.331 Y0.004
G2 X64.781 Y-1.55 I-1.55 J-0.004
G1 X32.391
G3 X32.081 Y-1.86 I0 J-0.31 F300
G1 Y-2.17
G19 G2 Y-2.48 Z-7.69 J0 K0.31
G1 Z10
G17
M9
M5
M30
