(base_bearing_retainer)
(Machine)
(  vendor: Autodesk)
(  model: Generic 3-axis)
(  description: This machine has XY axis on the Table and Z axis on the Head)
(T1 D=4.76 CR=0 - ZMIN=-4.5 - flat end mill)
G90 G94
G17
G21
(-Attention- Property Safe Retracts is set to Clearance Height.)
(Ensure the clearance height will clear the part and or fixtures.)
(Raise the Z-axis to a safe height before starting the program.)

(Drill2)
T1
S18000 M3
G17 G90 G94
G54
M8
G0 X90 Y10
Z15
G0 Z5
Z4
Z1
G1 Z-1.3 F50
G0 Z4
Z0.7
G1 Z-1.6 F50
G0 Z4
Z0.4
G1 Z-1.9 F50
G0 Z4
Z0.1
G1 Z-2.2 F50
G0 Z4
Z-0.2
G1 Z-2.5 F50
G0 Z4
Z-0.5
G1 Z-2.8 F50
G0 Z4
Z-0.8
G1 Z-3.1 F50
G0 Z4
Z-1.1
G1 Z-3.4 F50
G0 Z4
Z-1.4
G1 Z-3.7 F50
G0 Z4
Z-1.7
G1 Z-4 F50
G0 Z4
Z-2
G1 Z-4.3 F50
G0 Z4
Z-2.3
G1 Z-4.5 F50
G0 Z5
Y30
Z4
Z1
G1 Z-1.3 F50
G0 Z4
Z0.7
G1 Z-1.6 F50
G0 Z4
Z0.4
G1 Z-1.9 F50
G0 Z4
Z0.1
G1 Z-2.2 F50
G0 Z4
Z-0.2
G1 Z-2.5 F50
G0 Z4
Z-0.5
G1 Z-2.8 F50
G0 Z4
Z-0.8
G1 Z-3.1 F50
G0 Z4
Z-1.1
G1 Z-3.4 F50
G0 Z4
Z-1.4
G1 Z-3.7 F50
G0 Z4
Z-1.7
G1 Z-4 F50
G0 Z4
Z-2
G1 Z-4.3 F50
G0 Z4
Z-2.3
G1 Z-4.5 F50
G0 Z5
Y70
Z4
Z1
G1 Z-1.3 F50
G0 Z4
Z0.7
G1 Z-1.6 F50
G0 Z4
Z0.4
G1 Z-1.9 F50
G0 Z4
Z0.1
G1 Z-2.2 F50
G0 Z4
Z-0.2
G1 Z-2.5 F50
G0 Z4
Z-0.5
G1 Z-2.8 F50
G0 Z4
Z-0.8
G1 Z-3.1 F50
G0 Z4
Z-1.1
G1 Z-3.4 F50
G0 Z4
Z-1.4
G1 Z-3.7 F50
G0 Z4
Z-1.7
G1 Z-4 F50
G0 Z4
Z-2
G1 Z-4.3 F50
G0 Z4
Z-2.3
G1 Z-4.5 F50
G0 Z5
Y90
Z4
Z1
G1 Z-1.3 F50
G0 Z4
Z0.7
G1 Z-1.6 F50
G0 Z4
Z0.4
G1 Z-1.9 F50
G0 Z4
Z0.1
G1 Z-2.2 F50
G0 Z4
Z-0.2
G1 Z-2.5 F50
G0 Z4
Z-0.5
G1 Z-2.8 F50
G0 Z4
Z-0.8
G1 Z-3.1 F50
G0 Z4
Z-1.1
G1 Z-3.4 F50
G0 Z4
Z-1.4
G1 Z-3.7 F50
G0 Z4
Z-1.7
G1 Z-4 F50
G0 Z4
Z-2
G1 Z-4.3 F50
G0 Z4
Z-2.3
G1 Z-4.5 F50
G0 Z5
X10
Z4
Z1
G1 Z-1.3 F50
G0 Z4
Z0.7
G1 Z-1.6 F50
G0 Z4
Z0.4
G1 Z-1.9 F50
G0 Z4
Z0.1
G1 Z-2.2 F50
G0 Z4
Z-0.2
G1 Z-2.5 F50
G0 Z4
Z-0.5
G1 Z-2.8 F50
G0 Z4
Z-0.8
G1 Z-3.1 F50
G0 Z4
Z-1.1
G1 Z-3.4 F50
G0 Z4
Z-1.4
G1 Z-3.7 F50
G0 Z4
Z-1.7
G1 Z-4 F50
G0 Z4
Z-2
G1 Z-4.3 F50
G0 Z4
Z-2.3
G1 Z-4.5 F50
G0 Z5
Y70
Z4
Z1
G1 Z-1.3 F50
G0 Z4
Z0.7
G1 Z-1.6 F50
G0 Z4
Z0.4
G1 Z-1.9 F50
G0 Z4
Z0.1
G1 Z-2.2 F50
G0 Z4
Z-0.2
G1 Z-2.5 F50
G0 Z4
Z-0.5
G1 Z-2.8 F50
G0 Z4
Z-0.8
G1 Z-3.1 F50
G0 Z4
Z-1.1
G1 Z-3.4 F50
G0 Z4
Z-1.4
G1 Z-3.7 F50
G0 Z4
Z-1.7
G1 Z-4 F50
G0 Z4
Z-2
G1 Z-4.3 F50
G0 Z4
Z-2.3
G1 Z-4.5 F50
G0 Z5
Y30
Z4
Z1
G1 Z-1.3 F50
G0 Z4
Z0.7
G1 Z-1.6 F50
G0 Z4
Z0.4
G1 Z-1.9 F50
G0 Z4
Z0.1
G1 Z-2.2 F50
G0 Z4
Z-0.2
G1 Z-2.5 F50
G0 Z4
Z-0.5
G1 Z-2.8 F50
G0 Z4
Z-0.8
G1 Z-3.1 F50
G0 Z4
Z-1.1
G1 Z-3.4 F50
G0 Z4
Z-1.4
G1 Z-3.7 F50
G0 Z4
Z-1.7
G1 Z-4 F50
G0 Z4
Z-2
G1 Z-4.3 F50
G0 Z4
Z-2.3
G1 Z-4.5 F50
G0 Z5
Y10
Z4
Z1
G1 Z-1.3 F50
G0 Z4
Z0.7
G1 Z-1.6 F50
G0 Z4
Z0.4
G1 Z-1.9 F50
G0 Z4
Z0.1
G1 Z-2.2 F50
G0 Z4
Z-0.2
G1 Z-2.5 F50
G0 Z4
Z-0.5
G1 Z-2.8 F50
G0 Z4
Z-0.8
G1 Z-3.1 F50
G0 Z4
Z-1.1
G1 Z-3.4 F50
G0 Z4
Z-1.4
G1 Z-3.7 F50
G0 Z4
Z-1.7
G1 Z-4 F50
G0 Z4
Z-2
G1 Z-4.3 F50
G0 Z4
Z-2.3
G1 Z-4.5 F50
G0 Z5
Z15
(When using Fusion for Personal Use, the feedrate of rapid)
(moves is reduced to match the feedrate of cutting moves,)
(which can increase machining time. Unrestricted rapid moves)
(are available with a Fusion Subscription.)

(2D Contour2)
G0 X78.942 Y49.524
G1 Z15 F150
Z5
Z0.952 F50
Z0.176
G18 G2 X79.418 Z-0.3 I0.476 K0 F150
G1 X79.894
G17 G3 X80.37 Y50 I0 J0.476
X19.63 Y50 I-30.37 J0
X80.37 Y50 I30.37 J0
X79.894 Y50.476 I-0.476 J0
G1 X79.418
G18 G3 X78.942 Z0.176 I0 K0.476
G1 Z5
Y49.524
Z0.652 F50
Z-0.124
G2 X79.418 Z-0.6 I0.476 K0 F150
G1 X79.894
G17 G3 X80.37 Y50 I0 J0.476
X19.63 Y50 I-30.37 J0
X80.37 Y50 I30.37 J0
X79.894 Y50.476 I-0.476 J0
G1 X79.418
G18 G3 X78.942 Z-0.124 I0 K0.476
G1 Z5
Y49.524
Z0.352 F50
Z-0.424
G2 X79.418 Z-0.9 I0.476 K0 F150
G1 X79.894
G17 G3 X80.37 Y50 I0 J0.476
X19.63 Y50 I-30.37 J0
X80.37 Y50 I30.37 J0
X79.894 Y50.476 I-0.476 J0
G1 X79.418
G18 G3 X78.942 Z-0.424 I0 K0.476
G1 Z5
Y49.524
Z0.052 F50
Z-0.724
G2 X79.418 Z-1.2 I0.476 K0 F150
G1 X79.894
G17 G3 X80.37 Y50 I0 J0.476
X19.63 Y50 I-30.37 J0
X80.37 Y50 I30.37 J0
X79.894 Y50.476 I-0.476 J0
G1 X79.418
G18 G3 X78.942 Z-0.724 I0 K0.476
G1 Z5
Y49.524
Z-0.248 F50
Z-1.024
G2 X79.418 Z-1.5 I0.476 K0 F150
G1 X79.894
G17 G3 X80.37 Y50 I0 J0.476
X19.63 Y50 I-30.37 J0
X80.37 Y50 I30.37 J0
X79.894 Y50.476 I-0.476 J0
G1 X79.418
G18 G3 X78.942 Z-1.024 I0 K0.476
G1 Z5
Y49.524
Z-0.548 F50
Z-1.324
G2 X79.418 Z-1.8 I0.476 K0 F150
G1 X79.894
G17 G3 X80.37 Y50 I0 J0.476
X19.63 Y50 I-30.37 J0
X80.37 Y50 I30.37 J0
X79.894 Y50.476 I-0.476 J0
G1 X79.418
G18 G3 X78.942 Z-1.324 I0 K0.476
G1 Z5
Y49.524
Z-0.848 F50
Z-1.624
G2 X79.418 Z-2.1 I0.476 K0 F150
G1 X79.894
G17 G3 X80.37 Y50 I0 J0.476
X19.63 Y50 I-30.37 J0
X80.37 Y50 I30.37 J0
X79.894 Y50.476 I-0.476 J0
G1 X79.418
G18 G3 X78.942 Z-1.624 I0 K0.476
G1 Z5
Y49.524
Z-1.148 F50
Z-1.924
G2 X79.418 Z-2.4 I0.476 K0 F150
G1 X79.894
G17 G3 X80.37 Y50 I0 J0.476
X19.63 Y50 I-30.37 J0
X80.37 Y50 I30.37 J0
X79.894 Y50.476 I-0.476 J0
G1 X79.418
G18 G3 X78.942 Z-1.924 I0 K0.476
G1 Z5
Y49.524
Z-1.448 F50
Z-2.224
G2 X79.418 Z-2.7 I0.476 K0 F150
G1 X79.894
G17 G3 X80.37 Y50 I0 J0.476
X19.63 Y50 I-30.37 J0
X80.37 Y50 I30.37 J0
X79.894 Y50.476 I-0.476 J0
G1 X79.418
G18 G3 X78.942 Z-2.224 I0 K0.476
G1 Z5
Y49.524
Z-1.748 F50
Z-2.524
G2 X79.418 Z-3 I0.476 K0 F150
G1 X79.894
G17 G3 X80.37 Y50 I0 J0.476
X19.63 Y50 I-30.37 J0
X80.37 Y50 I30.37 J0
X79.894 Y50.476 I-0.476 J0
G1 X79.418
G18 G3 X78.942 Z-2.524 I0 K0.476
G1 Z5
Y49.524
Z-2.048 F50
Z-2.824
G2 X79.418 Z-3.3 I0.476 K0 F150
G1 X79.894
G17 G3 X80.37 Y50 I0 J0.476
X19.63 Y50 I-30.37 J0
X80.37 Y50 I30.37 J0
X79.894 Y50.476 I-0.476 J0
G1 X79.418
G18 G3 X78.942 Z-2.824 I0 K0.476
G1 Z5
Y49.524
Z-2.348 F50
Z-3.124
G2 X79.418 Z-3.6 I0.476 K0 F150
G1 X79.894
G17 G3 X80.37 Y50 I0 J0.476
X19.63 Y50 I-30.37 J0
X80.37 Y50 I30.37 J0
X79.894 Y50.476 I-0.476 J0
G1 X79.418
G18 G3 X78.942 Z-3.124 I0 K0.476
G1 Z5
Y49.524
Z-2.648 F50
Z-3.424
G2 X79.418 Z-3.9 I0.476 K0 F150
G1 X79.894
G17 G3 X80.37 Y50 I0 J0.476
X19.63 Y50 I-30.37 J0
X80.37 Y50 I30.37 J0
X79.894 Y50.476 I-0.476 J0
G1 X79.418
G18 G3 X78.942 Z-3.424 I0 K0.476
G1 Z5
Y49.524
Z-2.948 F50
Z-3.724
G2 X79.418 Z-4.2 I0.476 K0 F150
G1 X79.894
G17 G3 X80.37 Y50 I0 J0.476
X19.63 Y50 I-30.37 J0
X80.37 Y50 I30.37 J0
X79.894 Y50.476 I-0.476 J0
G1 X79.418
G18 G3 X78.942 Z-3.724 I0 K0.476
G1 Z5
Y49.524
Z-3.248 F50
Z-4.024
G2 X79.418 Z-4.5 I0.476 K0 F150
G1 X79.894
G17 G3 X80.37 Y50 I0 J0.476
X19.63 Y50 I-30.37 J0
X80.37 Y50 I30.37 J0
X79.894 Y50.476 I-0.476 J0
G1 X79.418
G18 G3 X78.942 Z-4.024 I0 K0.476
G1 Z5
X103.808
Z0.952 F50
Z0.176
G3 X103.332 Z-0.3 I-0.476 K0 F150
G1 X102.856
G17 G3 X102.38 Y50 I0 J-0.476
G1 Y0
G2 X100 Y-2.38 I-2.38 J0
G1 X0
G2 X-2.38 Y0 I0 J2.38
G1 Y100
G2 X0 Y102.38 I2.38 J0
G1 X100
G2 X102.38 Y100 I0 J-2.38
G1 Y50
G3 X102.856 Y49.524 I0.476 J0
G1 X103.332
G18 G2 X103.808 Z0.176 I0 K0.476
G1 Z5
Y50.476
Z0.652 F50
Z-0.124
G3 X103.332 Z-0.6 I-0.476 K0 F150
G1 X102.856
G17 G3 X102.38 Y50 I0 J-0.476
G1 Y0
G2 X100 Y-2.38 I-2.38 J0
G1 X0
G2 X-2.38 Y0 I0 J2.38
G1 Y100
G2 X0 Y102.38 I2.38 J0
G1 X100
G2 X102.38 Y100 I0 J-2.38
G1 Y50
G3 X102.856 Y49.524 I0.476 J0
G1 X103.332
G18 G2 X103.808 Z-0.124 I0 K0.476
G1 Z5
Y50.476
Z0.352 F50
Z-0.424
G3 X103.332 Z-0.9 I-0.476 K0 F150
G1 X102.856
G17 G3 X102.38 Y50 I0 J-0.476
G1 Y0
G2 X100 Y-2.38 I-2.38 J0
G1 X0
G2 X-2.38 Y0 I0 J2.38
G1 Y100
G2 X0 Y102.38 I2.38 J0
G1 X100
G2 X102.38 Y100 I0 J-2.38
G1 Y50
G3 X102.856 Y49.524 I0.476 J0
G1 X103.332
G18 G2 X103.808 Z-0.424 I0 K0.476
G1 Z5
Y50.476
Z0.052 F50
Z-0.724
G3 X103.332 Z-1.2 I-0.476 K0 F150
G1 X102.856
G17 G3 X102.38 Y50 I0 J-0.476
G1 Y0
G2 X100 Y-2.38 I-2.38 J0
G1 X0
G2 X-2.38 Y0 I0 J2.38
G1 Y100
G2 X0 Y102.38 I2.38 J0
G1 X100
G2 X102.38 Y100 I0 J-2.38
G1 Y50
G3 X102.856 Y49.524 I0.476 J0
G1 X103.332
G18 G2 X103.808 Z-0.724 I0 K0.476
G1 Z5
Y50.476
Z-0.248 F50
Z-1.024
G3 X103.332 Z-1.5 I-0.476 K0 F150
G1 X102.856
G17 G3 X102.38 Y50 I0 J-0.476
G1 Y0
G2 X100 Y-2.38 I-2.38 J0
G1 X0
G2 X-2.38 Y0 I0 J2.38
G1 Y100
G2 X0 Y102.38 I2.38 J0
G1 X100
G2 X102.38 Y100 I0 J-2.38
G1 Y50
G3 X102.856 Y49.524 I0.476 J0
G1 X103.332
G18 G2 X103.808 Z-1.024 I0 K0.476
G1 Z5
Y50.476
Z-0.548 F50
Z-1.324
G3 X103.332 Z-1.8 I-0.476 K0 F150
G1 X102.856
G17 G3 X102.38 Y50 I0 J-0.476
G1 Y0
G2 X100 Y-2.38 I-2.38 J0
G1 X0
G2 X-2.38 Y0 I0 J2.38
G1 Y100
G2 X0 Y102.38 I2.38 J0
G1 X100
G2 X102.38 Y100 I0 J-2.38
G1 Y50
G3 X102.856 Y49.524 I0.476 J0
G1 X103.332
G18 G2 X103.808 Z-1.324 I0 K0.476
G1 Z5
Y50.476
Z-0.848 F50
Z-1.624
G3 X103.332 Z-2.1 I-0.476 K0 F150
G1 X102.856
G17 G3 X102.38 Y50 I0 J-0.476
G1 Y0
G2 X100 Y-2.38 I-2.38 J0
G1 X0
G2 X-2.38 Y0 I0 J2.38
G1 Y100
G2 X0 Y102.38 I2.38 J0
G1 X100
G2 X102.38 Y100 I0 J-2.38
G1 Y50
G3 X102.856 Y49.524 I0.476 J0
G1 X103.332
G18 G2 X103.808 Z-1.624 I0 K0.476
G1 Z5
Y50.476
Z-1.148 F50
Z-1.924
G3 X103.332 Z-2.4 I-0.476 K0 F150
G1 X102.856
G17 G3 X102.38 Y50 I0 J-0.476
G1 Y0
G2 X100 Y-2.38 I-2.38 J0
G1 X0
G2 X-2.38 Y0 I0 J2.38
G1 Y100
G2 X0 Y102.38 I2.38 J0
G1 X100
G2 X102.38 Y100 I0 J-2.38
G1 Y50
G3 X102.856 Y49.524 I0.476 J0
G1 X103.332
G18 G2 X103.808 Z-1.924 I0 K0.476
G1 Z5
Y50.476
Z-1.448 F50
Z-2.224
G3 X103.332 Z-2.7 I-0.476 K0 F150
G1 X102.856
G17 G3 X102.38 Y50 I0 J-0.476
G1 Y0
G2 X100 Y-2.38 I-2.38 J0
G1 X0
G2 X-2.38 Y0 I0 J2.38
G1 Y100
G2 X0 Y102.38 I2.38 J0
G1 X100
G2 X102.38 Y100 I0 J-2.38
G1 Y50
G3 X102.856 Y49.524 I0.476 J0
G1 X103.332
G18 G2 X103.808 Z-2.224 I0 K0.476
G1 Z5
Y50.476
Z-1.748 F50
Z-2.524
G3 X103.332 Z-3 I-0.476 K0 F150
G1 X102.856
G17 G3 X102.38 Y50 I0 J-0.476
G1 Y0
G2 X100 Y-2.38 I-2.38 J0
G1 X0
G2 X-2.38 Y0 I0 J2.38
G1 Y100
G2 X0 Y102.38 I2.38 J0
G1 X100
G2 X102.38 Y100 I0 J-2.38
G1 Y50
G3 X102.856 Y49.524 I0.476 J0
G1 X103.332
G18 G2 X103.808 Z-2.524 I0 K0.476
G1 Z5
Y50.476
Z-2.048 F50
Z-2.824
G3 X103.332 Z-3.3 I-0.476 K0 F150
G1 X102.856
G17 G3 X102.38 Y50 I0 J-0.476
G1 Y0
G2 X100 Y-2.38 I-2.38 J0
G1 X0
G2 X-2.38 Y0 I0 J2.38
G1 Y100
G2 X0 Y102.38 I2.38 J0
G1 X100
G2 X102.38 Y100 I0 J-2.38
G1 Y50
G3 X102.856 Y49.524 I0.476 J0
G1 X103.332
G18 G2 X103.808 Z-2.824 I0 K0.476
G1 Z5
Y50.476
Z-2.348 F50
Z-3.124
G3 X103.332 Z-3.6 I-0.476 K0 F150
G1 X102.856
G17 G3 X102.38 Y50 I0 J-0.476
G1 Y0
G2 X100 Y-2.38 I-2.38 J0
G1 X0
G2 X-2.38 Y0 I0 J2.38
G1 Y100
G2 X0 Y102.38 I2.38 J0
G1 X100
G2 X102.38 Y100 I0 J-2.38
G1 Y50
G3 X102.856 Y49.524 I0.476 J0
G1 X103.332
G18 G2 X103.808 Z-3.124 I0 K0.476
G1 Z5
Y50.476
Z-2.648 F50
Z-3.424
G3 X103.332 Z-3.9 I-0.476 K0 F150
G1 X102.856
G17 G3 X102.38 Y50 I0 J-0.476
G1 Y0
G2 X100 Y-2.38 I-2.38 J0
G1 X0
G2 X-2.38 Y0 I0 J2.38
G1 Y100
G2 X0 Y102.38 I2.38 J0
G1 X100
G2 X102.38 Y100 I0 J-2.38
G1 Y50
G3 X102.856 Y49.524 I0.476 J0
G1 X103.332
G18 G2 X103.808 Z-3.424 I0 K0.476
G1 Z5
Y50.476
Z-2.948 F50
Z-3.724
G3 X103.332 Z-4.2 I-0.476 K0 F150
G1 X102.856
G17 G3 X102.38 Y50 I0 J-0.476
G1 Y0
G2 X100 Y-2.38 I-2.38 J0
G1 X0
G2 X-2.38 Y0 I0 J2.38
G1 Y100
G2 X0 Y102.38 I2.38 J0
G1 X100
G2 X102.38 Y100 I0 J-2.38
G1 Y50
G3 X102.856 Y49.524 I0.476 J0
G1 X103.332
G18 G2 X103.808 Z-3.724 I0 K0.476
G1 Z5
Y50.476
Z-3.248 F50
Z-4.024
G3 X103.332 Z-4.5 I-0.476 K0 F150
G1 X102.856
G17 G3 X102.38 Y50 I0 J-0.476
G1 Y0
G2 X100 Y-2.38 I-2.38 J0
G1 X0
G2 X-2.38 Y0 I0 J2.38
G1 Y100
G2 X0 Y102.38 I2.38 J0
G1 X100
G2 X102.38 Y100 I0 J-2.38
G1 Y50
G3 X102.856 Y49.524 I0.476 J0
G1 X103.332
G18 G2 X103.808 Z-4.024 I0 K0.476
G1 Z15
G17

M9
M5
M30
