(cartarm_foundation_mount)
(Machine)
(  vendor: Autodesk)
(  model: Generic 3-axis)
(  description: This machine has XYZ axis on the Head)
(T1 D=4.76 CR=0 - ZMIN=-8 - flat end mill)
G90 G94
G17
G21
(-Attention- Property Safe Retracts is set to Clearance Height.)
(Ensure the clearance height will clear the part and or fixtures.)
(Raise the Z-axis to a safe height before starting the program.)

(Drill4)
T1
S21000 M3
G17 G90 G94
G54
M8
G0 X10 Y30
Z15
G0 Z5
Z4
Z1
G1 Z-1.3 F150
G0 Z-1.2
G1 Z-1.6 F150
G0 Z-1.5
G1 Z-1.9 F150
G0 Z-1.8
G1 Z-2.2 F150
G0 Z-2.1
G1 Z-2.5 F150
G0 Z-2.4
G1 Z-2.8 F150
G0 Z-2.7
G1 Z-3.1 F150
G0 Z-3
G1 Z-3.4 F150
G0 Z-3.3
G1 Z-3.7 F150
G0 Z-3.6
G1 Z-4 F150
G0 Z-3.9
G1 Z-4.3 F150
G0 Z-4.2
G1 Z-4.6 F150
G0 Z-4.5
G1 Z-4.9 F150
G0 Z-4.8
G1 Z-5.2 F150
G0 Z-5.1
G1 Z-5.5 F150
G0 Z-5.4
G1 Z-5.8 F150
G0 Z-5.7
G1 Z-6.1 F150
G0 Z-6
G1 Z-6.4 F150
G0 Z-6.3
G1 Z-6.7 F150
G0 Z-6.6
G1 Z-7 F150
G0 Z-6.9
G1 Z-7.3 F150
G0 Z-7.2
G1 Z-7.6 F150
G0 Z-7.5
G1 Z-7.9 F150
G0 Z-7.8
G1 Z-8 F150
G4 P1.
G0 Z5
Y80
Z4
Z1
G1 Z-1.3 F150
G0 Z-1.2
G1 Z-1.6 F150
G0 Z-1.5
G1 Z-1.9 F150
G0 Z-1.8
G1 Z-2.2 F150
G0 Z-2.1
G1 Z-2.5 F150
G0 Z-2.4
G1 Z-2.8 F150
G0 Z-2.7
G1 Z-3.1 F150
G0 Z-3
G1 Z-3.4 F150
G0 Z-3.3
G1 Z-3.7 F150
G0 Z-3.6
G1 Z-4 F150
G0 Z-3.9
G1 Z-4.3 F150
G0 Z-4.2
G1 Z-4.6 F150
G0 Z-4.5
G1 Z-4.9 F150
G0 Z-4.8
G1 Z-5.2 F150
G0 Z-5.1
G1 Z-5.5 F150
G0 Z-5.4
G1 Z-5.8 F150
G0 Z-5.7
G1 Z-6.1 F150
G0 Z-6
G1 Z-6.4 F150
G0 Z-6.3
G1 Z-6.7 F150
G0 Z-6.6
G1 Z-7 F150
G0 Z-6.9
G1 Z-7.3 F150
G0 Z-7.2
G1 Z-7.6 F150
G0 Z-7.5
G1 Z-7.9 F150
G0 Z-7.8
G1 Z-8 F150
G4 P1.
G0 Z5
X140
Z4
Z1
G1 Z-1.3 F150
G0 Z-1.2
G1 Z-1.6 F150
G0 Z-1.5
G1 Z-1.9 F150
G0 Z-1.8
G1 Z-2.2 F150
G0 Z-2.1
G1 Z-2.5 F150
G0 Z-2.4
G1 Z-2.8 F150
G0 Z-2.7
G1 Z-3.1 F150
G0 Z-3
G1 Z-3.4 F150
G0 Z-3.3
G1 Z-3.7 F150
G0 Z-3.6
G1 Z-4 F150
G0 Z-3.9
G1 Z-4.3 F150
G0 Z-4.2
G1 Z-4.6 F150
G0 Z-4.5
G1 Z-4.9 F150
G0 Z-4.8
G1 Z-5.2 F150
G0 Z-5.1
G1 Z-5.5 F150
G0 Z-5.4
G1 Z-5.8 F150
G0 Z-5.7
G1 Z-6.1 F150
G0 Z-6
G1 Z-6.4 F150
G0 Z-6.3
G1 Z-6.7 F150
G0 Z-6.6
G1 Z-7 F150
G0 Z-6.9
G1 Z-7.3 F150
G0 Z-7.2
G1 Z-7.6 F150
G0 Z-7.5
G1 Z-7.9 F150
G0 Z-7.8
G1 Z-8 F150
G4 P1.
G0 Z5
Y30
Z4
Z1
G1 Z-1.3 F150
G0 Z-1.2
G1 Z-1.6 F150
G0 Z-1.5
G1 Z-1.9 F150
G0 Z-1.8
G1 Z-2.2 F150
G0 Z-2.1
G1 Z-2.5 F150
G0 Z-2.4
G1 Z-2.8 F150
G0 Z-2.7
G1 Z-3.1 F150
G0 Z-3
G1 Z-3.4 F150
G0 Z-3.3
G1 Z-3.7 F150
G0 Z-3.6
G1 Z-4 F150
G0 Z-3.9
G1 Z-4.3 F150
G0 Z-4.2
G1 Z-4.6 F150
G0 Z-4.5
G1 Z-4.9 F150
G0 Z-4.8
G1 Z-5.2 F150
G0 Z-5.1
G1 Z-5.5 F150
G0 Z-5.4
G1 Z-5.8 F150
G0 Z-5.7
G1 Z-6.1 F150
G0 Z-6
G1 Z-6.4 F150
G0 Z-6.3
G1 Z-6.7 F150
G0 Z-6.6
G1 Z-7 F150
G0 Z-6.9
G1 Z-7.3 F150
G0 Z-7.2
G1 Z-7.6 F150
G0 Z-7.5
G1 Z-7.9 F150
G0 Z-7.8
G1 Z-8 F150
G4 P1.
G0 Z5
Z15
(When using Fusion for Personal Use, the feedrate of rapid)
(moves is reduced to match the feedrate of cutting moves,)
(which can increase machining time. Unrestricted rapid moves)
(are available with a Fusion Subscription.)

(2D Contour9)
G0 X29.78 Y10
G1 Z15 F150
Z5
Z0.952
Z-0.3
G3 X30.22 Y10 I0.22 J0
X29.78 Y10 I-0.22 J0
G1 Z-0.6
G3 X30.22 Y10 I0.22 J0
X29.78 Y10 I-0.22 J0
G1 Z-0.9
G3 X30.22 Y10 I0.22 J0
X29.78 Y10 I-0.22 J0
G1 Z-1.2
G3 X30.22 Y10 I0.22 J0
X29.78 Y10 I-0.22 J0
G1 Z-1.5
G3 X30.22 Y10 I0.22 J0
X29.78 Y10 I-0.22 J0
G1 Z-1.8
G3 X30.22 Y10 I0.22 J0
X29.78 Y10 I-0.22 J0
G1 Z-2.1
G3 X30.22 Y10 I0.22 J0
X29.78 Y10 I-0.22 J0
G1 Z-2.4
G3 X30.22 Y10 I0.22 J0
X29.78 Y10 I-0.22 J0
G1 Z-2.7
G3 X30.22 Y10 I0.22 J0
X29.78 Y10 I-0.22 J0
G1 Z-3
G3 X30.22 Y10 I0.22 J0
X29.78 Y10 I-0.22 J0
G1 Z-3.3
G3 X30.22 Y10 I0.22 J0
X29.78 Y10 I-0.22 J0
G1 Z-3.6
G3 X30.22 Y10 I0.22 J0
X29.78 Y10 I-0.22 J0
G1 Z-3.9
G3 X30.22 Y10 I0.22 J0
X29.78 Y10 I-0.22 J0
G1 Z-4.2
G3 X30.22 Y10 I0.22 J0
X29.78 Y10 I-0.22 J0
G1 Z-4.5
G3 X30.22 Y10 I0.22 J0
X29.78 Y10 I-0.22 J0
G1 Z-4.8
G3 X30.22 Y10 I0.22 J0
X29.78 Y10 I-0.22 J0
G1 Z-5.1
G3 X30.22 Y10 I0.22 J0
X29.78 Y10 I-0.22 J0
G1 Z-5.4
G3 X30.22 Y10 I0.22 J0
X29.78 Y10 I-0.22 J0
G1 Z-5.7
G3 X30.22 Y10 I0.22 J0
X29.78 Y10 I-0.22 J0
G1 Z-6
G3 X30.22 Y10 I0.22 J0
X29.78 Y10 I-0.22 J0
G1 Z-6.3
G3 X30.22 Y10 I0.22 J0
X29.78 Y10 I-0.22 J0
G1 Z-6.6
G3 X30.22 Y10 I0.22 J0
X29.78 Y10 I-0.22 J0
G1 Z-6.9
G3 X30.22 Y10 I0.22 J0
X29.78 Y10 I-0.22 J0
G1 Z-7.2
G3 X30.22 Y10 I0.22 J0
X29.78 Y10 I-0.22 J0
G1 Z-7.5
G3 X30.22 Y10 I0.22 J0
X29.78 Y10 I-0.22 J0
G1 Z-7.8
G3 X30.22 Y10 I0.22 J0
X29.78 Y10 I-0.22 J0
G1 Z-8
G3 X30.22 Y10 I0.22 J0
X29.78 Y10 I-0.22 J0
G1 Z5
X10.67
Z0.952
Z-0.3
G3 X9.33 Y10 I-0.67 J0
X10.67 Y10 I0.67 J0
G1 Z-0.6
G3 X9.33 Y10 I-0.67 J0
X10.67 Y10 I0.67 J0
G1 Z-0.9
G3 X9.33 Y10 I-0.67 J0
X10.67 Y10 I0.67 J0
G1 Z-1.2
G3 X9.33 Y10 I-0.67 J0
X10.67 Y10 I0.67 J0
G1 Z-1.5
G3 X9.33 Y10 I-0.67 J0
X10.67 Y10 I0.67 J0
G1 Z-1.8
G3 X9.33 Y10 I-0.67 J0
X10.67 Y10 I0.67 J0
G1 Z-2.1
G3 X9.33 Y10 I-0.67 J0
X10.67 Y10 I0.67 J0
G1 Z-2.4
G3 X9.33 Y10 I-0.67 J0
X10.67 Y10 I0.67 J0
G1 Z-2.7
G3 X9.33 Y10 I-0.67 J0
X10.67 Y10 I0.67 J0
G1 Z-3
G3 X9.33 Y10 I-0.67 J0
X10.67 Y10 I0.67 J0
G1 Z-3.3
G3 X9.33 Y10 I-0.67 J0
X10.67 Y10 I0.67 J0
G1 Z-3.6
G3 X9.33 Y10 I-0.67 J0
X10.67 Y10 I0.67 J0
G1 Z-3.9
G3 X9.33 Y10 I-0.67 J0
X10.67 Y10 I0.67 J0
G1 Z-4.2
G3 X9.33 Y10 I-0.67 J0
X10.67 Y10 I0.67 J0
G1 Z-4.5
G3 X9.33 Y10 I-0.67 J0
X10.67 Y10 I0.67 J0
G1 Z-4.8
G3 X9.33 Y10 I-0.67 J0
X10.67 Y10 I0.67 J0
G1 Z-5.1
G3 X9.33 Y10 I-0.67 J0
X10.67 Y10 I0.67 J0
G1 Z-5.4
G3 X9.33 Y10 I-0.67 J0
X10.67 Y10 I0.67 J0
G1 Z-5.7
G3 X9.33 Y10 I-0.67 J0
X10.67 Y10 I0.67 J0
G1 Z-6
G3 X9.33 Y10 I-0.67 J0
X10.67 Y10 I0.67 J0
G1 Z-6.3
G3 X9.33 Y10 I-0.67 J0
X10.67 Y10 I0.67 J0
G1 Z-6.6
G3 X9.33 Y10 I-0.67 J0
X10.67 Y10 I0.67 J0
G1 Z-6.9
G3 X9.33 Y10 I-0.67 J0
X10.67 Y10 I0.67 J0
G1 Z-7.2
G3 X9.33 Y10 I-0.67 J0
X10.67 Y10 I0.67 J0
G1 Z-7.5
G3 X9.33 Y10 I-0.67 J0
X10.67 Y10 I0.67 J0
G1 Z-7.8
G3 X9.33 Y10 I-0.67 J0
X10.67 Y10 I0.67 J0
G1 Z-8
G3 X9.33 Y10 I-0.67 J0
X10.67 Y10 I0.67 J0
G1 Z5
Y55
Z0.952
Z-0.3
G3 X9.33 Y55 I-0.67 J0
X10.67 Y55 I0.67 J0
G1 Z-0.6
G3 X9.33 Y55 I-0.67 J0
X10.67 Y55 I0.67 J0
G1 Z-0.9
G3 X9.33 Y55 I-0.67 J0
X10.67 Y55 I0.67 J0
G1 Z-1.2
G3 X9.33 Y55 I-0.67 J0
X10.67 Y55 I0.67 J0
G1 Z-1.5
G3 X9.33 Y55 I-0.67 J0
X10.67 Y55 I0.67 J0
G1 Z-1.8
G3 X9.33 Y55 I-0.67 J0
X10.67 Y55 I0.67 J0
G1 Z-2.1
G3 X9.33 Y55 I-0.67 J0
X10.67 Y55 I0.67 J0
G1 Z-2.4
G3 X9.33 Y55 I-0.67 J0
X10.67 Y55 I0.67 J0
G1 Z-2.7
G3 X9.33 Y55 I-0.67 J0
X10.67 Y55 I0.67 J0
G1 Z-3
G3 X9.33 Y55 I-0.67 J0
X10.67 Y55 I0.67 J0
G1 Z-3.3
G3 X9.33 Y55 I-0.67 J0
X10.67 Y55 I0.67 J0
G1 Z-3.6
G3 X9.33 Y55 I-0.67 J0
X10.67 Y55 I0.67 J0
G1 Z-3.9
G3 X9.33 Y55 I-0.67 J0
X10.67 Y55 I0.67 J0
G1 Z-4.2
G3 X9.33 Y55 I-0.67 J0
X10.67 Y55 I0.67 J0
G1 Z-4.5
G3 X9.33 Y55 I-0.67 J0
X10.67 Y55 I0.67 J0
G1 Z-4.8
G3 X9.33 Y55 I-0.67 J0
X10.67 Y55 I0.67 J0
G1 Z-5.1
G3 X9.33 Y55 I-0.67 J0
X10.67 Y55 I0.67 J0
G1 Z-5.4
G3 X9.33 Y55 I-0.67 J0
X10.67 Y55 I0.67 J0
G1 Z-5.7
G3 X9.33 Y55 I-0.67 J0
X10.67 Y55 I0.67 J0
G1 Z-6
G3 X9.33 Y55 I-0.67 J0
X10.67 Y55 I0.67 J0
G1 Z-6.3
G3 X9.33 Y55 I-0.67 J0
X10.67 Y55 I0.67 J0
G1 Z-6.6
G3 X9.33 Y55 I-0.67 J0
X10.67 Y55 I0.67 J0
G1 Z-6.9
G3 X9.33 Y55 I-0.67 J0
X10.67 Y55 I0.67 J0
G1 Z-7.2
G3 X9.33 Y55 I-0.67 J0
X10.67 Y55 I0.67 J0
G1 Z-7.5
G3 X9.33 Y55 I-0.67 J0
X10.67 Y55 I0.67 J0
G1 Z-7.8
G3 X9.33 Y55 I-0.67 J0
X10.67 Y55 I0.67 J0
G1 Z-8
G3 X9.33 Y55 I-0.67 J0
X10.67 Y55 I0.67 J0
G1 Z5
Y100
Z0.952
Z-0.3
G3 X9.33 Y100 I-0.67 J0
X10.67 Y100 I0.67 J0
G1 Z-0.6
G3 X9.33 Y100 I-0.67 J0
X10.67 Y100 I0.67 J0
G1 Z-0.9
G3 X9.33 Y100 I-0.67 J0
X10.67 Y100 I0.67 J0
G1 Z-1.2
G3 X9.33 Y100 I-0.67 J0
X10.67 Y100 I0.67 J0
G1 Z-1.5
G3 X9.33 Y100 I-0.67 J0
X10.67 Y100 I0.67 J0
G1 Z-1.8
G3 X9.33 Y100 I-0.67 J0
X10.67 Y100 I0.67 J0
G1 Z-2.1
G3 X9.33 Y100 I-0.67 J0
X10.67 Y100 I0.67 J0
G1 Z-2.4
G3 X9.33 Y100 I-0.67 J0
X10.67 Y100 I0.67 J0
G1 Z-2.7
G3 X9.33 Y100 I-0.67 J0
X10.67 Y100 I0.67 J0
G1 Z-3
G3 X9.33 Y100 I-0.67 J0
X10.67 Y100 I0.67 J0
G1 Z-3.3
G3 X9.33 Y100 I-0.67 J0
X10.67 Y100 I0.67 J0
G1 Z-3.6
G3 X9.33 Y100 I-0.67 J0
X10.67 Y100 I0.67 J0
G1 Z-3.9
G3 X9.33 Y100 I-0.67 J0
X10.67 Y100 I0.67 J0
G1 Z-4.2
G3 X9.33 Y100 I-0.67 J0
X10.67 Y100 I0.67 J0
G1 Z-4.5
G3 X9.33 Y100 I-0.67 J0
X10.67 Y100 I0.67 J0
G1 Z-4.8
G3 X9.33 Y100 I-0.67 J0
X10.67 Y100 I0.67 J0
G1 Z-5.1
G3 X9.33 Y100 I-0.67 J0
X10.67 Y100 I0.67 J0
G1 Z-5.4
G3 X9.33 Y100 I-0.67 J0
X10.67 Y100 I0.67 J0
G1 Z-5.7
G3 X9.33 Y100 I-0.67 J0
X10.67 Y100 I0.67 J0
G1 Z-6
G3 X9.33 Y100 I-0.67 J0
X10.67 Y100 I0.67 J0
G1 Z-6.3
G3 X9.33 Y100 I-0.67 J0
X10.67 Y100 I0.67 J0
G1 Z-6.6
G3 X9.33 Y100 I-0.67 J0
X10.67 Y100 I0.67 J0
G1 Z-6.9
G3 X9.33 Y100 I-0.67 J0
X10.67 Y100 I0.67 J0
G1 Z-7.2
G3 X9.33 Y100 I-0.67 J0
X10.67 Y100 I0.67 J0
G1 Z-7.5
G3 X9.33 Y100 I-0.67 J0
X10.67 Y100 I0.67 J0
G1 Z-7.8
G3 X9.33 Y100 I-0.67 J0
X10.67 Y100 I0.67 J0
G1 Z-8
G3 X9.33 Y100 I-0.67 J0
X10.67 Y100 I0.67 J0
G1 Z5
X29.78
Z0.952
Z-0.3
G3 X30.22 Y100 I0.22 J0
X29.78 Y100 I-0.22 J0
G1 Z-0.6
G3 X30.22 Y100 I0.22 J0
X29.78 Y100 I-0.22 J0
G1 Z-0.9
G3 X30.22 Y100 I0.22 J0
X29.78 Y100 I-0.22 J0
G1 Z-1.2
G3 X30.22 Y100 I0.22 J0
X29.78 Y100 I-0.22 J0
G1 Z-1.5
G3 X30.22 Y100 I0.22 J0
X29.78 Y100 I-0.22 J0
G1 Z-1.8
G3 X30.22 Y100 I0.22 J0
X29.78 Y100 I-0.22 J0
G1 Z-2.1
G3 X30.22 Y100 I0.22 J0
X29.78 Y100 I-0.22 J0
G1 Z-2.4
G3 X30.22 Y100 I0.22 J0
X29.78 Y100 I-0.22 J0
G1 Z-2.7
G3 X30.22 Y100 I0.22 J0
X29.78 Y100 I-0.22 J0
G1 Z-3
G3 X30.22 Y100 I0.22 J0
X29.78 Y100 I-0.22 J0
G1 Z-3.3
G3 X30.22 Y100 I0.22 J0
X29.78 Y100 I-0.22 J0
G1 Z-3.6
G3 X30.22 Y100 I0.22 J0
X29.78 Y100 I-0.22 J0
G1 Z-3.9
G3 X30.22 Y100 I0.22 J0
X29.78 Y100 I-0.22 J0
G1 Z-4.2
G3 X30.22 Y100 I0.22 J0
X29.78 Y100 I-0.22 J0
G1 Z-4.5
G3 X30.22 Y100 I0.22 J0
X29.78 Y100 I-0.22 J0
G1 Z-4.8
G3 X30.22 Y100 I0.22 J0
X29.78 Y100 I-0.22 J0
G1 Z-5.1
G3 X30.22 Y100 I0.22 J0
X29.78 Y100 I-0.22 J0
G1 Z-5.4
G3 X30.22 Y100 I0.22 J0
X29.78 Y100 I-0.22 J0
G1 Z-5.7
G3 X30.22 Y100 I0.22 J0
X29.78 Y100 I-0.22 J0
G1 Z-6
G3 X30.22 Y100 I0.22 J0
X29.78 Y100 I-0.22 J0
G1 Z-6.3
G3 X30.22 Y100 I0.22 J0
X29.78 Y100 I-0.22 J0
G1 Z-6.6
G3 X30.22 Y100 I0.22 J0
X29.78 Y100 I-0.22 J0
G1 Z-6.9
G3 X30.22 Y100 I0.22 J0
X29.78 Y100 I-0.22 J0
G1 Z-7.2
G3 X30.22 Y100 I0.22 J0
X29.78 Y100 I-0.22 J0
G1 Z-7.5
G3 X30.22 Y100 I0.22 J0
X29.78 Y100 I-0.22 J0
G1 Z-7.8
G3 X30.22 Y100 I0.22 J0
X29.78 Y100 I-0.22 J0
G1 Z-8
G3 X30.22 Y100 I0.22 J0
X29.78 Y100 I-0.22 J0
G1 Z5
X120.22
Z0.952
Z-0.3
G3 X119.78 Y100 I-0.22 J0
X120.22 Y100 I0.22 J0
G1 Z-0.6
G3 X119.78 Y100 I-0.22 J0
X120.22 Y100 I0.22 J0
G1 Z-0.9
G3 X119.78 Y100 I-0.22 J0
X120.22 Y100 I0.22 J0
G1 Z-1.2
G3 X119.78 Y100 I-0.22 J0
X120.22 Y100 I0.22 J0
G1 Z-1.5
G3 X119.78 Y100 I-0.22 J0
X120.22 Y100 I0.22 J0
G1 Z-1.8
G3 X119.78 Y100 I-0.22 J0
X120.22 Y100 I0.22 J0
G1 Z-2.1
G3 X119.78 Y100 I-0.22 J0
X120.22 Y100 I0.22 J0
G1 Z-2.4
G3 X119.78 Y100 I-0.22 J0
X120.22 Y100 I0.22 J0
G1 Z-2.7
G3 X119.78 Y100 I-0.22 J0
X120.22 Y100 I0.22 J0
G1 Z-3
G3 X119.78 Y100 I-0.22 J0
X120.22 Y100 I0.22 J0
G1 Z-3.3
G3 X119.78 Y100 I-0.22 J0
X120.22 Y100 I0.22 J0
G1 Z-3.6
G3 X119.78 Y100 I-0.22 J0
X120.22 Y100 I0.22 J0
G1 Z-3.9
G3 X119.78 Y100 I-0.22 J0
X120.22 Y100 I0.22 J0
G1 Z-4.2
G3 X119.78 Y100 I-0.22 J0
X120.22 Y100 I0.22 J0
G1 Z-4.5
G3 X119.78 Y100 I-0.22 J0
X120.22 Y100 I0.22 J0
G1 Z-4.8
G3 X119.78 Y100 I-0.22 J0
X120.22 Y100 I0.22 J0
G1 Z-5.1
G3 X119.78 Y100 I-0.22 J0
X120.22 Y100 I0.22 J0
G1 Z-5.4
G3 X119.78 Y100 I-0.22 J0
X120.22 Y100 I0.22 J0
G1 Z-5.7
G3 X119.78 Y100 I-0.22 J0
X120.22 Y100 I0.22 J0
G1 Z-6
G3 X119.78 Y100 I-0.22 J0
X120.22 Y100 I0.22 J0
G1 Z-6.3
G3 X119.78 Y100 I-0.22 J0
X120.22 Y100 I0.22 J0
G1 Z-6.6
G3 X119.78 Y100 I-0.22 J0
X120.22 Y100 I0.22 J0
G1 Z-6.9
G3 X119.78 Y100 I-0.22 J0
X120.22 Y100 I0.22 J0
G1 Z-7.2
G3 X119.78 Y100 I-0.22 J0
X120.22 Y100 I0.22 J0
G1 Z-7.5
G3 X119.78 Y100 I-0.22 J0
X120.22 Y100 I0.22 J0
G1 Z-7.8
G3 X119.78 Y100 I-0.22 J0
X120.22 Y100 I0.22 J0
G1 Z-8
G3 X119.78 Y100 I-0.22 J0
X120.22 Y100 I0.22 J0
G1 Z5
X140.542 Y100.394
Z0.952
Z-0.3
G3 X139.458 Y99.606 I-0.542 J-0.394
X140.542 Y100.394 I0.542 J0.394
G1 Z-0.6
G3 X139.458 Y99.606 I-0.542 J-0.394
X140.542 Y100.394 I0.542 J0.394
G1 Z-0.9
G3 X139.458 Y99.606 I-0.542 J-0.394
X140.542 Y100.394 I0.542 J0.394
G1 Z-1.2
G3 X139.458 Y99.606 I-0.542 J-0.394
X140.542 Y100.394 I0.542 J0.394
G1 Z-1.5
G3 X139.458 Y99.606 I-0.542 J-0.394
X140.542 Y100.394 I0.542 J0.394
G1 Z-1.8
G3 X139.458 Y99.606 I-0.542 J-0.394
X140.542 Y100.394 I0.542 J0.394
G1 Z-2.1
G3 X139.458 Y99.606 I-0.542 J-0.394
X140.542 Y100.394 I0.542 J0.394
G1 Z-2.4
G3 X139.458 Y99.606 I-0.542 J-0.394
X140.542 Y100.394 I0.542 J0.394
G1 Z-2.7
G3 X139.458 Y99.606 I-0.542 J-0.394
X140.542 Y100.394 I0.542 J0.394
G1 Z-3
G3 X139.458 Y99.606 I-0.542 J-0.394
X140.542 Y100.394 I0.542 J0.394
G1 Z-3.3
G3 X139.458 Y99.606 I-0.542 J-0.394
X140.542 Y100.394 I0.542 J0.394
G1 Z-3.6
G3 X139.458 Y99.606 I-0.542 J-0.394
X140.542 Y100.394 I0.542 J0.394
G1 Z-3.9
G3 X139.458 Y99.606 I-0.542 J-0.394
X140.542 Y100.394 I0.542 J0.394
G1 Z-4.2
G3 X139.458 Y99.606 I-0.542 J-0.394
X140.542 Y100.394 I0.542 J0.394
G1 Z-4.5
G3 X139.458 Y99.606 I-0.542 J-0.394
X140.542 Y100.394 I0.542 J0.394
G1 Z-4.8
G3 X139.458 Y99.606 I-0.542 J-0.394
X140.542 Y100.394 I0.542 J0.394
G1 Z-5.1
G3 X139.458 Y99.606 I-0.542 J-0.394
X140.542 Y100.394 I0.542 J0.394
G1 Z-5.4
G3 X139.458 Y99.606 I-0.542 J-0.394
X140.542 Y100.394 I0.542 J0.394
G1 Z-5.7
G3 X139.458 Y99.606 I-0.542 J-0.394
X140.542 Y100.394 I0.542 J0.394
G1 Z-6
G3 X139.458 Y99.606 I-0.542 J-0.394
X140.542 Y100.394 I0.542 J0.394
G1 Z-6.3
G3 X139.458 Y99.606 I-0.542 J-0.394
X140.542 Y100.394 I0.542 J0.394
G1 Z-6.6
G3 X139.458 Y99.606 I-0.542 J-0.394
X140.542 Y100.394 I0.542 J0.394
G1 Z-6.9
G3 X139.458 Y99.606 I-0.542 J-0.394
X140.542 Y100.394 I0.542 J0.394
G1 Z-7.2
G3 X139.458 Y99.606 I-0.542 J-0.394
X140.542 Y100.394 I0.542 J0.394
G1 Z-7.5
G3 X139.458 Y99.606 I-0.542 J-0.394
X140.542 Y100.394 I0.542 J0.394
G1 Z-7.8
G3 X139.458 Y99.606 I-0.542 J-0.394
X140.542 Y100.394 I0.542 J0.394
G1 Z-8
G3 X139.458 Y99.606 I-0.542 J-0.394
X140.542 Y100.394 I0.542 J0.394
G1 Z5
Y55.394
Z0.952
Z-0.3
G3 X139.458 Y54.606 I-0.542 J-0.394
X140.542 Y55.394 I0.542 J0.394
G1 Z-0.6
G3 X139.458 Y54.606 I-0.542 J-0.394
X140.542 Y55.394 I0.542 J0.394
G1 Z-0.9
G3 X139.458 Y54.606 I-0.542 J-0.394
X140.542 Y55.394 I0.542 J0.394
G1 Z-1.2
G3 X139.458 Y54.606 I-0.542 J-0.394
X140.542 Y55.394 I0.542 J0.394
G1 Z-1.5
G3 X139.458 Y54.606 I-0.542 J-0.394
X140.542 Y55.394 I0.542 J0.394
G1 Z-1.8
G3 X139.458 Y54.606 I-0.542 J-0.394
X140.542 Y55.394 I0.542 J0.394
G1 Z-2.1
G3 X139.458 Y54.606 I-0.542 J-0.394
X140.542 Y55.394 I0.542 J0.394
G1 Z-2.4
G3 X139.458 Y54.606 I-0.542 J-0.394
X140.542 Y55.394 I0.542 J0.394
G1 Z-2.7
G3 X139.458 Y54.606 I-0.542 J-0.394
X140.542 Y55.394 I0.542 J0.394
G1 Z-3
G3 X139.458 Y54.606 I-0.542 J-0.394
X140.542 Y55.394 I0.542 J0.394
G1 Z-3.3
G3 X139.458 Y54.606 I-0.542 J-0.394
X140.542 Y55.394 I0.542 J0.394
G1 Z-3.6
G3 X139.458 Y54.606 I-0.542 J-0.394
X140.542 Y55.394 I0.542 J0.394
G1 Z-3.9
G3 X139.458 Y54.606 I-0.542 J-0.394
X140.542 Y55.394 I0.542 J0.394
G1 Z-4.2
G3 X139.458 Y54.606 I-0.542 J-0.394
X140.542 Y55.394 I0.542 J0.394
G1 Z-4.5
G3 X139.458 Y54.606 I-0.542 J-0.394
X140.542 Y55.394 I0.542 J0.394
G1 Z-4.8
G3 X139.458 Y54.606 I-0.542 J-0.394
X140.542 Y55.394 I0.542 J0.394
G1 Z-5.1
G3 X139.458 Y54.606 I-0.542 J-0.394
X140.542 Y55.394 I0.542 J0.394
G1 Z-5.4
G3 X139.458 Y54.606 I-0.542 J-0.394
X140.542 Y55.394 I0.542 J0.394
G1 Z-5.7
G3 X139.458 Y54.606 I-0.542 J-0.394
X140.542 Y55.394 I0.542 J0.394
G1 Z-6
G3 X139.458 Y54.606 I-0.542 J-0.394
X140.542 Y55.394 I0.542 J0.394
G1 Z-6.3
G3 X139.458 Y54.606 I-0.542 J-0.394
X140.542 Y55.394 I0.542 J0.394
G1 Z-6.6
G3 X139.458 Y54.606 I-0.542 J-0.394
X140.542 Y55.394 I0.542 J0.394
G1 Z-6.9
G3 X139.458 Y54.606 I-0.542 J-0.394
X140.542 Y55.394 I0.542 J0.394
G1 Z-7.2
G3 X139.458 Y54.606 I-0.542 J-0.394
X140.542 Y55.394 I0.542 J0.394
G1 Z-7.5
G3 X139.458 Y54.606 I-0.542 J-0.394
X140.542 Y55.394 I0.542 J0.394
G1 Z-7.8
G3 X139.458 Y54.606 I-0.542 J-0.394
X140.542 Y55.394 I0.542 J0.394
G1 Z-8
G3 X139.458 Y54.606 I-0.542 J-0.394
X140.542 Y55.394 I0.542 J0.394
G1 Z5
X140.67 Y10
Z0.952
Z-0.3
G3 X139.33 Y10 I-0.67 J0
X140.67 Y10 I0.67 J0
G1 Z-0.6
G3 X139.33 Y10 I-0.67 J0
X140.67 Y10 I0.67 J0
G1 Z-0.9
G3 X139.33 Y10 I-0.67 J0
X140.67 Y10 I0.67 J0
G1 Z-1.2
G3 X139.33 Y10 I-0.67 J0
X140.67 Y10 I0.67 J0
G1 Z-1.5
G3 X139.33 Y10 I-0.67 J0
X140.67 Y10 I0.67 J0
G1 Z-1.8
G3 X139.33 Y10 I-0.67 J0
X140.67 Y10 I0.67 J0
G1 Z-2.1
G3 X139.33 Y10 I-0.67 J0
X140.67 Y10 I0.67 J0
G1 Z-2.4
G3 X139.33 Y10 I-0.67 J0
X140.67 Y10 I0.67 J0
G1 Z-2.7
G3 X139.33 Y10 I-0.67 J0
X140.67 Y10 I0.67 J0
G1 Z-3
G3 X139.33 Y10 I-0.67 J0
X140.67 Y10 I0.67 J0
G1 Z-3.3
G3 X139.33 Y10 I-0.67 J0
X140.67 Y10 I0.67 J0
G1 Z-3.6
G3 X139.33 Y10 I-0.67 J0
X140.67 Y10 I0.67 J0
G1 Z-3.9
G3 X139.33 Y10 I-0.67 J0
X140.67 Y10 I0.67 J0
G1 Z-4.2
G3 X139.33 Y10 I-0.67 J0
X140.67 Y10 I0.67 J0
G1 Z-4.5
G3 X139.33 Y10 I-0.67 J0
X140.67 Y10 I0.67 J0
G1 Z-4.8
G3 X139.33 Y10 I-0.67 J0
X140.67 Y10 I0.67 J0
G1 Z-5.1
G3 X139.33 Y10 I-0.67 J0
X140.67 Y10 I0.67 J0
G1 Z-5.4
G3 X139.33 Y10 I-0.67 J0
X140.67 Y10 I0.67 J0
G1 Z-5.7
G3 X139.33 Y10 I-0.67 J0
X140.67 Y10 I0.67 J0
G1 Z-6
G3 X139.33 Y10 I-0.67 J0
X140.67 Y10 I0.67 J0
G1 Z-6.3
G3 X139.33 Y10 I-0.67 J0
X140.67 Y10 I0.67 J0
G1 Z-6.6
G3 X139.33 Y10 I-0.67 J0
X140.67 Y10 I0.67 J0
G1 Z-6.9
G3 X139.33 Y10 I-0.67 J0
X140.67 Y10 I0.67 J0
G1 Z-7.2
G3 X139.33 Y10 I-0.67 J0
X140.67 Y10 I0.67 J0
G1 Z-7.5
G3 X139.33 Y10 I-0.67 J0
X140.67 Y10 I0.67 J0
G1 Z-7.8
G3 X139.33 Y10 I-0.67 J0
X140.67 Y10 I0.67 J0
G1 Z-8
G3 X139.33 Y10 I-0.67 J0
X140.67 Y10 I0.67 J0
G1 Z5
X119.78
Z0.952
Z-0.3
G3 X120.22 Y10 I0.22 J0
X119.78 Y10 I-0.22 J0
G1 Z-0.6
G3 X120.22 Y10 I0.22 J0
X119.78 Y10 I-0.22 J0
G1 Z-0.9
G3 X120.22 Y10 I0.22 J0
X119.78 Y10 I-0.22 J0
G1 Z-1.2
G3 X120.22 Y10 I0.22 J0
X119.78 Y10 I-0.22 J0
G1 Z-1.5
G3 X120.22 Y10 I0.22 J0
X119.78 Y10 I-0.22 J0
G1 Z-1.8
G3 X120.22 Y10 I0.22 J0
X119.78 Y10 I-0.22 J0
G1 Z-2.1
G3 X120.22 Y10 I0.22 J0
X119.78 Y10 I-0.22 J0
G1 Z-2.4
G3 X120.22 Y10 I0.22 J0
X119.78 Y10 I-0.22 J0
G1 Z-2.7
G3 X120.22 Y10 I0.22 J0
X119.78 Y10 I-0.22 J0
G1 Z-3
G3 X120.22 Y10 I0.22 J0
X119.78 Y10 I-0.22 J0
G1 Z-3.3
G3 X120.22 Y10 I0.22 J0
X119.78 Y10 I-0.22 J0
G1 Z-3.6
G3 X120.22 Y10 I0.22 J0
X119.78 Y10 I-0.22 J0
G1 Z-3.9
G3 X120.22 Y10 I0.22 J0
X119.78 Y10 I-0.22 J0
G1 Z-4.2
G3 X120.22 Y10 I0.22 J0
X119.78 Y10 I-0.22 J0
G1 Z-4.5
G3 X120.22 Y10 I0.22 J0
X119.78 Y10 I-0.22 J0
G1 Z-4.8
G3 X120.22 Y10 I0.22 J0
X119.78 Y10 I-0.22 J0
G1 Z-5.1
G3 X120.22 Y10 I0.22 J0
X119.78 Y10 I-0.22 J0
G1 Z-5.4
G3 X120.22 Y10 I0.22 J0
X119.78 Y10 I-0.22 J0
G1 Z-5.7
G3 X120.22 Y10 I0.22 J0
X119.78 Y10 I-0.22 J0
G1 Z-6
G3 X120.22 Y10 I0.22 J0
X119.78 Y10 I-0.22 J0
G1 Z-6.3
G3 X120.22 Y10 I0.22 J0
X119.78 Y10 I-0.22 J0
G1 Z-6.6
G3 X120.22 Y10 I0.22 J0
X119.78 Y10 I-0.22 J0
G1 Z-6.9
G3 X120.22 Y10 I0.22 J0
X119.78 Y10 I-0.22 J0
G1 Z-7.2
G3 X120.22 Y10 I0.22 J0
X119.78 Y10 I-0.22 J0
G1 Z-7.5
G3 X120.22 Y10 I0.22 J0
X119.78 Y10 I-0.22 J0
G1 Z-7.8
G3 X120.22 Y10 I0.22 J0
X119.78 Y10 I-0.22 J0
G1 Z-8
G3 X120.22 Y10 I0.22 J0
X119.78 Y10 I-0.22 J0
G1 Z15
(When using Fusion for Personal Use, the feedrate of rapid)
(moves is reduced to match the feedrate of cutting moves,)
(which can increase machining time. Unrestricted rapid moves)
(are available with a Fusion Subscription.)

(2D Pocket3)
G0 X119.096 Y98.113
G1 Z15 F150
Z5
Z2.976
X119.128 Y98.098 Z2.796
X119.22 Y98.059 Z2.643
X119.362 Y98.008 Z2.539
X119.534 Y97.96 Z2.5
G3 X120.466 Y102.04 Z2.35 I0.466 J2.04
X119.534 Y97.96 Z2.2 I-0.466 J-2.04
X120.466 Y102.04 Z2.05 I0.466 J2.04
X119.534 Y97.96 Z1.9 I-0.466 J-2.04
X120.466 Y102.04 Z1.75 I0.466 J2.04
X119.534 Y97.96 Z1.6 I-0.466 J-2.04
X120.466 Y102.04 Z1.45 I0.466 J2.04
X119.534 Y97.96 Z1.3 I-0.466 J-2.04
X120.466 Y102.04 Z1.15 I0.466 J2.04
X119.534 Y97.96 Z1 I-0.466 J-2.04
X120.466 Y102.04 Z0.85 I0.466 J2.04
X119.534 Y97.96 Z0.7 I-0.466 J-2.04
X120.466 Y102.04 Z0.55 I0.466 J2.04
X119.534 Y97.96 Z0.4 I-0.466 J-2.04
X120.466 Y102.04 Z0.25 I0.466 J2.04
X119.534 Y97.96 Z0.1 I-0.466 J-2.04
X120.466 Y102.04 Z-0.05 I0.466 J2.04
X119.534 Y97.96 Z-0.2 I-0.466 J-2.04
X122.092 Y100 Z-0.286 I0.466 J2.04
X117.908 Y100 I-2.092 J0
X122.092 Y100 I2.092 J0
X117.908 Y100 Z-0.436 I-2.092 J0
X121.999 Y99.383 Z-0.571 I2.092 J0
X118.001 Y100.617 I-1.999 J0.617
X121.999 Y99.383 I1.999 J-0.617
X118.001 Y100.617 Z-0.721 I-1.999 J0.617
X121.728 Y98.822 Z-0.857 I1.999 J-0.617
X118.272 Y101.178 I-1.728 J1.178
X121.728 Y98.822 I1.728 J-1.178
X118.272 Y101.178 Z-1.007 I-1.728 J1.178
X121.304 Y98.364 Z-1.143 I1.728 J-1.178
X118.696 Y101.636 I-1.304 J1.636
X121.304 Y98.364 I1.304 J-1.636
X118.696 Y101.636 Z-1.293 I-1.304 J1.636
X120.764 Y98.053 Z-1.429 I1.304 J-1.636
X119.236 Y101.947 I-0.764 J1.947
X120.764 Y98.053 I0.764 J-1.947
X119.236 Y101.947 Z-1.579 I-0.764 J1.947
X120.156 Y97.914 Z-1.714 I0.764 J-1.947
X119.844 Y102.086 I-0.156 J2.086
X120.156 Y97.914 I0.156 J-2.086
X119.844 Y102.086 Z-1.864 I-0.156 J2.086
X119.534 Y97.96 Z-2 I0.156 J-2.086
X120.466 Y102.04 I0.466 J2.04
X119.534 Y97.96 I-0.466 J-2.04
X120.466 Y102.04 Z-2.15 I0.466 J2.04
X118.954 Y98.188 Z-2.286 I-0.466 J-2.04
X121.046 Y101.812 I1.046 J1.812
X118.954 Y98.188 I-1.046 J-1.812
X121.046 Y101.812 Z-2.436 I1.046 J1.812
X118.466 Y98.577 Z-2.571 I-1.046 J-1.812
X121.534 Y101.423 I1.534 J1.423
X118.466 Y98.577 I-1.534 J-1.423
X121.534 Y101.423 Z-2.721 I1.534 J1.423
X118.115 Y99.092 Z-2.857 I-1.534 J-1.423
X121.885 Y100.908 I1.885 J0.908
X118.115 Y99.092 I-1.885 J-0.908
X121.885 Y100.908 Z-3.007 I1.885 J0.908
X117.931 Y99.688 Z-3.143 I-1.885 J-0.908
X122.069 Y100.312 I2.069 J0.312
X117.931 Y99.688 I-2.069 J-0.312
X122.069 Y100.312 Z-3.293 I2.069 J0.312
X117.931 Y100.312 Z-3.429 I-2.069 J-0.312
X122.069 Y99.688 I2.069 J-0.312
X117.931 Y100.312 I-2.069 J0.312
X122.069 Y99.688 Z-3.579 I2.069 J-0.312
X118.115 Y100.908 Z-3.714 I-2.069 J0.312
X121.885 Y99.092 I1.885 J-0.908
X118.115 Y100.908 I-1.885 J0.908
X121.885 Y99.092 Z-3.864 I1.885 J-0.908
X118.466 Y101.423 Z-4 I-1.885 J0.908
X121.534 Y98.577 I1.534 J-1.423
X118.466 Y101.423 I-1.534 J1.423
G1 X118.428 Y101.376 Z-3.988
X118.396 Y101.324 Z-3.976
X118.371 Y101.269 Z-3.964
X118.349 Y101.195 Z-3.912
X118.34 Y101.119 Z-3.861
Y101.067 Z-3.783
X118.347 Y101.016 Z-3.706
X118.354 Y100.98 Z-3.524
Z15
X119.096 Y8.113
Z5
Z2.976
X119.128 Y8.098 Z2.796
X119.22 Y8.059 Z2.643
X119.362 Y8.008 Z2.539
X119.534 Y7.96 Z2.5
G3 X120.466 Y12.04 Z2.35 I0.466 J2.04
X119.534 Y7.96 Z2.2 I-0.466 J-2.04
X120.466 Y12.04 Z2.05 I0.466 J2.04
X119.534 Y7.96 Z1.9 I-0.466 J-2.04
X120.466 Y12.04 Z1.75 I0.466 J2.04
X119.534 Y7.96 Z1.6 I-0.466 J-2.04
X120.466 Y12.04 Z1.45 I0.466 J2.04
X119.534 Y7.96 Z1.3 I-0.466 J-2.04
X120.466 Y12.04 Z1.15 I0.466 J2.04
X119.534 Y7.96 Z1 I-0.466 J-2.04
X120.466 Y12.04 Z0.85 I0.466 J2.04
X119.534 Y7.96 Z0.7 I-0.466 J-2.04
X120.466 Y12.04 Z0.55 I0.466 J2.04
X119.534 Y7.96 Z0.4 I-0.466 J-2.04
X120.466 Y12.04 Z0.25 I0.466 J2.04
X119.534 Y7.96 Z0.1 I-0.466 J-2.04
X120.466 Y12.04 Z-0.05 I0.466 J2.04
X119.534 Y7.96 Z-0.2 I-0.466 J-2.04
X122.092 Y10 Z-0.286 I0.466 J2.04
X117.908 Y10 I-2.092 J0
X122.092 Y10 I2.092 J0
X117.908 Y10 Z-0.436 I-2.092 J0
X121.999 Y9.383 Z-0.571 I2.092 J0
X118.001 Y10.617 I-1.999 J0.617
X121.999 Y9.383 I1.999 J-0.617
X118.001 Y10.617 Z-0.721 I-1.999 J0.617
X121.728 Y8.822 Z-0.857 I1.999 J-0.617
X118.272 Y11.178 I-1.728 J1.178
X121.728 Y8.822 I1.728 J-1.178
X118.272 Y11.178 Z-1.007 I-1.728 J1.178
X121.304 Y8.364 Z-1.143 I1.728 J-1.178
X118.696 Y11.636 I-1.304 J1.636
X121.304 Y8.364 I1.304 J-1.636
X118.696 Y11.636 Z-1.293 I-1.304 J1.636
X120.764 Y8.053 Z-1.429 I1.304 J-1.636
X119.236 Y11.947 I-0.764 J1.947
X120.764 Y8.053 I0.764 J-1.947
X119.236 Y11.947 Z-1.579 I-0.764 J1.947
X120.156 Y7.914 Z-1.714 I0.764 J-1.947
X119.844 Y12.086 I-0.156 J2.086
X120.156 Y7.914 I0.156 J-2.086
X119.844 Y12.086 Z-1.864 I-0.156 J2.086
X119.534 Y7.96 Z-2 I0.156 J-2.086
X120.466 Y12.04 I0.466 J2.04
X119.534 Y7.96 I-0.466 J-2.04
X120.466 Y12.04 Z-2.15 I0.466 J2.04
X118.954 Y8.188 Z-2.286 I-0.466 J-2.04
X121.046 Y11.812 I1.046 J1.812
X118.954 Y8.188 I-1.046 J-1.812
X121.046 Y11.812 Z-2.436 I1.046 J1.812
X118.466 Y8.577 Z-2.571 I-1.046 J-1.812
X121.534 Y11.423 I1.534 J1.423
X118.466 Y8.577 I-1.534 J-1.423
X121.534 Y11.423 Z-2.721 I1.534 J1.423
X118.115 Y9.092 Z-2.857 I-1.534 J-1.423
X121.885 Y10.908 I1.885 J0.908
X118.115 Y9.092 I-1.885 J-0.908
X121.885 Y10.908 Z-3.007 I1.885 J0.908
X117.931 Y9.688 Z-3.143 I-1.885 J-0.908
X122.069 Y10.312 I2.069 J0.312
X117.931 Y9.688 I-2.069 J-0.312
X122.069 Y10.312 Z-3.293 I2.069 J0.312
X117.931 Y10.312 Z-3.429 I-2.069 J-0.312
X122.069 Y9.688 I2.069 J-0.312
X117.931 Y10.312 I-2.069 J0.312
X122.069 Y9.688 Z-3.579 I2.069 J-0.312
X118.115 Y10.908 Z-3.714 I-2.069 J0.312
X121.885 Y9.092 I1.885 J-0.908
X118.115 Y10.908 I-1.885 J0.908
X121.885 Y9.092 Z-3.864 I1.885 J-0.908
X118.466 Y11.423 Z-4 I-1.885 J0.908
X121.534 Y8.577 I1.534 J-1.423
X118.466 Y11.423 I-1.534 J1.423
G1 X118.428 Y11.376 Z-3.988
X118.396 Y11.324 Z-3.976
X118.371 Y11.269 Z-3.964
X118.349 Y11.195 Z-3.912
X118.34 Y11.119 Z-3.861
Y11.067 Z-3.783
X118.347 Y11.016 Z-3.706
X118.354 Y10.98 Z-3.524
Z15
X29.096 Y98.113
Z5
Z2.976
X29.128 Y98.098 Z2.796
X29.22 Y98.059 Z2.643
X29.362 Y98.008 Z2.539
X29.534 Y97.96 Z2.5
G3 X30.466 Y102.04 Z2.35 I0.466 J2.04
X29.534 Y97.96 Z2.2 I-0.466 J-2.04
X30.466 Y102.04 Z2.05 I0.466 J2.04
X29.534 Y97.96 Z1.9 I-0.466 J-2.04
X30.466 Y102.04 Z1.75 I0.466 J2.04
X29.534 Y97.96 Z1.6 I-0.466 J-2.04
X30.466 Y102.04 Z1.45 I0.466 J2.04
X29.534 Y97.96 Z1.3 I-0.466 J-2.04
X30.466 Y102.04 Z1.15 I0.466 J2.04
X29.534 Y97.96 Z1 I-0.466 J-2.04
X30.466 Y102.04 Z0.85 I0.466 J2.04
X29.534 Y97.96 Z0.7 I-0.466 J-2.04
X30.466 Y102.04 Z0.55 I0.466 J2.04
X29.534 Y97.96 Z0.4 I-0.466 J-2.04
X30.466 Y102.04 Z0.25 I0.466 J2.04
X29.534 Y97.96 Z0.1 I-0.466 J-2.04
X30.466 Y102.04 Z-0.05 I0.466 J2.04
X29.534 Y97.96 Z-0.2 I-0.466 J-2.04
X32.092 Y100 Z-0.286 I0.466 J2.04
X27.908 Y100 I-2.092 J0
X32.092 Y100 I2.092 J0
X27.908 Y100 Z-0.436 I-2.092 J0
X31.999 Y99.383 Z-0.571 I2.092 J0
X28.001 Y100.617 I-1.999 J0.617
X31.999 Y99.383 I1.999 J-0.617
X28.001 Y100.617 Z-0.721 I-1.999 J0.617
X31.729 Y98.821 Z-0.857 I1.999 J-0.617
X28.271 Y101.179 I-1.729 J1.179
X31.729 Y98.821 I1.729 J-1.179
X28.271 Y101.179 Z-1.007 I-1.729 J1.179
X31.304 Y98.364 Z-1.143 I1.729 J-1.179
X28.696 Y101.636 I-1.304 J1.636
X31.304 Y98.364 I1.304 J-1.636
X28.696 Y101.636 Z-1.293 I-1.304 J1.636
X30.764 Y98.053 Z-1.429 I1.304 J-1.636
X29.236 Y101.947 I-0.764 J1.947
X30.764 Y98.053 I0.764 J-1.947
X29.236 Y101.947 Z-1.579 I-0.764 J1.947
X30.156 Y97.914 Z-1.714 I0.764 J-1.947
X29.844 Y102.086 I-0.156 J2.086
X30.156 Y97.914 I0.156 J-2.086
X29.844 Y102.086 Z-1.864 I-0.156 J2.086
X29.534 Y97.96 Z-2 I0.156 J-2.086
X30.466 Y102.04 I0.466 J2.04
X29.534 Y97.96 I-0.466 J-2.04
X30.466 Y102.04 Z-2.15 I0.466 J2.04
X28.954 Y98.188 Z-2.286 I-0.466 J-2.04
X31.046 Y101.812 I1.046 J1.812
X28.954 Y98.188 I-1.046 J-1.812
X31.046 Y101.812 Z-2.436 I1.046 J1.812
X28.466 Y98.577 Z-2.571 I-1.046 J-1.812
X31.534 Y101.423 I1.534 J1.423
X28.466 Y98.577 I-1.534 J-1.423
X31.534 Y101.423 Z-2.721 I1.534 J1.423
X28.115 Y99.092 Z-2.857 I-1.534 J-1.423
X31.885 Y100.908 I1.885 J0.908
X28.115 Y99.092 I-1.885 J-0.908
X31.885 Y100.908 Z-3.007 I1.885 J0.908
X27.931 Y99.688 Z-3.143 I-1.885 J-0.908
X32.069 Y100.312 I2.069 J0.312
X27.931 Y99.688 I-2.069 J-0.312
X32.069 Y100.312 Z-3.293 I2.069 J0.312
X27.931 Y100.312 Z-3.429 I-2.069 J-0.312
X32.069 Y99.688 I2.069 J-0.312
X27.931 Y100.312 I-2.069 J0.312
X32.069 Y99.688 Z-3.579 I2.069 J-0.312
X28.115 Y100.908 Z-3.714 I-2.069 J0.312
X31.885 Y99.092 I1.885 J-0.908
X28.115 Y100.908 I-1.885 J0.908
X31.885 Y99.092 Z-3.864 I1.885 J-0.908
X28.466 Y101.423 Z-4 I-1.885 J0.908
X31.534 Y98.577 I1.534 J-1.423
X28.466 Y101.423 I-1.534 J1.423
G1 X28.428 Y101.376 Z-3.988
X28.396 Y101.324 Z-3.976
X28.371 Y101.269 Z-3.964
X28.349 Y101.195 Z-3.912
X28.34 Y101.119 Z-3.861
Y101.067 Z-3.783
X28.347 Y101.016 Z-3.706
X28.354 Y100.981 Z-3.524
Z15
X29.096 Y8.113
Z5
Z2.976
X29.128 Y8.098 Z2.796
X29.22 Y8.059 Z2.643
X29.362 Y8.008 Z2.539
X29.534 Y7.96 Z2.5
G3 X30.466 Y12.04 Z2.35 I0.466 J2.04
X29.534 Y7.96 Z2.2 I-0.466 J-2.04
X30.466 Y12.04 Z2.05 I0.466 J2.04
X29.534 Y7.96 Z1.9 I-0.466 J-2.04
X30.466 Y12.04 Z1.75 I0.466 J2.04
X29.534 Y7.96 Z1.6 I-0.466 J-2.04
X30.466 Y12.04 Z1.45 I0.466 J2.04
X29.534 Y7.96 Z1.3 I-0.466 J-2.04
X30.466 Y12.04 Z1.15 I0.466 J2.04
X29.534 Y7.96 Z1 I-0.466 J-2.04
X30.466 Y12.04 Z0.85 I0.466 J2.04
X29.534 Y7.96 Z0.7 I-0.466 J-2.04
X30.466 Y12.04 Z0.55 I0.466 J2.04
X29.534 Y7.96 Z0.4 I-0.466 J-2.04
X30.466 Y12.04 Z0.25 I0.466 J2.04
X29.534 Y7.96 Z0.1 I-0.466 J-2.04
X30.466 Y12.04 Z-0.05 I0.466 J2.04
X29.534 Y7.96 Z-0.2 I-0.466 J-2.04
X32.092 Y10 Z-0.286 I0.466 J2.04
X27.908 Y10 I-2.092 J0
X32.092 Y10 I2.092 J0
X27.908 Y10 Z-0.436 I-2.092 J0
X31.999 Y9.383 Z-0.571 I2.092 J0
X28.001 Y10.617 I-1.999 J0.617
X31.999 Y9.383 I1.999 J-0.617
X28.001 Y10.617 Z-0.721 I-1.999 J0.617
X31.729 Y8.821 Z-0.857 I1.999 J-0.617
X28.271 Y11.179 I-1.729 J1.179
X31.729 Y8.821 I1.729 J-1.179
X28.271 Y11.179 Z-1.007 I-1.729 J1.179
X31.304 Y8.364 Z-1.143 I1.729 J-1.179
X28.696 Y11.636 I-1.304 J1.636
X31.304 Y8.364 I1.304 J-1.636
X28.696 Y11.636 Z-1.293 I-1.304 J1.636
X30.764 Y8.053 Z-1.429 I1.304 J-1.636
X29.236 Y11.947 I-0.764 J1.947
X30.764 Y8.053 I0.764 J-1.947
X29.236 Y11.947 Z-1.579 I-0.764 J1.947
X30.156 Y7.914 Z-1.714 I0.764 J-1.947
X29.844 Y12.086 I-0.156 J2.086
X30.156 Y7.914 I0.156 J-2.086
X29.844 Y12.086 Z-1.864 I-0.156 J2.086
X29.534 Y7.96 Z-2 I0.156 J-2.086
X30.466 Y12.04 I0.466 J2.04
X29.534 Y7.96 I-0.466 J-2.04
X30.466 Y12.04 Z-2.15 I0.466 J2.04
X28.954 Y8.188 Z-2.286 I-0.466 J-2.04
X31.046 Y11.812 I1.046 J1.812
X28.954 Y8.188 I-1.046 J-1.812
X31.046 Y11.812 Z-2.436 I1.046 J1.812
X28.466 Y8.577 Z-2.571 I-1.046 J-1.812
X31.534 Y11.423 I1.534 J1.423
X28.466 Y8.577 I-1.534 J-1.423
X31.534 Y11.423 Z-2.721 I1.534 J1.423
X28.115 Y9.092 Z-2.857 I-1.534 J-1.423
X31.885 Y10.908 I1.885 J0.908
X28.115 Y9.092 I-1.885 J-0.908
X31.885 Y10.908 Z-3.007 I1.885 J0.908
X27.931 Y9.688 Z-3.143 I-1.885 J-0.908
X32.069 Y10.312 I2.069 J0.312
X27.931 Y9.688 I-2.069 J-0.312
X32.069 Y10.312 Z-3.293 I2.069 J0.312
X27.931 Y10.312 Z-3.429 I-2.069 J-0.312
X32.069 Y9.688 I2.069 J-0.312
X27.931 Y10.312 I-2.069 J0.312
X32.069 Y9.688 Z-3.579 I2.069 J-0.312
X28.115 Y10.908 Z-3.714 I-2.069 J0.312
X31.885 Y9.092 I1.885 J-0.908
X28.115 Y10.908 I-1.885 J0.908
X31.885 Y9.092 Z-3.864 I1.885 J-0.908
X28.466 Y11.423 Z-4 I-1.885 J0.908
X31.534 Y8.577 I1.534 J-1.423
X28.466 Y11.423 I-1.534 J1.423
G1 X28.428 Y11.376 Z-3.988
X28.396 Y11.324 Z-3.976
X28.371 Y11.269 Z-3.964
X28.349 Y11.195 Z-3.912
X28.34 Y11.119 Z-3.861
Y11.067 Z-3.783
X28.347 Y11.016 Z-3.706
X28.354 Y10.981 Z-3.524
Z15
(When using Fusion for Personal Use, the feedrate of rapid)
(moves is reduced to match the feedrate of cutting moves,)
(which can increase machining time. Unrestricted rapid moves)
(are available with a Fusion Subscription.)

(2D Contour10)
G0 X-3.808 Y54.524
G1 Z15 F150
Z5
Z0.952
Z0.176
G18 G2 X-3.332 Z-0.3 I0.476 K0
G1 X-2.856
G17 G3 X-2.38 Y55 I0 J0.476
G1 Y110
G2 X0 Y112.38 I2.38 J0
G1 X150
G2 X152.38 Y110 I0 J-2.38
G1 Y0
G2 X150 Y-2.38 I-2.38 J0
G1 X0
G2 X-2.38 Y0 I0 J2.38
G1 Y55
G3 X-2.856 Y55.476 I-0.476 J0
G1 X-3.332
G18 G3 X-3.808 Z0.176 I0 K0.476
G1 Z5
Y54.524
Z0.652
Z-0.124
G2 X-3.332 Z-0.6 I0.476 K0
G1 X-2.856
G17 G3 X-2.38 Y55 I0 J0.476
G1 Y110
G2 X0 Y112.38 I2.38 J0
G1 X150
G2 X152.38 Y110 I0 J-2.38
G1 Y0
G2 X150 Y-2.38 I-2.38 J0
G1 X0
G2 X-2.38 Y0 I0 J2.38
G1 Y55
G3 X-2.856 Y55.476 I-0.476 J0
G1 X-3.332
G18 G3 X-3.808 Z-0.124 I0 K0.476
G1 Z5
Y54.524
Z0.352
Z-0.424
G2 X-3.332 Z-0.9 I0.476 K0
G1 X-2.856
G17 G3 X-2.38 Y55 I0 J0.476
G1 Y110
G2 X0 Y112.38 I2.38 J0
G1 X150
G2 X152.38 Y110 I0 J-2.38
G1 Y0
G2 X150 Y-2.38 I-2.38 J0
G1 X0
G2 X-2.38 Y0 I0 J2.38
G1 Y55
G3 X-2.856 Y55.476 I-0.476 J0
G1 X-3.332
G18 G3 X-3.808 Z-0.424 I0 K0.476
G1 Z5
Y54.524
Z0.052
Z-0.724
G2 X-3.332 Z-1.2 I0.476 K0
G1 X-2.856
G17 G3 X-2.38 Y55 I0 J0.476
G1 Y110
G2 X0 Y112.38 I2.38 J0
G1 X150
G2 X152.38 Y110 I0 J-2.38
G1 Y0
G2 X150 Y-2.38 I-2.38 J0
G1 X0
G2 X-2.38 Y0 I0 J2.38
G1 Y55
G3 X-2.856 Y55.476 I-0.476 J0
G1 X-3.332
G18 G3 X-3.808 Z-0.724 I0 K0.476
G1 Z5
Y54.524
Z-0.248
Z-1.024
G2 X-3.332 Z-1.5 I0.476 K0
G1 X-2.856
G17 G3 X-2.38 Y55 I0 J0.476
G1 Y110
G2 X0 Y112.38 I2.38 J0
G1 X150
G2 X152.38 Y110 I0 J-2.38
G1 Y0
G2 X150 Y-2.38 I-2.38 J0
G1 X0
G2 X-2.38 Y0 I0 J2.38
G1 Y55
G3 X-2.856 Y55.476 I-0.476 J0
G1 X-3.332
G18 G3 X-3.808 Z-1.024 I0 K0.476
G1 Z5
Y54.524
Z-0.548
Z-1.324
G2 X-3.332 Z-1.8 I0.476 K0
G1 X-2.856
G17 G3 X-2.38 Y55 I0 J0.476
G1 Y110
G2 X0 Y112.38 I2.38 J0
G1 X150
G2 X152.38 Y110 I0 J-2.38
G1 Y0
G2 X150 Y-2.38 I-2.38 J0
G1 X0
G2 X-2.38 Y0 I0 J2.38
G1 Y55
G3 X-2.856 Y55.476 I-0.476 J0
G1 X-3.332
G18 G3 X-3.808 Z-1.324 I0 K0.476
G1 Z5
Y54.524
Z-0.848
Z-1.624
G2 X-3.332 Z-2.1 I0.476 K0
G1 X-2.856
G17 G3 X-2.38 Y55 I0 J0.476
G1 Y110
G2 X0 Y112.38 I2.38 J0
G1 X150
G2 X152.38 Y110 I0 J-2.38
G1 Y0
G2 X150 Y-2.38 I-2.38 J0
G1 X0
G2 X-2.38 Y0 I0 J2.38
G1 Y55
G3 X-2.856 Y55.476 I-0.476 J0
G1 X-3.332
G18 G3 X-3.808 Z-1.624 I0 K0.476
G1 Z5
Y54.524
Z-1.148
Z-1.924
G2 X-3.332 Z-2.4 I0.476 K0
G1 X-2.856
G17 G3 X-2.38 Y55 I0 J0.476
G1 Y110
G2 X0 Y112.38 I2.38 J0
G1 X150
G2 X152.38 Y110 I0 J-2.38
G1 Y0
G2 X150 Y-2.38 I-2.38 J0
G1 X0
G2 X-2.38 Y0 I0 J2.38
G1 Y55
G3 X-2.856 Y55.476 I-0.476 J0
G1 X-3.332
G18 G3 X-3.808 Z-1.924 I0 K0.476
G1 Z5
Y54.524
Z-1.448
Z-2.224
G2 X-3.332 Z-2.7 I0.476 K0
G1 X-2.856
G17 G3 X-2.38 Y55 I0 J0.476
G1 Y110
G2 X0 Y112.38 I2.38 J0
G1 X150
G2 X152.38 Y110 I0 J-2.38
G1 Y0
G2 X150 Y-2.38 I-2.38 J0
G1 X0
G2 X-2.38 Y0 I0 J2.38
G1 Y55
G3 X-2.856 Y55.476 I-0.476 J0
G1 X-3.332
G18 G3 X-3.808 Z-2.224 I0 K0.476
G1 Z5
Y54.524
Z-1.748
Z-2.524
G2 X-3.332 Z-3 I0.476 K0
G1 X-2.856
G17 G3 X-2.38 Y55 I0 J0.476
G1 Y110
G2 X0 Y112.38 I2.38 J0
G1 X150
G2 X152.38 Y110 I0 J-2.38
G1 Y0
G2 X150 Y-2.38 I-2.38 J0
G1 X0
G2 X-2.38 Y0 I0 J2.38
G1 Y55
G3 X-2.856 Y55.476 I-0.476 J0
G1 X-3.332
G18 G3 X-3.808 Z-2.524 I0 K0.476
G1 Z5
Y54.524
Z-2.048
Z-2.824
G2 X-3.332 Z-3.3 I0.476 K0
G1 X-2.856
G17 G3 X-2.38 Y55 I0 J0.476
G1 Y110
G2 X0 Y112.38 I2.38 J0
G1 X150
G2 X152.38 Y110 I0 J-2.38
G1 Y0
G2 X150 Y-2.38 I-2.38 J0
G1 X0
G2 X-2.38 Y0 I0 J2.38
G1 Y55
G3 X-2.856 Y55.476 I-0.476 J0
G1 X-3.332
G18 G3 X-3.808 Z-2.824 I0 K0.476
G1 Z5
Y54.524
Z-2.348
Z-3.124
G2 X-3.332 Z-3.6 I0.476 K0
G1 X-2.856
G17 G3 X-2.38 Y55 I0 J0.476
G1 Y110
G2 X0 Y112.38 I2.38 J0
G1 X150
G2 X152.38 Y110 I0 J-2.38
G1 Y0
G2 X150 Y-2.38 I-2.38 J0
G1 X0
G2 X-2.38 Y0 I0 J2.38
G1 Y55
G3 X-2.856 Y55.476 I-0.476 J0
G1 X-3.332
G18 G3 X-3.808 Z-3.124 I0 K0.476
G1 Z5
Y54.524
Z-2.648
Z-3.424
G2 X-3.332 Z-3.9 I0.476 K0
G1 X-2.856
G17 G3 X-2.38 Y55 I0 J0.476
G1 Y110
G2 X0 Y112.38 I2.38 J0
G1 X150
G2 X152.38 Y110 I0 J-2.38
G1 Y0
G2 X150 Y-2.38 I-2.38 J0
G1 X0
G2 X-2.38 Y0 I0 J2.38
G1 Y55
G3 X-2.856 Y55.476 I-0.476 J0
G1 X-3.332
G18 G3 X-3.808 Z-3.424 I0 K0.476
G1 Z5
Y54.524
Z-2.948
Z-3.724
G2 X-3.332 Z-4.2 I0.476 K0
G1 X-2.856
G17 G3 X-2.38 Y55 I0 J0.476
G1 Y110
G2 X0 Y112.38 I2.38 J0
G1 X150
G2 X152.38 Y110 I0 J-2.38
G1 Y0
G2 X150 Y-2.38 I-2.38 J0
G1 X0
G2 X-2.38 Y0 I0 J2.38
G1 Y55
G3 X-2.856 Y55.476 I-0.476 J0
G1 X-3.332
G18 G3 X-3.808 Z-3.724 I0 K0.476
G1 Z5
Y54.524
Z-3.248
Z-4.024
G2 X-3.332 Z-4.5 I0.476 K0
G1 X-2.856
G17 G3 X-2.38 Y55 I0 J0.476
G1 Y110
G2 X0 Y112.38 I2.38 J0
G1 X150
G2 X152.38 Y110 I0 J-2.38
G1 Y0
G2 X150 Y-2.38 I-2.38 J0
G1 X0
G2 X-2.38 Y0 I0 J2.38
G1 Y55
G3 X-2.856 Y55.476 I-0.476 J0
G1 X-3.332
G18 G3 X-3.808 Z-4.024 I0 K0.476
G1 Z5
Y54.524
Z-3.548
Z-4.324
G2 X-3.332 Z-4.8 I0.476 K0
G1 X-2.856
G17 G3 X-2.38 Y55 I0 J0.476
G1 Y110
G2 X0 Y112.38 I2.38 J0
G1 X150
G2 X152.38 Y110 I0 J-2.38
G1 Y0
G2 X150 Y-2.38 I-2.38 J0
G1 X0
G2 X-2.38 Y0 I0 J2.38
G1 Y55
G3 X-2.856 Y55.476 I-0.476 J0
G1 X-3.332
G18 G3 X-3.808 Z-4.324 I0 K0.476
G1 Z5
Y54.524
Z-3.848
Z-4.624
G2 X-3.332 Z-5.1 I0.476 K0
G1 X-2.856
G17 G3 X-2.38 Y55 I0 J0.476
G1 Y110
G2 X0 Y112.38 I2.38 J0
G1 X150
G2 X152.38 Y110 I0 J-2.38
G1 Y0
G2 X150 Y-2.38 I-2.38 J0
G1 X0
G2 X-2.38 Y0 I0 J2.38
G1 Y55
G3 X-2.856 Y55.476 I-0.476 J0
G1 X-3.332
G18 G3 X-3.808 Z-4.624 I0 K0.476
G1 Z5
Y54.524
Z-4.148
Z-4.924
G2 X-3.332 Z-5.4 I0.476 K0
G1 X-2.856
G17 G3 X-2.38 Y55 I0 J0.476
G1 Y110
G2 X0 Y112.38 I2.38 J0
G1 X150
G2 X152.38 Y110 I0 J-2.38
G1 Y0
G2 X150 Y-2.38 I-2.38 J0
G1 X0
G2 X-2.38 Y0 I0 J2.38
G1 Y55
G3 X-2.856 Y55.476 I-0.476 J0
G1 X-3.332
G18 G3 X-3.808 Z-4.924 I0 K0.476
G1 Z5
Y54.524
Z-4.448
Z-5.224
G2 X-3.332 Z-5.7 I0.476 K0
G1 X-2.856
G17 G3 X-2.38 Y55 I0 J0.476
G1 Y110
G2 X0 Y112.38 I2.38 J0
G1 X150
G2 X152.38 Y110 I0 J-2.38
G1 Y0
G2 X150 Y-2.38 I-2.38 J0
G1 X0
G2 X-2.38 Y0 I0 J2.38
G1 Y55
G3 X-2.856 Y55.476 I-0.476 J0
G1 X-3.332
G18 G3 X-3.808 Z-5.224 I0 K0.476
G1 Z5
Y54.524
Z-4.748
Z-5.524
G2 X-3.332 Z-6 I0.476 K0
G1 X-2.856
G17 G3 X-2.38 Y55 I0 J0.476
G1 Y110
G2 X0 Y112.38 I2.38 J0
G1 X150
G2 X152.38 Y110 I0 J-2.38
G1 Y0
G2 X150 Y-2.38 I-2.38 J0
G1 X0
G2 X-2.38 Y0 I0 J2.38
G1 Y55
G3 X-2.856 Y55.476 I-0.476 J0
G1 X-3.332
G18 G3 X-3.808 Z-5.524 I0 K0.476
G1 Z5
Y54.524
Z-5.048
Z-5.824
G2 X-3.332 Z-6.3 I0.476 K0
G1 X-2.856
G17 G3 X-2.38 Y55 I0 J0.476
G1 Y110
G2 X0 Y112.38 I2.38 J0
G1 X150
G2 X152.38 Y110 I0 J-2.38
G1 Y0
G2 X150 Y-2.38 I-2.38 J0
G1 X0
G2 X-2.38 Y0 I0 J2.38
G1 Y55
G3 X-2.856 Y55.476 I-0.476 J0
G1 X-3.332
G18 G3 X-3.808 Z-5.824 I0 K0.476
G1 Z5
Y54.524
Z-5.348
Z-6.124
G2 X-3.332 Z-6.6 I0.476 K0
G1 X-2.856
G17 G3 X-2.38 Y55 I0 J0.476
G1 Y110
G2 X0 Y112.38 I2.38 J0
G1 X150
G2 X152.38 Y110 I0 J-2.38
G1 Y0
G2 X150 Y-2.38 I-2.38 J0
G1 X0
G2 X-2.38 Y0 I0 J2.38
G1 Y55
G3 X-2.856 Y55.476 I-0.476 J0
G1 X-3.332
G18 G3 X-3.808 Z-6.124 I0 K0.476
G1 Z5
Y54.524
Z-5.648
Z-6.424
G2 X-3.332 Z-6.9 I0.476 K0
G1 X-2.856
G17 G3 X-2.38 Y55 I0 J0.476
G1 Y110
G2 X0 Y112.38 I2.38 J0
G1 X150
G2 X152.38 Y110 I0 J-2.38
G1 Y0
G2 X150 Y-2.38 I-2.38 J0
G1 X0
G2 X-2.38 Y0 I0 J2.38
G1 Y55
G3 X-2.856 Y55.476 I-0.476 J0
G1 X-3.332
G18 G3 X-3.808 Z-6.424 I0 K0.476
G1 Z5
Y54.524
Z-5.948
Z-6.724
G2 X-3.332 Z-7.2 I0.476 K0
G1 X-2.856
G17 G3 X-2.38 Y55 I0 J0.476
G1 Y110
G2 X0 Y112.38 I2.38 J0
G1 X150
G2 X152.38 Y110 I0 J-2.38
G1 Y0
G2 X150 Y-2.38 I-2.38 J0
G1 X0
G2 X-2.38 Y0 I0 J2.38
G1 Y55
G3 X-2.856 Y55.476 I-0.476 J0
G1 X-3.332
G18 G3 X-3.808 Z-6.724 I0 K0.476
G1 Z5
Y54.524
Z-6.248
Z-7.024
G2 X-3.332 Z-7.5 I0.476 K0
G1 X-2.856
G17 G3 X-2.38 Y55 I0 J0.476
G1 Y110
G2 X0 Y112.38 I2.38 J0
G1 X150
G2 X152.38 Y110 I0 J-2.38
G1 Y0
G2 X150 Y-2.38 I-2.38 J0
G1 X0
G2 X-2.38 Y0 I0 J2.38
G1 Y55
G3 X-2.856 Y55.476 I-0.476 J0
G1 X-3.332
G18 G3 X-3.808 Z-7.024 I0 K0.476
G1 Z5
Y54.524
Z-6.548
Z-7.324
G2 X-3.332 Z-7.8 I0.476 K0
G1 X-2.856
G17 G3 X-2.38 Y55 I0 J0.476
G1 Y110
G2 X0 Y112.38 I2.38 J0
G1 X150
G2 X152.38 Y110 I0 J-2.38
G1 Y0
G2 X150 Y-2.38 I-2.38 J0
G1 X0
G2 X-2.38 Y0 I0 J2.38
G1 Y55
G3 X-2.856 Y55.476 I-0.476 J0
G1 X-3.332
G18 G3 X-3.808 Z-7.324 I0 K0.476
G1 Z5
Y54.524
Z-6.848
Z-7.524
G2 X-3.332 Z-8 I0.476 K0
G1 X-2.856
G17 G3 X-2.38 Y55 I0 J0.476
G1 Y110
G2 X0 Y112.38 I2.38 J0
G1 X150
G2 X152.38 Y110 I0 J-2.38
G1 Y0
G2 X150 Y-2.38 I-2.38 J0
G1 X0
G2 X-2.38 Y0 I0 J2.38
G1 Y55
G3 X-2.856 Y55.476 I-0.476 J0
G1 X-3.332
G18 G3 X-3.808 Z-7.524 I0 K0.476
G1 Z15
G17

M9
M5
M30
