(cartarm_mount_panel)
(Machine)
(  vendor: Autodesk)
(  model: Generic 3-axis)
(  description: This machine has XY axis on the Table and Z axis on the Head)
(T1 D=4.76 CR=0 - ZMIN=-4.5 - flat end mill)
G90 G94
G17
G21
(-Attention- Property Safe Retracts is set to Clearance Height.)
(Ensure the clearance height will clear the part and or fixtures.)
(Raise the Z-axis to a safe height before starting the program.)

(Drill1)
T1
S24000 M3
G17 G90 G94
G54
M8
G0 X53.2 Y52.4
Z15
G0 Z5
Z4
Z1
G1 Z-1.6 F50
G0 Z4
Z0.4
G1 Z-2.2 F50
G0 Z4
Z-0.2
G1 Z-2.8 F50
G0 Z4
Z-0.8
G1 Z-3.4 F50
G0 Z4
Z-1.4
G1 Z-4 F50
G0 Z4
Z-2
G1 Z-4.5 F50
G0 Z5
X103.2
Z4
Z1
G1 Z-1.6 F50
G0 Z4
Z0.4
G1 Z-2.2 F50
G0 Z4
Z-0.2
G1 Z-2.8 F50
G0 Z4
Z-0.8
G1 Z-3.4 F50
G0 Z4
Z-1.4
G1 Z-4 F50
G0 Z4
Z-2
G1 Z-4.5 F50
G0 Z5
X153.2
Z4
Z1
G1 Z-1.6 F50
G0 Z4
Z0.4
G1 Z-2.2 F50
G0 Z4
Z-0.2
G1 Z-2.8 F50
G0 Z4
Z-0.8
G1 Z-3.4 F50
G0 Z4
Z-1.4
G1 Z-4 F50
G0 Z4
Z-2
G1 Z-4.5 F50
G0 Z5
X203.2
Z4
Z1
G1 Z-1.6 F50
G0 Z4
Z0.4
G1 Z-2.2 F50
G0 Z4
Z-0.2
G1 Z-2.8 F50
G0 Z4
Z-0.8
G1 Z-3.4 F50
G0 Z4
Z-1.4
G1 Z-4 F50
G0 Z4
Z-2
G1 Z-4.5 F50
G0 Z5
X253.2
Z4
Z1
G1 Z-1.6 F50
G0 Z4
Z0.4
G1 Z-2.2 F50
G0 Z4
Z-0.2
G1 Z-2.8 F50
G0 Z4
Z-0.8
G1 Z-3.4 F50
G0 Z4
Z-1.4
G1 Z-4 F50
G0 Z4
Z-2
G1 Z-4.5 F50
G0 Z5
X243.2 Y112.4
Z4
Z1
G1 Z-1.6 F50
G0 Z4
Z0.4
G1 Z-2.2 F50
G0 Z4
Z-0.2
G1 Z-2.8 F50
G0 Z4
Z-0.8
G1 Z-3.4 F50
G0 Z4
Z-1.4
G1 Z-4 F50
G0 Z4
Z-2
G1 Z-4.5 F50
G0 Z5
X163.2
Z4
Z1
G1 Z-1.6 F50
G0 Z4
Z0.4
G1 Z-2.2 F50
G0 Z4
Z-0.2
G1 Z-2.8 F50
G0 Z4
Z-0.8
G1 Z-3.4 F50
G0 Z4
Z-1.4
G1 Z-4 F50
G0 Z4
Z-2
G1 Z-4.5 F50
G0 Z5
Y192.4
Z4
Z1
G1 Z-1.6 F50
G0 Z4
Z0.4
G1 Z-2.2 F50
G0 Z4
Z-0.2
G1 Z-2.8 F50
G0 Z4
Z-0.8
G1 Z-3.4 F50
G0 Z4
Z-1.4
G1 Z-4 F50
G0 Z4
Z-2
G1 Z-4.5 F50
G0 Z5
X243.2
Z4
Z1
G1 Z-1.6 F50
G0 Z4
Z0.4
G1 Z-2.2 F50
G0 Z4
Z-0.2
G1 Z-2.8 F50
G0 Z4
Z-0.8
G1 Z-3.4 F50
G0 Z4
Z-1.4
G1 Z-4 F50
G0 Z4
Z-2
G1 Z-4.5 F50
G0 Z5
X253.2 Y252.4
Z4
Z1
G1 Z-1.6 F50
G0 Z4
Z0.4
G1 Z-2.2 F50
G0 Z4
Z-0.2
G1 Z-2.8 F50
G0 Z4
Z-0.8
G1 Z-3.4 F50
G0 Z4
Z-1.4
G1 Z-4 F50
G0 Z4
Z-2
G1 Z-4.5 F50
G0 Z5
X203.2
Z4
Z1
G1 Z-1.6 F50
G0 Z4
Z0.4
G1 Z-2.2 F50
G0 Z4
Z-0.2
G1 Z-2.8 F50
G0 Z4
Z-0.8
G1 Z-3.4 F50
G0 Z4
Z-1.4
G1 Z-4 F50
G0 Z4
Z-2
G1 Z-4.5 F50
G0 Z5
X153.2
Z4
Z1
G1 Z-1.6 F50
G0 Z4
Z0.4
G1 Z-2.2 F50
G0 Z4
Z-0.2
G1 Z-2.8 F50
G0 Z4
Z-0.8
G1 Z-3.4 F50
G0 Z4
Z-1.4
G1 Z-4 F50
G0 Z4
Z-2
G1 Z-4.5 F50
G0 Z5
X103.2
Z4
Z1
G1 Z-1.6 F50
G0 Z4
Z0.4
G1 Z-2.2 F50
G0 Z4
Z-0.2
G1 Z-2.8 F50
G0 Z4
Z-0.8
G1 Z-3.4 F50
G0 Z4
Z-1.4
G1 Z-4 F50
G0 Z4
Z-2
G1 Z-4.5 F50
G0 Z5
X53.2
Z4
Z1
G1 Z-1.6 F50
G0 Z4
Z0.4
G1 Z-2.2 F50
G0 Z4
Z-0.2
G1 Z-2.8 F50
G0 Z4
Z-0.8
G1 Z-3.4 F50
G0 Z4
Z-1.4
G1 Z-4 F50
G0 Z4
Z-2
G1 Z-4.5 F50
G0 Z5
Z15
(When using Fusion for Personal Use, the feedrate of rapid)
(moves is reduced to match the feedrate of cutting moves,)
(which can increase machining time. Unrestricted rapid moves)
(are available with a Fusion Subscription.)

(2D Contour1)
G0 X236.37 Y152.4
G1 Z15 F150
Z5
Z0.952 F50
Z-0.3
G3 X170.03 Y152.4 I-33.17 J0 F150
X236.37 Y152.4 I33.17 J0
G1 Z-0.6 F50
G3 X170.03 Y152.4 I-33.17 J0 F150
X236.37 Y152.4 I33.17 J0
G1 Z-0.9 F50
G3 X170.03 Y152.4 I-33.17 J0 F150
X236.37 Y152.4 I33.17 J0
G1 Z-1.2 F50
G3 X170.03 Y152.4 I-33.17 J0 F150
X236.37 Y152.4 I33.17 J0
G1 Z-1.5 F50
G3 X170.03 Y152.4 I-33.17 J0 F150
X236.37 Y152.4 I33.17 J0
G1 Z-1.8 F50
G3 X170.03 Y152.4 I-33.17 J0 F150
X236.37 Y152.4 I33.17 J0
G1 Z-2.1 F50
G3 X170.03 Y152.4 I-33.17 J0 F150
X236.37 Y152.4 I33.17 J0
G1 Z-2.4 F50
G3 X170.03 Y152.4 I-33.17 J0 F150
X236.37 Y152.4 I33.17 J0
G1 Z-2.7 F50
G3 X170.03 Y152.4 I-33.17 J0 F150
X236.37 Y152.4 I33.17 J0
G1 Z-3 F50
G3 X170.03 Y152.4 I-33.17 J0 F150
X236.37 Y152.4 I33.17 J0
G1 Z-3.3 F50
G3 X170.03 Y152.4 I-33.17 J0 F150
X236.37 Y152.4 I33.17 J0
G1 Z-3.6 F50
G3 X170.03 Y152.4 I-33.17 J0 F150
X236.37 Y152.4 I33.17 J0
G1 Z-3.9 F50
G3 X170.03 Y152.4 I-33.17 J0 F150
X236.37 Y152.4 I33.17 J0
G1 Z-4.2 F50
G3 X170.03 Y152.4 I-33.17 J0 F150
X236.37 Y152.4 I33.17 J0
G1 Z-4.5 F50
G3 X170.03 Y152.4 I-33.17 J0 F150
X236.37 Y152.4 I33.17 J0
G1 Z5
X279.82
Z0.952 F50
Z-0.3
G3 X276.58 Y152.4 I-1.62 J0 F150
X279.82 Y152.4 I1.62 J0
G1 Z-0.6 F50
G3 X276.58 Y152.4 I-1.62 J0 F150
X279.82 Y152.4 I1.62 J0
G1 Z-0.9 F50
G3 X276.58 Y152.4 I-1.62 J0 F150
X279.82 Y152.4 I1.62 J0
G1 Z-1.2 F50
G3 X276.58 Y152.4 I-1.62 J0 F150
X279.82 Y152.4 I1.62 J0
G1 Z-1.5 F50
G3 X276.58 Y152.4 I-1.62 J0 F150
X279.82 Y152.4 I1.62 J0
G1 Z-1.8 F50
G3 X276.58 Y152.4 I-1.62 J0 F150
X279.82 Y152.4 I1.62 J0
G1 Z-2.1 F50
G3 X276.58 Y152.4 I-1.62 J0 F150
X279.82 Y152.4 I1.62 J0
G1 Z-2.4 F50
G3 X276.58 Y152.4 I-1.62 J0 F150
X279.82 Y152.4 I1.62 J0
G1 Z-2.7 F50
G3 X276.58 Y152.4 I-1.62 J0 F150
X279.82 Y152.4 I1.62 J0
G1 Z-3 F50
G3 X276.58 Y152.4 I-1.62 J0 F150
X279.82 Y152.4 I1.62 J0
G1 Z-3.3 F50
G3 X276.58 Y152.4 I-1.62 J0 F150
X279.82 Y152.4 I1.62 J0
G1 Z-3.6 F50
G3 X276.58 Y152.4 I-1.62 J0 F150
X279.82 Y152.4 I1.62 J0
G1 Z-3.9 F50
G3 X276.58 Y152.4 I-1.62 J0 F150
X279.82 Y152.4 I1.62 J0
G1 Z-4.2 F50
G3 X276.58 Y152.4 I-1.62 J0 F150
X279.82 Y152.4 I1.62 J0
G1 Z-4.5 F50
G3 X276.58 Y152.4 I-1.62 J0 F150
X279.82 Y152.4 I1.62 J0
G1 Z5
Y277.4
Z0.952 F50
Z-0.3
G3 X276.58 Y277.4 I-1.62 J0 F150
X279.82 Y277.4 I1.62 J0
G1 Z-0.6 F50
G3 X276.58 Y277.4 I-1.62 J0 F150
X279.82 Y277.4 I1.62 J0
G1 Z-0.9 F50
G3 X276.58 Y277.4 I-1.62 J0 F150
X279.82 Y277.4 I1.62 J0
G1 Z-1.2 F50
G3 X276.58 Y277.4 I-1.62 J0 F150
X279.82 Y277.4 I1.62 J0
G1 Z-1.5 F50
G3 X276.58 Y277.4 I-1.62 J0 F150
X279.82 Y277.4 I1.62 J0
G1 Z-1.8 F50
G3 X276.58 Y277.4 I-1.62 J0 F150
X279.82 Y277.4 I1.62 J0
G1 Z-2.1 F50
G3 X276.58 Y277.4 I-1.62 J0 F150
X279.82 Y277.4 I1.62 J0
G1 Z-2.4 F50
G3 X276.58 Y277.4 I-1.62 J0 F150
X279.82 Y277.4 I1.62 J0
G1 Z-2.7 F50
G3 X276.58 Y277.4 I-1.62 J0 F150
X279.82 Y277.4 I1.62 J0
G1 Z-3 F50
G3 X276.58 Y277.4 I-1.62 J0 F150
X279.82 Y277.4 I1.62 J0
G1 Z-3.3 F50
G3 X276.58 Y277.4 I-1.62 J0 F150
X279.82 Y277.4 I1.62 J0
G1 Z-3.6 F50
G3 X276.58 Y277.4 I-1.62 J0 F150
X279.82 Y277.4 I1.62 J0
G1 Z-3.9 F50
G3 X276.58 Y277.4 I-1.62 J0 F150
X279.82 Y277.4 I1.62 J0
G1 Z-4.2 F50
G3 X276.58 Y277.4 I-1.62 J0 F150
X279.82 Y277.4 I1.62 J0
G1 Z-4.5 F50
G3 X276.58 Y277.4 I-1.62 J0 F150
X279.82 Y277.4 I1.62 J0
G1 Z5
X119.765 Y152.819
Z0.952 F50
Z-0.3
G3 X116.635 Y151.981 I-1.565 J-0.419 F150
X119.765 Y152.819 I1.565 J0.419
G1 Z-0.6 F50
G3 X116.635 Y151.981 I-1.565 J-0.419 F150
X119.765 Y152.819 I1.565 J0.419
G1 Z-0.9 F50
G3 X116.635 Y151.981 I-1.565 J-0.419 F150
X119.765 Y152.819 I1.565 J0.419
G1 Z-1.2 F50
G3 X116.635 Y151.981 I-1.565 J-0.419 F150
X119.765 Y152.819 I1.565 J0.419
G1 Z-1.5 F50
G3 X116.635 Y151.981 I-1.565 J-0.419 F150
X119.765 Y152.819 I1.565 J0.419
G1 Z-1.8 F50
G3 X116.635 Y151.981 I-1.565 J-0.419 F150
X119.765 Y152.819 I1.565 J0.419
G1 Z-2.1 F50
G3 X116.635 Y151.981 I-1.565 J-0.419 F150
X119.765 Y152.819 I1.565 J0.419
G1 Z-2.4 F50
G3 X116.635 Y151.981 I-1.565 J-0.419 F150
X119.765 Y152.819 I1.565 J0.419
G1 Z-2.7 F50
G3 X116.635 Y151.981 I-1.565 J-0.419 F150
X119.765 Y152.819 I1.565 J0.419
G1 Z-3 F50
G3 X116.635 Y151.981 I-1.565 J-0.419 F150
X119.765 Y152.819 I1.565 J0.419
G1 Z-3.3 F50
G3 X116.635 Y151.981 I-1.565 J-0.419 F150
X119.765 Y152.819 I1.565 J0.419
G1 Z-3.6 F50
G3 X116.635 Y151.981 I-1.565 J-0.419 F150
X119.765 Y152.819 I1.565 J0.419
G1 Z-3.9 F50
G3 X116.635 Y151.981 I-1.565 J-0.419 F150
X119.765 Y152.819 I1.565 J0.419
G1 Z-4.2 F50
G3 X116.635 Y151.981 I-1.565 J-0.419 F150
X119.765 Y152.819 I1.565 J0.419
G1 Z-4.5 F50
G3 X116.635 Y151.981 I-1.565 J-0.419 F150
X119.765 Y152.819 I1.565 J0.419
G1 Z5
X70.029 Y175.749
Z0.952 F50
Z-0.3
Y175.969 F150
X62.789
Y175.529
X70.029
Y175.749
Z-0.6 F50
Y175.969 F150
X62.789
Y175.529
X70.029
Y175.749
Z-0.9 F50
Y175.969 F150
X62.789
Y175.529
X70.029
Y175.749
Z-1.2 F50
Y175.969 F150
X62.789
Y175.529
X70.029
Y175.749
Z-1.5 F50
Y175.969 F150
X62.789
Y175.529
X70.029
Y175.749
Z-1.8 F50
Y175.969 F150
X62.789
Y175.529
X70.029
Y175.749
Z-2.1 F50
Y175.969 F150
X62.789
Y175.529
X70.029
Y175.749
Z-2.4 F50
Y175.969 F150
X62.789
Y175.529
X70.029
Y175.749
Z-2.7 F50
Y175.969 F150
X62.789
Y175.529
X70.029
Y175.749
Z-3 F50
Y175.969 F150
X62.789
Y175.529
X70.029
Y175.749
Z-3.3 F50
Y175.969 F150
X62.789
Y175.529
X70.029
Y175.749
Z-3.6 F50
Y175.969 F150
X62.789
Y175.529
X70.029
Y175.749
Z-3.9 F50
Y175.969 F150
X62.789
Y175.529
X70.029
Y175.749
Z-4.2 F50
Y175.969 F150
X62.789
Y175.529
X70.029
Y175.749
Z-4.5 F50
Y175.969 F150
X62.789
Y175.529
X70.029
Y175.749
Z5
X60.82 Y152.4
Z0.952 F50
Z-0.3
G3 X25.58 Y152.4 I-17.62 J0 F150
X60.82 Y152.4 I17.62 J0
G1 Z-0.6 F50
G3 X25.58 Y152.4 I-17.62 J0 F150
X60.82 Y152.4 I17.62 J0
G1 Z-0.9 F50
G3 X25.58 Y152.4 I-17.62 J0 F150
X60.82 Y152.4 I17.62 J0
G1 Z-1.2 F50
G3 X25.58 Y152.4 I-17.62 J0 F150
X60.82 Y152.4 I17.62 J0
G1 Z-1.5 F50
G3 X25.58 Y152.4 I-17.62 J0 F150
X60.82 Y152.4 I17.62 J0
G1 Z-1.8 F50
G3 X25.58 Y152.4 I-17.62 J0 F150
X60.82 Y152.4 I17.62 J0
G1 Z-2.1 F50
G3 X25.58 Y152.4 I-17.62 J0 F150
X60.82 Y152.4 I17.62 J0
G1 Z-2.4 F50
G3 X25.58 Y152.4 I-17.62 J0 F150
X60.82 Y152.4 I17.62 J0
G1 Z-2.7 F50
G3 X25.58 Y152.4 I-17.62 J0 F150
X60.82 Y152.4 I17.62 J0
G1 Z-3 F50
G3 X25.58 Y152.4 I-17.62 J0 F150
X60.82 Y152.4 I17.62 J0
G1 Z-3.3 F50
G3 X25.58 Y152.4 I-17.62 J0 F150
X60.82 Y152.4 I17.62 J0
G1 Z-3.6 F50
G3 X25.58 Y152.4 I-17.62 J0 F150
X60.82 Y152.4 I17.62 J0
G1 Z-3.9 F50
G3 X25.58 Y152.4 I-17.62 J0 F150
X60.82 Y152.4 I17.62 J0
G1 Z-4.2 F50
G3 X25.58 Y152.4 I-17.62 J0 F150
X60.82 Y152.4 I17.62 J0
G1 Z-4.5 F50
G3 X25.58 Y152.4 I-17.62 J0 F150
X60.82 Y152.4 I17.62 J0
G1 Z5
X70.029 Y128.749
Z0.952 F50
Z-0.3
Y128.969 F150
X62.789
Y128.529
X70.029
Y128.749
Z-0.6 F50
Y128.969 F150
X62.789
Y128.529
X70.029
Y128.749
Z-0.9 F50
Y128.969 F150
X62.789
Y128.529
X70.029
Y128.749
Z-1.2 F50
Y128.969 F150
X62.789
Y128.529
X70.029
Y128.749
Z-1.5 F50
Y128.969 F150
X62.789
Y128.529
X70.029
Y128.749
Z-1.8 F50
Y128.969 F150
X62.789
Y128.529
X70.029
Y128.749
Z-2.1 F50
Y128.969 F150
X62.789
Y128.529
X70.029
Y128.749
Z-2.4 F50
Y128.969 F150
X62.789
Y128.529
X70.029
Y128.749
Z-2.7 F50
Y128.969 F150
X62.789
Y128.529
X70.029
Y128.749
Z-3 F50
Y128.969 F150
X62.789
Y128.529
X70.029
Y128.749
Z-3.3 F50
Y128.969 F150
X62.789
Y128.529
X70.029
Y128.749
Z-3.6 F50
Y128.969 F150
X62.789
Y128.529
X70.029
Y128.749
Z-3.9 F50
Y128.969 F150
X62.789
Y128.529
X70.029
Y128.749
Z-4.2 F50
Y128.969 F150
X62.789
Y128.529
X70.029
Y128.749
Z-4.5 F50
Y128.969 F150
X62.789
Y128.529
X70.029
Y128.749
Z5
X15.009 Y128.529
Z0.952 F50
Z-0.3
X22.029 F150
Y128.969
X14.789
Y128.529
X15.009
Z-0.6 F50
X22.029 F150
Y128.969
X14.789
Y128.529
X15.009
Z-0.9 F50
X22.029 F150
Y128.969
X14.789
Y128.529
X15.009
Z-1.2 F50
X22.029 F150
Y128.969
X14.789
Y128.529
X15.009
Z-1.5 F50
X22.029 F150
Y128.969
X14.789
Y128.529
X15.009
Z-1.8 F50
X22.029 F150
Y128.969
X14.789
Y128.529
X15.009
Z-2.1 F50
X22.029 F150
Y128.969
X14.789
Y128.529
X15.009
Z-2.4 F50
X22.029 F150
Y128.969
X14.789
Y128.529
X15.009
Z-2.7 F50
X22.029 F150
Y128.969
X14.789
Y128.529
X15.009
Z-3 F50
X22.029 F150
Y128.969
X14.789
Y128.529
X15.009
Z-3.3 F50
X22.029 F150
Y128.969
X14.789
Y128.529
X15.009
Z-3.6 F50
X22.029 F150
Y128.969
X14.789
Y128.529
X15.009
Z-3.9 F50
X22.029 F150
Y128.969
X14.789
Y128.529
X15.009
Z-4.2 F50
X22.029 F150
Y128.969
X14.789
Y128.529
X15.009
Z-4.5 F50
X22.029 F150
Y128.969
X14.789
Y128.529
X15.009
Z5
X22.029 Y175.749
Z0.952 F50
Z-0.3
Y175.969 F150
X14.789
Y175.529
X22.029
Y175.749
Z-0.6 F50
Y175.969 F150
X14.789
Y175.529
X22.029
Y175.749
Z-0.9 F50
Y175.969 F150
X14.789
Y175.529
X22.029
Y175.749
Z-1.2 F50
Y175.969 F150
X14.789
Y175.529
X22.029
Y175.749
Z-1.5 F50
Y175.969 F150
X14.789
Y175.529
X22.029
Y175.749
Z-1.8 F50
Y175.969 F150
X14.789
Y175.529
X22.029
Y175.749
Z-2.1 F50
Y175.969 F150
X14.789
Y175.529
X22.029
Y175.749
Z-2.4 F50
Y175.969 F150
X14.789
Y175.529
X22.029
Y175.749
Z-2.7 F50
Y175.969 F150
X14.789
Y175.529
X22.029
Y175.749
Z-3 F50
Y175.969 F150
X14.789
Y175.529
X22.029
Y175.749
Z-3.3 F50
Y175.969 F150
X14.789
Y175.529
X22.029
Y175.749
Z-3.6 F50
Y175.969 F150
X14.789
Y175.529
X22.029
Y175.749
Z-3.9 F50
Y175.969 F150
X14.789
Y175.529
X22.029
Y175.749
Z-4.2 F50
Y175.969 F150
X14.789
Y175.529
X22.029
Y175.749
Z-4.5 F50
Y175.969 F150
X14.789
Y175.529
X22.029
Y175.749
Z5
X29.82 Y277.4
Z0.952 F50
Z-0.3
G3 X26.58 Y277.4 I-1.62 J0 F150
X29.82 Y277.4 I1.62 J0
G1 Z-0.6 F50
G3 X26.58 Y277.4 I-1.62 J0 F150
X29.82 Y277.4 I1.62 J0
G1 Z-0.9 F50
G3 X26.58 Y277.4 I-1.62 J0 F150
X29.82 Y277.4 I1.62 J0
G1 Z-1.2 F50
G3 X26.58 Y277.4 I-1.62 J0 F150
X29.82 Y277.4 I1.62 J0
G1 Z-1.5 F50
G3 X26.58 Y277.4 I-1.62 J0 F150
X29.82 Y277.4 I1.62 J0
G1 Z-1.8 F50
G3 X26.58 Y277.4 I-1.62 J0 F150
X29.82 Y277.4 I1.62 J0
G1 Z-2.1 F50
G3 X26.58 Y277.4 I-1.62 J0 F150
X29.82 Y277.4 I1.62 J0
G1 Z-2.4 F50
G3 X26.58 Y277.4 I-1.62 J0 F150
X29.82 Y277.4 I1.62 J0
G1 Z-2.7 F50
G3 X26.58 Y277.4 I-1.62 J0 F150
X29.82 Y277.4 I1.62 J0
G1 Z-3 F50
G3 X26.58 Y277.4 I-1.62 J0 F150
X29.82 Y277.4 I1.62 J0
G1 Z-3.3 F50
G3 X26.58 Y277.4 I-1.62 J0 F150
X29.82 Y277.4 I1.62 J0
G1 Z-3.6 F50
G3 X26.58 Y277.4 I-1.62 J0 F150
X29.82 Y277.4 I1.62 J0
G1 Z-3.9 F50
G3 X26.58 Y277.4 I-1.62 J0 F150
X29.82 Y277.4 I1.62 J0
G1 Z-4.2 F50
G3 X26.58 Y277.4 I-1.62 J0 F150
X29.82 Y277.4 I1.62 J0
G1 Z-4.5 F50
G3 X26.58 Y277.4 I-1.62 J0 F150
X29.82 Y277.4 I1.62 J0
G1 Z5
Y27.4
Z0.952 F50
Z-0.3
G3 X26.58 Y27.4 I-1.62 J0 F150
X29.82 Y27.4 I1.62 J0
G1 Z-0.6 F50
G3 X26.58 Y27.4 I-1.62 J0 F150
X29.82 Y27.4 I1.62 J0
G1 Z-0.9 F50
G3 X26.58 Y27.4 I-1.62 J0 F150
X29.82 Y27.4 I1.62 J0
G1 Z-1.2 F50
G3 X26.58 Y27.4 I-1.62 J0 F150
X29.82 Y27.4 I1.62 J0
G1 Z-1.5 F50
G3 X26.58 Y27.4 I-1.62 J0 F150
X29.82 Y27.4 I1.62 J0
G1 Z-1.8 F50
G3 X26.58 Y27.4 I-1.62 J0 F150
X29.82 Y27.4 I1.62 J0
G1 Z-2.1 F50
G3 X26.58 Y27.4 I-1.62 J0 F150
X29.82 Y27.4 I1.62 J0
G1 Z-2.4 F50
G3 X26.58 Y27.4 I-1.62 J0 F150
X29.82 Y27.4 I1.62 J0
G1 Z-2.7 F50
G3 X26.58 Y27.4 I-1.62 J0 F150
X29.82 Y27.4 I1.62 J0
G1 Z-3 F50
G3 X26.58 Y27.4 I-1.62 J0 F150
X29.82 Y27.4 I1.62 J0
G1 Z-3.3 F50
G3 X26.58 Y27.4 I-1.62 J0 F150
X29.82 Y27.4 I1.62 J0
G1 Z-3.6 F50
G3 X26.58 Y27.4 I-1.62 J0 F150
X29.82 Y27.4 I1.62 J0
G1 Z-3.9 F50
G3 X26.58 Y27.4 I-1.62 J0 F150
X29.82 Y27.4 I1.62 J0
G1 Z-4.2 F50
G3 X26.58 Y27.4 I-1.62 J0 F150
X29.82 Y27.4 I1.62 J0
G1 Z-4.5 F50
G3 X26.58 Y27.4 I-1.62 J0 F150
X29.82 Y27.4 I1.62 J0
G1 Z5
X279.82
Z0.952 F50
Z-0.3
G3 X276.58 Y27.4 I-1.62 J0 F150
X279.82 Y27.4 I1.62 J0
G1 Z-0.6 F50
G3 X276.58 Y27.4 I-1.62 J0 F150
X279.82 Y27.4 I1.62 J0
G1 Z-0.9 F50
G3 X276.58 Y27.4 I-1.62 J0 F150
X279.82 Y27.4 I1.62 J0
G1 Z-1.2 F50
G3 X276.58 Y27.4 I-1.62 J0 F150
X279.82 Y27.4 I1.62 J0
G1 Z-1.5 F50
G3 X276.58 Y27.4 I-1.62 J0 F150
X279.82 Y27.4 I1.62 J0
G1 Z-1.8 F50
G3 X276.58 Y27.4 I-1.62 J0 F150
X279.82 Y27.4 I1.62 J0
G1 Z-2.1 F50
G3 X276.58 Y27.4 I-1.62 J0 F150
X279.82 Y27.4 I1.62 J0
G1 Z-2.4 F50
G3 X276.58 Y27.4 I-1.62 J0 F150
X279.82 Y27.4 I1.62 J0
G1 Z-2.7 F50
G3 X276.58 Y27.4 I-1.62 J0 F150
X279.82 Y27.4 I1.62 J0
G1 Z-3 F50
G3 X276.58 Y27.4 I-1.62 J0 F150
X279.82 Y27.4 I1.62 J0
G1 Z-3.3 F50
G3 X276.58 Y27.4 I-1.62 J0 F150
X279.82 Y27.4 I1.62 J0
G1 Z-3.6 F50
G3 X276.58 Y27.4 I-1.62 J0 F150
X279.82 Y27.4 I1.62 J0
G1 Z-3.9 F50
G3 X276.58 Y27.4 I-1.62 J0 F150
X279.82 Y27.4 I1.62 J0
G1 Z-4.2 F50
G3 X276.58 Y27.4 I-1.62 J0 F150
X279.82 Y27.4 I1.62 J0
G1 Z-4.5 F50
G3 X276.58 Y27.4 I-1.62 J0 F150
X279.82 Y27.4 I1.62 J0
G1 Z15

M9
M5
M30
