(cartarm_base)
(Machine)
(  vendor: Autodesk)
(  model: Generic 3-axis)
(  description: This machine has XYZ axis on the Head)
(T1 D=4.76 CR=0 - ZMIN=-8.35 - flat end mill)
G90 G94
G17
G21
(-Attention- Property Safe Retracts is set to Clearance Height.)
(Ensure the clearance height will clear the part and or fixtures.)
(Raise the Z-axis to a safe height before starting the program.)

(Drill1)
T1
S21000 M3
G17 G90 G94
G54
M8
G0 X11.691 Y-6.745
Z15
G0 Z5
Z2
G1 Z-0.3 F50
G0 Z5
Z1.7
G1 Z-0.6 F50
G0 Z5
Z1.4
G1 Z-0.9 F50
G0 Z5
Z1.1
G1 Z-1.2 F50
G0 Z5
Z0.8
G1 Z-1.5 F50
G0 Z5
Z0.5
G1 Z-1.8 F50
G0 Z5
Z0.2
G1 Z-2.1 F50
G0 Z5
Z-0.1
G1 Z-2.4 F50
G0 Z5
Z-0.4
G1 Z-2.7 F50
G0 Z5
Z-0.7
G1 Z-3 F50
G0 Z5
Z-1
G1 Z-3.3 F50
G0 Z5
Z-1.3
G1 Z-3.6 F50
G0 Z5
Z-1.6
G1 Z-3.9 F50
G0 Z5
Z-1.9
G1 Z-4.2 F50
G0 Z5
Z-2.2
G1 Z-4.5 F50
G0 Z5
Z-2.5
G1 Z-4.8 F50
G0 Z5
Z-2.8
G1 Z-5.1 F50
G0 Z5
Z-3.1
G1 Z-5.4 F50
G0 Z5
Z-3.4
G1 Z-5.7 F50
G0 Z5
Z-3.7
G1 Z-6 F50
G0 Z5
Z-4
G1 Z-6.3 F50
G0 Z5
Z-4.3
G1 Z-6.6 F50
G0 Z5
Z-4.6
G1 Z-6.9 F50
G0 Z5
Z-4.9
G1 Z-7.2 F50
G0 Z5
Z-5.2
G1 Z-7.5 F50
G0 Z5
Z-5.5
G1 Z-7.8 F50
G0 Z5
Z-5.8
G1 Z-8.1 F50
G0 Z5
Z-6.1
G1 Z-8.35 F50
G4 P1.
G0 Z5
X0 Y-13.495
Z2
G1 Z-0.3 F50
G0 Z5
Z1.7
G1 Z-0.6 F50
G0 Z5
Z1.4
G1 Z-0.9 F50
G0 Z5
Z1.1
G1 Z-1.2 F50
G0 Z5
Z0.8
G1 Z-1.5 F50
G0 Z5
Z0.5
G1 Z-1.8 F50
G0 Z5
Z0.2
G1 Z-2.1 F50
G0 Z5
Z-0.1
G1 Z-2.4 F50
G0 Z5
Z-0.4
G1 Z-2.7 F50
G0 Z5
Z-0.7
G1 Z-3 F50
G0 Z5
Z-1
G1 Z-3.3 F50
G0 Z5
Z-1.3
G1 Z-3.6 F50
G0 Z5
Z-1.6
G1 Z-3.9 F50
G0 Z5
Z-1.9
G1 Z-4.2 F50
G0 Z5
Z-2.2
G1 Z-4.5 F50
G0 Z5
Z-2.5
G1 Z-4.8 F50
G0 Z5
Z-2.8
G1 Z-5.1 F50
G0 Z5
Z-3.1
G1 Z-5.4 F50
G0 Z5
Z-3.4
G1 Z-5.7 F50
G0 Z5
Z-3.7
G1 Z-6 F50
G0 Z5
Z-4
G1 Z-6.3 F50
G0 Z5
Z-4.3
G1 Z-6.6 F50
G0 Z5
Z-4.6
G1 Z-6.9 F50
G0 Z5
Z-4.9
G1 Z-7.2 F50
G0 Z5
Z-5.2
G1 Z-7.5 F50
G0 Z5
Z-5.5
G1 Z-7.8 F50
G0 Z5
Z-5.8
G1 Z-8.1 F50
G0 Z5
Z-6.1
G1 Z-8.35 F50
G4 P1.
G0 Z5
X-11.691 Y-6.745
Z2
G1 Z-0.3 F50
G0 Z5
Z1.7
G1 Z-0.6 F50
G0 Z5
Z1.4
G1 Z-0.9 F50
G0 Z5
Z1.1
G1 Z-1.2 F50
G0 Z5
Z0.8
G1 Z-1.5 F50
G0 Z5
Z0.5
G1 Z-1.8 F50
G0 Z5
Z0.2
G1 Z-2.1 F50
G0 Z5
Z-0.1
G1 Z-2.4 F50
G0 Z5
Z-0.4
G1 Z-2.7 F50
G0 Z5
Z-0.7
G1 Z-3 F50
G0 Z5
Z-1
G1 Z-3.3 F50
G0 Z5
Z-1.3
G1 Z-3.6 F50
G0 Z5
Z-1.6
G1 Z-3.9 F50
G0 Z5
Z-1.9
G1 Z-4.2 F50
G0 Z5
Z-2.2
G1 Z-4.5 F50
G0 Z5
Z-2.5
G1 Z-4.8 F50
G0 Z5
Z-2.8
G1 Z-5.1 F50
G0 Z5
Z-3.1
G1 Z-5.4 F50
G0 Z5
Z-3.4
G1 Z-5.7 F50
G0 Z5
Z-3.7
G1 Z-6 F50
G0 Z5
Z-4
G1 Z-6.3 F50
G0 Z5
Z-4.3
G1 Z-6.6 F50
G0 Z5
Z-4.6
G1 Z-6.9 F50
G0 Z5
Z-4.9
G1 Z-7.2 F50
G0 Z5
Z-5.2
G1 Z-7.5 F50
G0 Z5
Z-5.5
G1 Z-7.8 F50
G0 Z5
Z-5.8
G1 Z-8.1 F50
G0 Z5
Z-6.1
G1 Z-8.35 F50
G4 P1.
G0 Z5
Y6.755
Z2
G1 Z-0.3 F50
G0 Z5
Z1.7
G1 Z-0.6 F50
G0 Z5
Z1.4
G1 Z-0.9 F50
G0 Z5
Z1.1
G1 Z-1.2 F50
G0 Z5
Z0.8
G1 Z-1.5 F50
G0 Z5
Z0.5
G1 Z-1.8 F50
G0 Z5
Z0.2
G1 Z-2.1 F50
G0 Z5
Z-0.1
G1 Z-2.4 F50
G0 Z5
Z-0.4
G1 Z-2.7 F50
G0 Z5
Z-0.7
G1 Z-3 F50
G0 Z5
Z-1
G1 Z-3.3 F50
G0 Z5
Z-1.3
G1 Z-3.6 F50
G0 Z5
Z-1.6
G1 Z-3.9 F50
G0 Z5
Z-1.9
G1 Z-4.2 F50
G0 Z5
Z-2.2
G1 Z-4.5 F50
G0 Z5
Z-2.5
G1 Z-4.8 F50
G0 Z5
Z-2.8
G1 Z-5.1 F50
G0 Z5
Z-3.1
G1 Z-5.4 F50
G0 Z5
Z-3.4
G1 Z-5.7 F50
G0 Z5
Z-3.7
G1 Z-6 F50
G0 Z5
Z-4
G1 Z-6.3 F50
G0 Z5
Z-4.3
G1 Z-6.6 F50
G0 Z5
Z-4.6
G1 Z-6.9 F50
G0 Z5
Z-4.9
G1 Z-7.2 F50
G0 Z5
Z-5.2
G1 Z-7.5 F50
G0 Z5
Z-5.5
G1 Z-7.8 F50
G0 Z5
Z-5.8
G1 Z-8.1 F50
G0 Z5
Z-6.1
G1 Z-8.35 F50
G4 P1.
G0 Z5
X0 Y13.505
Z2
G1 Z-0.3 F50
G0 Z5
Z1.7
G1 Z-0.6 F50
G0 Z5
Z1.4
G1 Z-0.9 F50
G0 Z5
Z1.1
G1 Z-1.2 F50
G0 Z5
Z0.8
G1 Z-1.5 F50
G0 Z5
Z0.5
G1 Z-1.8 F50
G0 Z5
Z0.2
G1 Z-2.1 F50
G0 Z5
Z-0.1
G1 Z-2.4 F50
G0 Z5
Z-0.4
G1 Z-2.7 F50
G0 Z5
Z-0.7
G1 Z-3 F50
G0 Z5
Z-1
G1 Z-3.3 F50
G0 Z5
Z-1.3
G1 Z-3.6 F50
G0 Z5
Z-1.6
G1 Z-3.9 F50
G0 Z5
Z-1.9
G1 Z-4.2 F50
G0 Z5
Z-2.2
G1 Z-4.5 F50
G0 Z5
Z-2.5
G1 Z-4.8 F50
G0 Z5
Z-2.8
G1 Z-5.1 F50
G0 Z5
Z-3.1
G1 Z-5.4 F50
G0 Z5
Z-3.4
G1 Z-5.7 F50
G0 Z5
Z-3.7
G1 Z-6 F50
G0 Z5
Z-4
G1 Z-6.3 F50
G0 Z5
Z-4.3
G1 Z-6.6 F50
G0 Z5
Z-4.6
G1 Z-6.9 F50
G0 Z5
Z-4.9
G1 Z-7.2 F50
G0 Z5
Z-5.2
G1 Z-7.5 F50
G0 Z5
Z-5.5
G1 Z-7.8 F50
G0 Z5
Z-5.8
G1 Z-8.1 F50
G0 Z5
Z-6.1
G1 Z-8.35 F50
G4 P1.
G0 Z5
X11.691 Y6.755
Z2
G1 Z-0.3 F50
G0 Z5
Z1.7
G1 Z-0.6 F50
G0 Z5
Z1.4
G1 Z-0.9 F50
G0 Z5
Z1.1
G1 Z-1.2 F50
G0 Z5
Z0.8
G1 Z-1.5 F50
G0 Z5
Z0.5
G1 Z-1.8 F50
G0 Z5
Z0.2
G1 Z-2.1 F50
G0 Z5
Z-0.1
G1 Z-2.4 F50
G0 Z5
Z-0.4
G1 Z-2.7 F50
G0 Z5
Z-0.7
G1 Z-3 F50
G0 Z5
Z-1
G1 Z-3.3 F50
G0 Z5
Z-1.3
G1 Z-3.6 F50
G0 Z5
Z-1.6
G1 Z-3.9 F50
G0 Z5
Z-1.9
G1 Z-4.2 F50
G0 Z5
Z-2.2
G1 Z-4.5 F50
G0 Z5
Z-2.5
G1 Z-4.8 F50
G0 Z5
Z-2.8
G1 Z-5.1 F50
G0 Z5
Z-3.1
G1 Z-5.4 F50
G0 Z5
Z-3.4
G1 Z-5.7 F50
G0 Z5
Z-3.7
G1 Z-6 F50
G0 Z5
Z-4
G1 Z-6.3 F50
G0 Z5
Z-4.3
G1 Z-6.6 F50
G0 Z5
Z-4.6
G1 Z-6.9 F50
G0 Z5
Z-4.9
G1 Z-7.2 F50
G0 Z5
Z-5.2
G1 Z-7.5 F50
G0 Z5
Z-5.5
G1 Z-7.8 F50
G0 Z5
Z-5.8
G1 Z-8.1 F50
G0 Z5
Z-6.1
G1 Z-8.35 F50
G4 P1.
G0 Z5
Z15
(When using Fusion for Personal Use, the feedrate of rapid)
(moves is reduced to match the feedrate of cutting moves,)
(which can increase machining time. Unrestricted rapid moves)
(are available with a Fusion Subscription.)

(2D Pocket1)
G0 X10.5 Y5.515
G1 Z15 F150
Z5
Z2.976 F50
X10.525 Y5.491 Z2.797
X10.6 Y5.426 Z2.644
X10.72 Y5.336 Z2.54
X10.795 Y5.288 Z2.52
X10.872 Y5.243 Z2.5
G3 X12.511 Y8.267 Z2.335 I0.82 J1.512
X10.872 Y5.243 Z2.17 I-0.82 J-1.512
X12.511 Y8.267 Z2.005 I0.82 J1.512
X10.872 Y5.243 Z1.84 I-0.82 J-1.512
X12.511 Y8.267 Z1.675 I0.82 J1.512
X10.872 Y5.243 Z1.51 I-0.82 J-1.512
X12.511 Y8.267 Z1.345 I0.82 J1.512
X10.872 Y5.243 Z1.18 I-0.82 J-1.512
X12.511 Y8.267 Z1.015 I0.82 J1.512
X10.872 Y5.243 Z0.85 I-0.82 J-1.512
X12.511 Y8.267 Z0.685 I0.82 J1.512
X10.872 Y5.243 Z0.52 I-0.82 J-1.512
X12.511 Y8.267 Z0.355 I0.82 J1.512
X10.872 Y5.243 Z0.19 I-0.82 J-1.512
X12.511 Y8.267 Z0.025 I0.82 J1.512
X10.872 Y5.243 Z-0.14 I-0.82 J-1.512
X12.511 Y8.267 Z-0.305 I0.82 J1.512
X11.727 Y8.475 Z-0.33 I-0.82 J-1.512
X9.971 Y6.755 I-0.036 J-1.72 F150
X13.411 Y6.755 I1.72 J0
X11.727 Y8.475 I-1.72 J0
X9.971 Y6.755 Z-0.414 I-0.036 J-1.72 F50
X13.411 Y6.755 Z-0.579 I1.72 J0
X11.727 Y8.475 Z-0.66 I-1.72 J0
X9.971 Y6.755 I-0.036 J-1.72 F150
X13.411 Y6.755 I1.72 J0
X11.727 Y8.475 I-1.72 J0
X9.971 Y6.755 Z-0.744 I-0.036 J-1.72 F50
X13.411 Y6.755 Z-0.909 I1.72 J0
X11.727 Y8.475 Z-0.99 I-1.72 J0
X9.971 Y6.755 I-0.036 J-1.72 F150
X13.411 Y6.755 I1.72 J0
X11.727 Y8.475 I-1.72 J0
X9.971 Y6.755 Z-1.074 I-0.036 J-1.72 F50
X13.411 Y6.755 Z-1.239 I1.72 J0
X11.727 Y8.475 Z-1.32 I-1.72 J0
X9.971 Y6.755 I-0.036 J-1.72 F150
X13.411 Y6.755 I1.72 J0
X11.727 Y8.475 I-1.72 J0
X9.971 Y6.755 Z-1.404 I-0.036 J-1.72 F50
X13.411 Y6.755 Z-1.569 I1.72 J0
X11.727 Y8.475 Z-1.65 I-1.72 J0
X9.971 Y6.755 I-0.036 J-1.72 F150
X13.411 Y6.755 I1.72 J0
X11.727 Y8.475 I-1.72 J0
X9.971 Y6.755 Z-1.734 I-0.036 J-1.72 F50
X13.411 Y6.755 Z-1.899 I1.72 J0
X11.727 Y8.475 Z-1.98 I-1.72 J0
X9.971 Y6.755 I-0.036 J-1.72 F150
X13.411 Y6.755 I1.72 J0
X11.727 Y8.475 I-1.72 J0
X9.971 Y6.755 Z-2.064 I-0.036 J-1.72 F50
X13.411 Y6.755 Z-2.229 I1.72 J0
X11.727 Y8.475 Z-2.31 I-1.72 J0
X9.971 Y6.755 I-0.036 J-1.72 F150
X13.411 Y6.755 I1.72 J0
X11.727 Y8.475 I-1.72 J0
X9.971 Y6.755 Z-2.394 I-0.036 J-1.72 F50
X13.411 Y6.755 Z-2.559 I1.72 J0
X11.727 Y8.475 Z-2.64 I-1.72 J0
X9.971 Y6.755 I-0.036 J-1.72 F150
X13.411 Y6.755 I1.72 J0
X11.727 Y8.475 I-1.72 J0
G1 X11.691 Z-2.641 F50
G3 X9.971 Y6.755 Z-2.724 I0 J-1.72
X13.411 Y6.755 Z-2.889 I1.72 J0
X11.727 Y8.475 Z-2.97 I-1.72 J0
X9.971 Y6.755 I-0.036 J-1.72 F150
X13.411 Y6.755 I1.72 J0
X11.727 Y8.475 I-1.72 J0
X9.971 Y6.755 Z-3.054 I-0.036 J-1.72 F50
X13.411 Y6.755 Z-3.219 I1.72 J0
X11.727 Y8.475 Z-3.3 I-1.72 J0
X9.971 Y6.755 I-0.036 J-1.72 F150
X13.411 Y6.755 I1.72 J0
X11.727 Y8.475 I-1.72 J0
G1 X11.667 Y8.472 Z-3.288
X11.607 Y8.462 Z-3.276
X11.549 Y8.444 Z-3.264
X11.479 Y8.411 Z-3.212
X11.416 Y8.367 Z-3.161
X11.378 Y8.332 Z-3.083
X11.343 Y8.294 Z-3.006
X11.322 Y8.264 Z-2.824
Z15
X10.5 Y-7.985
Z5
Z2.976 F50
X10.525 Y-8.009 Z2.797
X10.6 Y-8.074 Z2.644
X10.72 Y-8.164 Z2.54
X10.795 Y-8.212 Z2.52
X10.872 Y-8.257 Z2.5
G3 X12.511 Y-5.233 Z2.335 I0.82 J1.512
X10.872 Y-8.257 Z2.17 I-0.82 J-1.512
X12.511 Y-5.233 Z2.005 I0.82 J1.512
X10.872 Y-8.257 Z1.84 I-0.82 J-1.512
X12.511 Y-5.233 Z1.675 I0.82 J1.512
X10.872 Y-8.257 Z1.51 I-0.82 J-1.512
X12.511 Y-5.233 Z1.345 I0.82 J1.512
X10.872 Y-8.257 Z1.18 I-0.82 J-1.512
X12.511 Y-5.233 Z1.015 I0.82 J1.512
X10.872 Y-8.257 Z0.85 I-0.82 J-1.512
X12.511 Y-5.233 Z0.685 I0.82 J1.512
X10.872 Y-8.257 Z0.52 I-0.82 J-1.512
X12.511 Y-5.233 Z0.355 I0.82 J1.512
X10.872 Y-8.257 Z0.19 I-0.82 J-1.512
X12.511 Y-5.233 Z0.025 I0.82 J1.512
X10.872 Y-8.257 Z-0.14 I-0.82 J-1.512
X12.511 Y-5.233 Z-0.305 I0.82 J1.512
X11.727 Y-5.025 Z-0.33 I-0.82 J-1.512
X9.971 Y-6.745 I-0.036 J-1.72 F150
X13.411 Y-6.745 I1.72 J0
X11.727 Y-5.025 I-1.72 J0
X9.971 Y-6.745 Z-0.414 I-0.036 J-1.72 F50
X13.411 Y-6.745 Z-0.579 I1.72 J0
X11.727 Y-5.025 Z-0.66 I-1.72 J0
X9.971 Y-6.745 I-0.036 J-1.72 F150
X13.411 Y-6.745 I1.72 J0
X11.727 Y-5.025 I-1.72 J0
X9.971 Y-6.745 Z-0.744 I-0.036 J-1.72 F50
X13.411 Y-6.745 Z-0.909 I1.72 J0
X11.727 Y-5.025 Z-0.99 I-1.72 J0
X9.971 Y-6.745 I-0.036 J-1.72 F150
X13.411 Y-6.745 I1.72 J0
X11.727 Y-5.025 I-1.72 J0
X9.971 Y-6.745 Z-1.074 I-0.036 J-1.72 F50
X13.411 Y-6.745 Z-1.239 I1.72 J0
X11.727 Y-5.025 Z-1.32 I-1.72 J0
X9.971 Y-6.745 I-0.036 J-1.72 F150
X13.411 Y-6.745 I1.72 J0
X11.727 Y-5.025 I-1.72 J0
X9.971 Y-6.745 Z-1.404 I-0.036 J-1.72 F50
X13.411 Y-6.745 Z-1.569 I1.72 J0
X11.727 Y-5.025 Z-1.65 I-1.72 J0
X9.971 Y-6.745 I-0.036 J-1.72 F150
X13.411 Y-6.745 I1.72 J0
X11.727 Y-5.025 I-1.72 J0
X9.971 Y-6.745 Z-1.734 I-0.036 J-1.72 F50
X13.411 Y-6.745 Z-1.899 I1.72 J0
X11.727 Y-5.025 Z-1.98 I-1.72 J0
X9.971 Y-6.745 I-0.036 J-1.72 F150
X13.411 Y-6.745 I1.72 J0
X11.727 Y-5.025 I-1.72 J0
X9.971 Y-6.745 Z-2.064 I-0.036 J-1.72 F50
X13.411 Y-6.745 Z-2.229 I1.72 J0
X11.727 Y-5.025 Z-2.31 I-1.72 J0
X9.971 Y-6.745 I-0.036 J-1.72 F150
X13.411 Y-6.745 I1.72 J0
X11.727 Y-5.025 I-1.72 J0
X9.971 Y-6.745 Z-2.394 I-0.036 J-1.72 F50
X13.411 Y-6.745 Z-2.559 I1.72 J0
X11.727 Y-5.025 Z-2.64 I-1.72 J0
X9.971 Y-6.745 I-0.036 J-1.72 F150
X13.411 Y-6.745 I1.72 J0
X11.727 Y-5.025 I-1.72 J0
G1 X11.691 Z-2.641 F50
G3 X9.971 Y-6.745 Z-2.724 I0 J-1.72
X13.411 Y-6.745 Z-2.889 I1.72 J0
X11.727 Y-5.025 Z-2.97 I-1.72 J0
X9.971 Y-6.745 I-0.036 J-1.72 F150
X13.411 Y-6.745 I1.72 J0
X11.727 Y-5.025 I-1.72 J0
X9.971 Y-6.745 Z-3.054 I-0.036 J-1.72 F50
X13.411 Y-6.745 Z-3.219 I1.72 J0
X11.727 Y-5.025 Z-3.3 I-1.72 J0
X9.971 Y-6.745 I-0.036 J-1.72 F150
X13.411 Y-6.745 I1.72 J0
X11.727 Y-5.025 I-1.72 J0
G1 X11.667 Y-5.028 Z-3.288
X11.607 Y-5.038 Z-3.276
X11.549 Y-5.056 Z-3.264
X11.479 Y-5.089 Z-3.212
X11.416 Y-5.133 Z-3.161
X11.378 Y-5.168 Z-3.083
X11.343 Y-5.206 Z-3.006
X11.322 Y-5.236 Z-2.824
Z15
X-1.265 Y-12.329
Z5
Z2.976 F50
X-1.289 Y-12.355 Z2.797
X-1.352 Y-12.432 Z2.644
X-1.439 Y-12.553 Z2.54
X-1.486 Y-12.629 Z2.52
X-1.529 Y-12.707 Z2.5
G3 X1.529 Y-14.283 Z2.335 I1.529 J-0.788
X-1.529 Y-12.707 Z2.17 I-1.529 J0.788
X1.529 Y-14.283 Z2.005 I1.529 J-0.788
X-1.529 Y-12.707 Z1.84 I-1.529 J0.788
X1.529 Y-14.283 Z1.675 I1.529 J-0.788
X-1.529 Y-12.707 Z1.51 I-1.529 J0.788
X1.529 Y-14.283 Z1.345 I1.529 J-0.788
X-1.529 Y-12.707 Z1.18 I-1.529 J0.788
X1.529 Y-14.283 Z1.015 I1.529 J-0.788
X-1.529 Y-12.707 Z0.85 I-1.529 J0.788
X1.529 Y-14.283 Z0.685 I1.529 J-0.788
X-1.529 Y-12.707 Z0.52 I-1.529 J0.788
X1.529 Y-14.283 Z0.355 I1.529 J-0.788
X-1.529 Y-12.707 Z0.19 I-1.529 J0.788
X1.529 Y-14.283 Z0.025 I1.529 J-0.788
X-1.529 Y-12.707 Z-0.14 I-1.529 J0.788
X1.529 Y-14.283 Z-0.305 I1.529 J-0.788
X1.72 Y-13.495 Z-0.33 I-1.529 J0.788
X-1.72 Y-13.495 I-1.72 J0 F150
X1.72 Y-13.495 I1.72 J0
X-1.72 Y-13.495 Z-0.495 I-1.72 J0 F50
X1.72 Y-13.495 Z-0.66 I1.72 J0
X-1.72 Y-13.495 I-1.72 J0 F150
X1.72 Y-13.495 I1.72 J0
X-1.72 Y-13.495 Z-0.825 I-1.72 J0 F50
X1.72 Y-13.495 Z-0.99 I1.72 J0
X-1.72 Y-13.495 I-1.72 J0 F150
X1.72 Y-13.495 I1.72 J0
X-1.72 Y-13.495 Z-1.155 I-1.72 J0 F50
X1.72 Y-13.495 Z-1.32 I1.72 J0
X-1.72 Y-13.495 I-1.72 J0 F150
X1.72 Y-13.495 I1.72 J0
X-1.72 Y-13.495 Z-1.485 I-1.72 J0 F50
X1.72 Y-13.495 Z-1.65 I1.72 J0
X-1.72 Y-13.495 I-1.72 J0 F150
X1.72 Y-13.495 I1.72 J0
X-1.72 Y-13.495 Z-1.815 I-1.72 J0 F50
X1.72 Y-13.495 Z-1.98 I1.72 J0
X-1.72 Y-13.495 I-1.72 J0 F150
X1.72 Y-13.495 I1.72 J0
X-1.72 Y-13.495 Z-2.145 I-1.72 J0 F50
X1.72 Y-13.495 Z-2.31 I1.72 J0
X-1.72 Y-13.495 I-1.72 J0 F150
X1.72 Y-13.495 I1.72 J0
X-1.72 Y-13.495 Z-2.475 I-1.72 J0 F50
X1.72 Y-13.495 Z-2.64 I1.72 J0
X-1.72 Y-13.495 I-1.72 J0 F150
X1.72 Y-13.495 I1.72 J0
X-1.72 Y-13.495 Z-2.805 I-1.72 J0 F50
X1.72 Y-13.495 Z-2.97 I1.72 J0
X-1.72 Y-13.495 I-1.72 J0 F150
X1.72 Y-13.495 I1.72 J0
X-1.72 Y-13.495 Z-3.135 I-1.72 J0 F50
X1.72 Y-13.495 Z-3.3 I1.72 J0
X-1.72 Y-13.495 I-1.72 J0 F150
X1.72 Y-13.495 I1.72 J0
G1 X1.716 Y-13.434 Z-3.288
X1.705 Y-13.375 Z-3.276
X1.686 Y-13.317 Z-3.264
X1.651 Y-13.248 Z-3.212
X1.606 Y-13.185 Z-3.161
X1.57 Y-13.148 Z-3.083
X1.531 Y-13.115 Z-3.006
X1.501 Y-13.094 Z-2.824
Z15
X-12.883 Y-7.985
Z5
Z2.976 F50
X-12.857 Y-8.009 Z2.797
X-12.782 Y-8.074 Z2.644
X-12.663 Y-8.164 Z2.54
X-12.588 Y-8.212 Z2.52
X-12.511 Y-8.257 Z2.5
G3 X-10.872 Y-5.233 Z2.335 I0.82 J1.512
X-12.511 Y-8.257 Z2.17 I-0.82 J-1.512
X-10.872 Y-5.233 Z2.005 I0.82 J1.512
X-12.511 Y-8.257 Z1.84 I-0.82 J-1.512
X-10.872 Y-5.233 Z1.675 I0.82 J1.512
X-12.511 Y-8.257 Z1.51 I-0.82 J-1.512
X-10.872 Y-5.233 Z1.345 I0.82 J1.512
X-12.511 Y-8.257 Z1.18 I-0.82 J-1.512
X-10.872 Y-5.233 Z1.015 I0.82 J1.512
X-12.511 Y-8.257 Z0.85 I-0.82 J-1.512
X-10.872 Y-5.233 Z0.685 I0.82 J1.512
X-12.511 Y-8.257 Z0.52 I-0.82 J-1.512
X-10.872 Y-5.233 Z0.355 I0.82 J1.512
X-12.511 Y-8.257 Z0.19 I-0.82 J-1.512
X-10.872 Y-5.233 Z0.025 I0.82 J1.512
X-12.511 Y-8.257 Z-0.14 I-0.82 J-1.512
X-10.872 Y-5.233 Z-0.305 I0.82 J1.512
X-11.655 Y-5.025 Z-0.33 I-0.82 J-1.512
X-13.411 Y-6.745 I-0.036 J-1.72 F150
X-9.971 Y-6.745 I1.72 J0
X-11.655 Y-5.025 I-1.72 J0
X-13.411 Y-6.745 Z-0.414 I-0.036 J-1.72 F50
X-9.971 Y-6.745 Z-0.579 I1.72 J0
X-11.655 Y-5.025 Z-0.66 I-1.72 J0
X-13.411 Y-6.745 I-0.036 J-1.72 F150
X-9.971 Y-6.745 I1.72 J0
X-11.655 Y-5.025 I-1.72 J0
X-13.411 Y-6.745 Z-0.744 I-0.036 J-1.72 F50
X-9.971 Y-6.745 Z-0.909 I1.72 J0
X-11.655 Y-5.025 Z-0.99 I-1.72 J0
X-13.411 Y-6.745 I-0.036 J-1.72 F150
X-9.971 Y-6.745 I1.72 J0
X-11.655 Y-5.025 I-1.72 J0
X-13.411 Y-6.745 Z-1.074 I-0.036 J-1.72 F50
X-9.971 Y-6.745 Z-1.239 I1.72 J0
X-11.655 Y-5.025 Z-1.32 I-1.72 J0
X-13.411 Y-6.745 I-0.036 J-1.72 F150
X-9.971 Y-6.745 I1.72 J0
X-11.655 Y-5.025 I-1.72 J0
X-13.411 Y-6.745 Z-1.404 I-0.036 J-1.72 F50
X-9.971 Y-6.745 Z-1.569 I1.72 J0
X-11.655 Y-5.025 Z-1.65 I-1.72 J0
X-13.411 Y-6.745 I-0.036 J-1.72 F150
X-9.971 Y-6.745 I1.72 J0
X-11.655 Y-5.025 I-1.72 J0
X-13.411 Y-6.745 Z-1.734 I-0.036 J-1.72 F50
X-9.971 Y-6.745 Z-1.899 I1.72 J0
X-11.655 Y-5.025 Z-1.98 I-1.72 J0
X-13.411 Y-6.745 I-0.036 J-1.72 F150
X-9.971 Y-6.745 I1.72 J0
X-11.655 Y-5.025 I-1.72 J0
X-13.411 Y-6.745 Z-2.064 I-0.036 J-1.72 F50
X-9.971 Y-6.745 Z-2.229 I1.72 J0
X-11.655 Y-5.025 Z-2.31 I-1.72 J0
X-13.411 Y-6.745 I-0.036 J-1.72 F150
X-9.971 Y-6.745 I1.72 J0
X-11.655 Y-5.025 I-1.72 J0
X-13.411 Y-6.745 Z-2.394 I-0.036 J-1.72 F50
X-9.971 Y-6.745 Z-2.559 I1.72 J0
X-11.655 Y-5.025 Z-2.64 I-1.72 J0
X-13.411 Y-6.745 I-0.036 J-1.72 F150
X-9.971 Y-6.745 I1.72 J0
X-11.655 Y-5.025 I-1.72 J0
G1 X-11.691 Z-2.641 F50
G3 X-13.411 Y-6.745 Z-2.724 I0 J-1.72
X-9.971 Y-6.745 Z-2.889 I1.72 J0
X-11.655 Y-5.025 Z-2.97 I-1.72 J0
X-13.411 Y-6.745 I-0.036 J-1.72 F150
X-9.971 Y-6.745 I1.72 J0
X-11.655 Y-5.025 I-1.72 J0
X-13.411 Y-6.745 Z-3.054 I-0.036 J-1.72 F50
X-9.971 Y-6.745 Z-3.219 I1.72 J0
X-11.655 Y-5.025 Z-3.3 I-1.72 J0
X-13.411 Y-6.745 I-0.036 J-1.72 F150
X-9.971 Y-6.745 I1.72 J0
X-11.655 Y-5.025 I-1.72 J0
G1 X-11.716 Y-5.028 Z-3.288
X-11.776 Y-5.038 Z-3.276
X-11.834 Y-5.056 Z-3.264
X-11.904 Y-5.089 Z-3.212
X-11.967 Y-5.133 Z-3.161
X-12.005 Y-5.168 Z-3.083
X-12.039 Y-5.206 Z-3.006
X-12.061 Y-5.236 Z-2.824
Z15
X-12.883 Y5.515
Z5
Z2.976 F50
X-12.857 Y5.491 Z2.797
X-12.782 Y5.426 Z2.644
X-12.663 Y5.336 Z2.54
X-12.588 Y5.288 Z2.52
X-12.511 Y5.243 Z2.5
G3 X-10.872 Y8.267 Z2.335 I0.82 J1.512
X-12.511 Y5.243 Z2.17 I-0.82 J-1.512
X-10.872 Y8.267 Z2.005 I0.82 J1.512
X-12.511 Y5.243 Z1.84 I-0.82 J-1.512
X-10.872 Y8.267 Z1.675 I0.82 J1.512
X-12.511 Y5.243 Z1.51 I-0.82 J-1.512
X-10.872 Y8.267 Z1.345 I0.82 J1.512
X-12.511 Y5.243 Z1.18 I-0.82 J-1.512
X-10.872 Y8.267 Z1.015 I0.82 J1.512
X-12.511 Y5.243 Z0.85 I-0.82 J-1.512
X-10.872 Y8.267 Z0.685 I0.82 J1.512
X-12.511 Y5.243 Z0.52 I-0.82 J-1.512
X-10.872 Y8.267 Z0.355 I0.82 J1.512
X-12.511 Y5.243 Z0.19 I-0.82 J-1.512
X-10.872 Y8.267 Z0.025 I0.82 J1.512
X-12.511 Y5.243 Z-0.14 I-0.82 J-1.512
X-10.872 Y8.267 Z-0.305 I0.82 J1.512
X-11.655 Y8.475 Z-0.33 I-0.82 J-1.512
X-13.411 Y6.755 I-0.036 J-1.72 F150
X-9.971 Y6.755 I1.72 J0
X-11.655 Y8.475 I-1.72 J0
X-13.411 Y6.755 Z-0.414 I-0.036 J-1.72 F50
X-9.971 Y6.755 Z-0.579 I1.72 J0
X-11.655 Y8.475 Z-0.66 I-1.72 J0
X-13.411 Y6.755 I-0.036 J-1.72 F150
X-9.971 Y6.755 I1.72 J0
X-11.655 Y8.475 I-1.72 J0
X-13.411 Y6.755 Z-0.744 I-0.036 J-1.72 F50
X-9.971 Y6.755 Z-0.909 I1.72 J0
X-11.655 Y8.475 Z-0.99 I-1.72 J0
X-13.411 Y6.755 I-0.036 J-1.72 F150
X-9.971 Y6.755 I1.72 J0
X-11.655 Y8.475 I-1.72 J0
X-13.411 Y6.755 Z-1.074 I-0.036 J-1.72 F50
X-9.971 Y6.755 Z-1.239 I1.72 J0
X-11.655 Y8.475 Z-1.32 I-1.72 J0
X-13.411 Y6.755 I-0.036 J-1.72 F150
X-9.971 Y6.755 I1.72 J0
X-11.655 Y8.475 I-1.72 J0
X-13.411 Y6.755 Z-1.404 I-0.036 J-1.72 F50
X-9.971 Y6.755 Z-1.569 I1.72 J0
X-11.655 Y8.475 Z-1.65 I-1.72 J0
X-13.411 Y6.755 I-0.036 J-1.72 F150
X-9.971 Y6.755 I1.72 J0
X-11.655 Y8.475 I-1.72 J0
X-13.411 Y6.755 Z-1.734 I-0.036 J-1.72 F50
X-9.971 Y6.755 Z-1.899 I1.72 J0
X-11.655 Y8.475 Z-1.98 I-1.72 J0
X-13.411 Y6.755 I-0.036 J-1.72 F150
X-9.971 Y6.755 I1.72 J0
X-11.655 Y8.475 I-1.72 J0
X-13.411 Y6.755 Z-2.064 I-0.036 J-1.72 F50
X-9.971 Y6.755 Z-2.229 I1.72 J0
X-11.655 Y8.475 Z-2.31 I-1.72 J0
X-13.411 Y6.755 I-0.036 J-1.72 F150
X-9.971 Y6.755 I1.72 J0
X-11.655 Y8.475 I-1.72 J0
X-13.411 Y6.755 Z-2.394 I-0.036 J-1.72 F50
X-9.971 Y6.755 Z-2.559 I1.72 J0
X-11.655 Y8.475 Z-2.64 I-1.72 J0
X-13.411 Y6.755 I-0.036 J-1.72 F150
X-9.971 Y6.755 I1.72 J0
X-11.655 Y8.475 I-1.72 J0
G1 X-11.691 Z-2.641 F50
G3 X-13.411 Y6.755 Z-2.724 I0 J-1.72
X-9.971 Y6.755 Z-2.889 I1.72 J0
X-11.655 Y8.475 Z-2.97 I-1.72 J0
X-13.411 Y6.755 I-0.036 J-1.72 F150
X-9.971 Y6.755 I1.72 J0
X-11.655 Y8.475 I-1.72 J0
X-13.411 Y6.755 Z-3.054 I-0.036 J-1.72 F50
X-9.971 Y6.755 Z-3.219 I1.72 J0
X-11.655 Y8.475 Z-3.3 I-1.72 J0
X-13.411 Y6.755 I-0.036 J-1.72 F150
X-9.971 Y6.755 I1.72 J0
X-11.655 Y8.475 I-1.72 J0
G1 X-11.716 Y8.472 Z-3.288
X-11.776 Y8.462 Z-3.276
X-11.834 Y8.444 Z-3.264
X-11.904 Y8.411 Z-3.212
X-11.967 Y8.367 Z-3.161
X-12.005 Y8.332 Z-3.083
X-12.039 Y8.294 Z-3.006
X-12.061 Y8.264 Z-2.824
Z15
X-1.265 Y14.671
Z5
Z2.976 F50
X-1.289 Y14.645 Z2.797
X-1.352 Y14.568 Z2.644
X-1.439 Y14.447 Z2.54
X-1.486 Y14.371 Z2.52
X-1.529 Y14.293 Z2.5
G3 X1.529 Y12.717 Z2.335 I1.529 J-0.788
X-1.529 Y14.293 Z2.17 I-1.529 J0.788
X1.529 Y12.717 Z2.005 I1.529 J-0.788
X-1.529 Y14.293 Z1.84 I-1.529 J0.788
X1.529 Y12.717 Z1.675 I1.529 J-0.788
X-1.529 Y14.293 Z1.51 I-1.529 J0.788
X1.529 Y12.717 Z1.345 I1.529 J-0.788
X-1.529 Y14.293 Z1.18 I-1.529 J0.788
X1.529 Y12.717 Z1.015 I1.529 J-0.788
X-1.529 Y14.293 Z0.85 I-1.529 J0.788
X1.529 Y12.717 Z0.685 I1.529 J-0.788
X-1.529 Y14.293 Z0.52 I-1.529 J0.788
X1.529 Y12.717 Z0.355 I1.529 J-0.788
X-1.529 Y14.293 Z0.19 I-1.529 J0.788
X1.529 Y12.717 Z0.025 I1.529 J-0.788
X-1.529 Y14.293 Z-0.14 I-1.529 J0.788
X1.529 Y12.717 Z-0.305 I1.529 J-0.788
X1.72 Y13.505 Z-0.33 I-1.529 J0.788
X-1.72 Y13.505 I-1.72 J0 F150
X1.72 Y13.505 I1.72 J0
X-1.72 Y13.505 Z-0.495 I-1.72 J0 F50
X1.72 Y13.505 Z-0.66 I1.72 J0
X-1.72 Y13.505 I-1.72 J0 F150
X1.72 Y13.505 I1.72 J0
X-1.72 Y13.505 Z-0.825 I-1.72 J0 F50
X1.72 Y13.505 Z-0.99 I1.72 J0
X-1.72 Y13.505 I-1.72 J0 F150
X1.72 Y13.505 I1.72 J0
X-1.72 Y13.505 Z-1.155 I-1.72 J0 F50
X1.72 Y13.505 Z-1.32 I1.72 J0
X-1.72 Y13.505 I-1.72 J0 F150
X1.72 Y13.505 I1.72 J0
X-1.72 Y13.505 Z-1.485 I-1.72 J0 F50
X1.72 Y13.505 Z-1.65 I1.72 J0
X-1.72 Y13.505 I-1.72 J0 F150
X1.72 Y13.505 I1.72 J0
X-1.72 Y13.505 Z-1.815 I-1.72 J0 F50
X1.72 Y13.505 Z-1.98 I1.72 J0
X-1.72 Y13.505 I-1.72 J0 F150
X1.72 Y13.505 I1.72 J0
X-1.72 Y13.505 Z-2.145 I-1.72 J0 F50
X1.72 Y13.505 Z-2.31 I1.72 J0
X-1.72 Y13.505 I-1.72 J0 F150
X1.72 Y13.505 I1.72 J0
X-1.72 Y13.505 Z-2.475 I-1.72 J0 F50
X1.72 Y13.505 Z-2.64 I1.72 J0
X-1.72 Y13.505 I-1.72 J0 F150
X1.72 Y13.505 I1.72 J0
X-1.72 Y13.505 Z-2.805 I-1.72 J0 F50
X1.72 Y13.505 Z-2.97 I1.72 J0
X-1.72 Y13.505 I-1.72 J0 F150
X1.72 Y13.505 I1.72 J0
X-1.72 Y13.505 Z-3.135 I-1.72 J0 F50
X1.72 Y13.505 Z-3.3 I1.72 J0
X-1.72 Y13.505 I-1.72 J0 F150
X1.72 Y13.505 I1.72 J0
G1 X1.716 Y13.566 Z-3.288
X1.705 Y13.625 Z-3.276
X1.686 Y13.683 Z-3.264
X1.651 Y13.752 Z-3.212
X1.606 Y13.815 Z-3.161
X1.57 Y13.852 Z-3.083
X1.531 Y13.885 Z-3.006
X1.501 Y13.906 Z-2.824
Z15

M9
M5
M30
