(cartarm_base_drill)
(Machine)
(  vendor: Autodesk)
(  model: Generic 3-axis)
(  description: This machine has XY axis on the Table and Z axis on the Head)
(T1 D=4.76 CR=0 - ZMIN=-6.85 - flat end mill)
G90 G94
G17
G21
(-Attention- Property Safe Retracts is set to Clearance Height.)
(Ensure the clearance height will clear the part and or fixtures.)
(Raise the Z-axis to a safe height before starting the program.)

(Drill2)
T1
S24000 M3
G17 G90 G94
G54
M8
G0 X28.126 Y26.981
Z16
G0 Z6
Z4
Z1
G1 Z-1.3 F50
G0 Z4
Z0.7
G1 Z-1.6 F50
G0 Z4
Z0.4
G1 Z-1.9 F50
G0 Z4
Z0.1
G1 Z-2.2 F50
G0 Z4
Z-0.2
G1 Z-2.5 F50
G0 Z4
Z-0.5
G1 Z-2.8 F50
G0 Z4
Z-0.8
G1 Z-3.1 F50
G0 Z4
Z-1.1
G1 Z-3.4 F50
G0 Z4
Z-1.4
G1 Z-3.7 F50
G0 Z4
Z-1.7
G1 Z-4 F50
G0 Z4
Z-2
G1 Z-4.3 F50
G0 Z4
Z-2.3
G1 Z-4.6 F50
G0 Z4
Z-2.6
G1 Z-4.9 F50
G0 Z4
Z-2.9
G1 Z-5.2 F50
G0 Z4
Z-3.2
G1 Z-5.5 F50
G0 Z4
Z-3.5
G1 Z-5.8 F50
G0 Z4
Z-3.8
G1 Z-6.1 F50
G0 Z4
Z-4.1
G1 Z-6.4 F50
G0 Z4
Z-4.4
G1 Z-6.7 F50
G0 Z4
Z-4.7
G1 Z-6.85 F50
G4 P1.
G0 Z6
Y41.981
Z5
Z2
G1 Z-0.3 F50
G0 Z5
Z1.7
G1 Z-0.6 F50
G0 Z5
Z1.4
G1 Z-0.9 F50
G0 Z5
Z1.1
G1 Z-1.2 F50
G0 Z5
Z0.8
G1 Z-1.5 F50
G0 Z5
Z0.5
G1 Z-1.8 F50
G0 Z5
Z0.2
G1 Z-2.1 F50
G0 Z5
Z-0.1
G1 Z-2.4 F50
G0 Z5
Z-0.4
G1 Z-2.7 F50
G0 Z5
Z-0.7
G1 Z-3 F50
G0 Z5
Z-1
G1 Z-3.3 F50
G0 Z5
Z-1.3
G1 Z-3.6 F50
G0 Z5
Z-1.6
G1 Z-3.9 F50
G0 Z5
Z-1.9
G1 Z-4.2 F50
G0 Z5
Z-2.2
G1 Z-4.5 F50
G0 Z5
Z-2.5
G1 Z-4.8 F50
G0 Z5
Z-2.8
G1 Z-5.1 F50
G0 Z5
Z-3.1
G1 Z-5.4 F50
G0 Z5
Z-3.4
G1 Z-5.7 F50
G0 Z5
Z-3.7
G1 Z-6 F50
G0 Z5
Z-4
G1 Z-6.3 F50
G0 Z5
Z-4.3
G1 Z-6.6 F50
G0 Z5
Z-4.6
G1 Z-6.85 F50
G4 P1.
G0 Z6
Y56.981
Z5
Z2
G1 Z-0.3 F50
G0 Z5
Z1.7
G1 Z-0.6 F50
G0 Z5
Z1.4
G1 Z-0.9 F50
G0 Z5
Z1.1
G1 Z-1.2 F50
G0 Z5
Z0.8
G1 Z-1.5 F50
G0 Z5
Z0.5
G1 Z-1.8 F50
G0 Z5
Z0.2
G1 Z-2.1 F50
G0 Z5
Z-0.1
G1 Z-2.4 F50
G0 Z5
Z-0.4
G1 Z-2.7 F50
G0 Z5
Z-0.7
G1 Z-3 F50
G0 Z5
Z-1
G1 Z-3.3 F50
G0 Z5
Z-1.3
G1 Z-3.6 F50
G0 Z5
Z-1.6
G1 Z-3.9 F50
G0 Z5
Z-1.9
G1 Z-4.2 F50
G0 Z5
Z-2.2
G1 Z-4.5 F50
G0 Z5
Z-2.5
G1 Z-4.8 F50
G0 Z5
Z-2.8
G1 Z-5.1 F50
G0 Z5
Z-3.1
G1 Z-5.4 F50
G0 Z5
Z-3.4
G1 Z-5.7 F50
G0 Z5
Z-3.7
G1 Z-6 F50
G0 Z5
Z-4
G1 Z-6.3 F50
G0 Z5
Z-4.3
G1 Z-6.6 F50
G0 Z5
Z-4.6
G1 Z-6.85 F50
G4 P1.
G0 Z6
Y71.981
Z5
Z2
G1 Z-0.3 F50
G0 Z5
Z1.7
G1 Z-0.6 F50
G0 Z5
Z1.4
G1 Z-0.9 F50
G0 Z5
Z1.1
G1 Z-1.2 F50
G0 Z5
Z0.8
G1 Z-1.5 F50
G0 Z5
Z0.5
G1 Z-1.8 F50
G0 Z5
Z0.2
G1 Z-2.1 F50
G0 Z5
Z-0.1
G1 Z-2.4 F50
G0 Z5
Z-0.4
G1 Z-2.7 F50
G0 Z5
Z-0.7
G1 Z-3 F50
G0 Z5
Z-1
G1 Z-3.3 F50
G0 Z5
Z-1.3
G1 Z-3.6 F50
G0 Z5
Z-1.6
G1 Z-3.9 F50
G0 Z5
Z-1.9
G1 Z-4.2 F50
G0 Z5
Z-2.2
G1 Z-4.5 F50
G0 Z5
Z-2.5
G1 Z-4.8 F50
G0 Z5
Z-2.8
G1 Z-5.1 F50
G0 Z5
Z-3.1
G1 Z-5.4 F50
G0 Z5
Z-3.4
G1 Z-5.7 F50
G0 Z5
Z-3.7
G1 Z-6 F50
G0 Z5
Z-4
G1 Z-6.3 F50
G0 Z5
Z-4.3
G1 Z-6.6 F50
G0 Z5
Z-4.6
G1 Z-6.85 F50
G4 P1.
G0 Z6
Y86.981
Z4
Z1
G1 Z-1.3 F50
G0 Z4
Z0.7
G1 Z-1.6 F50
G0 Z4
Z0.4
G1 Z-1.9 F50
G0 Z4
Z0.1
G1 Z-2.2 F50
G0 Z4
Z-0.2
G1 Z-2.5 F50
G0 Z4
Z-0.5
G1 Z-2.8 F50
G0 Z4
Z-0.8
G1 Z-3.1 F50
G0 Z4
Z-1.1
G1 Z-3.4 F50
G0 Z4
Z-1.4
G1 Z-3.7 F50
G0 Z4
Z-1.7
G1 Z-4 F50
G0 Z4
Z-2
G1 Z-4.3 F50
G0 Z4
Z-2.3
G1 Z-4.6 F50
G0 Z4
Z-2.6
G1 Z-4.9 F50
G0 Z4
Z-2.9
G1 Z-5.2 F50
G0 Z4
Z-3.2
G1 Z-5.5 F50
G0 Z4
Z-3.5
G1 Z-5.8 F50
G0 Z4
Z-3.8
G1 Z-6.1 F50
G0 Z4
Z-4.1
G1 Z-6.4 F50
G0 Z4
Z-4.4
G1 Z-6.7 F50
G0 Z4
Z-4.7
G1 Z-6.85 F50
G4 P1.
G0 Z6
X99.376
Z5
Z2
G1 Z-0.3 F50
G0 Z5
Z1.7
G1 Z-0.6 F50
G0 Z5
Z1.4
G1 Z-0.9 F50
G0 Z5
Z1.1
G1 Z-1.2 F50
G0 Z5
Z0.8
G1 Z-1.5 F50
G0 Z5
Z0.5
G1 Z-1.8 F50
G0 Z5
Z0.2
G1 Z-2.1 F50
G0 Z5
Z-0.1
G1 Z-2.4 F50
G0 Z5
Z-0.4
G1 Z-2.7 F50
G0 Z5
Z-0.7
G1 Z-3 F50
G0 Z5
Z-1
G1 Z-3.3 F50
G0 Z5
Z-1.3
G1 Z-3.6 F50
G0 Z5
Z-1.6
G1 Z-3.9 F50
G0 Z5
Z-1.9
G1 Z-4.2 F50
G0 Z5
Z-2.2
G1 Z-4.5 F50
G0 Z5
Z-2.5
G1 Z-4.8 F50
G0 Z5
Z-2.8
G1 Z-5.1 F50
G0 Z5
Z-3.1
G1 Z-5.4 F50
G0 Z5
Z-3.4
G1 Z-5.7 F50
G0 Z5
Z-3.7
G1 Z-6 F50
G0 Z5
Z-4
G1 Z-6.3 F50
G0 Z5
Z-4.3
G1 Z-6.6 F50
G0 Z5
Z-4.6
G1 Z-6.85 F50
G4 P1.
G0 Z6
Y71.981
Z4
Z1
G1 Z-1.3 F50
G0 Z4
Z0.7
G1 Z-1.6 F50
G0 Z4
Z0.4
G1 Z-1.9 F50
G0 Z4
Z0.1
G1 Z-2.2 F50
G0 Z4
Z-0.2
G1 Z-2.5 F50
G0 Z4
Z-0.5
G1 Z-2.8 F50
G0 Z4
Z-0.8
G1 Z-3.1 F50
G0 Z4
Z-1.1
G1 Z-3.4 F50
G0 Z4
Z-1.4
G1 Z-3.7 F50
G0 Z4
Z-1.7
G1 Z-4 F50
G0 Z4
Z-2
G1 Z-4.3 F50
G0 Z4
Z-2.3
G1 Z-4.6 F50
G0 Z4
Z-2.6
G1 Z-4.9 F50
G0 Z4
Z-2.9
G1 Z-5.2 F50
G0 Z4
Z-3.2
G1 Z-5.5 F50
G0 Z4
Z-3.5
G1 Z-5.8 F50
G0 Z4
Z-3.8
G1 Z-6.1 F50
G0 Z4
Z-4.1
G1 Z-6.4 F50
G0 Z4
Z-4.4
G1 Z-6.7 F50
G0 Z4
Z-4.7
G1 Z-6.85 F50
G4 P1.
G0 Z6
Y56.981
Z5
Z2
G1 Z-0.3 F50
G0 Z5
Z1.7
G1 Z-0.6 F50
G0 Z5
Z1.4
G1 Z-0.9 F50
G0 Z5
Z1.1
G1 Z-1.2 F50
G0 Z5
Z0.8
G1 Z-1.5 F50
G0 Z5
Z0.5
G1 Z-1.8 F50
G0 Z5
Z0.2
G1 Z-2.1 F50
G0 Z5
Z-0.1
G1 Z-2.4 F50
G0 Z5
Z-0.4
G1 Z-2.7 F50
G0 Z5
Z-0.7
G1 Z-3 F50
G0 Z5
Z-1
G1 Z-3.3 F50
G0 Z5
Z-1.3
G1 Z-3.6 F50
G0 Z5
Z-1.6
G1 Z-3.9 F50
G0 Z5
Z-1.9
G1 Z-4.2 F50
G0 Z5
Z-2.2
G1 Z-4.5 F50
G0 Z5
Z-2.5
G1 Z-4.8 F50
G0 Z5
Z-2.8
G1 Z-5.1 F50
G0 Z5
Z-3.1
G1 Z-5.4 F50
G0 Z5
Z-3.4
G1 Z-5.7 F50
G0 Z5
Z-3.7
G1 Z-6 F50
G0 Z5
Z-4
G1 Z-6.3 F50
G0 Z5
Z-4.3
G1 Z-6.6 F50
G0 Z5
Z-4.6
G1 Z-6.85 F50
G4 P1.
G0 Z6
Y41.981
Z4
Z1
G1 Z-1.3 F50
G0 Z4
Z0.7
G1 Z-1.6 F50
G0 Z4
Z0.4
G1 Z-1.9 F50
G0 Z4
Z0.1
G1 Z-2.2 F50
G0 Z4
Z-0.2
G1 Z-2.5 F50
G0 Z4
Z-0.5
G1 Z-2.8 F50
G0 Z4
Z-0.8
G1 Z-3.1 F50
G0 Z4
Z-1.1
G1 Z-3.4 F50
G0 Z4
Z-1.4
G1 Z-3.7 F50
G0 Z4
Z-1.7
G1 Z-4 F50
G0 Z4
Z-2
G1 Z-4.3 F50
G0 Z4
Z-2.3
G1 Z-4.6 F50
G0 Z4
Z-2.6
G1 Z-4.9 F50
G0 Z4
Z-2.9
G1 Z-5.2 F50
G0 Z4
Z-3.2
G1 Z-5.5 F50
G0 Z4
Z-3.5
G1 Z-5.8 F50
G0 Z4
Z-3.8
G1 Z-6.1 F50
G0 Z4
Z-4.1
G1 Z-6.4 F50
G0 Z4
Z-4.4
G1 Z-6.7 F50
G0 Z4
Z-4.7
G1 Z-6.85 F50
G4 P1.
G0 Z6
Y26.981
Z5
Z2
G1 Z-0.3 F50
G0 Z5
Z1.7
G1 Z-0.6 F50
G0 Z5
Z1.4
G1 Z-0.9 F50
G0 Z5
Z1.1
G1 Z-1.2 F50
G0 Z5
Z0.8
G1 Z-1.5 F50
G0 Z5
Z0.5
G1 Z-1.8 F50
G0 Z5
Z0.2
G1 Z-2.1 F50
G0 Z5
Z-0.1
G1 Z-2.4 F50
G0 Z5
Z-0.4
G1 Z-2.7 F50
G0 Z5
Z-0.7
G1 Z-3 F50
G0 Z5
Z-1
G1 Z-3.3 F50
G0 Z5
Z-1.3
G1 Z-3.6 F50
G0 Z5
Z-1.6
G1 Z-3.9 F50
G0 Z5
Z-1.9
G1 Z-4.2 F50
G0 Z5
Z-2.2
G1 Z-4.5 F50
G0 Z5
Z-2.5
G1 Z-4.8 F50
G0 Z5
Z-2.8
G1 Z-5.1 F50
G0 Z5
Z-3.1
G1 Z-5.4 F50
G0 Z5
Z-3.4
G1 Z-5.7 F50
G0 Z5
Z-3.7
G1 Z-6 F50
G0 Z5
Z-4
G1 Z-6.3 F50
G0 Z5
Z-4.3
G1 Z-6.6 F50
G0 Z5
Z-4.6
G1 Z-6.85 F50
G4 P1.
G0 Z6
Z16

M9
M5
M30
