(cartarm_base)
(Machine)
(  vendor: Autodesk)
(  model: Generic 3-axis)
(  description: This machine has XYZ axis on the Head)
(T1 D=4.76 CR=0 - ZMIN=-8.35 - flat end mill)
G90 G94
G17
G21
(-Attention- Property Safe Retracts is set to Clearance Height.)
(Ensure the clearance height will clear the part and or fixtures.)
(Raise the Z-axis to a safe height before starting the program.)

(Drill2)
T1
S21000 M3
G17 G90 G94
G54
M8
G0 X99.376 Y86.981
Z15
G0 Z5
Z2
G1 Z-0.6 F50
G0 Z5
Z1.4
G1 Z-1.2 F50
G0 Z5
Z0.8
G1 Z-1.8 F50
G0 Z5
Z0.2
G1 Z-2.4 F50
G0 Z5
Z-0.4
G1 Z-3 F50
G0 Z5
Z-1
G1 Z-3.6 F50
G0 Z5
Z-1.6
G1 Z-4.2 F50
G0 Z5
Z-2.2
G1 Z-4.8 F50
G0 Z5
Z-2.8
G1 Z-5.4 F50
G0 Z5
Z-3.4
G1 Z-6 F50
G0 Z5
Z-4
G1 Z-6.6 F50
G0 Z5
Z-4.6
G1 Z-7.2 F50
G0 Z5
Z-5.2
G1 Z-7.8 F50
G0 Z5
Z-5.8
G1 Z-8.35 F50
G0 Z5
Y71.981
Z2
G1 Z-0.6 F50
G0 Z5
Z1.4
G1 Z-1.2 F50
G0 Z5
Z0.8
G1 Z-1.8 F50
G0 Z5
Z0.2
G1 Z-2.4 F50
G0 Z5
Z-0.4
G1 Z-3 F50
G0 Z5
Z-1
G1 Z-3.6 F50
G0 Z5
Z-1.6
G1 Z-4.2 F50
G0 Z5
Z-2.2
G1 Z-4.8 F50
G0 Z5
Z-2.8
G1 Z-5.4 F50
G0 Z5
Z-3.4
G1 Z-6 F50
G0 Z5
Z-4
G1 Z-6.6 F50
G0 Z5
Z-4.6
G1 Z-7.2 F50
G0 Z5
Z-5.2
G1 Z-7.8 F50
G0 Z5
Z-5.8
G1 Z-8.35 F50
G0 Z5
Y56.981
Z2
G1 Z-0.6 F50
G0 Z5
Z1.4
G1 Z-1.2 F50
G0 Z5
Z0.8
G1 Z-1.8 F50
G0 Z5
Z0.2
G1 Z-2.4 F50
G0 Z5
Z-0.4
G1 Z-3 F50
G0 Z5
Z-1
G1 Z-3.6 F50
G0 Z5
Z-1.6
G1 Z-4.2 F50
G0 Z5
Z-2.2
G1 Z-4.8 F50
G0 Z5
Z-2.8
G1 Z-5.4 F50
G0 Z5
Z-3.4
G1 Z-6 F50
G0 Z5
Z-4
G1 Z-6.6 F50
G0 Z5
Z-4.6
G1 Z-7.2 F50
G0 Z5
Z-5.2
G1 Z-7.8 F50
G0 Z5
Z-5.8
G1 Z-8.35 F50
G0 Z5
Y41.981
Z2
G1 Z-0.6 F50
G0 Z5
Z1.4
G1 Z-1.2 F50
G0 Z5
Z0.8
G1 Z-1.8 F50
G0 Z5
Z0.2
G1 Z-2.4 F50
G0 Z5
Z-0.4
G1 Z-3 F50
G0 Z5
Z-1
G1 Z-3.6 F50
G0 Z5
Z-1.6
G1 Z-4.2 F50
G0 Z5
Z-2.2
G1 Z-4.8 F50
G0 Z5
Z-2.8
G1 Z-5.4 F50
G0 Z5
Z-3.4
G1 Z-6 F50
G0 Z5
Z-4
G1 Z-6.6 F50
G0 Z5
Z-4.6
G1 Z-7.2 F50
G0 Z5
Z-5.2
G1 Z-7.8 F50
G0 Z5
Z-5.8
G1 Z-8.35 F50
G0 Z5
Y26.981
Z2
G1 Z-0.6 F50
G0 Z5
Z1.4
G1 Z-1.2 F50
G0 Z5
Z0.8
G1 Z-1.8 F50
G0 Z5
Z0.2
G1 Z-2.4 F50
G0 Z5
Z-0.4
G1 Z-3 F50
G0 Z5
Z-1
G1 Z-3.6 F50
G0 Z5
Z-1.6
G1 Z-4.2 F50
G0 Z5
Z-2.2
G1 Z-4.8 F50
G0 Z5
Z-2.8
G1 Z-5.4 F50
G0 Z5
Z-3.4
G1 Z-6 F50
G0 Z5
Z-4
G1 Z-6.6 F50
G0 Z5
Z-4.6
G1 Z-7.2 F50
G0 Z5
Z-5.2
G1 Z-7.8 F50
G0 Z5
Z-5.8
G1 Z-8.35 F50
G0 Z5
X71.691 Y48.255
Z2
G1 Z-0.6 F50
G0 Z5
Z1.4
G1 Z-1.2 F50
G0 Z5
Z0.8
G1 Z-1.8 F50
G0 Z5
Z0.2
G1 Z-2.4 F50
G0 Z5
Z-0.4
G1 Z-3 F50
G0 Z5
Z-1
G1 Z-3.6 F50
G0 Z5
Z-1.6
G1 Z-4.2 F50
G0 Z5
Z-2.2
G1 Z-4.8 F50
G0 Z5
Z-2.8
G1 Z-5.4 F50
G0 Z5
Z-3.4
G1 Z-6 F50
G0 Z5
Z-4
G1 Z-6.6 F50
G0 Z5
Z-4.6
G1 Z-7.2 F50
G0 Z5
Z-5.2
G1 Z-7.8 F50
G0 Z5
Z-5.8
G1 Z-8.35 F50
G0 Z5
X60 Y41.505
Z2
G1 Z-0.6 F50
G0 Z5
Z1.4
G1 Z-1.2 F50
G0 Z5
Z0.8
G1 Z-1.8 F50
G0 Z5
Z0.2
G1 Z-2.4 F50
G0 Z5
Z-0.4
G1 Z-3 F50
G0 Z5
Z-1
G1 Z-3.6 F50
G0 Z5
Z-1.6
G1 Z-4.2 F50
G0 Z5
Z-2.2
G1 Z-4.8 F50
G0 Z5
Z-2.8
G1 Z-5.4 F50
G0 Z5
Z-3.4
G1 Z-6 F50
G0 Z5
Z-4
G1 Z-6.6 F50
G0 Z5
Z-4.6
G1 Z-7.2 F50
G0 Z5
Z-5.2
G1 Z-7.8 F50
G0 Z5
Z-5.8
G1 Z-8.35 F50
G0 Z5
X48.309 Y48.255
Z2
G1 Z-0.6 F50
G0 Z5
Z1.4
G1 Z-1.2 F50
G0 Z5
Z0.8
G1 Z-1.8 F50
G0 Z5
Z0.2
G1 Z-2.4 F50
G0 Z5
Z-0.4
G1 Z-3 F50
G0 Z5
Z-1
G1 Z-3.6 F50
G0 Z5
Z-1.6
G1 Z-4.2 F50
G0 Z5
Z-2.2
G1 Z-4.8 F50
G0 Z5
Z-2.8
G1 Z-5.4 F50
G0 Z5
Z-3.4
G1 Z-6 F50
G0 Z5
Z-4
G1 Z-6.6 F50
G0 Z5
Z-4.6
G1 Z-7.2 F50
G0 Z5
Z-5.2
G1 Z-7.8 F50
G0 Z5
Z-5.8
G1 Z-8.35 F50
G0 Z5
Y61.755
Z2
G1 Z-0.6 F50
G0 Z5
Z1.4
G1 Z-1.2 F50
G0 Z5
Z0.8
G1 Z-1.8 F50
G0 Z5
Z0.2
G1 Z-2.4 F50
G0 Z5
Z-0.4
G1 Z-3 F50
G0 Z5
Z-1
G1 Z-3.6 F50
G0 Z5
Z-1.6
G1 Z-4.2 F50
G0 Z5
Z-2.2
G1 Z-4.8 F50
G0 Z5
Z-2.8
G1 Z-5.4 F50
G0 Z5
Z-3.4
G1 Z-6 F50
G0 Z5
Z-4
G1 Z-6.6 F50
G0 Z5
Z-4.6
G1 Z-7.2 F50
G0 Z5
Z-5.2
G1 Z-7.8 F50
G0 Z5
Z-5.8
G1 Z-8.35 F50
G0 Z5
X60 Y68.505
Z2
G1 Z-0.6 F50
G0 Z5
Z1.4
G1 Z-1.2 F50
G0 Z5
Z0.8
G1 Z-1.8 F50
G0 Z5
Z0.2
G1 Z-2.4 F50
G0 Z5
Z-0.4
G1 Z-3 F50
G0 Z5
Z-1
G1 Z-3.6 F50
G0 Z5
Z-1.6
G1 Z-4.2 F50
G0 Z5
Z-2.2
G1 Z-4.8 F50
G0 Z5
Z-2.8
G1 Z-5.4 F50
G0 Z5
Z-3.4
G1 Z-6 F50
G0 Z5
Z-4
G1 Z-6.6 F50
G0 Z5
Z-4.6
G1 Z-7.2 F50
G0 Z5
Z-5.2
G1 Z-7.8 F50
G0 Z5
Z-5.8
G1 Z-8.35 F50
G0 Z5
X71.691 Y61.755
Z2
G1 Z-0.6 F50
G0 Z5
Z1.4
G1 Z-1.2 F50
G0 Z5
Z0.8
G1 Z-1.8 F50
G0 Z5
Z0.2
G1 Z-2.4 F50
G0 Z5
Z-0.4
G1 Z-3 F50
G0 Z5
Z-1
G1 Z-3.6 F50
G0 Z5
Z-1.6
G1 Z-4.2 F50
G0 Z5
Z-2.2
G1 Z-4.8 F50
G0 Z5
Z-2.8
G1 Z-5.4 F50
G0 Z5
Z-3.4
G1 Z-6 F50
G0 Z5
Z-4
G1 Z-6.6 F50
G0 Z5
Z-4.6
G1 Z-7.2 F50
G0 Z5
Z-5.2
G1 Z-7.8 F50
G0 Z5
Z-5.8
G1 Z-8.35 F50
G0 Z5
Z15
(When using Fusion for Personal Use, the feedrate of rapid)
(moves is reduced to match the feedrate of cutting moves,)
(which can increase machining time. Unrestricted rapid moves)
(are available with a Fusion Subscription.)

(2D Pocket2)
G0 X98.151 Y85.774
G1 Z15 F150
Z5
Z2.976 F50
X98.173 Y85.752 Z2.806
X98.239 Y85.691 Z2.659
X98.344 Y85.605 Z2.553
X98.426 Y85.548 Z2.515
X98.516 Y85.492 Z2.5
G3 X100.236 Y88.471 Z2.35 I0.86 J1.49
X98.516 Y85.492 Z2.2 I-0.86 J-1.49
X100.236 Y88.471 Z2.05 I0.86 J1.49
X98.516 Y85.492 Z1.9 I-0.86 J-1.49
X100.236 Y88.471 Z1.75 I0.86 J1.49
X98.516 Y85.492 Z1.6 I-0.86 J-1.49
X100.236 Y88.471 Z1.45 I0.86 J1.49
X98.516 Y85.492 Z1.3 I-0.86 J-1.49
X100.236 Y88.471 Z1.15 I0.86 J1.49
X98.516 Y85.492 Z1 I-0.86 J-1.49
X100.236 Y88.471 Z0.85 I0.86 J1.49
X98.516 Y85.492 Z0.7 I-0.86 J-1.49
X100.236 Y88.471 Z0.55 I0.86 J1.49
X98.516 Y85.492 Z0.4 I-0.86 J-1.49
X100.236 Y88.471 Z0.25 I0.86 J1.49
X98.516 Y85.492 Z0.1 I-0.86 J-1.49
X100.236 Y88.471 Z-0.05 I0.86 J1.49
X98.516 Y85.492 Z-0.2 I-0.86 J-1.49
X101.096 Y86.981 Z-0.3 I0.86 J1.49
X97.656 Y86.981 I-1.72 J0 F150
X101.096 Y86.981 I1.72 J0
X97.656 Y86.981 Z-0.45 I-1.72 J0 F50
X101.096 Y86.981 Z-0.6 I1.72 J0
X97.656 Y86.981 I-1.72 J0 F150
X101.096 Y86.981 I1.72 J0
X97.656 Y86.981 Z-0.75 I-1.72 J0 F50
X101.096 Y86.981 Z-0.9 I1.72 J0
X97.656 Y86.981 I-1.72 J0 F150
X101.096 Y86.981 I1.72 J0
X97.656 Y86.981 Z-1.05 I-1.72 J0 F50
X101.096 Y86.981 Z-1.2 I1.72 J0
X97.656 Y86.981 I-1.72 J0 F150
X101.096 Y86.981 I1.72 J0
X97.656 Y86.981 Z-1.35 I-1.72 J0 F50
X101.096 Y86.981 Z-1.5 I1.72 J0
X97.656 Y86.981 I-1.72 J0 F150
X101.096 Y86.981 I1.72 J0
X97.656 Y86.981 Z-1.65 I-1.72 J0 F50
X101.096 Y86.981 Z-1.8 I1.72 J0
X97.656 Y86.981 I-1.72 J0 F150
X101.096 Y86.981 I1.72 J0
X97.656 Y86.981 Z-1.95 I-1.72 J0 F50
X101.096 Y86.981 Z-2.1 I1.72 J0
X97.656 Y86.981 I-1.72 J0 F150
X101.096 Y86.981 I1.72 J0
X97.656 Y86.981 Z-2.25 I-1.72 J0 F50
X101.096 Y86.981 Z-2.4 I1.72 J0
X97.656 Y86.981 I-1.72 J0 F150
X101.096 Y86.981 I1.72 J0
X97.656 Y86.981 Z-2.55 I-1.72 J0 F50
X101.096 Y86.981 Z-2.7 I1.72 J0
X97.656 Y86.981 I-1.72 J0 F150
X101.096 Y86.981 I1.72 J0
X97.656 Y86.981 Z-2.85 I-1.72 J0 F50
X101.096 Y86.981 Z-3 I1.72 J0
X97.656 Y86.981 I-1.72 J0 F150
X101.096 Y86.981 I1.72 J0
G1 X101.092 Y87.042 Z-2.988
X101.081 Y87.101 Z-2.976
X101.062 Y87.159 Z-2.964
X101.027 Y87.228 Z-2.912
X100.982 Y87.29 Z-2.861
X100.946 Y87.328 Z-2.783
X100.907 Y87.361 Z-2.706
X100.877 Y87.382 Z-2.524
Z15
X98.151 Y70.774
Z5
Z2.976 F50
X98.173 Y70.752 Z2.806
X98.239 Y70.691 Z2.659
X98.344 Y70.605 Z2.553
X98.426 Y70.548 Z2.515
X98.516 Y70.492 Z2.5
G3 X100.236 Y73.471 Z2.35 I0.86 J1.49
X98.516 Y70.492 Z2.2 I-0.86 J-1.49
X100.236 Y73.471 Z2.05 I0.86 J1.49
X98.516 Y70.492 Z1.9 I-0.86 J-1.49
X100.236 Y73.471 Z1.75 I0.86 J1.49
X98.516 Y70.492 Z1.6 I-0.86 J-1.49
X100.236 Y73.471 Z1.45 I0.86 J1.49
X98.516 Y70.492 Z1.3 I-0.86 J-1.49
X100.236 Y73.471 Z1.15 I0.86 J1.49
X98.516 Y70.492 Z1 I-0.86 J-1.49
X100.236 Y73.471 Z0.85 I0.86 J1.49
X98.516 Y70.492 Z0.7 I-0.86 J-1.49
X100.236 Y73.471 Z0.55 I0.86 J1.49
X98.516 Y70.492 Z0.4 I-0.86 J-1.49
X100.236 Y73.471 Z0.25 I0.86 J1.49
X98.516 Y70.492 Z0.1 I-0.86 J-1.49
X100.236 Y73.471 Z-0.05 I0.86 J1.49
X98.516 Y70.492 Z-0.2 I-0.86 J-1.49
X101.096 Y71.981 Z-0.3 I0.86 J1.49
X97.656 Y71.981 I-1.72 J0 F150
X101.096 Y71.981 I1.72 J0
X97.656 Y71.981 Z-0.45 I-1.72 J0 F50
X101.096 Y71.981 Z-0.6 I1.72 J0
X97.656 Y71.981 I-1.72 J0 F150
X101.096 Y71.981 I1.72 J0
X97.656 Y71.981 Z-0.75 I-1.72 J0 F50
X101.096 Y71.981 Z-0.9 I1.72 J0
X97.656 Y71.981 I-1.72 J0 F150
X101.096 Y71.981 I1.72 J0
X97.656 Y71.981 Z-1.05 I-1.72 J0 F50
X101.096 Y71.981 Z-1.2 I1.72 J0
X97.656 Y71.981 I-1.72 J0 F150
X101.096 Y71.981 I1.72 J0
X97.656 Y71.981 Z-1.35 I-1.72 J0 F50
X101.096 Y71.981 Z-1.5 I1.72 J0
X97.656 Y71.981 I-1.72 J0 F150
X101.096 Y71.981 I1.72 J0
X97.656 Y71.981 Z-1.65 I-1.72 J0 F50
X101.096 Y71.981 Z-1.8 I1.72 J0
X97.656 Y71.981 I-1.72 J0 F150
X101.096 Y71.981 I1.72 J0
X97.656 Y71.981 Z-1.95 I-1.72 J0 F50
X101.096 Y71.981 Z-2.1 I1.72 J0
X97.656 Y71.981 I-1.72 J0 F150
X101.096 Y71.981 I1.72 J0
X97.656 Y71.981 Z-2.25 I-1.72 J0 F50
X101.096 Y71.981 Z-2.4 I1.72 J0
X97.656 Y71.981 I-1.72 J0 F150
X101.096 Y71.981 I1.72 J0
X97.656 Y71.981 Z-2.55 I-1.72 J0 F50
X101.096 Y71.981 Z-2.7 I1.72 J0
X97.656 Y71.981 I-1.72 J0 F150
X101.096 Y71.981 I1.72 J0
X97.656 Y71.981 Z-2.85 I-1.72 J0 F50
X101.096 Y71.981 Z-3 I1.72 J0
X97.656 Y71.981 I-1.72 J0 F150
X101.096 Y71.981 I1.72 J0
G1 X101.092 Y72.042 Z-2.988
X101.081 Y72.101 Z-2.976
X101.062 Y72.159 Z-2.964
X101.027 Y72.228 Z-2.912
X100.982 Y72.29 Z-2.861
X100.946 Y72.328 Z-2.783
X100.907 Y72.361 Z-2.706
X100.877 Y72.382 Z-2.524
Z15
X98.151 Y55.774
Z5
Z2.976 F50
X98.173 Y55.752 Z2.806
X98.239 Y55.691 Z2.659
X98.344 Y55.605 Z2.553
X98.426 Y55.548 Z2.515
X98.516 Y55.492 Z2.5
G3 X100.236 Y58.471 Z2.35 I0.86 J1.49
X98.516 Y55.492 Z2.2 I-0.86 J-1.49
X100.236 Y58.471 Z2.05 I0.86 J1.49
X98.516 Y55.492 Z1.9 I-0.86 J-1.49
X100.236 Y58.471 Z1.75 I0.86 J1.49
X98.516 Y55.492 Z1.6 I-0.86 J-1.49
X100.236 Y58.471 Z1.45 I0.86 J1.49
X98.516 Y55.492 Z1.3 I-0.86 J-1.49
X100.236 Y58.471 Z1.15 I0.86 J1.49
X98.516 Y55.492 Z1 I-0.86 J-1.49
X100.236 Y58.471 Z0.85 I0.86 J1.49
X98.516 Y55.492 Z0.7 I-0.86 J-1.49
X100.236 Y58.471 Z0.55 I0.86 J1.49
X98.516 Y55.492 Z0.4 I-0.86 J-1.49
X100.236 Y58.471 Z0.25 I0.86 J1.49
X98.516 Y55.492 Z0.1 I-0.86 J-1.49
X100.236 Y58.471 Z-0.05 I0.86 J1.49
X98.516 Y55.492 Z-0.2 I-0.86 J-1.49
X101.096 Y56.981 Z-0.3 I0.86 J1.49
X97.656 Y56.981 I-1.72 J0 F150
X101.096 Y56.981 I1.72 J0
X97.656 Y56.981 Z-0.45 I-1.72 J0 F50
X101.096 Y56.981 Z-0.6 I1.72 J0
X97.656 Y56.981 I-1.72 J0 F150
X101.096 Y56.981 I1.72 J0
X97.656 Y56.981 Z-0.75 I-1.72 J0 F50
X101.096 Y56.981 Z-0.9 I1.72 J0
X97.656 Y56.981 I-1.72 J0 F150
X101.096 Y56.981 I1.72 J0
X97.656 Y56.981 Z-1.05 I-1.72 J0 F50
X101.096 Y56.981 Z-1.2 I1.72 J0
X97.656 Y56.981 I-1.72 J0 F150
X101.096 Y56.981 I1.72 J0
X97.656 Y56.981 Z-1.35 I-1.72 J0 F50
X101.096 Y56.981 Z-1.5 I1.72 J0
X97.656 Y56.981 I-1.72 J0 F150
X101.096 Y56.981 I1.72 J0
X97.656 Y56.981 Z-1.65 I-1.72 J0 F50
X101.096 Y56.981 Z-1.8 I1.72 J0
X97.656 Y56.981 I-1.72 J0 F150
X101.096 Y56.981 I1.72 J0
X97.656 Y56.981 Z-1.95 I-1.72 J0 F50
X101.096 Y56.981 Z-2.1 I1.72 J0
X97.656 Y56.981 I-1.72 J0 F150
X101.096 Y56.981 I1.72 J0
X97.656 Y56.981 Z-2.25 I-1.72 J0 F50
X101.096 Y56.981 Z-2.4 I1.72 J0
X97.656 Y56.981 I-1.72 J0 F150
X101.096 Y56.981 I1.72 J0
X97.656 Y56.981 Z-2.55 I-1.72 J0 F50
X101.096 Y56.981 Z-2.7 I1.72 J0
X97.656 Y56.981 I-1.72 J0 F150
X101.096 Y56.981 I1.72 J0
X97.656 Y56.981 Z-2.85 I-1.72 J0 F50
X101.096 Y56.981 Z-3 I1.72 J0
X97.656 Y56.981 I-1.72 J0 F150
X101.096 Y56.981 I1.72 J0
G1 X101.092 Y57.042 Z-2.988
X101.081 Y57.101 Z-2.976
X101.062 Y57.159 Z-2.964
X101.027 Y57.228 Z-2.912
X100.982 Y57.29 Z-2.861
X100.946 Y57.328 Z-2.783
X100.907 Y57.361 Z-2.706
X100.877 Y57.382 Z-2.524
Z15
X98.151 Y40.774
Z5
Z2.976 F50
X98.173 Y40.752 Z2.806
X98.239 Y40.691 Z2.659
X98.344 Y40.605 Z2.553
X98.426 Y40.548 Z2.515
X98.516 Y40.492 Z2.5
G3 X100.236 Y43.471 Z2.35 I0.86 J1.49
X98.516 Y40.492 Z2.2 I-0.86 J-1.49
X100.236 Y43.471 Z2.05 I0.86 J1.49
X98.516 Y40.492 Z1.9 I-0.86 J-1.49
X100.236 Y43.471 Z1.75 I0.86 J1.49
X98.516 Y40.492 Z1.6 I-0.86 J-1.49
X100.236 Y43.471 Z1.45 I0.86 J1.49
X98.516 Y40.492 Z1.3 I-0.86 J-1.49
X100.236 Y43.471 Z1.15 I0.86 J1.49
X98.516 Y40.492 Z1 I-0.86 J-1.49
X100.236 Y43.471 Z0.85 I0.86 J1.49
X98.516 Y40.492 Z0.7 I-0.86 J-1.49
X100.236 Y43.471 Z0.55 I0.86 J1.49
X98.516 Y40.492 Z0.4 I-0.86 J-1.49
X100.236 Y43.471 Z0.25 I0.86 J1.49
X98.516 Y40.492 Z0.1 I-0.86 J-1.49
X100.236 Y43.471 Z-0.05 I0.86 J1.49
X98.516 Y40.492 Z-0.2 I-0.86 J-1.49
X101.096 Y41.981 Z-0.3 I0.86 J1.49
X97.656 Y41.981 I-1.72 J0 F150
X101.096 Y41.981 I1.72 J0
X97.656 Y41.981 Z-0.45 I-1.72 J0 F50
X101.096 Y41.981 Z-0.6 I1.72 J0
X97.656 Y41.981 I-1.72 J0 F150
X101.096 Y41.981 I1.72 J0
X97.656 Y41.981 Z-0.75 I-1.72 J0 F50
X101.096 Y41.981 Z-0.9 I1.72 J0
X97.656 Y41.981 I-1.72 J0 F150
X101.096 Y41.981 I1.72 J0
X97.656 Y41.981 Z-1.05 I-1.72 J0 F50
X101.096 Y41.981 Z-1.2 I1.72 J0
X97.656 Y41.981 I-1.72 J0 F150
X101.096 Y41.981 I1.72 J0
X97.656 Y41.981 Z-1.35 I-1.72 J0 F50
X101.096 Y41.981 Z-1.5 I1.72 J0
X97.656 Y41.981 I-1.72 J0 F150
X101.096 Y41.981 I1.72 J0
X97.656 Y41.981 Z-1.65 I-1.72 J0 F50
X101.096 Y41.981 Z-1.8 I1.72 J0
X97.656 Y41.981 I-1.72 J0 F150
X101.096 Y41.981 I1.72 J0
X97.656 Y41.981 Z-1.95 I-1.72 J0 F50
X101.096 Y41.981 Z-2.1 I1.72 J0
X97.656 Y41.981 I-1.72 J0 F150
X101.096 Y41.981 I1.72 J0
X97.656 Y41.981 Z-2.25 I-1.72 J0 F50
X101.096 Y41.981 Z-2.4 I1.72 J0
X97.656 Y41.981 I-1.72 J0 F150
X101.096 Y41.981 I1.72 J0
X97.656 Y41.981 Z-2.55 I-1.72 J0 F50
X101.096 Y41.981 Z-2.7 I1.72 J0
X97.656 Y41.981 I-1.72 J0 F150
X101.096 Y41.981 I1.72 J0
X97.656 Y41.981 Z-2.85 I-1.72 J0 F50
X101.096 Y41.981 Z-3 I1.72 J0
X97.656 Y41.981 I-1.72 J0 F150
X101.096 Y41.981 I1.72 J0
G1 X101.092 Y42.042 Z-2.988
X101.081 Y42.101 Z-2.976
X101.062 Y42.159 Z-2.964
X101.027 Y42.228 Z-2.912
X100.982 Y42.29 Z-2.861
X100.946 Y42.328 Z-2.783
X100.907 Y42.361 Z-2.706
X100.877 Y42.382 Z-2.524
Z15
X98.151 Y25.774
Z5
Z2.976 F50
X98.173 Y25.752 Z2.806
X98.239 Y25.691 Z2.659
X98.344 Y25.605 Z2.553
X98.426 Y25.548 Z2.515
X98.516 Y25.492 Z2.5
G3 X100.236 Y28.471 Z2.35 I0.86 J1.49
X98.516 Y25.492 Z2.2 I-0.86 J-1.49
X100.236 Y28.471 Z2.05 I0.86 J1.49
X98.516 Y25.492 Z1.9 I-0.86 J-1.49
X100.236 Y28.471 Z1.75 I0.86 J1.49
X98.516 Y25.492 Z1.6 I-0.86 J-1.49
X100.236 Y28.471 Z1.45 I0.86 J1.49
X98.516 Y25.492 Z1.3 I-0.86 J-1.49
X100.236 Y28.471 Z1.15 I0.86 J1.49
X98.516 Y25.492 Z1 I-0.86 J-1.49
X100.236 Y28.471 Z0.85 I0.86 J1.49
X98.516 Y25.492 Z0.7 I-0.86 J-1.49
X100.236 Y28.471 Z0.55 I0.86 J1.49
X98.516 Y25.492 Z0.4 I-0.86 J-1.49
X100.236 Y28.471 Z0.25 I0.86 J1.49
X98.516 Y25.492 Z0.1 I-0.86 J-1.49
X100.236 Y28.471 Z-0.05 I0.86 J1.49
X98.516 Y25.492 Z-0.2 I-0.86 J-1.49
X101.096 Y26.981 Z-0.3 I0.86 J1.49
X97.656 Y26.981 I-1.72 J0 F150
X101.096 Y26.981 I1.72 J0
X97.656 Y26.981 Z-0.45 I-1.72 J0 F50
X101.096 Y26.981 Z-0.6 I1.72 J0
X97.656 Y26.981 I-1.72 J0 F150
X101.096 Y26.981 I1.72 J0
X97.656 Y26.981 Z-0.75 I-1.72 J0 F50
X101.096 Y26.981 Z-0.9 I1.72 J0
X97.656 Y26.981 I-1.72 J0 F150
X101.096 Y26.981 I1.72 J0
X97.656 Y26.981 Z-1.05 I-1.72 J0 F50
X101.096 Y26.981 Z-1.2 I1.72 J0
X97.656 Y26.981 I-1.72 J0 F150
X101.096 Y26.981 I1.72 J0
X97.656 Y26.981 Z-1.35 I-1.72 J0 F50
X101.096 Y26.981 Z-1.5 I1.72 J0
X97.656 Y26.981 I-1.72 J0 F150
X101.096 Y26.981 I1.72 J0
X97.656 Y26.981 Z-1.65 I-1.72 J0 F50
X101.096 Y26.981 Z-1.8 I1.72 J0
X97.656 Y26.981 I-1.72 J0 F150
X101.096 Y26.981 I1.72 J0
X97.656 Y26.981 Z-1.95 I-1.72 J0 F50
X101.096 Y26.981 Z-2.1 I1.72 J0
X97.656 Y26.981 I-1.72 J0 F150
X101.096 Y26.981 I1.72 J0
X97.656 Y26.981 Z-2.25 I-1.72 J0 F50
X101.096 Y26.981 Z-2.4 I1.72 J0
X97.656 Y26.981 I-1.72 J0 F150
X101.096 Y26.981 I1.72 J0
X97.656 Y26.981 Z-2.55 I-1.72 J0 F50
X101.096 Y26.981 Z-2.7 I1.72 J0
X97.656 Y26.981 I-1.72 J0 F150
X101.096 Y26.981 I1.72 J0
X97.656 Y26.981 Z-2.85 I-1.72 J0 F50
X101.096 Y26.981 Z-3 I1.72 J0
X97.656 Y26.981 I-1.72 J0 F150
X101.096 Y26.981 I1.72 J0
G1 X101.092 Y27.042 Z-2.988
X101.081 Y27.101 Z-2.976
X101.062 Y27.159 Z-2.964
X101.027 Y27.228 Z-2.912
X100.982 Y27.29 Z-2.861
X100.946 Y27.328 Z-2.783
X100.907 Y27.361 Z-2.706
X100.877 Y27.382 Z-2.524
Z15
(When using Fusion for Personal Use, the feedrate of rapid)
(moves is reduced to match the feedrate of cutting moves,)
(which can increase machining time. Unrestricted rapid moves)
(are available with a Fusion Subscription.)

(2D Contour4)
G0 X33.4 Y56.592
G1 Z15 F150
Z5
Z0.952 F50
Z-0.124
X33.407 Y56.594 Z-0.207
X33.428 Y56.599 Z-0.287
X33.462 Y56.608 Z-0.362
X33.508 Y56.619 Z-0.43
X33.565 Y56.634 Z-0.489
X33.631 Y56.65 Z-0.536
X33.704 Y56.669 Z-0.571
X33.782 Y56.689 Z-0.593
X33.862 Y56.709 Z-0.6
X34.323 Y56.826
G3 X34.667 Y57.405 I-0.117 J0.461
X33 Y58.701 I-1.667 J-0.424 F150
G1 X28.126
G3 X28.126 Y55.261 I0 J-1.72
G1 X33
G3 X34.667 Y57.405 I0 J1.72
X34.088 Y57.749 I-0.461 J-0.117
G1 X33.627 Y57.632
X33.547 Y57.611 Z-0.593
X33.469 Y57.592 Z-0.571
X33.396 Y57.573 Z-0.536
X33.33 Y57.556 Z-0.489
X33.274 Y57.542 Z-0.43
X33.228 Y57.53 Z-0.362
X33.194 Y57.522 Z-0.287
X33.173 Y57.516 Z-0.207
X33.166 Y57.514 Z-0.124
Z5
X33.4 Y56.592
Z0.352 F50
Z-0.724
X33.407 Y56.594 Z-0.807
X33.428 Y56.599 Z-0.887
X33.462 Y56.608 Z-0.962
X33.508 Y56.619 Z-1.03
X33.565 Y56.634 Z-1.089
X33.631 Y56.65 Z-1.136
X33.704 Y56.669 Z-1.171
X33.782 Y56.689 Z-1.193
X33.862 Y56.709 Z-1.2
X34.323 Y56.826
G3 X34.667 Y57.405 I-0.117 J0.461
X33 Y58.701 I-1.667 J-0.424 F150
G1 X28.126
G3 X28.126 Y55.261 I0 J-1.72
G1 X33
G3 X34.667 Y57.405 I0 J1.72
X34.088 Y57.749 I-0.461 J-0.117
G1 X33.627 Y57.632
X33.547 Y57.611 Z-1.193
X33.469 Y57.592 Z-1.171
X33.396 Y57.573 Z-1.136
X33.33 Y57.556 Z-1.089
X33.274 Y57.542 Z-1.03
X33.228 Y57.53 Z-0.962
X33.194 Y57.522 Z-0.887
X33.173 Y57.516 Z-0.807
X33.166 Y57.514 Z-0.724
Z5
X33.4 Y56.592
Z-0.248 F50
Z-1.324
X33.407 Y56.594 Z-1.407
X33.428 Y56.599 Z-1.487
X33.462 Y56.608 Z-1.562
X33.508 Y56.619 Z-1.63
X33.565 Y56.634 Z-1.689
X33.631 Y56.65 Z-1.736
X33.704 Y56.669 Z-1.771
X33.782 Y56.689 Z-1.793
X33.862 Y56.709 Z-1.8
X34.323 Y56.826
G3 X34.667 Y57.405 I-0.117 J0.461
X33 Y58.701 I-1.667 J-0.424 F150
G1 X28.126
G3 X28.126 Y55.261 I0 J-1.72
G1 X33
G3 X34.667 Y57.405 I0 J1.72
X34.088 Y57.749 I-0.461 J-0.117
G1 X33.627 Y57.632
X33.547 Y57.611 Z-1.793
X33.469 Y57.592 Z-1.771
X33.396 Y57.573 Z-1.736
X33.33 Y57.556 Z-1.689
X33.274 Y57.542 Z-1.63
X33.228 Y57.53 Z-1.562
X33.194 Y57.522 Z-1.487
X33.173 Y57.516 Z-1.407
X33.166 Y57.514 Z-1.324
Z5
X33.4 Y56.592
Z-0.848 F50
Z-1.924
X33.407 Y56.594 Z-2.007
X33.428 Y56.599 Z-2.087
X33.462 Y56.608 Z-2.162
X33.508 Y56.619 Z-2.23
X33.565 Y56.634 Z-2.289
X33.631 Y56.65 Z-2.336
X33.704 Y56.669 Z-2.371
X33.782 Y56.689 Z-2.393
X33.862 Y56.709 Z-2.4
X34.323 Y56.826
G3 X34.667 Y57.405 I-0.117 J0.461
X33 Y58.701 I-1.667 J-0.424 F150
G1 X28.126
G3 X28.126 Y55.261 I0 J-1.72
G1 X33
G3 X34.667 Y57.405 I0 J1.72
X34.088 Y57.749 I-0.461 J-0.117
G1 X33.627 Y57.632
X33.547 Y57.611 Z-2.393
X33.469 Y57.592 Z-2.371
X33.396 Y57.573 Z-2.336
X33.33 Y57.556 Z-2.289
X33.274 Y57.542 Z-2.23
X33.228 Y57.53 Z-2.162
X33.194 Y57.522 Z-2.087
X33.173 Y57.516 Z-2.007
X33.166 Y57.514 Z-1.924
Z5
X33.4 Y56.592
Z-1.448 F50
Z-2.524
X33.407 Y56.594 Z-2.607
X33.428 Y56.599 Z-2.687
X33.462 Y56.608 Z-2.762
X33.508 Y56.619 Z-2.83
X33.565 Y56.634 Z-2.889
X33.631 Y56.65 Z-2.936
X33.704 Y56.669 Z-2.971
X33.782 Y56.689 Z-2.993
X33.862 Y56.709 Z-3
X34.323 Y56.826
G3 X34.667 Y57.405 I-0.117 J0.461
X33 Y58.701 I-1.667 J-0.424 F150
G1 X28.126
G3 X28.126 Y55.261 I0 J-1.72
G1 X33
G3 X34.667 Y57.405 I0 J1.72
X34.088 Y57.749 I-0.461 J-0.117
G1 X33.627 Y57.632
X33.547 Y57.611 Z-2.993
X33.469 Y57.592 Z-2.971
X33.396 Y57.573 Z-2.936
X33.33 Y57.556 Z-2.889
X33.274 Y57.542 Z-2.83
X33.228 Y57.53 Z-2.762
X33.194 Y57.522 Z-2.687
X33.173 Y57.516 Z-2.607
X33.166 Y57.514 Z-2.524
Z5
X27.65 Y71.689
Z0.952 F50
Z-0.124
G19 G2 Y71.213 Z-0.6 J-0.476 K0
G1 Y70.737
G17 G3 X28.126 Y70.261 I0.476 J0
G1 X33 F150
G3 X33 Y73.701 I0 J1.72
G1 X28.126
G3 X28.126 Y70.261 I0 J-1.72
X28.602 Y70.737 I0 J0.476
G1 Y71.213
G19 G3 Y71.689 Z-0.124 J0 K0.476
G1 Z5
X27.65
Z0.352 F50
Z-0.724
G2 Y71.213 Z-1.2 J-0.476 K0
G1 Y70.737
G17 G3 X28.126 Y70.261 I0.476 J0
G1 X33 F150
G3 X33 Y73.701 I0 J1.72
G1 X28.126
G3 X28.126 Y70.261 I0 J-1.72
X28.602 Y70.737 I0 J0.476
G1 Y71.213
G19 G3 Y71.689 Z-0.724 J0 K0.476
G1 Z5
X27.65
Z-0.248 F50
Z-1.324
G2 Y71.213 Z-1.8 J-0.476 K0
G1 Y70.737
G17 G3 X28.126 Y70.261 I0.476 J0
G1 X33 F150
G3 X33 Y73.701 I0 J1.72
G1 X28.126
G3 X28.126 Y70.261 I0 J-1.72
X28.602 Y70.737 I0 J0.476
G1 Y71.213
G19 G3 Y71.689 Z-1.324 J0 K0.476
G1 Z5
X27.65
Z-0.848 F50
Z-1.924
G2 Y71.213 Z-2.4 J-0.476 K0
G1 Y70.737
G17 G3 X28.126 Y70.261 I0.476 J0
G1 X33 F150
G3 X33 Y73.701 I0 J1.72
G1 X28.126
G3 X28.126 Y70.261 I0 J-1.72
X28.602 Y70.737 I0 J0.476
G1 Y71.213
G19 G3 Y71.689 Z-1.924 J0 K0.476
G1 Z5
X27.65
Z-1.448 F50
Z-2.524
G2 Y71.213 Z-3 J-0.476 K0
G1 Y70.737
G17 G3 X28.126 Y70.261 I0.476 J0
G1 X33 F150
G3 X33 Y73.701 I0 J1.72
G1 X28.126
G3 X28.126 Y70.261 I0 J-1.72
X28.602 Y70.737 I0 J0.476
G1 Y71.213
G19 G3 Y71.689 Z-2.524 J0 K0.476
G1 Z5
X27.65 Y86.689
Z0.952 F50
Z-0.124
G2 Y86.213 Z-0.6 J-0.476 K0
G1 Y85.737
G17 G3 X28.126 Y85.261 I0.476 J0
G1 X33 F150
G3 X33 Y88.701 I0 J1.72
G1 X28.126
G3 X28.126 Y85.261 I0 J-1.72
X28.602 Y85.737 I0 J0.476
G1 Y86.213
G19 G3 Y86.689 Z-0.124 J0 K0.476
G1 Z5
X27.65
Z0.352 F50
Z-0.724
G2 Y86.213 Z-1.2 J-0.476 K0
G1 Y85.737
G17 G3 X28.126 Y85.261 I0.476 J0
G1 X33 F150
G3 X33 Y88.701 I0 J1.72
G1 X28.126
G3 X28.126 Y85.261 I0 J-1.72
X28.602 Y85.737 I0 J0.476
G1 Y86.213
G19 G3 Y86.689 Z-0.724 J0 K0.476
G1 Z5
X27.65
Z-0.248 F50
Z-1.324
G2 Y86.213 Z-1.8 J-0.476 K0
G1 Y85.737
G17 G3 X28.126 Y85.261 I0.476 J0
G1 X33 F150
G3 X33 Y88.701 I0 J1.72
G1 X28.126
G3 X28.126 Y85.261 I0 J-1.72
X28.602 Y85.737 I0 J0.476
G1 Y86.213
G19 G3 Y86.689 Z-1.324 J0 K0.476
G1 Z5
X27.65
Z-0.848 F50
Z-1.924
G2 Y86.213 Z-2.4 J-0.476 K0
G1 Y85.737
G17 G3 X28.126 Y85.261 I0.476 J0
G1 X33 F150
G3 X33 Y88.701 I0 J1.72
G1 X28.126
G3 X28.126 Y85.261 I0 J-1.72
X28.602 Y85.737 I0 J0.476
G1 Y86.213
G19 G3 Y86.689 Z-1.924 J0 K0.476
G1 Z5
X27.65
Z-1.448 F50
Z-2.524
G2 Y86.213 Z-3 J-0.476 K0
G1 Y85.737
G17 G3 X28.126 Y85.261 I0.476 J0
G1 X33 F150
G3 X33 Y88.701 I0 J1.72
G1 X28.126
G3 X28.126 Y85.261 I0 J-1.72
X28.602 Y85.737 I0 J0.476
G1 Y86.213
G19 G3 Y86.689 Z-2.524 J0 K0.476
G1 Z5
X33.4 Y41.592
Z0.952 F50
Z-0.124
X33.407 Y41.594 Z-0.207
X33.428 Y41.599 Z-0.287
X33.462 Y41.608 Z-0.362
X33.508 Y41.619 Z-0.43
X33.565 Y41.634 Z-0.489
X33.631 Y41.65 Z-0.536
X33.704 Y41.669 Z-0.571
X33.782 Y41.689 Z-0.593
X33.862 Y41.709 Z-0.6
X34.323 Y41.826
G17 G3 X34.667 Y42.405 I-0.117 J0.461
X33 Y43.701 I-1.667 J-0.424 F150
G1 X28.126
G3 X28.126 Y40.261 I0 J-1.72
G1 X33
G3 X34.667 Y42.405 I0 J1.72
X34.088 Y42.749 I-0.461 J-0.117
G1 X33.627 Y42.632
X33.547 Y42.611 Z-0.593
X33.469 Y42.592 Z-0.571
X33.396 Y42.573 Z-0.536
X33.33 Y42.556 Z-0.489
X33.274 Y42.542 Z-0.43
X33.228 Y42.53 Z-0.362
X33.194 Y42.522 Z-0.287
X33.173 Y42.516 Z-0.207
X33.166 Y42.514 Z-0.124
Z5
X33.4 Y41.592
Z0.352 F50
Z-0.724
X33.407 Y41.594 Z-0.807
X33.428 Y41.599 Z-0.887
X33.462 Y41.608 Z-0.962
X33.508 Y41.619 Z-1.03
X33.565 Y41.634 Z-1.089
X33.631 Y41.65 Z-1.136
X33.704 Y41.669 Z-1.171
X33.782 Y41.689 Z-1.193
X33.862 Y41.709 Z-1.2
X34.323 Y41.826
G3 X34.667 Y42.405 I-0.117 J0.461
X33 Y43.701 I-1.667 J-0.424 F150
G1 X28.126
G3 X28.126 Y40.261 I0 J-1.72
G1 X33
G3 X34.667 Y42.405 I0 J1.72
X34.088 Y42.749 I-0.461 J-0.117
G1 X33.627 Y42.632
X33.547 Y42.611 Z-1.193
X33.469 Y42.592 Z-1.171
X33.396 Y42.573 Z-1.136
X33.33 Y42.556 Z-1.089
X33.274 Y42.542 Z-1.03
X33.228 Y42.53 Z-0.962
X33.194 Y42.522 Z-0.887
X33.173 Y42.516 Z-0.807
X33.166 Y42.514 Z-0.724
Z5
X33.4 Y41.592
Z-0.248 F50
Z-1.324
X33.407 Y41.594 Z-1.407
X33.428 Y41.599 Z-1.487
X33.462 Y41.608 Z-1.562
X33.508 Y41.619 Z-1.63
X33.565 Y41.634 Z-1.689
X33.631 Y41.65 Z-1.736
X33.704 Y41.669 Z-1.771
X33.782 Y41.689 Z-1.793
X33.862 Y41.709 Z-1.8
X34.323 Y41.826
G3 X34.667 Y42.405 I-0.117 J0.461
X33 Y43.701 I-1.667 J-0.424 F150
G1 X28.126
G3 X28.126 Y40.261 I0 J-1.72
G1 X33
G3 X34.667 Y42.405 I0 J1.72
X34.088 Y42.749 I-0.461 J-0.117
G1 X33.627 Y42.632
X33.547 Y42.611 Z-1.793
X33.469 Y42.592 Z-1.771
X33.396 Y42.573 Z-1.736
X33.33 Y42.556 Z-1.689
X33.274 Y42.542 Z-1.63
X33.228 Y42.53 Z-1.562
X33.194 Y42.522 Z-1.487
X33.173 Y42.516 Z-1.407
X33.166 Y42.514 Z-1.324
Z5
X33.4 Y41.592
Z-0.848 F50
Z-1.924
X33.407 Y41.594 Z-2.007
X33.428 Y41.599 Z-2.087
X33.462 Y41.608 Z-2.162
X33.508 Y41.619 Z-2.23
X33.565 Y41.634 Z-2.289
X33.631 Y41.65 Z-2.336
X33.704 Y41.669 Z-2.371
X33.782 Y41.689 Z-2.393
X33.862 Y41.709 Z-2.4
X34.323 Y41.826
G3 X34.667 Y42.405 I-0.117 J0.461
X33 Y43.701 I-1.667 J-0.424 F150
G1 X28.126
G3 X28.126 Y40.261 I0 J-1.72
G1 X33
G3 X34.667 Y42.405 I0 J1.72
X34.088 Y42.749 I-0.461 J-0.117
G1 X33.627 Y42.632
X33.547 Y42.611 Z-2.393
X33.469 Y42.592 Z-2.371
X33.396 Y42.573 Z-2.336
X33.33 Y42.556 Z-2.289
X33.274 Y42.542 Z-2.23
X33.228 Y42.53 Z-2.162
X33.194 Y42.522 Z-2.087
X33.173 Y42.516 Z-2.007
X33.166 Y42.514 Z-1.924
Z5
X33.4 Y41.592
Z-1.448 F50
Z-2.524
X33.407 Y41.594 Z-2.607
X33.428 Y41.599 Z-2.687
X33.462 Y41.608 Z-2.762
X33.508 Y41.619 Z-2.83
X33.565 Y41.634 Z-2.889
X33.631 Y41.65 Z-2.936
X33.704 Y41.669 Z-2.971
X33.782 Y41.689 Z-2.993
X33.862 Y41.709 Z-3
X34.323 Y41.826
G3 X34.667 Y42.405 I-0.117 J0.461
X33 Y43.701 I-1.667 J-0.424 F150
G1 X28.126
G3 X28.126 Y40.261 I0 J-1.72
G1 X33
G3 X34.667 Y42.405 I0 J1.72
X34.088 Y42.749 I-0.461 J-0.117
G1 X33.627 Y42.632
X33.547 Y42.611 Z-2.993
X33.469 Y42.592 Z-2.971
X33.396 Y42.573 Z-2.936
X33.33 Y42.556 Z-2.889
X33.274 Y42.542 Z-2.83
X33.228 Y42.53 Z-2.762
X33.194 Y42.522 Z-2.687
X33.173 Y42.516 Z-2.607
X33.166 Y42.514 Z-2.524
Z5
X33.4 Y26.592
Z0.952 F50
Z-0.124
X33.407 Y26.594 Z-0.207
X33.428 Y26.599 Z-0.287
X33.462 Y26.608 Z-0.362
X33.508 Y26.619 Z-0.43
X33.565 Y26.634 Z-0.489
X33.631 Y26.65 Z-0.536
X33.704 Y26.669 Z-0.571
X33.782 Y26.689 Z-0.593
X33.862 Y26.709 Z-0.6
X34.323 Y26.826
G3 X34.667 Y27.405 I-0.117 J0.461
X33 Y28.701 I-1.667 J-0.424 F150
G1 X28.126
G3 X28.126 Y25.261 I0 J-1.72
G1 X33
G3 X34.667 Y27.405 I0 J1.72
X34.088 Y27.749 I-0.461 J-0.117
G1 X33.627 Y27.632
X33.547 Y27.611 Z-0.593
X33.469 Y27.592 Z-0.571
X33.396 Y27.573 Z-0.536
X33.33 Y27.556 Z-0.489
X33.274 Y27.542 Z-0.43
X33.228 Y27.53 Z-0.362
X33.194 Y27.522 Z-0.287
X33.173 Y27.516 Z-0.207
X33.166 Y27.514 Z-0.124
Z5
X33.4 Y26.592
Z0.352 F50
Z-0.724
X33.407 Y26.594 Z-0.807
X33.428 Y26.599 Z-0.887
X33.462 Y26.608 Z-0.962
X33.508 Y26.619 Z-1.03
X33.565 Y26.634 Z-1.089
X33.631 Y26.65 Z-1.136
X33.704 Y26.669 Z-1.171
X33.782 Y26.689 Z-1.193
X33.862 Y26.709 Z-1.2
X34.323 Y26.826
G3 X34.667 Y27.405 I-0.117 J0.461
X33 Y28.701 I-1.667 J-0.424 F150
G1 X28.126
G3 X28.126 Y25.261 I0 J-1.72
G1 X33
G3 X34.667 Y27.405 I0 J1.72
X34.088 Y27.749 I-0.461 J-0.117
G1 X33.627 Y27.632
X33.547 Y27.611 Z-1.193
X33.469 Y27.592 Z-1.171
X33.396 Y27.573 Z-1.136
X33.33 Y27.556 Z-1.089
X33.274 Y27.542 Z-1.03
X33.228 Y27.53 Z-0.962
X33.194 Y27.522 Z-0.887
X33.173 Y27.516 Z-0.807
X33.166 Y27.514 Z-0.724
Z5
X33.4 Y26.592
Z-0.248 F50
Z-1.324
X33.407 Y26.594 Z-1.407
X33.428 Y26.599 Z-1.487
X33.462 Y26.608 Z-1.562
X33.508 Y26.619 Z-1.63
X33.565 Y26.634 Z-1.689
X33.631 Y26.65 Z-1.736
X33.704 Y26.669 Z-1.771
X33.782 Y26.689 Z-1.793
X33.862 Y26.709 Z-1.8
X34.323 Y26.826
G3 X34.667 Y27.405 I-0.117 J0.461
X33 Y28.701 I-1.667 J-0.424 F150
G1 X28.126
G3 X28.126 Y25.261 I0 J-1.72
G1 X33
G3 X34.667 Y27.405 I0 J1.72
X34.088 Y27.749 I-0.461 J-0.117
G1 X33.627 Y27.632
X33.547 Y27.611 Z-1.793
X33.469 Y27.592 Z-1.771
X33.396 Y27.573 Z-1.736
X33.33 Y27.556 Z-1.689
X33.274 Y27.542 Z-1.63
X33.228 Y27.53 Z-1.562
X33.194 Y27.522 Z-1.487
X33.173 Y27.516 Z-1.407
X33.166 Y27.514 Z-1.324
Z5
X33.4 Y26.592
Z-0.848 F50
Z-1.924
X33.407 Y26.594 Z-2.007
X33.428 Y26.599 Z-2.087
X33.462 Y26.608 Z-2.162
X33.508 Y26.619 Z-2.23
X33.565 Y26.634 Z-2.289
X33.631 Y26.65 Z-2.336
X33.704 Y26.669 Z-2.371
X33.782 Y26.689 Z-2.393
X33.862 Y26.709 Z-2.4
X34.323 Y26.826
G3 X34.667 Y27.405 I-0.117 J0.461
X33 Y28.701 I-1.667 J-0.424 F150
G1 X28.126
G3 X28.126 Y25.261 I0 J-1.72
G1 X33
G3 X34.667 Y27.405 I0 J1.72
X34.088 Y27.749 I-0.461 J-0.117
G1 X33.627 Y27.632
X33.547 Y27.611 Z-2.393
X33.469 Y27.592 Z-2.371
X33.396 Y27.573 Z-2.336
X33.33 Y27.556 Z-2.289
X33.274 Y27.542 Z-2.23
X33.228 Y27.53 Z-2.162
X33.194 Y27.522 Z-2.087
X33.173 Y27.516 Z-2.007
X33.166 Y27.514 Z-1.924
Z5
X33.4 Y26.592
Z-1.448 F50
Z-2.524
X33.407 Y26.594 Z-2.607
X33.428 Y26.599 Z-2.687
X33.462 Y26.608 Z-2.762
X33.508 Y26.619 Z-2.83
X33.565 Y26.634 Z-2.889
X33.631 Y26.65 Z-2.936
X33.704 Y26.669 Z-2.971
X33.782 Y26.689 Z-2.993
X33.862 Y26.709 Z-3
X34.323 Y26.826
G3 X34.667 Y27.405 I-0.117 J0.461
X33 Y28.701 I-1.667 J-0.424 F150
G1 X28.126
G3 X28.126 Y25.261 I0 J-1.72
G1 X33
G3 X34.667 Y27.405 I0 J1.72
X34.088 Y27.749 I-0.461 J-0.117
G1 X33.627 Y27.632
X33.547 Y27.611 Z-2.993
X33.469 Y27.592 Z-2.971
X33.396 Y27.573 Z-2.936
X33.33 Y27.556 Z-2.889
X33.274 Y27.542 Z-2.83
X33.228 Y27.53 Z-2.762
X33.194 Y27.522 Z-2.687
X33.173 Y27.516 Z-2.607
X33.166 Y27.514 Z-2.524
Z15
(When using Fusion for Personal Use, the feedrate of rapid)
(moves is reduced to match the feedrate of cutting moves,)
(which can increase machining time. Unrestricted rapid moves)
(are available with a Fusion Subscription.)

(2D Contour5)
G0 X28.126 Y56.861
G1 Z15 F150
Z5
Z0.952 F50
Z-0.3
X33 F150
X33.041 Y56.868
X33.077 Y56.889
X33.104 Y56.921
X33.118 Y56.96
Y57.002
X33.104 Y57.041
X33.077 Y57.073
X33.041 Y57.094
X33 Y57.101
X28.126
X28.085 Y57.094
X28.049 Y57.073
X28.022 Y57.041
X28.008 Y57.002
Y56.96
X28.022 Y56.921
X28.049 Y56.889
X28.085 Y56.868
X28.126 Y56.861
Z-0.6 F50
X33 F150
X33.041 Y56.868
X33.077 Y56.889
X33.104 Y56.921
X33.118 Y56.96
Y57.002
X33.104 Y57.041
X33.077 Y57.073
X33.041 Y57.094
X33 Y57.101
X28.126
X28.085 Y57.094
X28.049 Y57.073
X28.022 Y57.041
X28.008 Y57.002
Y56.96
X28.022 Y56.921
X28.049 Y56.889
X28.085 Y56.868
X28.126 Y56.861
Z-0.9 F50
X33 F150
X33.041 Y56.868
X33.077 Y56.889
X33.104 Y56.921
X33.118 Y56.96
Y57.002
X33.104 Y57.041
X33.077 Y57.073
X33.041 Y57.094
X33 Y57.101
X28.126
X28.085 Y57.094
X28.049 Y57.073
X28.022 Y57.041
X28.008 Y57.002
Y56.96
X28.022 Y56.921
X28.049 Y56.889
X28.085 Y56.868
X28.126 Y56.861
Z-1.2 F50
X33 F150
X33.041 Y56.868
X33.077 Y56.889
X33.104 Y56.921
X33.118 Y56.96
Y57.002
X33.104 Y57.041
X33.077 Y57.073
X33.041 Y57.094
X33 Y57.101
X28.126
X28.085 Y57.094
X28.049 Y57.073
X28.022 Y57.041
X28.008 Y57.002
Y56.96
X28.022 Y56.921
X28.049 Y56.889
X28.085 Y56.868
X28.126 Y56.861
Z-1.5 F50
X33 F150
X33.041 Y56.868
X33.077 Y56.889
X33.104 Y56.921
X33.118 Y56.96
Y57.002
X33.104 Y57.041
X33.077 Y57.073
X33.041 Y57.094
X33 Y57.101
X28.126
X28.085 Y57.094
X28.049 Y57.073
X28.022 Y57.041
X28.008 Y57.002
Y56.96
X28.022 Y56.921
X28.049 Y56.889
X28.085 Y56.868
X28.126 Y56.861
Z-1.8 F50
X33 F150
X33.041 Y56.868
X33.077 Y56.889
X33.104 Y56.921
X33.118 Y56.96
Y57.002
X33.104 Y57.041
X33.077 Y57.073
X33.041 Y57.094
X33 Y57.101
X28.126
X28.085 Y57.094
X28.049 Y57.073
X28.022 Y57.041
X28.008 Y57.002
Y56.96
X28.022 Y56.921
X28.049 Y56.889
X28.085 Y56.868
X28.126 Y56.861
Z-2.1 F50
X33 F150
X33.041 Y56.868
X33.077 Y56.889
X33.104 Y56.921
X33.118 Y56.96
Y57.002
X33.104 Y57.041
X33.077 Y57.073
X33.041 Y57.094
X33 Y57.101
X28.126
X28.085 Y57.094
X28.049 Y57.073
X28.022 Y57.041
X28.008 Y57.002
Y56.96
X28.022 Y56.921
X28.049 Y56.889
X28.085 Y56.868
X28.126 Y56.861
Z-2.4 F50
X33 F150
X33.041 Y56.868
X33.077 Y56.889
X33.104 Y56.921
X33.118 Y56.96
Y57.002
X33.104 Y57.041
X33.077 Y57.073
X33.041 Y57.094
X33 Y57.101
X28.126
X28.085 Y57.094
X28.049 Y57.073
X28.022 Y57.041
X28.008 Y57.002
Y56.96
X28.022 Y56.921
X28.049 Y56.889
X28.085 Y56.868
X28.126 Y56.861
Z-2.7 F50
X33 F150
X33.041 Y56.868
X33.077 Y56.889
X33.104 Y56.921
X33.118 Y56.96
Y57.002
X33.104 Y57.041
X33.077 Y57.073
X33.041 Y57.094
X33 Y57.101
X28.126
X28.085 Y57.094
X28.049 Y57.073
X28.022 Y57.041
X28.008 Y57.002
Y56.96
X28.022 Y56.921
X28.049 Y56.889
X28.085 Y56.868
X28.126 Y56.861
Z-3 F50
X33 F150
X33.041 Y56.868
X33.077 Y56.889
X33.104 Y56.921
X33.118 Y56.96
Y57.002
X33.104 Y57.041
X33.077 Y57.073
X33.041 Y57.094
X33 Y57.101
X28.126
X28.085 Y57.094
X28.049 Y57.073
X28.022 Y57.041
X28.008 Y57.002
Y56.96
X28.022 Y56.921
X28.049 Y56.889
X28.085 Y56.868
X28.126 Y56.861
Z-3.3 F50
X33 F150
X33.041 Y56.868
X33.077 Y56.889
X33.104 Y56.921
X33.118 Y56.96
Y57.002
X33.104 Y57.041
X33.077 Y57.073
X33.041 Y57.094
X33 Y57.101
X28.126
X28.085 Y57.094
X28.049 Y57.073
X28.022 Y57.041
X28.008 Y57.002
Y56.96
X28.022 Y56.921
X28.049 Y56.889
X28.085 Y56.868
X28.126 Y56.861
Z-3.6 F50
X33 F150
X33.041 Y56.868
X33.077 Y56.889
X33.104 Y56.921
X33.118 Y56.96
Y57.002
X33.104 Y57.041
X33.077 Y57.073
X33.041 Y57.094
X33 Y57.101
X28.126
X28.085 Y57.094
X28.049 Y57.073
X28.022 Y57.041
X28.008 Y57.002
Y56.96
X28.022 Y56.921
X28.049 Y56.889
X28.085 Y56.868
X28.126 Y56.861
Z-3.9 F50
X33 F150
X33.041 Y56.868
X33.077 Y56.889
X33.104 Y56.921
X33.118 Y56.96
Y57.002
X33.104 Y57.041
X33.077 Y57.073
X33.041 Y57.094
X33 Y57.101
X28.126
X28.085 Y57.094
X28.049 Y57.073
X28.022 Y57.041
X28.008 Y57.002
Y56.96
X28.022 Y56.921
X28.049 Y56.889
X28.085 Y56.868
X28.126 Y56.861
Z-4.2 F50
X33 F150
X33.041 Y56.868
X33.077 Y56.889
X33.104 Y56.921
X33.118 Y56.96
Y57.002
X33.104 Y57.041
X33.077 Y57.073
X33.041 Y57.094
X33 Y57.101
X28.126
X28.085 Y57.094
X28.049 Y57.073
X28.022 Y57.041
X28.008 Y57.002
Y56.96
X28.022 Y56.921
X28.049 Y56.889
X28.085 Y56.868
X28.126 Y56.861
Z-4.5 F50
X33 F150
X33.041 Y56.868
X33.077 Y56.889
X33.104 Y56.921
X33.118 Y56.96
Y57.002
X33.104 Y57.041
X33.077 Y57.073
X33.041 Y57.094
X33 Y57.101
X28.126
X28.085 Y57.094
X28.049 Y57.073
X28.022 Y57.041
X28.008 Y57.002
Y56.96
X28.022 Y56.921
X28.049 Y56.889
X28.085 Y56.868
X28.126 Y56.861
Z-4.8 F50
X33 F150
X33.041 Y56.868
X33.077 Y56.889
X33.104 Y56.921
X33.118 Y56.96
Y57.002
X33.104 Y57.041
X33.077 Y57.073
X33.041 Y57.094
X33 Y57.101
X28.126
X28.085 Y57.094
X28.049 Y57.073
X28.022 Y57.041
X28.008 Y57.002
Y56.96
X28.022 Y56.921
X28.049 Y56.889
X28.085 Y56.868
X28.126 Y56.861
Z-5.1 F50
X33 F150
X33.041 Y56.868
X33.077 Y56.889
X33.104 Y56.921
X33.118 Y56.96
Y57.002
X33.104 Y57.041
X33.077 Y57.073
X33.041 Y57.094
X33 Y57.101
X28.126
X28.085 Y57.094
X28.049 Y57.073
X28.022 Y57.041
X28.008 Y57.002
Y56.96
X28.022 Y56.921
X28.049 Y56.889
X28.085 Y56.868
X28.126 Y56.861
Z-5.4 F50
X33 F150
X33.041 Y56.868
X33.077 Y56.889
X33.104 Y56.921
X33.118 Y56.96
Y57.002
X33.104 Y57.041
X33.077 Y57.073
X33.041 Y57.094
X33 Y57.101
X28.126
X28.085 Y57.094
X28.049 Y57.073
X28.022 Y57.041
X28.008 Y57.002
Y56.96
X28.022 Y56.921
X28.049 Y56.889
X28.085 Y56.868
X28.126 Y56.861
Z-5.7 F50
X33 F150
X33.041 Y56.868
X33.077 Y56.889
X33.104 Y56.921
X33.118 Y56.96
Y57.002
X33.104 Y57.041
X33.077 Y57.073
X33.041 Y57.094
X33 Y57.101
X28.126
X28.085 Y57.094
X28.049 Y57.073
X28.022 Y57.041
X28.008 Y57.002
Y56.96
X28.022 Y56.921
X28.049 Y56.889
X28.085 Y56.868
X28.126 Y56.861
Z-6 F50
X33 F150
X33.041 Y56.868
X33.077 Y56.889
X33.104 Y56.921
X33.118 Y56.96
Y57.002
X33.104 Y57.041
X33.077 Y57.073
X33.041 Y57.094
X33 Y57.101
X28.126
X28.085 Y57.094
X28.049 Y57.073
X28.022 Y57.041
X28.008 Y57.002
Y56.96
X28.022 Y56.921
X28.049 Y56.889
X28.085 Y56.868
X28.126 Y56.861
Z-6.3 F50
X33 F150
X33.041 Y56.868
X33.077 Y56.889
X33.104 Y56.921
X33.118 Y56.96
Y57.002
X33.104 Y57.041
X33.077 Y57.073
X33.041 Y57.094
X33 Y57.101
X28.126
X28.085 Y57.094
X28.049 Y57.073
X28.022 Y57.041
X28.008 Y57.002
Y56.96
X28.022 Y56.921
X28.049 Y56.889
X28.085 Y56.868
X28.126 Y56.861
Z-6.6 F50
X33 F150
X33.041 Y56.868
X33.077 Y56.889
X33.104 Y56.921
X33.118 Y56.96
Y57.002
X33.104 Y57.041
X33.077 Y57.073
X33.041 Y57.094
X33 Y57.101
X28.126
X28.085 Y57.094
X28.049 Y57.073
X28.022 Y57.041
X28.008 Y57.002
Y56.96
X28.022 Y56.921
X28.049 Y56.889
X28.085 Y56.868
X28.126 Y56.861
Z-6.9 F50
X33 F150
X33.041 Y56.868
X33.077 Y56.889
X33.104 Y56.921
X33.118 Y56.96
Y57.002
X33.104 Y57.041
X33.077 Y57.073
X33.041 Y57.094
X33 Y57.101
X28.126
X28.085 Y57.094
X28.049 Y57.073
X28.022 Y57.041
X28.008 Y57.002
Y56.96
X28.022 Y56.921
X28.049 Y56.889
X28.085 Y56.868
X28.126 Y56.861
Z-7.2 F50
X33 F150
X33.041 Y56.868
X33.077 Y56.889
X33.104 Y56.921
X33.118 Y56.96
Y57.002
X33.104 Y57.041
X33.077 Y57.073
X33.041 Y57.094
X33 Y57.101
X28.126
X28.085 Y57.094
X28.049 Y57.073
X28.022 Y57.041
X28.008 Y57.002
Y56.96
X28.022 Y56.921
X28.049 Y56.889
X28.085 Y56.868
X28.126 Y56.861
Z-7.35 F50
X33 F150
X33.041 Y56.868
X33.077 Y56.889
X33.104 Y56.921
X33.118 Y56.96
Y57.002
X33.104 Y57.041
X33.077 Y57.073
X33.041 Y57.094
X33 Y57.101
X28.126
X28.085 Y57.094
X28.049 Y57.073
X28.022 Y57.041
X28.008 Y57.002
Y56.96
X28.022 Y56.921
X28.049 Y56.889
X28.085 Y56.868
X28.126 Y56.861
Z5
X33 Y42.101
Z0.952 F50
Z-0.3
X28.126 F150
X28.085 Y42.094
X28.049 Y42.073
X28.022 Y42.041
X28.008 Y42.002
Y41.96
X28.022 Y41.921
X28.049 Y41.889
X28.085 Y41.868
X28.126 Y41.861
X33
X33.041 Y41.868
X33.077 Y41.889
X33.104 Y41.921
X33.118 Y41.96
Y42.002
X33.104 Y42.041
X33.077 Y42.073
X33.041 Y42.094
X33 Y42.101
Z-0.6 F50
X28.126 F150
X28.085 Y42.094
X28.049 Y42.073
X28.022 Y42.041
X28.008 Y42.002
Y41.96
X28.022 Y41.921
X28.049 Y41.889
X28.085 Y41.868
X28.126 Y41.861
X33
X33.041 Y41.868
X33.077 Y41.889
X33.104 Y41.921
X33.118 Y41.96
Y42.002
X33.104 Y42.041
X33.077 Y42.073
X33.041 Y42.094
X33 Y42.101
Z-0.9 F50
X28.126 F150
X28.085 Y42.094
X28.049 Y42.073
X28.022 Y42.041
X28.008 Y42.002
Y41.96
X28.022 Y41.921
X28.049 Y41.889
X28.085 Y41.868
X28.126 Y41.861
X33
X33.041 Y41.868
X33.077 Y41.889
X33.104 Y41.921
X33.118 Y41.96
Y42.002
X33.104 Y42.041
X33.077 Y42.073
X33.041 Y42.094
X33 Y42.101
Z-1.2 F50
X28.126 F150
X28.085 Y42.094
X28.049 Y42.073
X28.022 Y42.041
X28.008 Y42.002
Y41.96
X28.022 Y41.921
X28.049 Y41.889
X28.085 Y41.868
X28.126 Y41.861
X33
X33.041 Y41.868
X33.077 Y41.889
X33.104 Y41.921
X33.118 Y41.96
Y42.002
X33.104 Y42.041
X33.077 Y42.073
X33.041 Y42.094
X33 Y42.101
Z-1.5 F50
X28.126 F150
X28.085 Y42.094
X28.049 Y42.073
X28.022 Y42.041
X28.008 Y42.002
Y41.96
X28.022 Y41.921
X28.049 Y41.889
X28.085 Y41.868
X28.126 Y41.861
X33
X33.041 Y41.868
X33.077 Y41.889
X33.104 Y41.921
X33.118 Y41.96
Y42.002
X33.104 Y42.041
X33.077 Y42.073
X33.041 Y42.094
X33 Y42.101
Z-1.8 F50
X28.126 F150
X28.085 Y42.094
X28.049 Y42.073
X28.022 Y42.041
X28.008 Y42.002
Y41.96
X28.022 Y41.921
X28.049 Y41.889
X28.085 Y41.868
X28.126 Y41.861
X33
X33.041 Y41.868
X33.077 Y41.889
X33.104 Y41.921
X33.118 Y41.96
Y42.002
X33.104 Y42.041
X33.077 Y42.073
X33.041 Y42.094
X33 Y42.101
Z-2.1 F50
X28.126 F150
X28.085 Y42.094
X28.049 Y42.073
X28.022 Y42.041
X28.008 Y42.002
Y41.96
X28.022 Y41.921
X28.049 Y41.889
X28.085 Y41.868
X28.126 Y41.861
X33
X33.041 Y41.868
X33.077 Y41.889
X33.104 Y41.921
X33.118 Y41.96
Y42.002
X33.104 Y42.041
X33.077 Y42.073
X33.041 Y42.094
X33 Y42.101
Z-2.4 F50
X28.126 F150
X28.085 Y42.094
X28.049 Y42.073
X28.022 Y42.041
X28.008 Y42.002
Y41.96
X28.022 Y41.921
X28.049 Y41.889
X28.085 Y41.868
X28.126 Y41.861
X33
X33.041 Y41.868
X33.077 Y41.889
X33.104 Y41.921
X33.118 Y41.96
Y42.002
X33.104 Y42.041
X33.077 Y42.073
X33.041 Y42.094
X33 Y42.101
Z-2.7 F50
X28.126 F150
X28.085 Y42.094
X28.049 Y42.073
X28.022 Y42.041
X28.008 Y42.002
Y41.96
X28.022 Y41.921
X28.049 Y41.889
X28.085 Y41.868
X28.126 Y41.861
X33
X33.041 Y41.868
X33.077 Y41.889
X33.104 Y41.921
X33.118 Y41.96
Y42.002
X33.104 Y42.041
X33.077 Y42.073
X33.041 Y42.094
X33 Y42.101
Z-3 F50
X28.126 F150
X28.085 Y42.094
X28.049 Y42.073
X28.022 Y42.041
X28.008 Y42.002
Y41.96
X28.022 Y41.921
X28.049 Y41.889
X28.085 Y41.868
X28.126 Y41.861
X33
X33.041 Y41.868
X33.077 Y41.889
X33.104 Y41.921
X33.118 Y41.96
Y42.002
X33.104 Y42.041
X33.077 Y42.073
X33.041 Y42.094
X33 Y42.101
Z-3.3 F50
X28.126 F150
X28.085 Y42.094
X28.049 Y42.073
X28.022 Y42.041
X28.008 Y42.002
Y41.96
X28.022 Y41.921
X28.049 Y41.889
X28.085 Y41.868
X28.126 Y41.861
X33
X33.041 Y41.868
X33.077 Y41.889
X33.104 Y41.921
X33.118 Y41.96
Y42.002
X33.104 Y42.041
X33.077 Y42.073
X33.041 Y42.094
X33 Y42.101
Z-3.6 F50
X28.126 F150
X28.085 Y42.094
X28.049 Y42.073
X28.022 Y42.041
X28.008 Y42.002
Y41.96
X28.022 Y41.921
X28.049 Y41.889
X28.085 Y41.868
X28.126 Y41.861
X33
X33.041 Y41.868
X33.077 Y41.889
X33.104 Y41.921
X33.118 Y41.96
Y42.002
X33.104 Y42.041
X33.077 Y42.073
X33.041 Y42.094
X33 Y42.101
Z-3.9 F50
X28.126 F150
X28.085 Y42.094
X28.049 Y42.073
X28.022 Y42.041
X28.008 Y42.002
Y41.96
X28.022 Y41.921
X28.049 Y41.889
X28.085 Y41.868
X28.126 Y41.861
X33
X33.041 Y41.868
X33.077 Y41.889
X33.104 Y41.921
X33.118 Y41.96
Y42.002
X33.104 Y42.041
X33.077 Y42.073
X33.041 Y42.094
X33 Y42.101
Z-4.2 F50
X28.126 F150
X28.085 Y42.094
X28.049 Y42.073
X28.022 Y42.041
X28.008 Y42.002
Y41.96
X28.022 Y41.921
X28.049 Y41.889
X28.085 Y41.868
X28.126 Y41.861
X33
X33.041 Y41.868
X33.077 Y41.889
X33.104 Y41.921
X33.118 Y41.96
Y42.002
X33.104 Y42.041
X33.077 Y42.073
X33.041 Y42.094
X33 Y42.101
Z-4.5 F50
X28.126 F150
X28.085 Y42.094
X28.049 Y42.073
X28.022 Y42.041
X28.008 Y42.002
Y41.96
X28.022 Y41.921
X28.049 Y41.889
X28.085 Y41.868
X28.126 Y41.861
X33
X33.041 Y41.868
X33.077 Y41.889
X33.104 Y41.921
X33.118 Y41.96
Y42.002
X33.104 Y42.041
X33.077 Y42.073
X33.041 Y42.094
X33 Y42.101
Z-4.8 F50
X28.126 F150
X28.085 Y42.094
X28.049 Y42.073
X28.022 Y42.041
X28.008 Y42.002
Y41.96
X28.022 Y41.921
X28.049 Y41.889
X28.085 Y41.868
X28.126 Y41.861
X33
X33.041 Y41.868
X33.077 Y41.889
X33.104 Y41.921
X33.118 Y41.96
Y42.002
X33.104 Y42.041
X33.077 Y42.073
X33.041 Y42.094
X33 Y42.101
Z-5.1 F50
X28.126 F150
X28.085 Y42.094
X28.049 Y42.073
X28.022 Y42.041
X28.008 Y42.002
Y41.96
X28.022 Y41.921
X28.049 Y41.889
X28.085 Y41.868
X28.126 Y41.861
X33
X33.041 Y41.868
X33.077 Y41.889
X33.104 Y41.921
X33.118 Y41.96
Y42.002
X33.104 Y42.041
X33.077 Y42.073
X33.041 Y42.094
X33 Y42.101
Z-5.4 F50
X28.126 F150
X28.085 Y42.094
X28.049 Y42.073
X28.022 Y42.041
X28.008 Y42.002
Y41.96
X28.022 Y41.921
X28.049 Y41.889
X28.085 Y41.868
X28.126 Y41.861
X33
X33.041 Y41.868
X33.077 Y41.889
X33.104 Y41.921
X33.118 Y41.96
Y42.002
X33.104 Y42.041
X33.077 Y42.073
X33.041 Y42.094
X33 Y42.101
Z-5.7 F50
X28.126 F150
X28.085 Y42.094
X28.049 Y42.073
X28.022 Y42.041
X28.008 Y42.002
Y41.96
X28.022 Y41.921
X28.049 Y41.889
X28.085 Y41.868
X28.126 Y41.861
X33
X33.041 Y41.868
X33.077 Y41.889
X33.104 Y41.921
X33.118 Y41.96
Y42.002
X33.104 Y42.041
X33.077 Y42.073
X33.041 Y42.094
X33 Y42.101
Z-6 F50
X28.126 F150
X28.085 Y42.094
X28.049 Y42.073
X28.022 Y42.041
X28.008 Y42.002
Y41.96
X28.022 Y41.921
X28.049 Y41.889
X28.085 Y41.868
X28.126 Y41.861
X33
X33.041 Y41.868
X33.077 Y41.889
X33.104 Y41.921
X33.118 Y41.96
Y42.002
X33.104 Y42.041
X33.077 Y42.073
X33.041 Y42.094
X33 Y42.101
Z-6.3 F50
X28.126 F150
X28.085 Y42.094
X28.049 Y42.073
X28.022 Y42.041
X28.008 Y42.002
Y41.96
X28.022 Y41.921
X28.049 Y41.889
X28.085 Y41.868
X28.126 Y41.861
X33
X33.041 Y41.868
X33.077 Y41.889
X33.104 Y41.921
X33.118 Y41.96
Y42.002
X33.104 Y42.041
X33.077 Y42.073
X33.041 Y42.094
X33 Y42.101
Z-6.6 F50
X28.126 F150
X28.085 Y42.094
X28.049 Y42.073
X28.022 Y42.041
X28.008 Y42.002
Y41.96
X28.022 Y41.921
X28.049 Y41.889
X28.085 Y41.868
X28.126 Y41.861
X33
X33.041 Y41.868
X33.077 Y41.889
X33.104 Y41.921
X33.118 Y41.96
Y42.002
X33.104 Y42.041
X33.077 Y42.073
X33.041 Y42.094
X33 Y42.101
Z-6.9 F50
X28.126 F150
X28.085 Y42.094
X28.049 Y42.073
X28.022 Y42.041
X28.008 Y42.002
Y41.96
X28.022 Y41.921
X28.049 Y41.889
X28.085 Y41.868
X28.126 Y41.861
X33
X33.041 Y41.868
X33.077 Y41.889
X33.104 Y41.921
X33.118 Y41.96
Y42.002
X33.104 Y42.041
X33.077 Y42.073
X33.041 Y42.094
X33 Y42.101
Z-7.2 F50
X28.126 F150
X28.085 Y42.094
X28.049 Y42.073
X28.022 Y42.041
X28.008 Y42.002
Y41.96
X28.022 Y41.921
X28.049 Y41.889
X28.085 Y41.868
X28.126 Y41.861
X33
X33.041 Y41.868
X33.077 Y41.889
X33.104 Y41.921
X33.118 Y41.96
Y42.002
X33.104 Y42.041
X33.077 Y42.073
X33.041 Y42.094
X33 Y42.101
Z-7.35 F50
X28.126 F150
X28.085 Y42.094
X28.049 Y42.073
X28.022 Y42.041
X28.008 Y42.002
Y41.96
X28.022 Y41.921
X28.049 Y41.889
X28.085 Y41.868
X28.126 Y41.861
X33
X33.041 Y41.868
X33.077 Y41.889
X33.104 Y41.921
X33.118 Y41.96
Y42.002
X33.104 Y42.041
X33.077 Y42.073
X33.041 Y42.094
X33 Y42.101
Z5
Y27.101
Z0.952 F50
Z-0.3
X28.126 F150
X28.085 Y27.094
X28.049 Y27.073
X28.022 Y27.041
X28.008 Y27.002
Y26.96
X28.022 Y26.921
X28.049 Y26.889
X28.085 Y26.868
X28.126 Y26.861
X33
X33.041 Y26.868
X33.077 Y26.889
X33.104 Y26.921
X33.118 Y26.96
Y27.002
X33.104 Y27.041
X33.077 Y27.073
X33.041 Y27.094
X33 Y27.101
Z-0.6 F50
X28.126 F150
X28.085 Y27.094
X28.049 Y27.073
X28.022 Y27.041
X28.008 Y27.002
Y26.96
X28.022 Y26.921
X28.049 Y26.889
X28.085 Y26.868
X28.126 Y26.861
X33
X33.041 Y26.868
X33.077 Y26.889
X33.104 Y26.921
X33.118 Y26.96
Y27.002
X33.104 Y27.041
X33.077 Y27.073
X33.041 Y27.094
X33 Y27.101
Z-0.9 F50
X28.126 F150
X28.085 Y27.094
X28.049 Y27.073
X28.022 Y27.041
X28.008 Y27.002
Y26.96
X28.022 Y26.921
X28.049 Y26.889
X28.085 Y26.868
X28.126 Y26.861
X33
X33.041 Y26.868
X33.077 Y26.889
X33.104 Y26.921
X33.118 Y26.96
Y27.002
X33.104 Y27.041
X33.077 Y27.073
X33.041 Y27.094
X33 Y27.101
Z-1.2 F50
X28.126 F150
X28.085 Y27.094
X28.049 Y27.073
X28.022 Y27.041
X28.008 Y27.002
Y26.96
X28.022 Y26.921
X28.049 Y26.889
X28.085 Y26.868
X28.126 Y26.861
X33
X33.041 Y26.868
X33.077 Y26.889
X33.104 Y26.921
X33.118 Y26.96
Y27.002
X33.104 Y27.041
X33.077 Y27.073
X33.041 Y27.094
X33 Y27.101
Z-1.5 F50
X28.126 F150
X28.085 Y27.094
X28.049 Y27.073
X28.022 Y27.041
X28.008 Y27.002
Y26.96
X28.022 Y26.921
X28.049 Y26.889
X28.085 Y26.868
X28.126 Y26.861
X33
X33.041 Y26.868
X33.077 Y26.889
X33.104 Y26.921
X33.118 Y26.96
Y27.002
X33.104 Y27.041
X33.077 Y27.073
X33.041 Y27.094
X33 Y27.101
Z-1.8 F50
X28.126 F150
X28.085 Y27.094
X28.049 Y27.073
X28.022 Y27.041
X28.008 Y27.002
Y26.96
X28.022 Y26.921
X28.049 Y26.889
X28.085 Y26.868
X28.126 Y26.861
X33
X33.041 Y26.868
X33.077 Y26.889
X33.104 Y26.921
X33.118 Y26.96
Y27.002
X33.104 Y27.041
X33.077 Y27.073
X33.041 Y27.094
X33 Y27.101
Z-2.1 F50
X28.126 F150
X28.085 Y27.094
X28.049 Y27.073
X28.022 Y27.041
X28.008 Y27.002
Y26.96
X28.022 Y26.921
X28.049 Y26.889
X28.085 Y26.868
X28.126 Y26.861
X33
X33.041 Y26.868
X33.077 Y26.889
X33.104 Y26.921
X33.118 Y26.96
Y27.002
X33.104 Y27.041
X33.077 Y27.073
X33.041 Y27.094
X33 Y27.101
Z-2.4 F50
X28.126 F150
X28.085 Y27.094
X28.049 Y27.073
X28.022 Y27.041
X28.008 Y27.002
Y26.96
X28.022 Y26.921
X28.049 Y26.889
X28.085 Y26.868
X28.126 Y26.861
X33
X33.041 Y26.868
X33.077 Y26.889
X33.104 Y26.921
X33.118 Y26.96
Y27.002
X33.104 Y27.041
X33.077 Y27.073
X33.041 Y27.094
X33 Y27.101
Z-2.7 F50
X28.126 F150
X28.085 Y27.094
X28.049 Y27.073
X28.022 Y27.041
X28.008 Y27.002
Y26.96
X28.022 Y26.921
X28.049 Y26.889
X28.085 Y26.868
X28.126 Y26.861
X33
X33.041 Y26.868
X33.077 Y26.889
X33.104 Y26.921
X33.118 Y26.96
Y27.002
X33.104 Y27.041
X33.077 Y27.073
X33.041 Y27.094
X33 Y27.101
Z-3 F50
X28.126 F150
X28.085 Y27.094
X28.049 Y27.073
X28.022 Y27.041
X28.008 Y27.002
Y26.96
X28.022 Y26.921
X28.049 Y26.889
X28.085 Y26.868
X28.126 Y26.861
X33
X33.041 Y26.868
X33.077 Y26.889
X33.104 Y26.921
X33.118 Y26.96
Y27.002
X33.104 Y27.041
X33.077 Y27.073
X33.041 Y27.094
X33 Y27.101
Z-3.3 F50
X28.126 F150
X28.085 Y27.094
X28.049 Y27.073
X28.022 Y27.041
X28.008 Y27.002
Y26.96
X28.022 Y26.921
X28.049 Y26.889
X28.085 Y26.868
X28.126 Y26.861
X33
X33.041 Y26.868
X33.077 Y26.889
X33.104 Y26.921
X33.118 Y26.96
Y27.002
X33.104 Y27.041
X33.077 Y27.073
X33.041 Y27.094
X33 Y27.101
Z-3.6 F50
X28.126 F150
X28.085 Y27.094
X28.049 Y27.073
X28.022 Y27.041
X28.008 Y27.002
Y26.96
X28.022 Y26.921
X28.049 Y26.889
X28.085 Y26.868
X28.126 Y26.861
X33
X33.041 Y26.868
X33.077 Y26.889
X33.104 Y26.921
X33.118 Y26.96
Y27.002
X33.104 Y27.041
X33.077 Y27.073
X33.041 Y27.094
X33 Y27.101
Z-3.9 F50
X28.126 F150
X28.085 Y27.094
X28.049 Y27.073
X28.022 Y27.041
X28.008 Y27.002
Y26.96
X28.022 Y26.921
X28.049 Y26.889
X28.085 Y26.868
X28.126 Y26.861
X33
X33.041 Y26.868
X33.077 Y26.889
X33.104 Y26.921
X33.118 Y26.96
Y27.002
X33.104 Y27.041
X33.077 Y27.073
X33.041 Y27.094
X33 Y27.101
Z-4.2 F50
X28.126 F150
X28.085 Y27.094
X28.049 Y27.073
X28.022 Y27.041
X28.008 Y27.002
Y26.96
X28.022 Y26.921
X28.049 Y26.889
X28.085 Y26.868
X28.126 Y26.861
X33
X33.041 Y26.868
X33.077 Y26.889
X33.104 Y26.921
X33.118 Y26.96
Y27.002
X33.104 Y27.041
X33.077 Y27.073
X33.041 Y27.094
X33 Y27.101
Z-4.5 F50
X28.126 F150
X28.085 Y27.094
X28.049 Y27.073
X28.022 Y27.041
X28.008 Y27.002
Y26.96
X28.022 Y26.921
X28.049 Y26.889
X28.085 Y26.868
X28.126 Y26.861
X33
X33.041 Y26.868
X33.077 Y26.889
X33.104 Y26.921
X33.118 Y26.96
Y27.002
X33.104 Y27.041
X33.077 Y27.073
X33.041 Y27.094
X33 Y27.101
Z-4.8 F50
X28.126 F150
X28.085 Y27.094
X28.049 Y27.073
X28.022 Y27.041
X28.008 Y27.002
Y26.96
X28.022 Y26.921
X28.049 Y26.889
X28.085 Y26.868
X28.126 Y26.861
X33
X33.041 Y26.868
X33.077 Y26.889
X33.104 Y26.921
X33.118 Y26.96
Y27.002
X33.104 Y27.041
X33.077 Y27.073
X33.041 Y27.094
X33 Y27.101
Z-5.1 F50
X28.126 F150
X28.085 Y27.094
X28.049 Y27.073
X28.022 Y27.041
X28.008 Y27.002
Y26.96
X28.022 Y26.921
X28.049 Y26.889
X28.085 Y26.868
X28.126 Y26.861
X33
X33.041 Y26.868
X33.077 Y26.889
X33.104 Y26.921
X33.118 Y26.96
Y27.002
X33.104 Y27.041
X33.077 Y27.073
X33.041 Y27.094
X33 Y27.101
Z-5.4 F50
X28.126 F150
X28.085 Y27.094
X28.049 Y27.073
X28.022 Y27.041
X28.008 Y27.002
Y26.96
X28.022 Y26.921
X28.049 Y26.889
X28.085 Y26.868
X28.126 Y26.861
X33
X33.041 Y26.868
X33.077 Y26.889
X33.104 Y26.921
X33.118 Y26.96
Y27.002
X33.104 Y27.041
X33.077 Y27.073
X33.041 Y27.094
X33 Y27.101
Z-5.7 F50
X28.126 F150
X28.085 Y27.094
X28.049 Y27.073
X28.022 Y27.041
X28.008 Y27.002
Y26.96
X28.022 Y26.921
X28.049 Y26.889
X28.085 Y26.868
X28.126 Y26.861
X33
X33.041 Y26.868
X33.077 Y26.889
X33.104 Y26.921
X33.118 Y26.96
Y27.002
X33.104 Y27.041
X33.077 Y27.073
X33.041 Y27.094
X33 Y27.101
Z-6 F50
X28.126 F150
X28.085 Y27.094
X28.049 Y27.073
X28.022 Y27.041
X28.008 Y27.002
Y26.96
X28.022 Y26.921
X28.049 Y26.889
X28.085 Y26.868
X28.126 Y26.861
X33
X33.041 Y26.868
X33.077 Y26.889
X33.104 Y26.921
X33.118 Y26.96
Y27.002
X33.104 Y27.041
X33.077 Y27.073
X33.041 Y27.094
X33 Y27.101
Z-6.3 F50
X28.126 F150
X28.085 Y27.094
X28.049 Y27.073
X28.022 Y27.041
X28.008 Y27.002
Y26.96
X28.022 Y26.921
X28.049 Y26.889
X28.085 Y26.868
X28.126 Y26.861
X33
X33.041 Y26.868
X33.077 Y26.889
X33.104 Y26.921
X33.118 Y26.96
Y27.002
X33.104 Y27.041
X33.077 Y27.073
X33.041 Y27.094
X33 Y27.101
Z-6.6 F50
X28.126 F150
X28.085 Y27.094
X28.049 Y27.073
X28.022 Y27.041
X28.008 Y27.002
Y26.96
X28.022 Y26.921
X28.049 Y26.889
X28.085 Y26.868
X28.126 Y26.861
X33
X33.041 Y26.868
X33.077 Y26.889
X33.104 Y26.921
X33.118 Y26.96
Y27.002
X33.104 Y27.041
X33.077 Y27.073
X33.041 Y27.094
X33 Y27.101
Z-6.9 F50
X28.126 F150
X28.085 Y27.094
X28.049 Y27.073
X28.022 Y27.041
X28.008 Y27.002
Y26.96
X28.022 Y26.921
X28.049 Y26.889
X28.085 Y26.868
X28.126 Y26.861
X33
X33.041 Y26.868
X33.077 Y26.889
X33.104 Y26.921
X33.118 Y26.96
Y27.002
X33.104 Y27.041
X33.077 Y27.073
X33.041 Y27.094
X33 Y27.101
Z-7.2 F50
X28.126 F150
X28.085 Y27.094
X28.049 Y27.073
X28.022 Y27.041
X28.008 Y27.002
Y26.96
X28.022 Y26.921
X28.049 Y26.889
X28.085 Y26.868
X28.126 Y26.861
X33
X33.041 Y26.868
X33.077 Y26.889
X33.104 Y26.921
X33.118 Y26.96
Y27.002
X33.104 Y27.041
X33.077 Y27.073
X33.041 Y27.094
X33 Y27.101
Z-7.35 F50
X28.126 F150
X28.085 Y27.094
X28.049 Y27.073
X28.022 Y27.041
X28.008 Y27.002
Y26.96
X28.022 Y26.921
X28.049 Y26.889
X28.085 Y26.868
X28.126 Y26.861
X33
X33.041 Y26.868
X33.077 Y26.889
X33.104 Y26.921
X33.118 Y26.96
Y27.002
X33.104 Y27.041
X33.077 Y27.073
X33.041 Y27.094
X33 Y27.101
Z5
X28.126 Y71.861
Z0.952 F50
Z-0.3
X33 F150
X33.041 Y71.868
X33.077 Y71.889
X33.104 Y71.921
X33.118 Y71.96
Y72.002
X33.104 Y72.041
X33.077 Y72.073
X33.041 Y72.094
X33 Y72.101
X28.126
X28.085 Y72.094
X28.049 Y72.073
X28.022 Y72.041
X28.008 Y72.002
Y71.96
X28.022 Y71.921
X28.049 Y71.889
X28.085 Y71.868
X28.126 Y71.861
Z-0.6 F50
X33 F150
X33.041 Y71.868
X33.077 Y71.889
X33.104 Y71.921
X33.118 Y71.96
Y72.002
X33.104 Y72.041
X33.077 Y72.073
X33.041 Y72.094
X33 Y72.101
X28.126
X28.085 Y72.094
X28.049 Y72.073
X28.022 Y72.041
X28.008 Y72.002
Y71.96
X28.022 Y71.921
X28.049 Y71.889
X28.085 Y71.868
X28.126 Y71.861
Z-0.9 F50
X33 F150
X33.041 Y71.868
X33.077 Y71.889
X33.104 Y71.921
X33.118 Y71.96
Y72.002
X33.104 Y72.041
X33.077 Y72.073
X33.041 Y72.094
X33 Y72.101
X28.126
X28.085 Y72.094
X28.049 Y72.073
X28.022 Y72.041
X28.008 Y72.002
Y71.96
X28.022 Y71.921
X28.049 Y71.889
X28.085 Y71.868
X28.126 Y71.861
Z-1.2 F50
X33 F150
X33.041 Y71.868
X33.077 Y71.889
X33.104 Y71.921
X33.118 Y71.96
Y72.002
X33.104 Y72.041
X33.077 Y72.073
X33.041 Y72.094
X33 Y72.101
X28.126
X28.085 Y72.094
X28.049 Y72.073
X28.022 Y72.041
X28.008 Y72.002
Y71.96
X28.022 Y71.921
X28.049 Y71.889
X28.085 Y71.868
X28.126 Y71.861
Z-1.5 F50
X33 F150
X33.041 Y71.868
X33.077 Y71.889
X33.104 Y71.921
X33.118 Y71.96
Y72.002
X33.104 Y72.041
X33.077 Y72.073
X33.041 Y72.094
X33 Y72.101
X28.126
X28.085 Y72.094
X28.049 Y72.073
X28.022 Y72.041
X28.008 Y72.002
Y71.96
X28.022 Y71.921
X28.049 Y71.889
X28.085 Y71.868
X28.126 Y71.861
Z-1.8 F50
X33 F150
X33.041 Y71.868
X33.077 Y71.889
X33.104 Y71.921
X33.118 Y71.96
Y72.002
X33.104 Y72.041
X33.077 Y72.073
X33.041 Y72.094
X33 Y72.101
X28.126
X28.085 Y72.094
X28.049 Y72.073
X28.022 Y72.041
X28.008 Y72.002
Y71.96
X28.022 Y71.921
X28.049 Y71.889
X28.085 Y71.868
X28.126 Y71.861
Z-2.1 F50
X33 F150
X33.041 Y71.868
X33.077 Y71.889
X33.104 Y71.921
X33.118 Y71.96
Y72.002
X33.104 Y72.041
X33.077 Y72.073
X33.041 Y72.094
X33 Y72.101
X28.126
X28.085 Y72.094
X28.049 Y72.073
X28.022 Y72.041
X28.008 Y72.002
Y71.96
X28.022 Y71.921
X28.049 Y71.889
X28.085 Y71.868
X28.126 Y71.861
Z-2.4 F50
X33 F150
X33.041 Y71.868
X33.077 Y71.889
X33.104 Y71.921
X33.118 Y71.96
Y72.002
X33.104 Y72.041
X33.077 Y72.073
X33.041 Y72.094
X33 Y72.101
X28.126
X28.085 Y72.094
X28.049 Y72.073
X28.022 Y72.041
X28.008 Y72.002
Y71.96
X28.022 Y71.921
X28.049 Y71.889
X28.085 Y71.868
X28.126 Y71.861
Z-2.7 F50
X33 F150
X33.041 Y71.868
X33.077 Y71.889
X33.104 Y71.921
X33.118 Y71.96
Y72.002
X33.104 Y72.041
X33.077 Y72.073
X33.041 Y72.094
X33 Y72.101
X28.126
X28.085 Y72.094
X28.049 Y72.073
X28.022 Y72.041
X28.008 Y72.002
Y71.96
X28.022 Y71.921
X28.049 Y71.889
X28.085 Y71.868
X28.126 Y71.861
Z-3 F50
X33 F150
X33.041 Y71.868
X33.077 Y71.889
X33.104 Y71.921
X33.118 Y71.96
Y72.002
X33.104 Y72.041
X33.077 Y72.073
X33.041 Y72.094
X33 Y72.101
X28.126
X28.085 Y72.094
X28.049 Y72.073
X28.022 Y72.041
X28.008 Y72.002
Y71.96
X28.022 Y71.921
X28.049 Y71.889
X28.085 Y71.868
X28.126 Y71.861
Z-3.3 F50
X33 F150
X33.041 Y71.868
X33.077 Y71.889
X33.104 Y71.921
X33.118 Y71.96
Y72.002
X33.104 Y72.041
X33.077 Y72.073
X33.041 Y72.094
X33 Y72.101
X28.126
X28.085 Y72.094
X28.049 Y72.073
X28.022 Y72.041
X28.008 Y72.002
Y71.96
X28.022 Y71.921
X28.049 Y71.889
X28.085 Y71.868
X28.126 Y71.861
Z-3.6 F50
X33 F150
X33.041 Y71.868
X33.077 Y71.889
X33.104 Y71.921
X33.118 Y71.96
Y72.002
X33.104 Y72.041
X33.077 Y72.073
X33.041 Y72.094
X33 Y72.101
X28.126
X28.085 Y72.094
X28.049 Y72.073
X28.022 Y72.041
X28.008 Y72.002
Y71.96
X28.022 Y71.921
X28.049 Y71.889
X28.085 Y71.868
X28.126 Y71.861
Z-3.9 F50
X33 F150
X33.041 Y71.868
X33.077 Y71.889
X33.104 Y71.921
X33.118 Y71.96
Y72.002
X33.104 Y72.041
X33.077 Y72.073
X33.041 Y72.094
X33 Y72.101
X28.126
X28.085 Y72.094
X28.049 Y72.073
X28.022 Y72.041
X28.008 Y72.002
Y71.96
X28.022 Y71.921
X28.049 Y71.889
X28.085 Y71.868
X28.126 Y71.861
Z-4.2 F50
X33 F150
X33.041 Y71.868
X33.077 Y71.889
X33.104 Y71.921
X33.118 Y71.96
Y72.002
X33.104 Y72.041
X33.077 Y72.073
X33.041 Y72.094
X33 Y72.101
X28.126
X28.085 Y72.094
X28.049 Y72.073
X28.022 Y72.041
X28.008 Y72.002
Y71.96
X28.022 Y71.921
X28.049 Y71.889
X28.085 Y71.868
X28.126 Y71.861
Z-4.5 F50
X33 F150
X33.041 Y71.868
X33.077 Y71.889
X33.104 Y71.921
X33.118 Y71.96
Y72.002
X33.104 Y72.041
X33.077 Y72.073
X33.041 Y72.094
X33 Y72.101
X28.126
X28.085 Y72.094
X28.049 Y72.073
X28.022 Y72.041
X28.008 Y72.002
Y71.96
X28.022 Y71.921
X28.049 Y71.889
X28.085 Y71.868
X28.126 Y71.861
Z-4.8 F50
X33 F150
X33.041 Y71.868
X33.077 Y71.889
X33.104 Y71.921
X33.118 Y71.96
Y72.002
X33.104 Y72.041
X33.077 Y72.073
X33.041 Y72.094
X33 Y72.101
X28.126
X28.085 Y72.094
X28.049 Y72.073
X28.022 Y72.041
X28.008 Y72.002
Y71.96
X28.022 Y71.921
X28.049 Y71.889
X28.085 Y71.868
X28.126 Y71.861
Z-5.1 F50
X33 F150
X33.041 Y71.868
X33.077 Y71.889
X33.104 Y71.921
X33.118 Y71.96
Y72.002
X33.104 Y72.041
X33.077 Y72.073
X33.041 Y72.094
X33 Y72.101
X28.126
X28.085 Y72.094
X28.049 Y72.073
X28.022 Y72.041
X28.008 Y72.002
Y71.96
X28.022 Y71.921
X28.049 Y71.889
X28.085 Y71.868
X28.126 Y71.861
Z-5.4 F50
X33 F150
X33.041 Y71.868
X33.077 Y71.889
X33.104 Y71.921
X33.118 Y71.96
Y72.002
X33.104 Y72.041
X33.077 Y72.073
X33.041 Y72.094
X33 Y72.101
X28.126
X28.085 Y72.094
X28.049 Y72.073
X28.022 Y72.041
X28.008 Y72.002
Y71.96
X28.022 Y71.921
X28.049 Y71.889
X28.085 Y71.868
X28.126 Y71.861
Z-5.7 F50
X33 F150
X33.041 Y71.868
X33.077 Y71.889
X33.104 Y71.921
X33.118 Y71.96
Y72.002
X33.104 Y72.041
X33.077 Y72.073
X33.041 Y72.094
X33 Y72.101
X28.126
X28.085 Y72.094
X28.049 Y72.073
X28.022 Y72.041
X28.008 Y72.002
Y71.96
X28.022 Y71.921
X28.049 Y71.889
X28.085 Y71.868
X28.126 Y71.861
Z-6 F50
X33 F150
X33.041 Y71.868
X33.077 Y71.889
X33.104 Y71.921
X33.118 Y71.96
Y72.002
X33.104 Y72.041
X33.077 Y72.073
X33.041 Y72.094
X33 Y72.101
X28.126
X28.085 Y72.094
X28.049 Y72.073
X28.022 Y72.041
X28.008 Y72.002
Y71.96
X28.022 Y71.921
X28.049 Y71.889
X28.085 Y71.868
X28.126 Y71.861
Z-6.3 F50
X33 F150
X33.041 Y71.868
X33.077 Y71.889
X33.104 Y71.921
X33.118 Y71.96
Y72.002
X33.104 Y72.041
X33.077 Y72.073
X33.041 Y72.094
X33 Y72.101
X28.126
X28.085 Y72.094
X28.049 Y72.073
X28.022 Y72.041
X28.008 Y72.002
Y71.96
X28.022 Y71.921
X28.049 Y71.889
X28.085 Y71.868
X28.126 Y71.861
Z-6.6 F50
X33 F150
X33.041 Y71.868
X33.077 Y71.889
X33.104 Y71.921
X33.118 Y71.96
Y72.002
X33.104 Y72.041
X33.077 Y72.073
X33.041 Y72.094
X33 Y72.101
X28.126
X28.085 Y72.094
X28.049 Y72.073
X28.022 Y72.041
X28.008 Y72.002
Y71.96
X28.022 Y71.921
X28.049 Y71.889
X28.085 Y71.868
X28.126 Y71.861
Z-6.9 F50
X33 F150
X33.041 Y71.868
X33.077 Y71.889
X33.104 Y71.921
X33.118 Y71.96
Y72.002
X33.104 Y72.041
X33.077 Y72.073
X33.041 Y72.094
X33 Y72.101
X28.126
X28.085 Y72.094
X28.049 Y72.073
X28.022 Y72.041
X28.008 Y72.002
Y71.96
X28.022 Y71.921
X28.049 Y71.889
X28.085 Y71.868
X28.126 Y71.861
Z-7.2 F50
X33 F150
X33.041 Y71.868
X33.077 Y71.889
X33.104 Y71.921
X33.118 Y71.96
Y72.002
X33.104 Y72.041
X33.077 Y72.073
X33.041 Y72.094
X33 Y72.101
X28.126
X28.085 Y72.094
X28.049 Y72.073
X28.022 Y72.041
X28.008 Y72.002
Y71.96
X28.022 Y71.921
X28.049 Y71.889
X28.085 Y71.868
X28.126 Y71.861
Z-7.35 F50
X33 F150
X33.041 Y71.868
X33.077 Y71.889
X33.104 Y71.921
X33.118 Y71.96
Y72.002
X33.104 Y72.041
X33.077 Y72.073
X33.041 Y72.094
X33 Y72.101
X28.126
X28.085 Y72.094
X28.049 Y72.073
X28.022 Y72.041
X28.008 Y72.002
Y71.96
X28.022 Y71.921
X28.049 Y71.889
X28.085 Y71.868
X28.126 Y71.861
Z5
X33 Y87.101
Z0.952 F50
Z-0.3
X28.126 F150
X28.085 Y87.094
X28.049 Y87.073
X28.022 Y87.041
X28.008 Y87.002
Y86.96
X28.022 Y86.921
X28.049 Y86.889
X28.085 Y86.868
X28.126 Y86.861
X33
X33.041 Y86.868
X33.077 Y86.889
X33.104 Y86.921
X33.118 Y86.96
Y87.002
X33.104 Y87.041
X33.077 Y87.073
X33.041 Y87.094
X33 Y87.101
Z-0.6 F50
X28.126 F150
X28.085 Y87.094
X28.049 Y87.073
X28.022 Y87.041
X28.008 Y87.002
Y86.96
X28.022 Y86.921
X28.049 Y86.889
X28.085 Y86.868
X28.126 Y86.861
X33
X33.041 Y86.868
X33.077 Y86.889
X33.104 Y86.921
X33.118 Y86.96
Y87.002
X33.104 Y87.041
X33.077 Y87.073
X33.041 Y87.094
X33 Y87.101
Z-0.9 F50
X28.126 F150
X28.085 Y87.094
X28.049 Y87.073
X28.022 Y87.041
X28.008 Y87.002
Y86.96
X28.022 Y86.921
X28.049 Y86.889
X28.085 Y86.868
X28.126 Y86.861
X33
X33.041 Y86.868
X33.077 Y86.889
X33.104 Y86.921
X33.118 Y86.96
Y87.002
X33.104 Y87.041
X33.077 Y87.073
X33.041 Y87.094
X33 Y87.101
Z-1.2 F50
X28.126 F150
X28.085 Y87.094
X28.049 Y87.073
X28.022 Y87.041
X28.008 Y87.002
Y86.96
X28.022 Y86.921
X28.049 Y86.889
X28.085 Y86.868
X28.126 Y86.861
X33
X33.041 Y86.868
X33.077 Y86.889
X33.104 Y86.921
X33.118 Y86.96
Y87.002
X33.104 Y87.041
X33.077 Y87.073
X33.041 Y87.094
X33 Y87.101
Z-1.5 F50
X28.126 F150
X28.085 Y87.094
X28.049 Y87.073
X28.022 Y87.041
X28.008 Y87.002
Y86.96
X28.022 Y86.921
X28.049 Y86.889
X28.085 Y86.868
X28.126 Y86.861
X33
X33.041 Y86.868
X33.077 Y86.889
X33.104 Y86.921
X33.118 Y86.96
Y87.002
X33.104 Y87.041
X33.077 Y87.073
X33.041 Y87.094
X33 Y87.101
Z-1.8 F50
X28.126 F150
X28.085 Y87.094
X28.049 Y87.073
X28.022 Y87.041
X28.008 Y87.002
Y86.96
X28.022 Y86.921
X28.049 Y86.889
X28.085 Y86.868
X28.126 Y86.861
X33
X33.041 Y86.868
X33.077 Y86.889
X33.104 Y86.921
X33.118 Y86.96
Y87.002
X33.104 Y87.041
X33.077 Y87.073
X33.041 Y87.094
X33 Y87.101
Z-2.1 F50
X28.126 F150
X28.085 Y87.094
X28.049 Y87.073
X28.022 Y87.041
X28.008 Y87.002
Y86.96
X28.022 Y86.921
X28.049 Y86.889
X28.085 Y86.868
X28.126 Y86.861
X33
X33.041 Y86.868
X33.077 Y86.889
X33.104 Y86.921
X33.118 Y86.96
Y87.002
X33.104 Y87.041
X33.077 Y87.073
X33.041 Y87.094
X33 Y87.101
Z-2.4 F50
X28.126 F150
X28.085 Y87.094
X28.049 Y87.073
X28.022 Y87.041
X28.008 Y87.002
Y86.96
X28.022 Y86.921
X28.049 Y86.889
X28.085 Y86.868
X28.126 Y86.861
X33
X33.041 Y86.868
X33.077 Y86.889
X33.104 Y86.921
X33.118 Y86.96
Y87.002
X33.104 Y87.041
X33.077 Y87.073
X33.041 Y87.094
X33 Y87.101
Z-2.7 F50
X28.126 F150
X28.085 Y87.094
X28.049 Y87.073
X28.022 Y87.041
X28.008 Y87.002
Y86.96
X28.022 Y86.921
X28.049 Y86.889
X28.085 Y86.868
X28.126 Y86.861
X33
X33.041 Y86.868
X33.077 Y86.889
X33.104 Y86.921
X33.118 Y86.96
Y87.002
X33.104 Y87.041
X33.077 Y87.073
X33.041 Y87.094
X33 Y87.101
Z-3 F50
X28.126 F150
X28.085 Y87.094
X28.049 Y87.073
X28.022 Y87.041
X28.008 Y87.002
Y86.96
X28.022 Y86.921
X28.049 Y86.889
X28.085 Y86.868
X28.126 Y86.861
X33
X33.041 Y86.868
X33.077 Y86.889
X33.104 Y86.921
X33.118 Y86.96
Y87.002
X33.104 Y87.041
X33.077 Y87.073
X33.041 Y87.094
X33 Y87.101
Z-3.3 F50
X28.126 F150
X28.085 Y87.094
X28.049 Y87.073
X28.022 Y87.041
X28.008 Y87.002
Y86.96
X28.022 Y86.921
X28.049 Y86.889
X28.085 Y86.868
X28.126 Y86.861
X33
X33.041 Y86.868
X33.077 Y86.889
X33.104 Y86.921
X33.118 Y86.96
Y87.002
X33.104 Y87.041
X33.077 Y87.073
X33.041 Y87.094
X33 Y87.101
Z-3.6 F50
X28.126 F150
X28.085 Y87.094
X28.049 Y87.073
X28.022 Y87.041
X28.008 Y87.002
Y86.96
X28.022 Y86.921
X28.049 Y86.889
X28.085 Y86.868
X28.126 Y86.861
X33
X33.041 Y86.868
X33.077 Y86.889
X33.104 Y86.921
X33.118 Y86.96
Y87.002
X33.104 Y87.041
X33.077 Y87.073
X33.041 Y87.094
X33 Y87.101
Z-3.9 F50
X28.126 F150
X28.085 Y87.094
X28.049 Y87.073
X28.022 Y87.041
X28.008 Y87.002
Y86.96
X28.022 Y86.921
X28.049 Y86.889
X28.085 Y86.868
X28.126 Y86.861
X33
X33.041 Y86.868
X33.077 Y86.889
X33.104 Y86.921
X33.118 Y86.96
Y87.002
X33.104 Y87.041
X33.077 Y87.073
X33.041 Y87.094
X33 Y87.101
Z-4.2 F50
X28.126 F150
X28.085 Y87.094
X28.049 Y87.073
X28.022 Y87.041
X28.008 Y87.002
Y86.96
X28.022 Y86.921
X28.049 Y86.889
X28.085 Y86.868
X28.126 Y86.861
X33
X33.041 Y86.868
X33.077 Y86.889
X33.104 Y86.921
X33.118 Y86.96
Y87.002
X33.104 Y87.041
X33.077 Y87.073
X33.041 Y87.094
X33 Y87.101
Z-4.5 F50
X28.126 F150
X28.085 Y87.094
X28.049 Y87.073
X28.022 Y87.041
X28.008 Y87.002
Y86.96
X28.022 Y86.921
X28.049 Y86.889
X28.085 Y86.868
X28.126 Y86.861
X33
X33.041 Y86.868
X33.077 Y86.889
X33.104 Y86.921
X33.118 Y86.96
Y87.002
X33.104 Y87.041
X33.077 Y87.073
X33.041 Y87.094
X33 Y87.101
Z-4.8 F50
X28.126 F150
X28.085 Y87.094
X28.049 Y87.073
X28.022 Y87.041
X28.008 Y87.002
Y86.96
X28.022 Y86.921
X28.049 Y86.889
X28.085 Y86.868
X28.126 Y86.861
X33
X33.041 Y86.868
X33.077 Y86.889
X33.104 Y86.921
X33.118 Y86.96
Y87.002
X33.104 Y87.041
X33.077 Y87.073
X33.041 Y87.094
X33 Y87.101
Z-5.1 F50
X28.126 F150
X28.085 Y87.094
X28.049 Y87.073
X28.022 Y87.041
X28.008 Y87.002
Y86.96
X28.022 Y86.921
X28.049 Y86.889
X28.085 Y86.868
X28.126 Y86.861
X33
X33.041 Y86.868
X33.077 Y86.889
X33.104 Y86.921
X33.118 Y86.96
Y87.002
X33.104 Y87.041
X33.077 Y87.073
X33.041 Y87.094
X33 Y87.101
Z-5.4 F50
X28.126 F150
X28.085 Y87.094
X28.049 Y87.073
X28.022 Y87.041
X28.008 Y87.002
Y86.96
X28.022 Y86.921
X28.049 Y86.889
X28.085 Y86.868
X28.126 Y86.861
X33
X33.041 Y86.868
X33.077 Y86.889
X33.104 Y86.921
X33.118 Y86.96
Y87.002
X33.104 Y87.041
X33.077 Y87.073
X33.041 Y87.094
X33 Y87.101
Z-5.7 F50
X28.126 F150
X28.085 Y87.094
X28.049 Y87.073
X28.022 Y87.041
X28.008 Y87.002
Y86.96
X28.022 Y86.921
X28.049 Y86.889
X28.085 Y86.868
X28.126 Y86.861
X33
X33.041 Y86.868
X33.077 Y86.889
X33.104 Y86.921
X33.118 Y86.96
Y87.002
X33.104 Y87.041
X33.077 Y87.073
X33.041 Y87.094
X33 Y87.101
Z-6 F50
X28.126 F150
X28.085 Y87.094
X28.049 Y87.073
X28.022 Y87.041
X28.008 Y87.002
Y86.96
X28.022 Y86.921
X28.049 Y86.889
X28.085 Y86.868
X28.126 Y86.861
X33
X33.041 Y86.868
X33.077 Y86.889
X33.104 Y86.921
X33.118 Y86.96
Y87.002
X33.104 Y87.041
X33.077 Y87.073
X33.041 Y87.094
X33 Y87.101
Z-6.3 F50
X28.126 F150
X28.085 Y87.094
X28.049 Y87.073
X28.022 Y87.041
X28.008 Y87.002
Y86.96
X28.022 Y86.921
X28.049 Y86.889
X28.085 Y86.868
X28.126 Y86.861
X33
X33.041 Y86.868
X33.077 Y86.889
X33.104 Y86.921
X33.118 Y86.96
Y87.002
X33.104 Y87.041
X33.077 Y87.073
X33.041 Y87.094
X33 Y87.101
Z-6.6 F50
X28.126 F150
X28.085 Y87.094
X28.049 Y87.073
X28.022 Y87.041
X28.008 Y87.002
Y86.96
X28.022 Y86.921
X28.049 Y86.889
X28.085 Y86.868
X28.126 Y86.861
X33
X33.041 Y86.868
X33.077 Y86.889
X33.104 Y86.921
X33.118 Y86.96
Y87.002
X33.104 Y87.041
X33.077 Y87.073
X33.041 Y87.094
X33 Y87.101
Z-6.9 F50
X28.126 F150
X28.085 Y87.094
X28.049 Y87.073
X28.022 Y87.041
X28.008 Y87.002
Y86.96
X28.022 Y86.921
X28.049 Y86.889
X28.085 Y86.868
X28.126 Y86.861
X33
X33.041 Y86.868
X33.077 Y86.889
X33.104 Y86.921
X33.118 Y86.96
Y87.002
X33.104 Y87.041
X33.077 Y87.073
X33.041 Y87.094
X33 Y87.101
Z-7.2 F50
X28.126 F150
X28.085 Y87.094
X28.049 Y87.073
X28.022 Y87.041
X28.008 Y87.002
Y86.96
X28.022 Y86.921
X28.049 Y86.889
X28.085 Y86.868
X28.126 Y86.861
X33
X33.041 Y86.868
X33.077 Y86.889
X33.104 Y86.921
X33.118 Y86.96
Y87.002
X33.104 Y87.041
X33.077 Y87.073
X33.041 Y87.094
X33 Y87.101
Z-7.35 F50
X28.126 F150
X28.085 Y87.094
X28.049 Y87.073
X28.022 Y87.041
X28.008 Y87.002
Y86.96
X28.022 Y86.921
X28.049 Y86.889
X28.085 Y86.868
X28.126 Y86.861
X33
X33.041 Y86.868
X33.077 Y86.889
X33.104 Y86.921
X33.118 Y86.96
Y87.002
X33.104 Y87.041
X33.077 Y87.073
X33.041 Y87.094
X33 Y87.101
Z15
(When using Fusion for Personal Use, the feedrate of rapid)
(moves is reduced to match the feedrate of cutting moves,)
(which can increase machining time. Unrestricted rapid moves)
(are available with a Fusion Subscription.)

(2D Contour6)
G0 X-3.672 Y54.529
G1 Z15 F150
Z5
Z0.952 F50
Z0.176
G18 G2 X-3.196 Z-0.3 I0.476 K0
G1 X-2.72
G17 G3 X-2.244 Y55.005 I0 J0.476
G1 Y110.005 F150
G2 X0.136 Y112.385 I2.38 J0
G1 X140.136
G2 X142.516 Y110.005 I0 J-2.38
G1 Y0.005
G2 X140.136 Y-2.375 I-2.38 J0
G1 X0.136
G2 X-2.244 Y0.005 I0 J2.38
G1 Y55.005
G3 X-2.72 Y55.481 I-0.476 J0
G1 X-3.196
G18 G3 X-3.672 Z0.176 I0 K0.476
G1 Z5
Y54.529
Z0.652 F50
Z-0.124
G2 X-3.196 Z-0.6 I0.476 K0
G1 X-2.72
G17 G3 X-2.244 Y55.005 I0 J0.476
G1 Y110.005 F150
G2 X0.136 Y112.385 I2.38 J0
G1 X140.136
G2 X142.516 Y110.005 I0 J-2.38
G1 Y0.005
G2 X140.136 Y-2.375 I-2.38 J0
G1 X0.136
G2 X-2.244 Y0.005 I0 J2.38
G1 Y55.005
G3 X-2.72 Y55.481 I-0.476 J0
G1 X-3.196
G18 G3 X-3.672 Z-0.124 I0 K0.476
G1 Z5
Y54.529
Z0.352 F50
Z-0.424
G2 X-3.196 Z-0.9 I0.476 K0
G1 X-2.72
G17 G3 X-2.244 Y55.005 I0 J0.476
G1 Y110.005 F150
G2 X0.136 Y112.385 I2.38 J0
G1 X140.136
G2 X142.516 Y110.005 I0 J-2.38
G1 Y0.005
G2 X140.136 Y-2.375 I-2.38 J0
G1 X0.136
G2 X-2.244 Y0.005 I0 J2.38
G1 Y55.005
G3 X-2.72 Y55.481 I-0.476 J0
G1 X-3.196
G18 G3 X-3.672 Z-0.424 I0 K0.476
G1 Z5
Y54.529
Z0.052 F50
Z-0.724
G2 X-3.196 Z-1.2 I0.476 K0
G1 X-2.72
G17 G3 X-2.244 Y55.005 I0 J0.476
G1 Y110.005 F150
G2 X0.136 Y112.385 I2.38 J0
G1 X140.136
G2 X142.516 Y110.005 I0 J-2.38
G1 Y0.005
G2 X140.136 Y-2.375 I-2.38 J0
G1 X0.136
G2 X-2.244 Y0.005 I0 J2.38
G1 Y55.005
G3 X-2.72 Y55.481 I-0.476 J0
G1 X-3.196
G18 G3 X-3.672 Z-0.724 I0 K0.476
G1 Z5
Y54.529
Z-0.248 F50
Z-1.024
G2 X-3.196 Z-1.5 I0.476 K0
G1 X-2.72
G17 G3 X-2.244 Y55.005 I0 J0.476
G1 Y110.005 F150
G2 X0.136 Y112.385 I2.38 J0
G1 X140.136
G2 X142.516 Y110.005 I0 J-2.38
G1 Y0.005
G2 X140.136 Y-2.375 I-2.38 J0
G1 X0.136
G2 X-2.244 Y0.005 I0 J2.38
G1 Y55.005
G3 X-2.72 Y55.481 I-0.476 J0
G1 X-3.196
G18 G3 X-3.672 Z-1.024 I0 K0.476
G1 Z5
Y54.529
Z-0.548 F50
Z-1.324
G2 X-3.196 Z-1.8 I0.476 K0
G1 X-2.72
G17 G3 X-2.244 Y55.005 I0 J0.476
G1 Y110.005 F150
G2 X0.136 Y112.385 I2.38 J0
G1 X140.136
G2 X142.516 Y110.005 I0 J-2.38
G1 Y0.005
G2 X140.136 Y-2.375 I-2.38 J0
G1 X0.136
G2 X-2.244 Y0.005 I0 J2.38
G1 Y55.005
G3 X-2.72 Y55.481 I-0.476 J0
G1 X-3.196
G18 G3 X-3.672 Z-1.324 I0 K0.476
G1 Z5
Y54.529
Z-0.848 F50
Z-1.624
G2 X-3.196 Z-2.1 I0.476 K0
G1 X-2.72
G17 G3 X-2.244 Y55.005 I0 J0.476
G1 Y110.005 F150
G2 X0.136 Y112.385 I2.38 J0
G1 X140.136
G2 X142.516 Y110.005 I0 J-2.38
G1 Y0.005
G2 X140.136 Y-2.375 I-2.38 J0
G1 X0.136
G2 X-2.244 Y0.005 I0 J2.38
G1 Y55.005
G3 X-2.72 Y55.481 I-0.476 J0
G1 X-3.196
G18 G3 X-3.672 Z-1.624 I0 K0.476
G1 Z5
Y54.529
Z-1.148 F50
Z-1.924
G2 X-3.196 Z-2.4 I0.476 K0
G1 X-2.72
G17 G3 X-2.244 Y55.005 I0 J0.476
G1 Y110.005 F150
G2 X0.136 Y112.385 I2.38 J0
G1 X140.136
G2 X142.516 Y110.005 I0 J-2.38
G1 Y0.005
G2 X140.136 Y-2.375 I-2.38 J0
G1 X0.136
G2 X-2.244 Y0.005 I0 J2.38
G1 Y55.005
G3 X-2.72 Y55.481 I-0.476 J0
G1 X-3.196
G18 G3 X-3.672 Z-1.924 I0 K0.476
G1 Z5
Y54.529
Z-1.448 F50
Z-2.224
G2 X-3.196 Z-2.7 I0.476 K0
G1 X-2.72
G17 G3 X-2.244 Y55.005 I0 J0.476
G1 Y110.005 F150
G2 X0.136 Y112.385 I2.38 J0
G1 X140.136
G2 X142.516 Y110.005 I0 J-2.38
G1 Y0.005
G2 X140.136 Y-2.375 I-2.38 J0
G1 X0.136
G2 X-2.244 Y0.005 I0 J2.38
G1 Y55.005
G3 X-2.72 Y55.481 I-0.476 J0
G1 X-3.196
G18 G3 X-3.672 Z-2.224 I0 K0.476
G1 Z5
Y54.529
Z-1.748 F50
Z-2.524
G2 X-3.196 Z-3 I0.476 K0
G1 X-2.72
G17 G3 X-2.244 Y55.005 I0 J0.476
G1 Y110.005 F150
G2 X0.136 Y112.385 I2.38 J0
G1 X140.136
G2 X142.516 Y110.005 I0 J-2.38
G1 Y0.005
G2 X140.136 Y-2.375 I-2.38 J0
G1 X0.136
G2 X-2.244 Y0.005 I0 J2.38
G1 Y55.005
G3 X-2.72 Y55.481 I-0.476 J0
G1 X-3.196
G18 G3 X-3.672 Z-2.524 I0 K0.476
G1 Z5
Y54.529
Z-2.048 F50
Z-2.824
G2 X-3.196 Z-3.3 I0.476 K0
G1 X-2.72
G17 G3 X-2.244 Y55.005 I0 J0.476
G1 Y110.005 F150
G2 X0.136 Y112.385 I2.38 J0
G1 X140.136
G2 X142.516 Y110.005 I0 J-2.38
G1 Y0.005
G2 X140.136 Y-2.375 I-2.38 J0
G1 X0.136
G2 X-2.244 Y0.005 I0 J2.38
G1 Y55.005
G3 X-2.72 Y55.481 I-0.476 J0
G1 X-3.196
G18 G3 X-3.672 Z-2.824 I0 K0.476
G1 Z5
Y54.529
Z-2.348 F50
Z-3.124
G2 X-3.196 Z-3.6 I0.476 K0
G1 X-2.72
G17 G3 X-2.244 Y55.005 I0 J0.476
G1 Y110.005 F150
G2 X0.136 Y112.385 I2.38 J0
G1 X140.136
G2 X142.516 Y110.005 I0 J-2.38
G1 Y0.005
G2 X140.136 Y-2.375 I-2.38 J0
G1 X0.136
G2 X-2.244 Y0.005 I0 J2.38
G1 Y55.005
G3 X-2.72 Y55.481 I-0.476 J0
G1 X-3.196
G18 G3 X-3.672 Z-3.124 I0 K0.476
G1 Z5
Y54.529
Z-2.648 F50
Z-3.424
G2 X-3.196 Z-3.9 I0.476 K0
G1 X-2.72
G17 G3 X-2.244 Y55.005 I0 J0.476
G1 Y110.005 F150
G2 X0.136 Y112.385 I2.38 J0
G1 X140.136
G2 X142.516 Y110.005 I0 J-2.38
G1 Y0.005
G2 X140.136 Y-2.375 I-2.38 J0
G1 X0.136
G2 X-2.244 Y0.005 I0 J2.38
G1 Y55.005
G3 X-2.72 Y55.481 I-0.476 J0
G1 X-3.196
G18 G3 X-3.672 Z-3.424 I0 K0.476
G1 Z5
Y54.529
Z-2.948 F50
Z-3.724
G2 X-3.196 Z-4.2 I0.476 K0
G1 X-2.72
G17 G3 X-2.244 Y55.005 I0 J0.476
G1 Y110.005 F150
G2 X0.136 Y112.385 I2.38 J0
G1 X140.136
G2 X142.516 Y110.005 I0 J-2.38
G1 Y0.005
G2 X140.136 Y-2.375 I-2.38 J0
G1 X0.136
G2 X-2.244 Y0.005 I0 J2.38
G1 Y55.005
G3 X-2.72 Y55.481 I-0.476 J0
G1 X-3.196
G18 G3 X-3.672 Z-3.724 I0 K0.476
G1 Z5
Y54.529
Z-3.248 F50
Z-4.024
G2 X-3.196 Z-4.5 I0.476 K0
G1 X-2.72
G17 G3 X-2.244 Y55.005 I0 J0.476
G1 Y110.005 F150
G2 X0.136 Y112.385 I2.38 J0
G1 X140.136
G2 X142.516 Y110.005 I0 J-2.38
G1 Y0.005
G2 X140.136 Y-2.375 I-2.38 J0
G1 X0.136
G2 X-2.244 Y0.005 I0 J2.38
G1 Y55.005
G3 X-2.72 Y55.481 I-0.476 J0
G1 X-3.196
G18 G3 X-3.672 Z-4.024 I0 K0.476
G1 Z5
Y54.529
Z-3.548 F50
Z-4.324
G2 X-3.196 Z-4.8 I0.476 K0
G1 X-2.72
G17 G3 X-2.244 Y55.005 I0 J0.476
G1 Y110.005 F150
G2 X0.136 Y112.385 I2.38 J0
G1 X140.136
G2 X142.516 Y110.005 I0 J-2.38
G1 Y0.005
G2 X140.136 Y-2.375 I-2.38 J0
G1 X0.136
G2 X-2.244 Y0.005 I0 J2.38
G1 Y55.005
G3 X-2.72 Y55.481 I-0.476 J0
G1 X-3.196
G18 G3 X-3.672 Z-4.324 I0 K0.476
G1 Z5
Y54.529
Z-3.848 F50
Z-4.624
G2 X-3.196 Z-5.1 I0.476 K0
G1 X-2.72
G17 G3 X-2.244 Y55.005 I0 J0.476
G1 Y110.005 F150
G2 X0.136 Y112.385 I2.38 J0
G1 X140.136
G2 X142.516 Y110.005 I0 J-2.38
G1 Y0.005
G2 X140.136 Y-2.375 I-2.38 J0
G1 X0.136
G2 X-2.244 Y0.005 I0 J2.38
G1 Y55.005
G3 X-2.72 Y55.481 I-0.476 J0
G1 X-3.196
G18 G3 X-3.672 Z-4.624 I0 K0.476
G1 Z5
Y54.529
Z-4.148 F50
Z-4.924
G2 X-3.196 Z-5.4 I0.476 K0
G1 X-2.72
G17 G3 X-2.244 Y55.005 I0 J0.476
G1 Y110.005 F150
G2 X0.136 Y112.385 I2.38 J0
G1 X140.136
G2 X142.516 Y110.005 I0 J-2.38
G1 Y0.005
G2 X140.136 Y-2.375 I-2.38 J0
G1 X0.136
G2 X-2.244 Y0.005 I0 J2.38
G1 Y55.005
G3 X-2.72 Y55.481 I-0.476 J0
G1 X-3.196
G18 G3 X-3.672 Z-4.924 I0 K0.476
G1 Z5
Y54.529
Z-4.448 F50
Z-5.224
G2 X-3.196 Z-5.7 I0.476 K0
G1 X-2.72
G17 G3 X-2.244 Y55.005 I0 J0.476
G1 Y110.005 F150
G2 X0.136 Y112.385 I2.38 J0
G1 X140.136
G2 X142.516 Y110.005 I0 J-2.38
G1 Y0.005
G2 X140.136 Y-2.375 I-2.38 J0
G1 X0.136
G2 X-2.244 Y0.005 I0 J2.38
G1 Y55.005
G3 X-2.72 Y55.481 I-0.476 J0
G1 X-3.196
G18 G3 X-3.672 Z-5.224 I0 K0.476
G1 Z5
Y54.529
Z-4.748 F50
Z-5.524
G2 X-3.196 Z-6 I0.476 K0
G1 X-2.72
G17 G3 X-2.244 Y55.005 I0 J0.476
G1 Y110.005 F150
G2 X0.136 Y112.385 I2.38 J0
G1 X140.136
G2 X142.516 Y110.005 I0 J-2.38
G1 Y0.005
G2 X140.136 Y-2.375 I-2.38 J0
G1 X0.136
G2 X-2.244 Y0.005 I0 J2.38
G1 Y55.005
G3 X-2.72 Y55.481 I-0.476 J0
G1 X-3.196
G18 G3 X-3.672 Z-5.524 I0 K0.476
G1 Z5
Y54.529
Z-5.048 F50
Z-5.824
G2 X-3.196 Z-6.3 I0.476 K0
G1 X-2.72
G17 G3 X-2.244 Y55.005 I0 J0.476
G1 Y110.005 F150
G2 X0.136 Y112.385 I2.38 J0
G1 X140.136
G2 X142.516 Y110.005 I0 J-2.38
G1 Y0.005
G2 X140.136 Y-2.375 I-2.38 J0
G1 X0.136
G2 X-2.244 Y0.005 I0 J2.38
G1 Y55.005
G3 X-2.72 Y55.481 I-0.476 J0
G1 X-3.196
G18 G3 X-3.672 Z-5.824 I0 K0.476
G1 Z5
Y54.529
Z-5.348 F50
Z-6.124
G2 X-3.196 Z-6.6 I0.476 K0
G1 X-2.72
G17 G3 X-2.244 Y55.005 I0 J0.476
G1 Y110.005 F150
G2 X0.136 Y112.385 I2.38 J0
G1 X140.136
G2 X142.516 Y110.005 I0 J-2.38
G1 Y0.005
G2 X140.136 Y-2.375 I-2.38 J0
G1 X0.136
G2 X-2.244 Y0.005 I0 J2.38
G1 Y55.005
G3 X-2.72 Y55.481 I-0.476 J0
G1 X-3.196
G18 G3 X-3.672 Z-6.124 I0 K0.476
G1 Z5
Y54.529
Z-5.648 F50
Z-6.424
G2 X-3.196 Z-6.9 I0.476 K0
G1 X-2.72
G17 G3 X-2.244 Y55.005 I0 J0.476
G1 Y110.005 F150
G2 X0.136 Y112.385 I2.38 J0
G1 X140.136
G2 X142.516 Y110.005 I0 J-2.38
G1 Y0.005
G2 X140.136 Y-2.375 I-2.38 J0
G1 X0.136
G2 X-2.244 Y0.005 I0 J2.38
G1 Y55.005
G3 X-2.72 Y55.481 I-0.476 J0
G1 X-3.196
G18 G3 X-3.672 Z-6.424 I0 K0.476
G1 Z5
Y54.529
Z-5.948 F50
Z-6.724
G2 X-3.196 Z-7.2 I0.476 K0
G1 X-2.72
G17 G3 X-2.244 Y55.005 I0 J0.476
G1 Y110.005 F150
G2 X0.136 Y112.385 I2.38 J0
G1 X140.136
G2 X142.516 Y110.005 I0 J-2.38
G1 Y0.005
G2 X140.136 Y-2.375 I-2.38 J0
G1 X0.136
G2 X-2.244 Y0.005 I0 J2.38
G1 Y55.005
G3 X-2.72 Y55.481 I-0.476 J0
G1 X-3.196
G18 G3 X-3.672 Z-6.724 I0 K0.476
G1 Z5
Y54.529
Z-6.248 F50
Z-7.024
G2 X-3.196 Z-7.5 I0.476 K0
G1 X-2.72
G17 G3 X-2.244 Y55.005 I0 J0.476
G1 Y110.005 F150
G2 X0.136 Y112.385 I2.38 J0
G1 X140.136
G2 X142.516 Y110.005 I0 J-2.38
G1 Y0.005
G2 X140.136 Y-2.375 I-2.38 J0
G1 X0.136
G2 X-2.244 Y0.005 I0 J2.38
G1 Y55.005
G3 X-2.72 Y55.481 I-0.476 J0
G1 X-3.196
G18 G3 X-3.672 Z-7.024 I0 K0.476
G1 Z5
Y54.529
Z-6.548 F50
Z-7.324
G2 X-3.196 Z-7.8 I0.476 K0
G1 X-2.72
G17 G3 X-2.244 Y55.005 I0 J0.476
G1 Y110.005 F150
G2 X0.136 Y112.385 I2.38 J0
G1 X140.136
G2 X142.516 Y110.005 I0 J-2.38
G1 Y0.005
G2 X140.136 Y-2.375 I-2.38 J0
G1 X0.136
G2 X-2.244 Y0.005 I0 J2.38
G1 Y55.005
G3 X-2.72 Y55.481 I-0.476 J0
G1 X-3.196
G18 G3 X-3.672 Z-7.324 I0 K0.476
G1 Z5
Y54.529
Z-6.848 F50
Z-7.624
G2 X-3.196 Z-8.1 I0.476 K0
G1 X-2.72
G17 G3 X-2.244 Y55.005 I0 J0.476
G1 Y110.005 F150
G2 X0.136 Y112.385 I2.38 J0
G1 X140.136
G2 X142.516 Y110.005 I0 J-2.38
G1 Y0.005
G2 X140.136 Y-2.375 I-2.38 J0
G1 X0.136
G2 X-2.244 Y0.005 I0 J2.38
G1 Y55.005
G3 X-2.72 Y55.481 I-0.476 J0
G1 X-3.196
G18 G3 X-3.672 Z-7.624 I0 K0.476
G1 Z5
Y54.529
Z-7.148 F50
Z-7.874
G2 X-3.196 Z-8.35 I0.476 K0
G1 X-2.72
G17 G3 X-2.244 Y55.005 I0 J0.476
G1 Y110.005 F150
G2 X0.136 Y112.385 I2.38 J0
G1 X140.136
G2 X142.516 Y110.005 I0 J-2.38
G1 Y0.005
G2 X140.136 Y-2.375 I-2.38 J0
G1 X0.136
G2 X-2.244 Y0.005 I0 J2.38
G1 Y55.005
G3 X-2.72 Y55.481 I-0.476 J0
G1 X-3.196
G18 G3 X-3.672 Z-7.874 I0 K0.476
G1 Z15
G17

M9
M5
M30
