(cartarm_gear_bracket_mill)
(Machine)
(  vendor: Autodesk)
(  model: Generic 3-axis)
(  description: This machine has XY axis on the Table and Z axis on the Head)
(T2 D=6.35 CR=3.175 - ZMIN=-7.85 - ball end mill)
G90 G94
G17
G21
(-Attention- Property Safe Retracts is set to Clearance Height.)
(Ensure the clearance height will clear the part and or fixtures.)
(Raise the Z-axis to a safe height before starting the program.)
(When using Fusion for Personal Use, the feedrate of rapid)
(moves is reduced to match the feedrate of cutting moves,)
(which can increase machining time. Unrestricted rapid moves)
(are available with a Fusion Subscription.)

(2D Contour1)
T2
S24000 M3
G17 G90 G94
G54
M8
G0 X50.646 Y65.015
Z15
G1 Z5 F300
Z1 F333.3
Z-0.065
G18 G2 X51.281 Z-0.7 I0.635 K0 F300
G1 X51.916
G17 G3 X52.551 Y65.65 I0 J0.635
X20.501 Y65.65 I-16.025 J0 F150
X52.551 Y65.65 I16.025 J0
X51.916 Y66.285 I-0.635 J0 F300
G1 X51.281
G18 G3 X50.646 Z-0.065 I0 K0.635
G1 Z5
Y65.015
Z2.77 F333.3
Z-0.765
G2 X51.281 Z-1.4 I0.635 K0 F300
G1 X51.916
G17 G3 X52.551 Y65.65 I0 J0.635
X20.501 Y65.65 I-16.025 J0 F150
X52.551 Y65.65 I16.025 J0
X51.916 Y66.285 I-0.635 J0 F300
G1 X51.281
G18 G3 X50.646 Z-0.765 I0 K0.635
G1 Z5
Y65.015
Z2.07 F333.3
Z-1.465
G2 X51.281 Z-2.1 I0.635 K0 F300
G1 X51.916
G17 G3 X52.551 Y65.65 I0 J0.635
X20.501 Y65.65 I-16.025 J0 F150
X52.551 Y65.65 I16.025 J0
X51.916 Y66.285 I-0.635 J0 F300
G1 X51.281
G18 G3 X50.646 Z-1.465 I0 K0.635
G1 Z5
Y65.015
Z1.37 F333.3
Z-2.165
G2 X51.281 Z-2.8 I0.635 K0 F300
G1 X51.916
G17 G3 X52.551 Y65.65 I0 J0.635
X20.501 Y65.65 I-16.025 J0 F150
X52.551 Y65.65 I16.025 J0
X51.916 Y66.285 I-0.635 J0 F300
G1 X51.281
G18 G3 X50.646 Z-2.165 I0 K0.635
G1 Z5
Y65.015
Z0.67 F333.3
Z-2.865
G2 X51.281 Z-3.5 I0.635 K0 F300
G1 X51.916
G17 G3 X52.551 Y65.65 I0 J0.635
X20.501 Y65.65 I-16.025 J0 F150
X52.551 Y65.65 I16.025 J0
X51.916 Y66.285 I-0.635 J0 F300
G1 X51.281
G18 G3 X50.646 Z-2.865 I0 K0.635
G1 Z5
Y65.015
Z-0.03 F333.3
Z-3.565
G2 X51.281 Z-4.2 I0.635 K0 F300
G1 X51.916
G17 G3 X52.551 Y65.65 I0 J0.635
X20.501 Y65.65 I-16.025 J0 F150
X52.551 Y65.65 I16.025 J0
X51.916 Y66.285 I-0.635 J0 F300
G1 X51.281
G18 G3 X50.646 Z-3.565 I0 K0.635
G1 Z5
Y65.015
Z-0.73 F333.3
Z-4.265
G2 X51.281 Z-4.9 I0.635 K0 F300
G1 X51.916
G17 G3 X52.551 Y65.65 I0 J0.635
X20.501 Y65.65 I-16.025 J0 F150
X52.551 Y65.65 I16.025 J0
X51.916 Y66.285 I-0.635 J0 F300
G1 X51.281
G18 G3 X50.646 Z-4.265 I0 K0.635
G1 Z5
Y65.015
Z-1.43 F333.3
Z-4.965
G2 X51.281 Z-5.6 I0.635 K0 F300
G1 X51.916
G17 G3 X52.551 Y65.65 I0 J0.635
X20.501 Y65.65 I-16.025 J0 F150
X52.551 Y65.65 I16.025 J0
X51.916 Y66.285 I-0.635 J0 F300
G1 X51.281
G18 G3 X50.646 Z-4.965 I0 K0.635
G1 Z5
Y65.015
Z-2.13 F333.3
Z-5.665
G2 X51.281 Z-6.3 I0.635 K0 F300
G1 X51.916
G17 G3 X52.551 Y65.65 I0 J0.635
X20.501 Y65.65 I-16.025 J0 F150
X52.551 Y65.65 I16.025 J0
X51.916 Y66.285 I-0.635 J0 F300
G1 X51.281
G18 G3 X50.646 Z-5.665 I0 K0.635
G1 Z5
Y65.015
Z-2.83 F333.3
Z-6.365
G2 X51.281 Z-7 I0.635 K0 F300
G1 X51.916
G17 G3 X52.551 Y65.65 I0 J0.635
X20.501 Y65.65 I-16.025 J0 F150
X52.551 Y65.65 I16.025 J0
X51.916 Y66.285 I-0.635 J0 F300
G1 X51.281
G18 G3 X50.646 Z-6.365 I0 K0.635
G1 Z5
Y65.015
Z-3.53 F333.3
Z-6.79
G2 X51.281 Z-7.425 I0.635 K0 F300
G1 X51.916
G17 G3 X52.551 Y65.65 I0 J0.635
X20.501 Y65.65 I-16.025 J0 F150
X52.551 Y65.65 I16.025 J0
X51.916 Y66.285 I-0.635 J0 F300
G1 X51.281
G18 G3 X50.646 Z-6.79 I0 K0.635
G1 Z5
Y65.015
Z-3.955 F333.3
Z-7.215
G2 X51.281 Z-7.85 I0.635 K0 F300
G1 X51.916
G17 G3 X52.551 Y65.65 I0 J0.635
X20.501 Y65.65 I-16.025 J0 F150
X52.551 Y65.65 I16.025 J0
X51.916 Y66.285 I-0.635 J0 F300
G1 X51.281
G18 G3 X50.646 Z-7.215 I0 K0.635
G1 Z5
X-5.08 Y64.202
Z1 F333.3
Z-0.065
G2 X-4.445 Z-0.7 I0.635 K0 F300
G1 X-3.81
G17 G3 X-3.175 Y64.837 I0 J0.635
G2 X37.5 Y105.512 I40.675 J0 F150
G1 X37.585 Y105.511
G2 X77.175 Y64.85 I-1.085 J-40.661
G1 Y0
G3 X77.81 Y-0.635 I0.635 J0 F300
G1 X78.445
G18 G2 X79.08 Z-0.065 I0 K0.635
G1 Z5
X-5.08 Y64.202
Z2.77 F333.3
Z-0.765
G2 X-4.445 Z-1.4 I0.635 K0 F300
G1 X-3.81
G17 G3 X-3.175 Y64.837 I0 J0.635
G2 X37.5 Y105.512 I40.675 J0 F150
G1 X37.585 Y105.511
G2 X77.175 Y64.85 I-1.085 J-40.661
G1 Y0
G3 X77.81 Y-0.635 I0.635 J0 F300
G1 X78.445
G18 G2 X79.08 Z-0.765 I0 K0.635
G1 Z5
X-5.08 Y64.202
Z2.07 F333.3
Z-1.465
G2 X-4.445 Z-2.1 I0.635 K0 F300
G1 X-3.81
G17 G3 X-3.175 Y64.837 I0 J0.635
G2 X37.5 Y105.512 I40.675 J0 F150
G1 X37.585 Y105.511
G2 X77.175 Y64.85 I-1.085 J-40.661
G1 Y0
G3 X77.81 Y-0.635 I0.635 J0 F300
G1 X78.445
G18 G2 X79.08 Z-1.465 I0 K0.635
G1 Z5
X-5.08 Y64.202
Z1.37 F333.3
Z-2.165
G2 X-4.445 Z-2.8 I0.635 K0 F300
G1 X-3.81
G17 G3 X-3.175 Y64.837 I0 J0.635
G2 X37.5 Y105.512 I40.675 J0 F150
G1 X37.585 Y105.511
G2 X77.175 Y64.85 I-1.085 J-40.661
G1 Y0
G3 X77.81 Y-0.635 I0.635 J0 F300
G1 X78.445
G18 G2 X79.08 Z-2.165 I0 K0.635
G1 Z5
X-5.08 Y64.202
Z0.67 F333.3
Z-2.865
G2 X-4.445 Z-3.5 I0.635 K0 F300
G1 X-3.81
G17 G3 X-3.175 Y64.837 I0 J0.635
G2 X37.5 Y105.512 I40.675 J0 F150
G1 X37.585 Y105.511
G2 X77.175 Y64.85 I-1.085 J-40.661
G1 Y0
G3 X77.81 Y-0.635 I0.635 J0 F300
G1 X78.445
G18 G2 X79.08 Z-2.865 I0 K0.635
G1 Z5
X-5.08 Y64.202
Z-0.03 F333.3
Z-3.565
G2 X-4.445 Z-4.2 I0.635 K0 F300
G1 X-3.81
G17 G3 X-3.175 Y64.837 I0 J0.635
G2 X37.5 Y105.512 I40.675 J0 F150
G1 X37.585 Y105.511
G2 X77.175 Y64.85 I-1.085 J-40.661
G1 Y0
G3 X77.81 Y-0.635 I0.635 J0 F300
G1 X78.445
G18 G2 X79.08 Z-3.565 I0 K0.635
G1 Z5
X-5.08 Y64.202
Z-0.73 F333.3
Z-4.265
G2 X-4.445 Z-4.9 I0.635 K0 F300
G1 X-3.81
G17 G3 X-3.175 Y64.837 I0 J0.635
G2 X37.5 Y105.512 I40.675 J0 F150
G1 X37.585 Y105.511
G2 X77.175 Y64.85 I-1.085 J-40.661
G1 Y0
G3 X77.81 Y-0.635 I0.635 J0 F300
G1 X78.445
G18 G2 X79.08 Z-4.265 I0 K0.635
G1 Z5
X-5.08 Y64.202
Z-1.43 F333.3
Z-4.965
G2 X-4.445 Z-5.6 I0.635 K0 F300
G1 X-3.81
G17 G3 X-3.175 Y64.837 I0 J0.635
G2 X37.5 Y105.512 I40.675 J0 F150
G1 X37.585 Y105.511
G2 X77.175 Y64.85 I-1.085 J-40.661
G1 Y0
G3 X77.81 Y-0.635 I0.635 J0 F300
G1 X78.445
G18 G2 X79.08 Z-4.965 I0 K0.635
G1 Z5
X-5.08 Y64.202
Z-2.13 F333.3
Z-5.665
G2 X-4.445 Z-6.3 I0.635 K0 F300
G1 X-3.81
G17 G3 X-3.175 Y64.837 I0 J0.635
G2 X37.5 Y105.512 I40.675 J0 F150
G1 X37.585 Y105.511
G2 X77.175 Y64.85 I-1.085 J-40.661
G1 Y0
G3 X77.81 Y-0.635 I0.635 J0 F300
G1 X78.445
G18 G2 X79.08 Z-5.665 I0 K0.635
G1 Z5
X-5.08 Y64.202
Z-2.83 F333.3
Z-6.365
G2 X-4.445 Z-7 I0.635 K0 F300
G1 X-3.81
G17 G3 X-3.175 Y64.837 I0 J0.635
G2 X37.5 Y105.512 I40.675 J0 F150
G1 X37.585 Y105.511
G2 X77.175 Y64.85 I-1.085 J-40.661
G1 Y0
G3 X77.81 Y-0.635 I0.635 J0 F300
G1 X78.445
G18 G2 X79.08 Z-6.365 I0 K0.635
G1 Z5
X-5.08 Y64.202
Z-3.53 F333.3
Z-6.79
G2 X-4.445 Z-7.425 I0.635 K0 F300
G1 X-3.81
G17 G3 X-3.175 Y64.837 I0 J0.635
G2 X37.5 Y105.512 I40.675 J0 F150
G1 X37.585 Y105.511
G2 X77.175 Y64.85 I-1.085 J-40.661
G1 Y0
G3 X77.81 Y-0.635 I0.635 J0 F300
G1 X78.445
G18 G2 X79.08 Z-6.79 I0 K0.635
G1 Z5
X-5.08 Y64.202
Z-3.955 F333.3
Z-7.215
G2 X-4.445 Z-7.85 I0.635 K0 F300
G1 X-3.81
G17 G3 X-3.175 Y64.837 I0 J0.635
G2 X37.5 Y105.512 I40.675 J0 F150
G1 X37.585 Y105.511
G2 X77.175 Y64.85 I-1.085 J-40.661
G1 Y0
G3 X77.81 Y-0.635 I0.635 J0 F300
G1 X78.445
G18 G2 X79.08 Z-7.215 I0 K0.635
G1 Z15
G17

M9
M5
M30
