(cartarm_base_joint1_mount)
(Machine)
(  vendor: Autodesk)
(  model: Generic 3-axis)
(  description: This machine has XYZ axis on the Head)
(T2 D=6.35 CR=3.175 - ZMIN=-14 - ball end mill)
G90 G94
G17
G21
(-Attention- Property Safe Retracts is set to Clearance Height.)
(Ensure the clearance height will clear the part and or fixtures.)
(Raise the Z-axis to a safe height before starting the program.)

(Drill3)
T2
S16000 M3
G17 G90 G94
G54
M8
G0 X67.385 Y13.991
Z15
G0 Z5
Z4
Z1
G1 Z-1.4 F333.3
G0 Z4
Z0.6
G1 Z-1.8 F333.3
G0 Z4
Z0.2
G1 Z-2.2 F333.3
G0 Z4
Z-0.2
G1 Z-2.6 F333.3
G0 Z4
Z-0.6
G1 Z-3 F333.3
G0 Z4
Z-1
G1 Z-3.4 F333.3
G0 Z4
Z-1.4
G1 Z-3.8 F333.3
G0 Z4
Z-1.8
G1 Z-4.2 F333.3
G0 Z4
Z-2.2
G1 Z-4.6 F333.3
G0 Z4
Z-2.6
G1 Z-5 F333.3
G0 Z4
Z-3
G1 Z-5.4 F333.3
G0 Z4
Z-3.4
G1 Z-5.8 F333.3
G0 Z4
Z-3.8
G1 Z-6.2 F333.3
G0 Z4
Z-4.2
G1 Z-6.6 F333.3
G0 Z4
Z-4.6
G1 Z-7 F333.3
G0 Z4
Z-5
G1 Z-7.4 F333.3
G0 Z4
Z-5.4
G1 Z-7.8 F333.3
G0 Z4
Z-5.8
G1 Z-8.2 F333.3
G0 Z4
Z-6.2
G1 Z-8.6 F333.3
G0 Z4
Z-6.6
G1 Z-9 F333.3
G0 Z4
Z-7
G1 Z-9.4 F333.3
G0 Z4
Z-7.4
G1 Z-9.8 F333.3
G0 Z4
Z-7.8
G1 Z-10.2 F333.3
G0 Z4
Z-8.2
G1 Z-10.6 F333.3
G0 Z4
Z-8.6
G1 Z-11 F333.3
G0 Z4
Z-9
G1 Z-11.4 F333.3
G0 Z4
Z-9.4
G1 Z-11.8 F333.3
G0 Z4
Z-9.8
G1 Z-12.2 F333.3
G0 Z4
Z-10.2
G1 Z-12.6 F333.3
G0 Z4
Z-10.6
G1 Z-13 F333.3
G0 Z4
Z-11
G1 Z-13.4 F333.3
G0 Z4
Z-11.4
G1 Z-13.8 F333.3
G0 Z4
Z-11.8
G1 Z-14 F333.3
G0 Z5
X52.385
Z4
Z1
G1 Z-1.4 F333.3
G0 Z4
Z0.6
G1 Z-1.8 F333.3
G0 Z4
Z0.2
G1 Z-2.2 F333.3
G0 Z4
Z-0.2
G1 Z-2.6 F333.3
G0 Z4
Z-0.6
G1 Z-3 F333.3
G0 Z4
Z-1
G1 Z-3.4 F333.3
G0 Z4
Z-1.4
G1 Z-3.8 F333.3
G0 Z4
Z-1.8
G1 Z-4.2 F333.3
G0 Z4
Z-2.2
G1 Z-4.6 F333.3
G0 Z4
Z-2.6
G1 Z-5 F333.3
G0 Z4
Z-3
G1 Z-5.4 F333.3
G0 Z4
Z-3.4
G1 Z-5.8 F333.3
G0 Z4
Z-3.8
G1 Z-6.2 F333.3
G0 Z4
Z-4.2
G1 Z-6.6 F333.3
G0 Z4
Z-4.6
G1 Z-7 F333.3
G0 Z4
Z-5
G1 Z-7.4 F333.3
G0 Z4
Z-5.4
G1 Z-7.8 F333.3
G0 Z4
Z-5.8
G1 Z-8.2 F333.3
G0 Z4
Z-6.2
G1 Z-8.6 F333.3
G0 Z4
Z-6.6
G1 Z-9 F333.3
G0 Z4
Z-7
G1 Z-9.4 F333.3
G0 Z4
Z-7.4
G1 Z-9.8 F333.3
G0 Z4
Z-7.8
G1 Z-10.2 F333.3
G0 Z4
Z-8.2
G1 Z-10.6 F333.3
G0 Z4
Z-8.6
G1 Z-11 F333.3
G0 Z4
Z-9
G1 Z-11.4 F333.3
G0 Z4
Z-9.4
G1 Z-11.8 F333.3
G0 Z4
Z-9.8
G1 Z-12.2 F333.3
G0 Z4
Z-10.2
G1 Z-12.6 F333.3
G0 Z4
Z-10.6
G1 Z-13 F333.3
G0 Z4
Z-11
G1 Z-13.4 F333.3
G0 Z4
Z-11.4
G1 Z-13.8 F333.3
G0 Z4
Z-11.8
G1 Z-14 F333.3
G0 Z5
X37.385
Z4
Z1
G1 Z-1.4 F333.3
G0 Z4
Z0.6
G1 Z-1.8 F333.3
G0 Z4
Z0.2
G1 Z-2.2 F333.3
G0 Z4
Z-0.2
G1 Z-2.6 F333.3
G0 Z4
Z-0.6
G1 Z-3 F333.3
G0 Z4
Z-1
G1 Z-3.4 F333.3
G0 Z4
Z-1.4
G1 Z-3.8 F333.3
G0 Z4
Z-1.8
G1 Z-4.2 F333.3
G0 Z4
Z-2.2
G1 Z-4.6 F333.3
G0 Z4
Z-2.6
G1 Z-5 F333.3
G0 Z4
Z-3
G1 Z-5.4 F333.3
G0 Z4
Z-3.4
G1 Z-5.8 F333.3
G0 Z4
Z-3.8
G1 Z-6.2 F333.3
G0 Z4
Z-4.2
G1 Z-6.6 F333.3
G0 Z4
Z-4.6
G1 Z-7 F333.3
G0 Z4
Z-5
G1 Z-7.4 F333.3
G0 Z4
Z-5.4
G1 Z-7.8 F333.3
G0 Z4
Z-5.8
G1 Z-8.2 F333.3
G0 Z4
Z-6.2
G1 Z-8.6 F333.3
G0 Z4
Z-6.6
G1 Z-9 F333.3
G0 Z4
Z-7
G1 Z-9.4 F333.3
G0 Z4
Z-7.4
G1 Z-9.8 F333.3
G0 Z4
Z-7.8
G1 Z-10.2 F333.3
G0 Z4
Z-8.2
G1 Z-10.6 F333.3
G0 Z4
Z-8.6
G1 Z-11 F333.3
G0 Z4
Z-9
G1 Z-11.4 F333.3
G0 Z4
Z-9.4
G1 Z-11.8 F333.3
G0 Z4
Z-9.8
G1 Z-12.2 F333.3
G0 Z4
Z-10.2
G1 Z-12.6 F333.3
G0 Z4
Z-10.6
G1 Z-13 F333.3
G0 Z4
Z-11
G1 Z-13.4 F333.3
G0 Z4
Z-11.4
G1 Z-13.8 F333.3
G0 Z4
Z-11.8
G1 Z-14 F333.3
G0 Z5
X22.385
Z4
Z1
G1 Z-1.4 F333.3
G0 Z4
Z0.6
G1 Z-1.8 F333.3
G0 Z4
Z0.2
G1 Z-2.2 F333.3
G0 Z4
Z-0.2
G1 Z-2.6 F333.3
G0 Z4
Z-0.6
G1 Z-3 F333.3
G0 Z4
Z-1
G1 Z-3.4 F333.3
G0 Z4
Z-1.4
G1 Z-3.8 F333.3
G0 Z4
Z-1.8
G1 Z-4.2 F333.3
G0 Z4
Z-2.2
G1 Z-4.6 F333.3
G0 Z4
Z-2.6
G1 Z-5 F333.3
G0 Z4
Z-3
G1 Z-5.4 F333.3
G0 Z4
Z-3.4
G1 Z-5.8 F333.3
G0 Z4
Z-3.8
G1 Z-6.2 F333.3
G0 Z4
Z-4.2
G1 Z-6.6 F333.3
G0 Z4
Z-4.6
G1 Z-7 F333.3
G0 Z4
Z-5
G1 Z-7.4 F333.3
G0 Z4
Z-5.4
G1 Z-7.8 F333.3
G0 Z4
Z-5.8
G1 Z-8.2 F333.3
G0 Z4
Z-6.2
G1 Z-8.6 F333.3
G0 Z4
Z-6.6
G1 Z-9 F333.3
G0 Z4
Z-7
G1 Z-9.4 F333.3
G0 Z4
Z-7.4
G1 Z-9.8 F333.3
G0 Z4
Z-7.8
G1 Z-10.2 F333.3
G0 Z4
Z-8.2
G1 Z-10.6 F333.3
G0 Z4
Z-8.6
G1 Z-11 F333.3
G0 Z4
Z-9
G1 Z-11.4 F333.3
G0 Z4
Z-9.4
G1 Z-11.8 F333.3
G0 Z4
Z-9.8
G1 Z-12.2 F333.3
G0 Z4
Z-10.2
G1 Z-12.6 F333.3
G0 Z4
Z-10.6
G1 Z-13 F333.3
G0 Z4
Z-11
G1 Z-13.4 F333.3
G0 Z4
Z-11.4
G1 Z-13.8 F333.3
G0 Z4
Z-11.8
G1 Z-14 F333.3
G0 Z5
X7.385
Z4
Z1
G1 Z-1.4 F333.3
G0 Z4
Z0.6
G1 Z-1.8 F333.3
G0 Z4
Z0.2
G1 Z-2.2 F333.3
G0 Z4
Z-0.2
G1 Z-2.6 F333.3
G0 Z4
Z-0.6
G1 Z-3 F333.3
G0 Z4
Z-1
G1 Z-3.4 F333.3
G0 Z4
Z-1.4
G1 Z-3.8 F333.3
G0 Z4
Z-1.8
G1 Z-4.2 F333.3
G0 Z4
Z-2.2
G1 Z-4.6 F333.3
G0 Z4
Z-2.6
G1 Z-5 F333.3
G0 Z4
Z-3
G1 Z-5.4 F333.3
G0 Z4
Z-3.4
G1 Z-5.8 F333.3
G0 Z4
Z-3.8
G1 Z-6.2 F333.3
G0 Z4
Z-4.2
G1 Z-6.6 F333.3
G0 Z4
Z-4.6
G1 Z-7 F333.3
G0 Z4
Z-5
G1 Z-7.4 F333.3
G0 Z4
Z-5.4
G1 Z-7.8 F333.3
G0 Z4
Z-5.8
G1 Z-8.2 F333.3
G0 Z4
Z-6.2
G1 Z-8.6 F333.3
G0 Z4
Z-6.6
G1 Z-9 F333.3
G0 Z4
Z-7
G1 Z-9.4 F333.3
G0 Z4
Z-7.4
G1 Z-9.8 F333.3
G0 Z4
Z-7.8
G1 Z-10.2 F333.3
G0 Z4
Z-8.2
G1 Z-10.6 F333.3
G0 Z4
Z-8.6
G1 Z-11 F333.3
G0 Z4
Z-9
G1 Z-11.4 F333.3
G0 Z4
Z-9.4
G1 Z-11.8 F333.3
G0 Z4
Z-9.8
G1 Z-12.2 F333.3
G0 Z4
Z-10.2
G1 Z-12.6 F333.3
G0 Z4
Z-10.6
G1 Z-13 F333.3
G0 Z4
Z-11
G1 Z-13.4 F333.3
G0 Z4
Z-11.4
G1 Z-13.8 F333.3
G0 Z4
Z-11.8
G1 Z-14 F333.3
G0 Z5
X14.288 Y42.2
Z4
Z1
G1 Z-1.4 F333.3
G0 Z4
Z0.6
G1 Z-1.8 F333.3
G0 Z4
Z0.2
G1 Z-2.2 F333.3
G0 Z4
Z-0.2
G1 Z-2.6 F333.3
G0 Z4
Z-0.6
G1 Z-3 F333.3
G0 Z4
Z-1
G1 Z-3.4 F333.3
G0 Z4
Z-1.4
G1 Z-3.8 F333.3
G0 Z4
Z-1.8
G1 Z-4.2 F333.3
G0 Z4
Z-2.2
G1 Z-4.6 F333.3
G0 Z4
Z-2.6
G1 Z-5 F333.3
G0 Z4
Z-3
G1 Z-5.4 F333.3
G0 Z4
Z-3.4
G1 Z-5.8 F333.3
G0 Z4
Z-3.8
G1 Z-6.2 F333.3
G0 Z4
Z-4.2
G1 Z-6.6 F333.3
G0 Z4
Z-4.6
G1 Z-7 F333.3
G0 Z4
Z-5
G1 Z-7.4 F333.3
G0 Z4
Z-5.4
G1 Z-7.8 F333.3
G0 Z4
Z-5.8
G1 Z-8.2 F333.3
G0 Z4
Z-6.2
G1 Z-8.6 F333.3
G0 Z4
Z-6.6
G1 Z-9 F333.3
G0 Z4
Z-7
G1 Z-9.4 F333.3
G0 Z4
Z-7.4
G1 Z-9.8 F333.3
G0 Z4
Z-7.8
G1 Z-10.2 F333.3
G0 Z4
Z-8.2
G1 Z-10.6 F333.3
G0 Z4
Z-8.6
G1 Z-11 F333.3
G0 Z4
Z-9
G1 Z-11.4 F333.3
G0 Z4
Z-9.4
G1 Z-11.8 F333.3
G0 Z4
Z-9.8
G1 Z-12.2 F333.3
G0 Z4
Z-10.2
G1 Z-12.6 F333.3
G0 Z4
Z-10.6
G1 Z-13 F333.3
G0 Z4
Z-11
G1 Z-13.4 F333.3
G0 Z4
Z-11.4
G1 Z-13.8 F333.3
G0 Z4
Z-11.8
G1 Z-14 F333.3
G0 Z5
X7.861 Y53.213
Z4
Z1
G1 Z-1.4 F333.3
G0 Z4
Z0.6
G1 Z-1.8 F333.3
G0 Z4
Z0.2
G1 Z-2.2 F333.3
G0 Z4
Z-0.2
G1 Z-2.6 F333.3
G0 Z4
Z-0.6
G1 Z-3 F333.3
G0 Z4
Z-1
G1 Z-3.4 F333.3
G0 Z4
Z-1.4
G1 Z-3.8 F333.3
G0 Z4
Z-1.8
G1 Z-4.2 F333.3
G0 Z4
Z-2.2
G1 Z-4.6 F333.3
G0 Z4
Z-2.6
G1 Z-5 F333.3
G0 Z4
Z-3
G1 Z-5.4 F333.3
G0 Z4
Z-3.4
G1 Z-5.8 F333.3
G0 Z4
Z-3.8
G1 Z-6.2 F333.3
G0 Z4
Z-4.2
G1 Z-6.6 F333.3
G0 Z4
Z-4.6
G1 Z-7 F333.3
G0 Z4
Z-5
G1 Z-7.4 F333.3
G0 Z4
Z-5.4
G1 Z-7.8 F333.3
G0 Z4
Z-5.8
G1 Z-8.2 F333.3
G0 Z4
Z-6.2
G1 Z-8.6 F333.3
G0 Z4
Z-6.6
G1 Z-9 F333.3
G0 Z4
Z-7
G1 Z-9.4 F333.3
G0 Z4
Z-7.4
G1 Z-9.8 F333.3
G0 Z4
Z-7.8
G1 Z-10.2 F333.3
G0 Z4
Z-8.2
G1 Z-10.6 F333.3
G0 Z4
Z-8.6
G1 Z-11 F333.3
G0 Z4
Z-9
G1 Z-11.4 F333.3
G0 Z4
Z-9.4
G1 Z-11.8 F333.3
G0 Z4
Z-9.8
G1 Z-12.2 F333.3
G0 Z4
Z-10.2
G1 Z-12.6 F333.3
G0 Z4
Z-10.6
G1 Z-13 F333.3
G0 Z4
Z-11
G1 Z-13.4 F333.3
G0 Z4
Z-11.4
G1 Z-13.8 F333.3
G0 Z4
Z-11.8
G1 Z-14 F333.3
G0 Z5
X5.387 Y65.65
Z4
Z1
G1 Z-1.4 F333.3
G0 Z4
Z0.6
G1 Z-1.8 F333.3
G0 Z4
Z0.2
G1 Z-2.2 F333.3
G0 Z4
Z-0.2
G1 Z-2.6 F333.3
G0 Z4
Z-0.6
G1 Z-3 F333.3
G0 Z4
Z-1
G1 Z-3.4 F333.3
G0 Z4
Z-1.4
G1 Z-3.8 F333.3
G0 Z4
Z-1.8
G1 Z-4.2 F333.3
G0 Z4
Z-2.2
G1 Z-4.6 F333.3
G0 Z4
Z-2.6
G1 Z-5 F333.3
G0 Z4
Z-3
G1 Z-5.4 F333.3
G0 Z4
Z-3.4
G1 Z-5.8 F333.3
G0 Z4
Z-3.8
G1 Z-6.2 F333.3
G0 Z4
Z-4.2
G1 Z-6.6 F333.3
G0 Z4
Z-4.6
G1 Z-7 F333.3
G0 Z4
Z-5
G1 Z-7.4 F333.3
G0 Z4
Z-5.4
G1 Z-7.8 F333.3
G0 Z4
Z-5.8
G1 Z-8.2 F333.3
G0 Z4
Z-6.2
G1 Z-8.6 F333.3
G0 Z4
Z-6.6
G1 Z-9 F333.3
G0 Z4
Z-7
G1 Z-9.4 F333.3
G0 Z4
Z-7.4
G1 Z-9.8 F333.3
G0 Z4
Z-7.8
G1 Z-10.2 F333.3
G0 Z4
Z-8.2
G1 Z-10.6 F333.3
G0 Z4
Z-8.6
G1 Z-11 F333.3
G0 Z4
Z-9
G1 Z-11.4 F333.3
G0 Z4
Z-9.4
G1 Z-11.8 F333.3
G0 Z4
Z-9.8
G1 Z-12.2 F333.3
G0 Z4
Z-10.2
G1 Z-12.6 F333.3
G0 Z4
Z-10.6
G1 Z-13 F333.3
G0 Z4
Z-11
G1 Z-13.4 F333.3
G0 Z4
Z-11.4
G1 Z-13.8 F333.3
G0 Z4
Z-11.8
G1 Z-14 F333.3
G0 Z5
X7.861 Y78.087
Z4
Z1
G1 Z-1.4 F333.3
G0 Z4
Z0.6
G1 Z-1.8 F333.3
G0 Z4
Z0.2
G1 Z-2.2 F333.3
G0 Z4
Z-0.2
G1 Z-2.6 F333.3
G0 Z4
Z-0.6
G1 Z-3 F333.3
G0 Z4
Z-1
G1 Z-3.4 F333.3
G0 Z4
Z-1.4
G1 Z-3.8 F333.3
G0 Z4
Z-1.8
G1 Z-4.2 F333.3
G0 Z4
Z-2.2
G1 Z-4.6 F333.3
G0 Z4
Z-2.6
G1 Z-5 F333.3
G0 Z4
Z-3
G1 Z-5.4 F333.3
G0 Z4
Z-3.4
G1 Z-5.8 F333.3
G0 Z4
Z-3.8
G1 Z-6.2 F333.3
G0 Z4
Z-4.2
G1 Z-6.6 F333.3
G0 Z4
Z-4.6
G1 Z-7 F333.3
G0 Z4
Z-5
G1 Z-7.4 F333.3
G0 Z4
Z-5.4
G1 Z-7.8 F333.3
G0 Z4
Z-5.8
G1 Z-8.2 F333.3
G0 Z4
Z-6.2
G1 Z-8.6 F333.3
G0 Z4
Z-6.6
G1 Z-9 F333.3
G0 Z4
Z-7
G1 Z-9.4 F333.3
G0 Z4
Z-7.4
G1 Z-9.8 F333.3
G0 Z4
Z-7.8
G1 Z-10.2 F333.3
G0 Z4
Z-8.2
G1 Z-10.6 F333.3
G0 Z4
Z-8.6
G1 Z-11 F333.3
G0 Z4
Z-9
G1 Z-11.4 F333.3
G0 Z4
Z-9.4
G1 Z-11.8 F333.3
G0 Z4
Z-9.8
G1 Z-12.2 F333.3
G0 Z4
Z-10.2
G1 Z-12.6 F333.3
G0 Z4
Z-10.6
G1 Z-13 F333.3
G0 Z4
Z-11
G1 Z-13.4 F333.3
G0 Z4
Z-11.4
G1 Z-13.8 F333.3
G0 Z4
Z-11.8
G1 Z-14 F333.3
G0 Z5
X14.288 Y89.2
Z4
Z1
G1 Z-1.4 F333.3
G0 Z4
Z0.6
G1 Z-1.8 F333.3
G0 Z4
Z0.2
G1 Z-2.2 F333.3
G0 Z4
Z-0.2
G1 Z-2.6 F333.3
G0 Z4
Z-0.6
G1 Z-3 F333.3
G0 Z4
Z-1
G1 Z-3.4 F333.3
G0 Z4
Z-1.4
G1 Z-3.8 F333.3
G0 Z4
Z-1.8
G1 Z-4.2 F333.3
G0 Z4
Z-2.2
G1 Z-4.6 F333.3
G0 Z4
Z-2.6
G1 Z-5 F333.3
G0 Z4
Z-3
G1 Z-5.4 F333.3
G0 Z4
Z-3.4
G1 Z-5.8 F333.3
G0 Z4
Z-3.8
G1 Z-6.2 F333.3
G0 Z4
Z-4.2
G1 Z-6.6 F333.3
G0 Z4
Z-4.6
G1 Z-7 F333.3
G0 Z4
Z-5
G1 Z-7.4 F333.3
G0 Z4
Z-5.4
G1 Z-7.8 F333.3
G0 Z4
Z-5.8
G1 Z-8.2 F333.3
G0 Z4
Z-6.2
G1 Z-8.6 F333.3
G0 Z4
Z-6.6
G1 Z-9 F333.3
G0 Z4
Z-7
G1 Z-9.4 F333.3
G0 Z4
Z-7.4
G1 Z-9.8 F333.3
G0 Z4
Z-7.8
G1 Z-10.2 F333.3
G0 Z4
Z-8.2
G1 Z-10.6 F333.3
G0 Z4
Z-8.6
G1 Z-11 F333.3
G0 Z4
Z-9
G1 Z-11.4 F333.3
G0 Z4
Z-9.4
G1 Z-11.8 F333.3
G0 Z4
Z-9.8
G1 Z-12.2 F333.3
G0 Z4
Z-10.2
G1 Z-12.6 F333.3
G0 Z4
Z-10.6
G1 Z-13 F333.3
G0 Z4
Z-11
G1 Z-13.4 F333.3
G0 Z4
Z-11.4
G1 Z-13.8 F333.3
G0 Z4
Z-11.8
G1 Z-14 F333.3
G0 Z5
X25.45 Y95.676
Z4
Z1
G1 Z-1.4 F333.3
G0 Z4
Z0.6
G1 Z-1.8 F333.3
G0 Z4
Z0.2
G1 Z-2.2 F333.3
G0 Z4
Z-0.2
G1 Z-2.6 F333.3
G0 Z4
Z-0.6
G1 Z-3 F333.3
G0 Z4
Z-1
G1 Z-3.4 F333.3
G0 Z4
Z-1.4
G1 Z-3.8 F333.3
G0 Z4
Z-1.8
G1 Z-4.2 F333.3
G0 Z4
Z-2.2
G1 Z-4.6 F333.3
G0 Z4
Z-2.6
G1 Z-5 F333.3
G0 Z4
Z-3
G1 Z-5.4 F333.3
G0 Z4
Z-3.4
G1 Z-5.8 F333.3
G0 Z4
Z-3.8
G1 Z-6.2 F333.3
G0 Z4
Z-4.2
G1 Z-6.6 F333.3
G0 Z4
Z-4.6
G1 Z-7 F333.3
G0 Z4
Z-5
G1 Z-7.4 F333.3
G0 Z4
Z-5.4
G1 Z-7.8 F333.3
G0 Z4
Z-5.8
G1 Z-8.2 F333.3
G0 Z4
Z-6.2
G1 Z-8.6 F333.3
G0 Z4
Z-6.6
G1 Z-9 F333.3
G0 Z4
Z-7
G1 Z-9.4 F333.3
G0 Z4
Z-7.4
G1 Z-9.8 F333.3
G0 Z4
Z-7.8
G1 Z-10.2 F333.3
G0 Z4
Z-8.2
G1 Z-10.6 F333.3
G0 Z4
Z-8.6
G1 Z-11 F333.3
G0 Z4
Z-9
G1 Z-11.4 F333.3
G0 Z4
Z-9.4
G1 Z-11.8 F333.3
G0 Z4
Z-9.8
G1 Z-12.2 F333.3
G0 Z4
Z-10.2
G1 Z-12.6 F333.3
G0 Z4
Z-10.6
G1 Z-13 F333.3
G0 Z4
Z-11
G1 Z-13.4 F333.3
G0 Z4
Z-11.4
G1 Z-13.8 F333.3
G0 Z4
Z-11.8
G1 Z-14 F333.3
G0 Z5
X37.887 Y98.15
Z4
Z1
G1 Z-1.4 F333.3
G0 Z4
Z0.6
G1 Z-1.8 F333.3
G0 Z4
Z0.2
G1 Z-2.2 F333.3
G0 Z4
Z-0.2
G1 Z-2.6 F333.3
G0 Z4
Z-0.6
G1 Z-3 F333.3
G0 Z4
Z-1
G1 Z-3.4 F333.3
G0 Z4
Z-1.4
G1 Z-3.8 F333.3
G0 Z4
Z-1.8
G1 Z-4.2 F333.3
G0 Z4
Z-2.2
G1 Z-4.6 F333.3
G0 Z4
Z-2.6
G1 Z-5 F333.3
G0 Z4
Z-3
G1 Z-5.4 F333.3
G0 Z4
Z-3.4
G1 Z-5.8 F333.3
G0 Z4
Z-3.8
G1 Z-6.2 F333.3
G0 Z4
Z-4.2
G1 Z-6.6 F333.3
G0 Z4
Z-4.6
G1 Z-7 F333.3
G0 Z4
Z-5
G1 Z-7.4 F333.3
G0 Z4
Z-5.4
G1 Z-7.8 F333.3
G0 Z4
Z-5.8
G1 Z-8.2 F333.3
G0 Z4
Z-6.2
G1 Z-8.6 F333.3
G0 Z4
Z-6.6
G1 Z-9 F333.3
G0 Z4
Z-7
G1 Z-9.4 F333.3
G0 Z4
Z-7.4
G1 Z-9.8 F333.3
G0 Z4
Z-7.8
G1 Z-10.2 F333.3
G0 Z4
Z-8.2
G1 Z-10.6 F333.3
G0 Z4
Z-8.6
G1 Z-11 F333.3
G0 Z4
Z-9
G1 Z-11.4 F333.3
G0 Z4
Z-9.4
G1 Z-11.8 F333.3
G0 Z4
Z-9.8
G1 Z-12.2 F333.3
G0 Z4
Z-10.2
G1 Z-12.6 F333.3
G0 Z4
Z-10.6
G1 Z-13 F333.3
G0 Z4
Z-11
G1 Z-13.4 F333.3
G0 Z4
Z-11.4
G1 Z-13.8 F333.3
G0 Z4
Z-11.8
G1 Z-14 F333.3
G0 Z5
X50.325 Y95.676
Z4
Z1
G1 Z-1.4 F333.3
G0 Z4
Z0.6
G1 Z-1.8 F333.3
G0 Z4
Z0.2
G1 Z-2.2 F333.3
G0 Z4
Z-0.2
G1 Z-2.6 F333.3
G0 Z4
Z-0.6
G1 Z-3 F333.3
G0 Z4
Z-1
G1 Z-3.4 F333.3
G0 Z4
Z-1.4
G1 Z-3.8 F333.3
G0 Z4
Z-1.8
G1 Z-4.2 F333.3
G0 Z4
Z-2.2
G1 Z-4.6 F333.3
G0 Z4
Z-2.6
G1 Z-5 F333.3
G0 Z4
Z-3
G1 Z-5.4 F333.3
G0 Z4
Z-3.4
G1 Z-5.8 F333.3
G0 Z4
Z-3.8
G1 Z-6.2 F333.3
G0 Z4
Z-4.2
G1 Z-6.6 F333.3
G0 Z4
Z-4.6
G1 Z-7 F333.3
G0 Z4
Z-5
G1 Z-7.4 F333.3
G0 Z4
Z-5.4
G1 Z-7.8 F333.3
G0 Z4
Z-5.8
G1 Z-8.2 F333.3
G0 Z4
Z-6.2
G1 Z-8.6 F333.3
G0 Z4
Z-6.6
G1 Z-9 F333.3
G0 Z4
Z-7
G1 Z-9.4 F333.3
G0 Z4
Z-7.4
G1 Z-9.8 F333.3
G0 Z4
Z-7.8
G1 Z-10.2 F333.3
G0 Z4
Z-8.2
G1 Z-10.6 F333.3
G0 Z4
Z-8.6
G1 Z-11 F333.3
G0 Z4
Z-9
G1 Z-11.4 F333.3
G0 Z4
Z-9.4
G1 Z-11.8 F333.3
G0 Z4
Z-9.8
G1 Z-12.2 F333.3
G0 Z4
Z-10.2
G1 Z-12.6 F333.3
G0 Z4
Z-10.6
G1 Z-13 F333.3
G0 Z4
Z-11
G1 Z-13.4 F333.3
G0 Z4
Z-11.4
G1 Z-13.8 F333.3
G0 Z4
Z-11.8
G1 Z-14 F333.3
G0 Z5
X61.288 Y89.2
Z4
Z1
G1 Z-1.4 F333.3
G0 Z4
Z0.6
G1 Z-1.8 F333.3
G0 Z4
Z0.2
G1 Z-2.2 F333.3
G0 Z4
Z-0.2
G1 Z-2.6 F333.3
G0 Z4
Z-0.6
G1 Z-3 F333.3
G0 Z4
Z-1
G1 Z-3.4 F333.3
G0 Z4
Z-1.4
G1 Z-3.8 F333.3
G0 Z4
Z-1.8
G1 Z-4.2 F333.3
G0 Z4
Z-2.2
G1 Z-4.6 F333.3
G0 Z4
Z-2.6
G1 Z-5 F333.3
G0 Z4
Z-3
G1 Z-5.4 F333.3
G0 Z4
Z-3.4
G1 Z-5.8 F333.3
G0 Z4
Z-3.8
G1 Z-6.2 F333.3
G0 Z4
Z-4.2
G1 Z-6.6 F333.3
G0 Z4
Z-4.6
G1 Z-7 F333.3
G0 Z4
Z-5
G1 Z-7.4 F333.3
G0 Z4
Z-5.4
G1 Z-7.8 F333.3
G0 Z4
Z-5.8
G1 Z-8.2 F333.3
G0 Z4
Z-6.2
G1 Z-8.6 F333.3
G0 Z4
Z-6.6
G1 Z-9 F333.3
G0 Z4
Z-7
G1 Z-9.4 F333.3
G0 Z4
Z-7.4
G1 Z-9.8 F333.3
G0 Z4
Z-7.8
G1 Z-10.2 F333.3
G0 Z4
Z-8.2
G1 Z-10.6 F333.3
G0 Z4
Z-8.6
G1 Z-11 F333.3
G0 Z4
Z-9
G1 Z-11.4 F333.3
G0 Z4
Z-9.4
G1 Z-11.8 F333.3
G0 Z4
Z-9.8
G1 Z-12.2 F333.3
G0 Z4
Z-10.2
G1 Z-12.6 F333.3
G0 Z4
Z-10.6
G1 Z-13 F333.3
G0 Z4
Z-11
G1 Z-13.4 F333.3
G0 Z4
Z-11.4
G1 Z-13.8 F333.3
G0 Z4
Z-11.8
G1 Z-14 F333.3
G0 Z5
X67.913 Y78.087
Z4
Z1
G1 Z-1.4 F333.3
G0 Z4
Z0.6
G1 Z-1.8 F333.3
G0 Z4
Z0.2
G1 Z-2.2 F333.3
G0 Z4
Z-0.2
G1 Z-2.6 F333.3
G0 Z4
Z-0.6
G1 Z-3 F333.3
G0 Z4
Z-1
G1 Z-3.4 F333.3
G0 Z4
Z-1.4
G1 Z-3.8 F333.3
G0 Z4
Z-1.8
G1 Z-4.2 F333.3
G0 Z4
Z-2.2
G1 Z-4.6 F333.3
G0 Z4
Z-2.6
G1 Z-5 F333.3
G0 Z4
Z-3
G1 Z-5.4 F333.3
G0 Z4
Z-3.4
G1 Z-5.8 F333.3
G0 Z4
Z-3.8
G1 Z-6.2 F333.3
G0 Z4
Z-4.2
G1 Z-6.6 F333.3
G0 Z4
Z-4.6
G1 Z-7 F333.3
G0 Z4
Z-5
G1 Z-7.4 F333.3
G0 Z4
Z-5.4
G1 Z-7.8 F333.3
G0 Z4
Z-5.8
G1 Z-8.2 F333.3
G0 Z4
Z-6.2
G1 Z-8.6 F333.3
G0 Z4
Z-6.6
G1 Z-9 F333.3
G0 Z4
Z-7
G1 Z-9.4 F333.3
G0 Z4
Z-7.4
G1 Z-9.8 F333.3
G0 Z4
Z-7.8
G1 Z-10.2 F333.3
G0 Z4
Z-8.2
G1 Z-10.6 F333.3
G0 Z4
Z-8.6
G1 Z-11 F333.3
G0 Z4
Z-9
G1 Z-11.4 F333.3
G0 Z4
Z-9.4
G1 Z-11.8 F333.3
G0 Z4
Z-9.8
G1 Z-12.2 F333.3
G0 Z4
Z-10.2
G1 Z-12.6 F333.3
G0 Z4
Z-10.6
G1 Z-13 F333.3
G0 Z4
Z-11
G1 Z-13.4 F333.3
G0 Z4
Z-11.4
G1 Z-13.8 F333.3
G0 Z4
Z-11.8
G1 Z-14 F333.3
G0 Z5
X70.387 Y65.65
Z4
Z1
G1 Z-1.4 F333.3
G0 Z4
Z0.6
G1 Z-1.8 F333.3
G0 Z4
Z0.2
G1 Z-2.2 F333.3
G0 Z4
Z-0.2
G1 Z-2.6 F333.3
G0 Z4
Z-0.6
G1 Z-3 F333.3
G0 Z4
Z-1
G1 Z-3.4 F333.3
G0 Z4
Z-1.4
G1 Z-3.8 F333.3
G0 Z4
Z-1.8
G1 Z-4.2 F333.3
G0 Z4
Z-2.2
G1 Z-4.6 F333.3
G0 Z4
Z-2.6
G1 Z-5 F333.3
G0 Z4
Z-3
G1 Z-5.4 F333.3
G0 Z4
Z-3.4
G1 Z-5.8 F333.3
G0 Z4
Z-3.8
G1 Z-6.2 F333.3
G0 Z4
Z-4.2
G1 Z-6.6 F333.3
G0 Z4
Z-4.6
G1 Z-7 F333.3
G0 Z4
Z-5
G1 Z-7.4 F333.3
G0 Z4
Z-5.4
G1 Z-7.8 F333.3
G0 Z4
Z-5.8
G1 Z-8.2 F333.3
G0 Z4
Z-6.2
G1 Z-8.6 F333.3
G0 Z4
Z-6.6
G1 Z-9 F333.3
G0 Z4
Z-7
G1 Z-9.4 F333.3
G0 Z4
Z-7.4
G1 Z-9.8 F333.3
G0 Z4
Z-7.8
G1 Z-10.2 F333.3
G0 Z4
Z-8.2
G1 Z-10.6 F333.3
G0 Z4
Z-8.6
G1 Z-11 F333.3
G0 Z4
Z-9
G1 Z-11.4 F333.3
G0 Z4
Z-9.4
G1 Z-11.8 F333.3
G0 Z4
Z-9.8
G1 Z-12.2 F333.3
G0 Z4
Z-10.2
G1 Z-12.6 F333.3
G0 Z4
Z-10.6
G1 Z-13 F333.3
G0 Z4
Z-11
G1 Z-13.4 F333.3
G0 Z4
Z-11.4
G1 Z-13.8 F333.3
G0 Z4
Z-11.8
G1 Z-14 F333.3
G0 Z5
X67.913 Y53.213
Z4
Z1
G1 Z-1.4 F333.3
G0 Z4
Z0.6
G1 Z-1.8 F333.3
G0 Z4
Z0.2
G1 Z-2.2 F333.3
G0 Z4
Z-0.2
G1 Z-2.6 F333.3
G0 Z4
Z-0.6
G1 Z-3 F333.3
G0 Z4
Z-1
G1 Z-3.4 F333.3
G0 Z4
Z-1.4
G1 Z-3.8 F333.3
G0 Z4
Z-1.8
G1 Z-4.2 F333.3
G0 Z4
Z-2.2
G1 Z-4.6 F333.3
G0 Z4
Z-2.6
G1 Z-5 F333.3
G0 Z4
Z-3
G1 Z-5.4 F333.3
G0 Z4
Z-3.4
G1 Z-5.8 F333.3
G0 Z4
Z-3.8
G1 Z-6.2 F333.3
G0 Z4
Z-4.2
G1 Z-6.6 F333.3
G0 Z4
Z-4.6
G1 Z-7 F333.3
G0 Z4
Z-5
G1 Z-7.4 F333.3
G0 Z4
Z-5.4
G1 Z-7.8 F333.3
G0 Z4
Z-5.8
G1 Z-8.2 F333.3
G0 Z4
Z-6.2
G1 Z-8.6 F333.3
G0 Z4
Z-6.6
G1 Z-9 F333.3
G0 Z4
Z-7
G1 Z-9.4 F333.3
G0 Z4
Z-7.4
G1 Z-9.8 F333.3
G0 Z4
Z-7.8
G1 Z-10.2 F333.3
G0 Z4
Z-8.2
G1 Z-10.6 F333.3
G0 Z4
Z-8.6
G1 Z-11 F333.3
G0 Z4
Z-9
G1 Z-11.4 F333.3
G0 Z4
Z-9.4
G1 Z-11.8 F333.3
G0 Z4
Z-9.8
G1 Z-12.2 F333.3
G0 Z4
Z-10.2
G1 Z-12.6 F333.3
G0 Z4
Z-10.6
G1 Z-13 F333.3
G0 Z4
Z-11
G1 Z-13.4 F333.3
G0 Z4
Z-11.4
G1 Z-13.8 F333.3
G0 Z4
Z-11.8
G1 Z-14 F333.3
G0 Z5
X61.288 Y42.2
Z4
Z1
G1 Z-1.4 F333.3
G0 Z4
Z0.6
G1 Z-1.8 F333.3
G0 Z4
Z0.2
G1 Z-2.2 F333.3
G0 Z4
Z-0.2
G1 Z-2.6 F333.3
G0 Z4
Z-0.6
G1 Z-3 F333.3
G0 Z4
Z-1
G1 Z-3.4 F333.3
G0 Z4
Z-1.4
G1 Z-3.8 F333.3
G0 Z4
Z-1.8
G1 Z-4.2 F333.3
G0 Z4
Z-2.2
G1 Z-4.6 F333.3
G0 Z4
Z-2.6
G1 Z-5 F333.3
G0 Z4
Z-3
G1 Z-5.4 F333.3
G0 Z4
Z-3.4
G1 Z-5.8 F333.3
G0 Z4
Z-3.8
G1 Z-6.2 F333.3
G0 Z4
Z-4.2
G1 Z-6.6 F333.3
G0 Z4
Z-4.6
G1 Z-7 F333.3
G0 Z4
Z-5
G1 Z-7.4 F333.3
G0 Z4
Z-5.4
G1 Z-7.8 F333.3
G0 Z4
Z-5.8
G1 Z-8.2 F333.3
G0 Z4
Z-6.2
G1 Z-8.6 F333.3
G0 Z4
Z-6.6
G1 Z-9 F333.3
G0 Z4
Z-7
G1 Z-9.4 F333.3
G0 Z4
Z-7.4
G1 Z-9.8 F333.3
G0 Z4
Z-7.8
G1 Z-10.2 F333.3
G0 Z4
Z-8.2
G1 Z-10.6 F333.3
G0 Z4
Z-8.6
G1 Z-11 F333.3
G0 Z4
Z-9
G1 Z-11.4 F333.3
G0 Z4
Z-9.4
G1 Z-11.8 F333.3
G0 Z4
Z-9.8
G1 Z-12.2 F333.3
G0 Z4
Z-10.2
G1 Z-12.6 F333.3
G0 Z4
Z-10.6
G1 Z-13 F333.3
G0 Z4
Z-11
G1 Z-13.4 F333.3
G0 Z4
Z-11.4
G1 Z-13.8 F333.3
G0 Z4
Z-11.8
G1 Z-14 F333.3
G0 Z5
X37.887 Y33.15
Z4
Z1
G1 Z-1.4 F333.3
G0 Z4
Z0.6
G1 Z-1.8 F333.3
G0 Z4
Z0.2
G1 Z-2.2 F333.3
G0 Z4
Z-0.2
G1 Z-2.6 F333.3
G0 Z4
Z-0.6
G1 Z-3 F333.3
G0 Z4
Z-1
G1 Z-3.4 F333.3
G0 Z4
Z-1.4
G1 Z-3.8 F333.3
G0 Z4
Z-1.8
G1 Z-4.2 F333.3
G0 Z4
Z-2.2
G1 Z-4.6 F333.3
G0 Z4
Z-2.6
G1 Z-5 F333.3
G0 Z4
Z-3
G1 Z-5.4 F333.3
G0 Z4
Z-3.4
G1 Z-5.8 F333.3
G0 Z4
Z-3.8
G1 Z-6.2 F333.3
G0 Z4
Z-4.2
G1 Z-6.6 F333.3
G0 Z4
Z-4.6
G1 Z-7 F333.3
G0 Z4
Z-5
G1 Z-7.4 F333.3
G0 Z4
Z-5.4
G1 Z-7.8 F333.3
G0 Z4
Z-5.8
G1 Z-8.2 F333.3
G0 Z4
Z-6.2
G1 Z-8.6 F333.3
G0 Z4
Z-6.6
G1 Z-9 F333.3
G0 Z4
Z-7
G1 Z-9.4 F333.3
G0 Z4
Z-7.4
G1 Z-9.8 F333.3
G0 Z4
Z-7.8
G1 Z-10.2 F333.3
G0 Z4
Z-8.2
G1 Z-10.6 F333.3
G0 Z4
Z-8.6
G1 Z-11 F333.3
G0 Z4
Z-9
G1 Z-11.4 F333.3
G0 Z4
Z-9.4
G1 Z-11.8 F333.3
G0 Z4
Z-9.8
G1 Z-12.2 F333.3
G0 Z4
Z-10.2
G1 Z-12.6 F333.3
G0 Z4
Z-10.6
G1 Z-13 F333.3
G0 Z4
Z-11
G1 Z-13.4 F333.3
G0 Z4
Z-11.4
G1 Z-13.8 F333.3
G0 Z4
Z-11.8
G1 Z-14 F333.3
G0 Z5
Z15
(When using Fusion for Personal Use, the feedrate of rapid)
(moves is reduced to match the feedrate of cutting moves,)
(which can increase machining time. Unrestricted rapid moves)
(are available with a Fusion Subscription.)

(2D Contour7)
G0 X53.065 Y65.015
G1 Z15 F300
Z5
Z1 F333.3
Z0.235
G18 G2 X53.7 Z-0.4 I0.635 K0 F300
G1 X54.335
G17 G3 X54.97 Y65.65 I0 J0.635
X20.804 Y65.65 I-17.083 J0
X54.97 Y65.65 I17.083 J0
X54.335 Y66.285 I-0.635 J0
G1 X53.7
G18 G3 X53.065 Z0.235 I0 K0.635
G1 Z5
Y65.015
Z3.07 F333.3
Z-0.165
G2 X53.7 Z-0.8 I0.635 K0 F300
G1 X54.335
G17 G3 X54.97 Y65.65 I0 J0.635
X20.804 Y65.65 I-17.083 J0
X54.97 Y65.65 I17.083 J0
X54.335 Y66.285 I-0.635 J0
G1 X53.7
G18 G3 X53.065 Z-0.165 I0 K0.635
G1 Z5
Y65.015
Z2.67 F333.3
Z-0.565
G2 X53.7 Z-1.2 I0.635 K0 F300
G1 X54.335
G17 G3 X54.97 Y65.65 I0 J0.635
X20.804 Y65.65 I-17.083 J0
X54.97 Y65.65 I17.083 J0
X54.335 Y66.285 I-0.635 J0
G1 X53.7
G18 G3 X53.065 Z-0.565 I0 K0.635
G1 Z5
Y65.015
Z2.27 F333.3
Z-0.965
G2 X53.7 Z-1.6 I0.635 K0 F300
G1 X54.335
G17 G3 X54.97 Y65.65 I0 J0.635
X20.804 Y65.65 I-17.083 J0
X54.97 Y65.65 I17.083 J0
X54.335 Y66.285 I-0.635 J0
G1 X53.7
G18 G3 X53.065 Z-0.965 I0 K0.635
G1 Z5
Y65.015
Z1.87 F333.3
Z-1.365
G2 X53.7 Z-2 I0.635 K0 F300
G1 X54.335
G17 G3 X54.97 Y65.65 I0 J0.635
X20.804 Y65.65 I-17.083 J0
X54.97 Y65.65 I17.083 J0
X54.335 Y66.285 I-0.635 J0
G1 X53.7
G18 G3 X53.065 Z-1.365 I0 K0.635
G1 Z5
Y65.015
Z1.47 F333.3
Z-1.765
G2 X53.7 Z-2.4 I0.635 K0 F300
G1 X54.335
G17 G3 X54.97 Y65.65 I0 J0.635
X20.804 Y65.65 I-17.083 J0
X54.97 Y65.65 I17.083 J0
X54.335 Y66.285 I-0.635 J0
G1 X53.7
G18 G3 X53.065 Z-1.765 I0 K0.635
G1 Z5
Y65.015
Z1.07 F333.3
Z-2.165
G2 X53.7 Z-2.8 I0.635 K0 F300
G1 X54.335
G17 G3 X54.97 Y65.65 I0 J0.635
X20.804 Y65.65 I-17.083 J0
X54.97 Y65.65 I17.083 J0
X54.335 Y66.285 I-0.635 J0
G1 X53.7
G18 G3 X53.065 Z-2.165 I0 K0.635
G1 Z5
Y65.015
Z0.67 F333.3
Z-2.565
G2 X53.7 Z-3.2 I0.635 K0 F300
G1 X54.335
G17 G3 X54.97 Y65.65 I0 J0.635
X20.804 Y65.65 I-17.083 J0
X54.97 Y65.65 I17.083 J0
X54.335 Y66.285 I-0.635 J0
G1 X53.7
G18 G3 X53.065 Z-2.565 I0 K0.635
G1 Z5
Y65.015
Z0.27 F333.3
Z-2.965
G2 X53.7 Z-3.6 I0.635 K0 F300
G1 X54.335
G17 G3 X54.97 Y65.65 I0 J0.635
X20.804 Y65.65 I-17.083 J0
X54.97 Y65.65 I17.083 J0
X54.335 Y66.285 I-0.635 J0
G1 X53.7
G18 G3 X53.065 Z-2.965 I0 K0.635
G1 Z5
Y65.015
Z-0.13 F333.3
Z-3.365
G2 X53.7 Z-4 I0.635 K0 F300
G1 X54.335
G17 G3 X54.97 Y65.65 I0 J0.635
X20.804 Y65.65 I-17.083 J0
X54.97 Y65.65 I17.083 J0
X54.335 Y66.285 I-0.635 J0
G1 X53.7
G18 G3 X53.065 Z-3.365 I0 K0.635
G1 Z5
Y65.015
Z-0.53 F333.3
Z-3.765
G2 X53.7 Z-4.4 I0.635 K0 F300
G1 X54.335
G17 G3 X54.97 Y65.65 I0 J0.635
X20.804 Y65.65 I-17.083 J0
X54.97 Y65.65 I17.083 J0
X54.335 Y66.285 I-0.635 J0
G1 X53.7
G18 G3 X53.065 Z-3.765 I0 K0.635
G1 Z5
Y65.015
Z-0.93 F333.3
Z-4.165
G2 X53.7 Z-4.8 I0.635 K0 F300
G1 X54.335
G17 G3 X54.97 Y65.65 I0 J0.635
X20.804 Y65.65 I-17.083 J0
X54.97 Y65.65 I17.083 J0
X54.335 Y66.285 I-0.635 J0
G1 X53.7
G18 G3 X53.065 Z-4.165 I0 K0.635
G1 Z5
Y65.015
Z-1.33 F333.3
Z-4.565
G2 X53.7 Z-5.2 I0.635 K0 F300
G1 X54.335
G17 G3 X54.97 Y65.65 I0 J0.635
X20.804 Y65.65 I-17.083 J0
X54.97 Y65.65 I17.083 J0
X54.335 Y66.285 I-0.635 J0
G1 X53.7
G18 G3 X53.065 Z-4.565 I0 K0.635
G1 Z5
Y65.015
Z-1.73 F333.3
Z-4.965
G2 X53.7 Z-5.6 I0.635 K0 F300
G1 X54.335
G17 G3 X54.97 Y65.65 I0 J0.635
X20.804 Y65.65 I-17.083 J0
X54.97 Y65.65 I17.083 J0
X54.335 Y66.285 I-0.635 J0
G1 X53.7
G18 G3 X53.065 Z-4.965 I0 K0.635
G1 Z5
Y65.015
Z-2.13 F333.3
Z-5.365
G2 X53.7 Z-6 I0.635 K0 F300
G1 X54.335
G17 G3 X54.97 Y65.65 I0 J0.635
X20.804 Y65.65 I-17.083 J0
X54.97 Y65.65 I17.083 J0
X54.335 Y66.285 I-0.635 J0
G1 X53.7
G18 G3 X53.065 Z-5.365 I0 K0.635
G1 Z5
Y65.015
Z-2.53 F333.3
Z-5.765
G2 X53.7 Z-6.4 I0.635 K0 F300
G1 X54.335
G17 G3 X54.97 Y65.65 I0 J0.635
X20.804 Y65.65 I-17.083 J0
X54.97 Y65.65 I17.083 J0
X54.335 Y66.285 I-0.635 J0
G1 X53.7
G18 G3 X53.065 Z-5.765 I0 K0.635
G1 Z5
Y65.015
Z-2.93 F333.3
Z-6.165
G2 X53.7 Z-6.8 I0.635 K0 F300
G1 X54.335
G17 G3 X54.97 Y65.65 I0 J0.635
X20.804 Y65.65 I-17.083 J0
X54.97 Y65.65 I17.083 J0
X54.335 Y66.285 I-0.635 J0
G1 X53.7
G18 G3 X53.065 Z-6.165 I0 K0.635
G1 Z5
Y65.015
Z-3.33 F333.3
Z-6.565
G2 X53.7 Z-7.2 I0.635 K0 F300
G1 X54.335
G17 G3 X54.97 Y65.65 I0 J0.635
X20.804 Y65.65 I-17.083 J0
X54.97 Y65.65 I17.083 J0
X54.335 Y66.285 I-0.635 J0
G1 X53.7
G18 G3 X53.065 Z-6.565 I0 K0.635
G1 Z5
Y65.015
Z-3.73 F333.3
Z-6.965
G2 X53.7 Z-7.6 I0.635 K0 F300
G1 X54.335
G17 G3 X54.97 Y65.65 I0 J0.635
X20.804 Y65.65 I-17.083 J0
X54.97 Y65.65 I17.083 J0
X54.335 Y66.285 I-0.635 J0
G1 X53.7
G18 G3 X53.065 Z-6.965 I0 K0.635
G1 Z5
Y65.015
Z-4.13 F333.3
Z-7.365
G2 X53.7 Z-8 I0.635 K0 F300
G1 X54.335
G17 G3 X54.97 Y65.65 I0 J0.635
X20.804 Y65.65 I-17.083 J0
X54.97 Y65.65 I17.083 J0
X54.335 Y66.285 I-0.635 J0
G1 X53.7
G18 G3 X53.065 Z-7.365 I0 K0.635
G1 Z5
Y65.015
Z-4.53 F333.3
Z-7.765
G2 X53.7 Z-8.4 I0.635 K0 F300
G1 X54.335
G17 G3 X54.97 Y65.65 I0 J0.635
X20.804 Y65.65 I-17.083 J0
X54.97 Y65.65 I17.083 J0
X54.335 Y66.285 I-0.635 J0
G1 X53.7
G18 G3 X53.065 Z-7.765 I0 K0.635
G1 Z5
Y65.015
Z-4.93 F333.3
Z-8.165
G2 X53.7 Z-8.8 I0.635 K0 F300
G1 X54.335
G17 G3 X54.97 Y65.65 I0 J0.635
X20.804 Y65.65 I-17.083 J0
X54.97 Y65.65 I17.083 J0
X54.335 Y66.285 I-0.635 J0
G1 X53.7
G18 G3 X53.065 Z-8.165 I0 K0.635
G1 Z5
Y65.015
Z-5.33 F333.3
Z-8.565
G2 X53.7 Z-9.2 I0.635 K0 F300
G1 X54.335
G17 G3 X54.97 Y65.65 I0 J0.635
X20.804 Y65.65 I-17.083 J0
X54.97 Y65.65 I17.083 J0
X54.335 Y66.285 I-0.635 J0
G1 X53.7
G18 G3 X53.065 Z-8.565 I0 K0.635
G1 Z5
Y65.015
Z-5.73 F333.3
Z-8.965
G2 X53.7 Z-9.6 I0.635 K0 F300
G1 X54.335
G17 G3 X54.97 Y65.65 I0 J0.635
X20.804 Y65.65 I-17.083 J0
X54.97 Y65.65 I17.083 J0
X54.335 Y66.285 I-0.635 J0
G1 X53.7
G18 G3 X53.065 Z-8.965 I0 K0.635
G1 Z5
Y65.015
Z-6.13 F333.3
Z-9.365
G2 X53.7 Z-10 I0.635 K0 F300
G1 X54.335
G17 G3 X54.97 Y65.65 I0 J0.635
X20.804 Y65.65 I-17.083 J0
X54.97 Y65.65 I17.083 J0
X54.335 Y66.285 I-0.635 J0
G1 X53.7
G18 G3 X53.065 Z-9.365 I0 K0.635
G1 Z5
Y65.015
Z-6.53 F333.3
Z-9.765
G2 X53.7 Z-10.4 I0.635 K0 F300
G1 X54.335
G17 G3 X54.97 Y65.65 I0 J0.635
X20.804 Y65.65 I-17.083 J0
X54.97 Y65.65 I17.083 J0
X54.335 Y66.285 I-0.635 J0
G1 X53.7
G18 G3 X53.065 Z-9.765 I0 K0.635
G1 Z5
Y65.015
Z-6.93 F333.3
Z-10.165
G2 X53.7 Z-10.8 I0.635 K0 F300
G1 X54.335
G17 G3 X54.97 Y65.65 I0 J0.635
X20.804 Y65.65 I-17.083 J0
X54.97 Y65.65 I17.083 J0
X54.335 Y66.285 I-0.635 J0
G1 X53.7
G18 G3 X53.065 Z-10.165 I0 K0.635
G1 Z5
Y65.015
Z-7.33 F333.3
Z-10.565
G2 X53.7 Z-11.2 I0.635 K0 F300
G1 X54.335
G17 G3 X54.97 Y65.65 I0 J0.635
X20.804 Y65.65 I-17.083 J0
X54.97 Y65.65 I17.083 J0
X54.335 Y66.285 I-0.635 J0
G1 X53.7
G18 G3 X53.065 Z-10.565 I0 K0.635
G1 Z5
Y65.015
Z-7.73 F333.3
Z-10.965
G2 X53.7 Z-11.6 I0.635 K0 F300
G1 X54.335
G17 G3 X54.97 Y65.65 I0 J0.635
X20.804 Y65.65 I-17.083 J0
X54.97 Y65.65 I17.083 J0
X54.335 Y66.285 I-0.635 J0
G1 X53.7
G18 G3 X53.065 Z-10.965 I0 K0.635
G1 Z5
Y65.015
Z-8.13 F333.3
Z-11.365
G2 X53.7 Z-12 I0.635 K0 F300
G1 X54.335
G17 G3 X54.97 Y65.65 I0 J0.635
X20.804 Y65.65 I-17.083 J0
X54.97 Y65.65 I17.083 J0
X54.335 Y66.285 I-0.635 J0
G1 X53.7
G18 G3 X53.065 Z-11.365 I0 K0.635
G1 Z5
Y65.015
Z-8.53 F333.3
Z-11.765
G2 X53.7 Z-12.4 I0.635 K0 F300
G1 X54.335
G17 G3 X54.97 Y65.65 I0 J0.635
X20.804 Y65.65 I-17.083 J0
X54.97 Y65.65 I17.083 J0
X54.335 Y66.285 I-0.635 J0
G1 X53.7
G18 G3 X53.065 Z-11.765 I0 K0.635
G1 Z5
Y65.015
Z-8.93 F333.3
Z-12.165
G2 X53.7 Z-12.8 I0.635 K0 F300
G1 X54.335
G17 G3 X54.97 Y65.65 I0 J0.635
X20.804 Y65.65 I-17.083 J0
X54.97 Y65.65 I17.083 J0
X54.335 Y66.285 I-0.635 J0
G1 X53.7
G18 G3 X53.065 Z-12.165 I0 K0.635
G1 Z5
Y65.015
Z-9.33 F333.3
Z-12.565
G2 X53.7 Z-13.2 I0.635 K0 F300
G1 X54.335
G17 G3 X54.97 Y65.65 I0 J0.635
X20.804 Y65.65 I-17.083 J0
X54.97 Y65.65 I17.083 J0
X54.335 Y66.285 I-0.635 J0
G1 X53.7
G18 G3 X53.065 Z-12.565 I0 K0.635
G1 Z5
Y65.015
Z-9.73 F333.3
Z-12.965
G2 X53.7 Z-13.6 I0.635 K0 F300
G1 X54.335
G17 G3 X54.97 Y65.65 I0 J0.635
X20.804 Y65.65 I-17.083 J0
X54.97 Y65.65 I17.083 J0
X54.335 Y66.285 I-0.635 J0
G1 X53.7
G18 G3 X53.065 Z-12.965 I0 K0.635
G1 Z5
Y65.015
Z-10.13 F333.3
Z-13.365
G2 X53.7 Z-14 I0.635 K0 F300
G1 X54.335
G17 G3 X54.97 Y65.65 I0 J0.635
X20.804 Y65.65 I-17.083 J0
X54.97 Y65.65 I17.083 J0
X54.335 Y66.285 I-0.635 J0
G1 X53.7
G18 G3 X53.065 Z-13.365 I0 K0.635
G1 Z15
G17
(When using Fusion for Personal Use, the feedrate of rapid)
(moves is reduced to match the feedrate of cutting moves,)
(which can increase machining time. Unrestricted rapid moves)
(are available with a Fusion Subscription.)

(2D Contour8)
G0 X38.522 Y-5.08
G1 Z15 F300
Z5
Z1 F333.3
Z0.235
G19 G3 Y-4.445 Z-0.4 J0.635 K0 F300
G1 Y-3.81
G17 G3 X37.887 Y-3.175 I-0.635 J0
G1 X0
G2 X-3.175 Y0 I0 J3.175
G1 Y65.65
G2 X78.95 Y65.65 I41.062 J0
G1 Y0
G2 X75.775 Y-3.175 I-3.175 J0
G1 X37.887
G3 X37.252 Y-3.81 I0 J-0.635
G1 Y-4.445
G19 G2 Y-5.08 Z0.235 J0 K0.635
G1 Z5
X38.522
Z3.07 F333.3
Z-0.165
G3 Y-4.445 Z-0.8 J0.635 K0 F300
G1 Y-3.81
G17 G3 X37.887 Y-3.175 I-0.635 J0
G1 X0
G2 X-3.175 Y0 I0 J3.175
G1 Y65.65
G2 X78.95 Y65.65 I41.062 J0
G1 Y0
G2 X75.775 Y-3.175 I-3.175 J0
G1 X37.887
G3 X37.252 Y-3.81 I0 J-0.635
G1 Y-4.445
G19 G2 Y-5.08 Z-0.165 J0 K0.635
G1 Z5
X38.522
Z2.67 F333.3
Z-0.565
G3 Y-4.445 Z-1.2 J0.635 K0 F300
G1 Y-3.81
G17 G3 X37.887 Y-3.175 I-0.635 J0
G1 X0
G2 X-3.175 Y0 I0 J3.175
G1 Y65.65
G2 X78.95 Y65.65 I41.062 J0
G1 Y0
G2 X75.775 Y-3.175 I-3.175 J0
G1 X37.887
G3 X37.252 Y-3.81 I0 J-0.635
G1 Y-4.445
G19 G2 Y-5.08 Z-0.565 J0 K0.635
G1 Z5
X38.522
Z2.27 F333.3
Z-0.965
G3 Y-4.445 Z-1.6 J0.635 K0 F300
G1 Y-3.81
G17 G3 X37.887 Y-3.175 I-0.635 J0
G1 X0
G2 X-3.175 Y0 I0 J3.175
G1 Y65.65
G2 X78.95 Y65.65 I41.062 J0
G1 Y0
G2 X75.775 Y-3.175 I-3.175 J0
G1 X37.887
G3 X37.252 Y-3.81 I0 J-0.635
G1 Y-4.445
G19 G2 Y-5.08 Z-0.965 J0 K0.635
G1 Z5
X38.522
Z1.87 F333.3
Z-1.365
G3 Y-4.445 Z-2 J0.635 K0 F300
G1 Y-3.81
G17 G3 X37.887 Y-3.175 I-0.635 J0
G1 X0
G2 X-3.175 Y0 I0 J3.175
G1 Y65.65
G2 X78.95 Y65.65 I41.062 J0
G1 Y0
G2 X75.775 Y-3.175 I-3.175 J0
G1 X37.887
G3 X37.252 Y-3.81 I0 J-0.635
G1 Y-4.445
G19 G2 Y-5.08 Z-1.365 J0 K0.635
G1 Z5
X38.522
Z1.47 F333.3
Z-1.765
G3 Y-4.445 Z-2.4 J0.635 K0 F300
G1 Y-3.81
G17 G3 X37.887 Y-3.175 I-0.635 J0
G1 X0
G2 X-3.175 Y0 I0 J3.175
G1 Y65.65
G2 X78.95 Y65.65 I41.062 J0
G1 Y0
G2 X75.775 Y-3.175 I-3.175 J0
G1 X37.887
G3 X37.252 Y-3.81 I0 J-0.635
G1 Y-4.445
G19 G2 Y-5.08 Z-1.765 J0 K0.635
G1 Z5
X38.522
Z1.07 F333.3
Z-2.165
G3 Y-4.445 Z-2.8 J0.635 K0 F300
G1 Y-3.81
G17 G3 X37.887 Y-3.175 I-0.635 J0
G1 X0
G2 X-3.175 Y0 I0 J3.175
G1 Y65.65
G2 X78.95 Y65.65 I41.062 J0
G1 Y0
G2 X75.775 Y-3.175 I-3.175 J0
G1 X37.887
G3 X37.252 Y-3.81 I0 J-0.635
G1 Y-4.445
G19 G2 Y-5.08 Z-2.165 J0 K0.635
G1 Z5
X38.522
Z0.67 F333.3
Z-2.565
G3 Y-4.445 Z-3.2 J0.635 K0 F300
G1 Y-3.81
G17 G3 X37.887 Y-3.175 I-0.635 J0
G1 X0
G2 X-3.175 Y0 I0 J3.175
G1 Y65.65
G2 X78.95 Y65.65 I41.062 J0
G1 Y0
G2 X75.775 Y-3.175 I-3.175 J0
G1 X37.887
G3 X37.252 Y-3.81 I0 J-0.635
G1 Y-4.445
G19 G2 Y-5.08 Z-2.565 J0 K0.635
G1 Z5
X38.522
Z0.27 F333.3
Z-2.965
G3 Y-4.445 Z-3.6 J0.635 K0 F300
G1 Y-3.81
G17 G3 X37.887 Y-3.175 I-0.635 J0
G1 X0
G2 X-3.175 Y0 I0 J3.175
G1 Y65.65
G2 X78.95 Y65.65 I41.062 J0
G1 Y0
G2 X75.775 Y-3.175 I-3.175 J0
G1 X37.887
G3 X37.252 Y-3.81 I0 J-0.635
G1 Y-4.445
G19 G2 Y-5.08 Z-2.965 J0 K0.635
G1 Z5
X38.522
Z-0.13 F333.3
Z-3.365
G3 Y-4.445 Z-4 J0.635 K0 F300
G1 Y-3.81
G17 G3 X37.887 Y-3.175 I-0.635 J0
G1 X0
G2 X-3.175 Y0 I0 J3.175
G1 Y65.65
G2 X78.95 Y65.65 I41.062 J0
G1 Y0
G2 X75.775 Y-3.175 I-3.175 J0
G1 X37.887
G3 X37.252 Y-3.81 I0 J-0.635
G1 Y-4.445
G19 G2 Y-5.08 Z-3.365 J0 K0.635
G1 Z5
X38.522
Z-0.53 F333.3
Z-3.765
G3 Y-4.445 Z-4.4 J0.635 K0 F300
G1 Y-3.81
G17 G3 X37.887 Y-3.175 I-0.635 J0
G1 X0
G2 X-3.175 Y0 I0 J3.175
G1 Y65.65
G2 X78.95 Y65.65 I41.062 J0
G1 Y0
G2 X75.775 Y-3.175 I-3.175 J0
G1 X37.887
G3 X37.252 Y-3.81 I0 J-0.635
G1 Y-4.445
G19 G2 Y-5.08 Z-3.765 J0 K0.635
G1 Z5
X38.522
Z-0.93 F333.3
Z-4.165
G3 Y-4.445 Z-4.8 J0.635 K0 F300
G1 Y-3.81
G17 G3 X37.887 Y-3.175 I-0.635 J0
G1 X0
G2 X-3.175 Y0 I0 J3.175
G1 Y65.65
G2 X78.95 Y65.65 I41.062 J0
G1 Y0
G2 X75.775 Y-3.175 I-3.175 J0
G1 X37.887
G3 X37.252 Y-3.81 I0 J-0.635
G1 Y-4.445
G19 G2 Y-5.08 Z-4.165 J0 K0.635
G1 Z5
X38.522
Z-1.33 F333.3
Z-4.565
G3 Y-4.445 Z-5.2 J0.635 K0 F300
G1 Y-3.81
G17 G3 X37.887 Y-3.175 I-0.635 J0
G1 X0
G2 X-3.175 Y0 I0 J3.175
G1 Y65.65
G2 X78.95 Y65.65 I41.062 J0
G1 Y0
G2 X75.775 Y-3.175 I-3.175 J0
G1 X37.887
G3 X37.252 Y-3.81 I0 J-0.635
G1 Y-4.445
G19 G2 Y-5.08 Z-4.565 J0 K0.635
G1 Z5
X38.522
Z-1.73 F333.3
Z-4.965
G3 Y-4.445 Z-5.6 J0.635 K0 F300
G1 Y-3.81
G17 G3 X37.887 Y-3.175 I-0.635 J0
G1 X0
G2 X-3.175 Y0 I0 J3.175
G1 Y65.65
G2 X78.95 Y65.65 I41.062 J0
G1 Y0
G2 X75.775 Y-3.175 I-3.175 J0
G1 X37.887
G3 X37.252 Y-3.81 I0 J-0.635
G1 Y-4.445
G19 G2 Y-5.08 Z-4.965 J0 K0.635
G1 Z5
X38.522
Z-2.13 F333.3
Z-5.365
G3 Y-4.445 Z-6 J0.635 K0 F300
G1 Y-3.81
G17 G3 X37.887 Y-3.175 I-0.635 J0
G1 X0
G2 X-3.175 Y0 I0 J3.175
G1 Y65.65
G2 X78.95 Y65.65 I41.062 J0
G1 Y0
G2 X75.775 Y-3.175 I-3.175 J0
G1 X37.887
G3 X37.252 Y-3.81 I0 J-0.635
G1 Y-4.445
G19 G2 Y-5.08 Z-5.365 J0 K0.635
G1 Z5
X38.522
Z-2.53 F333.3
Z-5.765
G3 Y-4.445 Z-6.4 J0.635 K0 F300
G1 Y-3.81
G17 G3 X37.887 Y-3.175 I-0.635 J0
G1 X0
G2 X-3.175 Y0 I0 J3.175
G1 Y65.65
G2 X78.95 Y65.65 I41.062 J0
G1 Y0
G2 X75.775 Y-3.175 I-3.175 J0
G1 X37.887
G3 X37.252 Y-3.81 I0 J-0.635
G1 Y-4.445
G19 G2 Y-5.08 Z-5.765 J0 K0.635
G1 Z5
X38.522
Z-2.93 F333.3
Z-6.165
G3 Y-4.445 Z-6.8 J0.635 K0 F300
G1 Y-3.81
G17 G3 X37.887 Y-3.175 I-0.635 J0
G1 X0
G2 X-3.175 Y0 I0 J3.175
G1 Y65.65
G2 X78.95 Y65.65 I41.062 J0
G1 Y0
G2 X75.775 Y-3.175 I-3.175 J0
G1 X37.887
G3 X37.252 Y-3.81 I0 J-0.635
G1 Y-4.445
G19 G2 Y-5.08 Z-6.165 J0 K0.635
G1 Z5
X38.522
Z-3.33 F333.3
Z-6.565
G3 Y-4.445 Z-7.2 J0.635 K0 F300
G1 Y-3.81
G17 G3 X37.887 Y-3.175 I-0.635 J0
G1 X0
G2 X-3.175 Y0 I0 J3.175
G1 Y65.65
G2 X78.95 Y65.65 I41.062 J0
G1 Y0
G2 X75.775 Y-3.175 I-3.175 J0
G1 X37.887
G3 X37.252 Y-3.81 I0 J-0.635
G1 Y-4.445
G19 G2 Y-5.08 Z-6.565 J0 K0.635
G1 Z5
X38.522
Z-3.73 F333.3
Z-6.965
G3 Y-4.445 Z-7.6 J0.635 K0 F300
G1 Y-3.81
G17 G3 X37.887 Y-3.175 I-0.635 J0
G1 X0
G2 X-3.175 Y0 I0 J3.175
G1 Y65.65
G2 X78.95 Y65.65 I41.062 J0
G1 Y0
G2 X75.775 Y-3.175 I-3.175 J0
G1 X37.887
G3 X37.252 Y-3.81 I0 J-0.635
G1 Y-4.445
G19 G2 Y-5.08 Z-6.965 J0 K0.635
G1 Z5
X38.522
Z-4.13 F333.3
Z-7.365
G3 Y-4.445 Z-8 J0.635 K0 F300
G1 Y-3.81
G17 G3 X37.887 Y-3.175 I-0.635 J0
G1 X0
G2 X-3.175 Y0 I0 J3.175
G1 Y65.65
G2 X78.95 Y65.65 I41.062 J0
G1 Y0
G2 X75.775 Y-3.175 I-3.175 J0
G1 X37.887
G3 X37.252 Y-3.81 I0 J-0.635
G1 Y-4.445
G19 G2 Y-5.08 Z-7.365 J0 K0.635
G1 Z5
X38.522
Z-4.53 F333.3
Z-7.765
G3 Y-4.445 Z-8.4 J0.635 K0 F300
G1 Y-3.81
G17 G3 X37.887 Y-3.175 I-0.635 J0
G1 X0
G2 X-3.175 Y0 I0 J3.175
G1 Y65.65
G2 X78.95 Y65.65 I41.062 J0
G1 Y0
G2 X75.775 Y-3.175 I-3.175 J0
G1 X37.887
G3 X37.252 Y-3.81 I0 J-0.635
G1 Y-4.445
G19 G2 Y-5.08 Z-7.765 J0 K0.635
G1 Z5
X38.522
Z-4.93 F333.3
Z-8.165
G3 Y-4.445 Z-8.8 J0.635 K0 F300
G1 Y-3.81
G17 G3 X37.887 Y-3.175 I-0.635 J0
G1 X0
G2 X-3.175 Y0 I0 J3.175
G1 Y65.65
G2 X78.95 Y65.65 I41.062 J0
G1 Y0
G2 X75.775 Y-3.175 I-3.175 J0
G1 X37.887
G3 X37.252 Y-3.81 I0 J-0.635
G1 Y-4.445
G19 G2 Y-5.08 Z-8.165 J0 K0.635
G1 Z5
X38.522
Z-5.33 F333.3
Z-8.565
G3 Y-4.445 Z-9.2 J0.635 K0 F300
G1 Y-3.81
G17 G3 X37.887 Y-3.175 I-0.635 J0
G1 X0
G2 X-3.175 Y0 I0 J3.175
G1 Y65.65
G2 X78.95 Y65.65 I41.062 J0
G1 Y0
G2 X75.775 Y-3.175 I-3.175 J0
G1 X37.887
G3 X37.252 Y-3.81 I0 J-0.635
G1 Y-4.445
G19 G2 Y-5.08 Z-8.565 J0 K0.635
G1 Z5
X38.522
Z-5.73 F333.3
Z-8.965
G3 Y-4.445 Z-9.6 J0.635 K0 F300
G1 Y-3.81
G17 G3 X37.887 Y-3.175 I-0.635 J0
G1 X0
G2 X-3.175 Y0 I0 J3.175
G1 Y65.65
G2 X78.95 Y65.65 I41.062 J0
G1 Y0
G2 X75.775 Y-3.175 I-3.175 J0
G1 X37.887
G3 X37.252 Y-3.81 I0 J-0.635
G1 Y-4.445
G19 G2 Y-5.08 Z-8.965 J0 K0.635
G1 Z5
X38.522
Z-6.13 F333.3
Z-9.365
G3 Y-4.445 Z-10 J0.635 K0 F300
G1 Y-3.81
G17 G3 X37.887 Y-3.175 I-0.635 J0
G1 X0
G2 X-3.175 Y0 I0 J3.175
G1 Y65.65
G2 X78.95 Y65.65 I41.062 J0
G1 Y0
G2 X75.775 Y-3.175 I-3.175 J0
G1 X37.887
G3 X37.252 Y-3.81 I0 J-0.635
G1 Y-4.445
G19 G2 Y-5.08 Z-9.365 J0 K0.635
G1 Z5
X38.522
Z-6.53 F333.3
Z-9.765
G3 Y-4.445 Z-10.4 J0.635 K0 F300
G1 Y-3.81
G17 G3 X37.887 Y-3.175 I-0.635 J0
G1 X0
G2 X-3.175 Y0 I0 J3.175
G1 Y65.65
G2 X78.95 Y65.65 I41.062 J0
G1 Y0
G2 X75.775 Y-3.175 I-3.175 J0
G1 X37.887
G3 X37.252 Y-3.81 I0 J-0.635
G1 Y-4.445
G19 G2 Y-5.08 Z-9.765 J0 K0.635
G1 Z5
X38.522
Z-6.93 F333.3
Z-10.165
G3 Y-4.445 Z-10.8 J0.635 K0 F300
G1 Y-3.81
G17 G3 X37.887 Y-3.175 I-0.635 J0
G1 X0
G2 X-3.175 Y0 I0 J3.175
G1 Y65.65
G2 X78.95 Y65.65 I41.062 J0
G1 Y0
G2 X75.775 Y-3.175 I-3.175 J0
G1 X37.887
G3 X37.252 Y-3.81 I0 J-0.635
G1 Y-4.445
G19 G2 Y-5.08 Z-10.165 J0 K0.635
G1 Z5
X38.522
Z-7.33 F333.3
Z-10.565
G3 Y-4.445 Z-11.2 J0.635 K0 F300
G1 Y-3.81
G17 G3 X37.887 Y-3.175 I-0.635 J0
G1 X0
G2 X-3.175 Y0 I0 J3.175
G1 Y65.65
G2 X78.95 Y65.65 I41.062 J0
G1 Y0
G2 X75.775 Y-3.175 I-3.175 J0
G1 X37.887
G3 X37.252 Y-3.81 I0 J-0.635
G1 Y-4.445
G19 G2 Y-5.08 Z-10.565 J0 K0.635
G1 Z5
X38.522
Z-7.73 F333.3
Z-10.965
G3 Y-4.445 Z-11.6 J0.635 K0 F300
G1 Y-3.81
G17 G3 X37.887 Y-3.175 I-0.635 J0
G1 X0
G2 X-3.175 Y0 I0 J3.175
G1 Y65.65
G2 X78.95 Y65.65 I41.062 J0
G1 Y0
G2 X75.775 Y-3.175 I-3.175 J0
G1 X37.887
G3 X37.252 Y-3.81 I0 J-0.635
G1 Y-4.445
G19 G2 Y-5.08 Z-10.965 J0 K0.635
G1 Z5
X38.522
Z-8.13 F333.3
Z-11.365
G3 Y-4.445 Z-12 J0.635 K0 F300
G1 Y-3.81
G17 G3 X37.887 Y-3.175 I-0.635 J0
G1 X0
G2 X-3.175 Y0 I0 J3.175
G1 Y65.65
G2 X78.95 Y65.65 I41.062 J0
G1 Y0
G2 X75.775 Y-3.175 I-3.175 J0
G1 X37.887
G3 X37.252 Y-3.81 I0 J-0.635
G1 Y-4.445
G19 G2 Y-5.08 Z-11.365 J0 K0.635
G1 Z5
X38.522
Z-8.53 F333.3
Z-11.765
G3 Y-4.445 Z-12.4 J0.635 K0 F300
G1 Y-3.81
G17 G3 X37.887 Y-3.175 I-0.635 J0
G1 X0
G2 X-3.175 Y0 I0 J3.175
G1 Y65.65
G2 X78.95 Y65.65 I41.062 J0
G1 Y0
G2 X75.775 Y-3.175 I-3.175 J0
G1 X37.887
G3 X37.252 Y-3.81 I0 J-0.635
G1 Y-4.445
G19 G2 Y-5.08 Z-11.765 J0 K0.635
G1 Z5
X38.522
Z-8.93 F333.3
Z-12.165
G3 Y-4.445 Z-12.8 J0.635 K0 F300
G1 Y-3.81
G17 G3 X37.887 Y-3.175 I-0.635 J0
G1 X0
G2 X-3.175 Y0 I0 J3.175
G1 Y65.65
G2 X78.95 Y65.65 I41.062 J0
G1 Y0
G2 X75.775 Y-3.175 I-3.175 J0
G1 X37.887
G3 X37.252 Y-3.81 I0 J-0.635
G1 Y-4.445
G19 G2 Y-5.08 Z-12.165 J0 K0.635
G1 Z5
X38.522
Z-9.33 F333.3
Z-12.565
G3 Y-4.445 Z-13.2 J0.635 K0 F300
G1 Y-3.81
G17 G3 X37.887 Y-3.175 I-0.635 J0
G1 X0
G2 X-3.175 Y0 I0 J3.175
G1 Y65.65
G2 X78.95 Y65.65 I41.062 J0
G1 Y0
G2 X75.775 Y-3.175 I-3.175 J0
G1 X37.887
G3 X37.252 Y-3.81 I0 J-0.635
G1 Y-4.445
G19 G2 Y-5.08 Z-12.565 J0 K0.635
G1 Z5
X38.522
Z-9.73 F333.3
Z-12.965
G3 Y-4.445 Z-13.6 J0.635 K0 F300
G1 Y-3.81
G17 G3 X37.887 Y-3.175 I-0.635 J0
G1 X0
G2 X-3.175 Y0 I0 J3.175
G1 Y65.65
G2 X78.95 Y65.65 I41.062 J0
G1 Y0
G2 X75.775 Y-3.175 I-3.175 J0
G1 X37.887
G3 X37.252 Y-3.81 I0 J-0.635
G1 Y-4.445
G19 G2 Y-5.08 Z-12.965 J0 K0.635
G1 Z5
X38.522
Z-10.13 F333.3
Z-13.365
G3 Y-4.445 Z-14 J0.635 K0 F300
G1 Y-3.81
G17 G3 X37.887 Y-3.175 I-0.635 J0
G1 X0
G2 X-3.175 Y0 I0 J3.175
G1 Y65.65
G2 X78.95 Y65.65 I41.062 J0
G1 Y0
G2 X75.775 Y-3.175 I-3.175 J0
G1 X37.887
G3 X37.252 Y-3.81 I0 J-0.635
G1 Y-4.445
G19 G2 Y-5.08 Z-13.365 J0 K0.635
G1 Z15
G17

M9
M5
M30
