(cartarm_base_mount_mid_adapt)
(Machine)
(  vendor: Autodesk)
(  model: Generic 3-axis)
(  description: This machine has XY axis on the Table and Z axis on the Head)
(T1 D=4.76 CR=0 - ZMIN=-6.66 - flat end mill)
G90 G94
G17
G21
(-Attention- Property Safe Retracts is set to Clearance Height.)
(Ensure the clearance height will clear the part and or fixtures.)
(Raise the Z-axis to a safe height before starting the program.)
(When using Fusion for Personal Use, the feedrate of rapid)
(moves is reduced to match the feedrate of cutting moves,)
(which can increase machining time. Unrestricted rapid moves)
(are available with a Fusion Subscription.)

(2D Adaptive3)
T1
S18000 M3
G17 G90 G94
G54
M8
G0 X40.241 Y33.345
Z15
G1 Z5 F150
Z0.352
Z-0.124 F50
X40.239 Y33.338 Z-0.207
X40.234 Y33.317 Z-0.287
X40.225 Y33.283 Z-0.362
X40.213 Y33.237 Z-0.43
X40.199 Y33.18 Z-0.489
X40.182 Y33.114 Z-0.536
X40.163 Y33.041 Z-0.571
X40.143 Y32.964 Z-0.593
X40.123 Y32.884 Z-0.6
G3 X39.75 Y30.292 I11.772 J-3.015
G1 Y30.125 F150
X39.728 Y29.977
X39.739 Y29.828
X39.768 Y29.68
X39.815 Y29.525
X39.885 Y29.343
X39.989 Y29.13
X40.135 Y28.882
X40.319 Y28.62
X40.527 Y28.368
X40.813 Y28.075
X41.211 Y27.727
X41.793 Y27.296
X42.462 Y26.879
X43.154 Y26.501
X43.868 Y26.167
X44.6 Y25.872
X45.341 Y25.603
X46.088 Y25.352
X46.841 Y25.119
X47.604 Y24.92
X48.373 Y24.745
X49.145 Y24.584
X49.918 Y24.433
X50.698 Y24.314
X51.481 Y24.22
X52.265 Y24.144
X53.051 Y24.078
X53.248 Y24.067
X54.134 Y24.028
X54.922 Y24.022
X55.71 Y24.032
X56.499 Y24.054
X57.286 Y24.096
X58.071 Y24.169
X58.854 Y24.263
X59.635 Y24.369
X60.415 Y24.485
X61.189 Y24.636
X61.957 Y24.81
X62.723 Y24.999
X63.486 Y25.198
X64.242 Y25.421
X64.989 Y25.672
X65.731 Y25.94
X66.468 Y26.22
X67.2 Y26.512
X67.919 Y26.835
X68.629 Y27.179
X69.068 Y27.402
X69.768 Y27.764
X70.46 Y28.143
X71.135 Y28.55
X71.8 Y28.973
X72.458 Y29.408
X73.11 Y29.85
X73.742 Y30.322
X74.36 Y30.812
X74.967 Y31.315
X75.568 Y31.825
X76.153 Y32.354
X76.718 Y32.904
X77.27 Y33.467
X77.813 Y34.038
X78.346 Y34.619
X78.854 Y35.222
X79.344 Y35.84
X79.823 Y36.466
X80.294 Y37.098
X80.741 Y37.747
X80.954 Y38.079
X81.422 Y38.832
X81.827 Y39.509
X82.223 Y40.191
X82.589 Y40.889
X82.933 Y41.599
X83.262 Y42.315
X83.582 Y43.035
X83.88 Y43.765
X84.151 Y44.506
X84.404 Y45.252
X84.646 Y46.003
X84.875 Y46.757
X85.071 Y47.521
X85.245 Y48.29
X85.404 Y49.062
X85.555 Y49.836
X85.677 Y50.615
X85.772 Y51.397
X85.849 Y52.182
X85.916 Y52.968
X85.928 Y53.164
X85.938 Y53.361
X85.971 Y54.149
X85.978 Y54.937
X85.967 Y55.726
X85.945 Y56.514
X85.903 Y57.301
X85.829 Y58.086
X85.735 Y58.869
X85.628 Y59.65
X85.513 Y60.43
X85.361 Y61.203
X85.187 Y61.972
X84.997 Y62.737
X84.798 Y63.5
X84.574 Y64.256
X84.323 Y65.004
X84.055 Y65.745
X83.775 Y66.482
X83.482 Y67.214
X83.158 Y67.933
X82.814 Y68.642
X82.591 Y69.081
X82.229 Y69.782
X81.849 Y70.473
X81.442 Y71.148
X81.018 Y71.813
X80.583 Y72.47
X80.141 Y73.123
X79.669 Y73.754
X79.178 Y74.372
X78.676 Y74.979
X78.165 Y75.58
X77.636 Y76.164
X77.086 Y76.729
X76.522 Y77.28
X75.951 Y77.823
X75.37 Y78.356
X74.766 Y78.863
X74.148 Y79.353
X73.522 Y79.832
X72.89 Y80.303
X72.24 Y80.75
X71.908 Y80.962
X71.155 Y81.43
X70.478 Y81.834
X69.796 Y82.231
X69.097 Y82.596
X68.388 Y82.939
X67.671 Y83.268
X66.951 Y83.588
X66.221 Y83.886
X65.48 Y84.156
X64.733 Y84.409
X63.983 Y84.65
X63.228 Y84.879
X62.464 Y85.074
X61.695 Y85.248
X60.923 Y85.407
X60.149 Y85.558
X59.37 Y85.679
X58.588 Y85.773
X57.803 Y85.851
X57.017 Y85.917
X56.821 Y85.929
X56.624 Y85.939
X55.836 Y85.971
X55.048 Y85.978
X54.259 Y85.967
X53.471 Y85.945
X52.684 Y85.901
X51.899 Y85.827
X51.116 Y85.733
X50.335 Y85.626
X49.556 Y85.51
X48.782 Y85.358
X48.013 Y85.183
X47.248 Y84.993
X46.485 Y84.794
X45.729 Y84.569
X44.982 Y84.318
X44.241 Y84.049
X43.504 Y83.769
X42.772 Y83.476
X42.054 Y83.152
X41.344 Y82.807
X40.905 Y82.584
X40.205 Y82.222
X39.514 Y81.841
X38.839 Y81.434
X38.175 Y81.01
X37.517 Y80.575
X36.865 Y80.132
X36.234 Y79.66
X35.617 Y79.169
X35.01 Y78.666
X34.409 Y78.155
X33.825 Y77.626
X33.261 Y77.075
X32.709 Y76.512
X32.167 Y75.94
X31.634 Y75.358
X31.127 Y74.754
X30.638 Y74.136
X30.159 Y73.51
X29.688 Y72.878
X29.242 Y72.228
X29.03 Y71.895
X28.562 Y71.142
X28.158 Y70.465
X27.762 Y69.783
X27.397 Y69.084
X27.054 Y68.374
X26.725 Y67.658
X26.405 Y66.937
X26.296 Y66.714
X26.233 Y66.578
X26.17 Y66.442
X26.109 Y66.305
X26.049 Y66.167
X25.99 Y66.029
X25.933 Y65.891
X25.872 Y65.743
X25.809 Y65.583
X25.741 Y65.41
X25.669 Y65.221
X25.591 Y65.014
X25.507 Y64.783
X25.415 Y64.525
X25.312 Y64.231
X25.261 Y64.08
X25.213 Y63.938
X25.167 Y63.795
X25.123 Y63.652
X25.079 Y63.508
X25.037 Y63.364
X24.995 Y63.214
X24.95 Y63.053
X24.903 Y62.878
X24.853 Y62.689
X24.801 Y62.481
X24.744 Y62.251
X24.684 Y61.995
X24.617 Y61.705
X24.543 Y61.373
X24.459 Y60.983
X24.405 Y60.72
X24.375 Y60.573
X24.347 Y60.425
X24.321 Y60.278
X24.295 Y60.13
X24.269 Y59.974
X24.243 Y59.806
X24.216 Y59.624
X24.187 Y59.426
X24.158 Y59.209
X24.127 Y58.969
X24.095 Y58.701
X24.061 Y58.397
X24.024 Y58.046
X23.984 Y57.633
X23.952 Y57.281
X23.939 Y57.132
X23.928 Y56.982
X23.918 Y56.832
X23.91 Y56.683
X23.902 Y56.523
X23.894 Y56.35
X23.888 Y56.164
X23.882 Y55.961
X23.877 Y55.739
X23.874 Y55.493
X23.872 Y55.217
X23.873 Y54.905
X23.876 Y54.543
X23.883 Y54.116
X23.89 Y53.781
X23.895 Y53.631
X23.901 Y53.481
X23.908 Y53.332
X23.916 Y53.181
X23.926 Y53.02
X23.939 Y52.846
X23.953 Y52.658
X23.971 Y52.453
X23.992 Y52.229
X24.016 Y51.98
X24.046 Y51.702
X24.083 Y51.385
X24.127 Y51.019
X24.184 Y50.584
X24.224 Y50.292
X24.245 Y50.144
X24.268 Y49.995
X24.292 Y49.847
X24.318 Y49.697
X24.346 Y49.537
X24.378 Y49.364
X24.414 Y49.178
X24.455 Y48.975
X24.501 Y48.752
X24.555 Y48.504
X24.617 Y48.228
X24.69 Y47.913
X24.777 Y47.548
X24.884 Y47.113
X24.948 Y46.864
X24.986 Y46.719
X25.025 Y46.574
X25.066 Y46.43
X25.108 Y46.283
X25.155 Y46.126
X25.206 Y45.956
X25.264 Y45.774
X25.327 Y45.575
X25.399 Y45.356
X25.481 Y45.115
X25.575 Y44.843
X25.684 Y44.535
X25.814 Y44.177
X25.972 Y43.75
X26.051 Y43.541
X26.105 Y43.401
X26.161 Y43.261
X26.217 Y43.122
X26.276 Y42.98
X26.341 Y42.829
X26.411 Y42.666
X26.489 Y42.49
X26.576 Y42.298
X26.672 Y42.088
X26.781 Y41.855
X26.906 Y41.594
X27.051 Y41.296
X27.326 Y40.744
X27.494 Y40.415
X27.563 Y40.282
X27.633 Y40.149
X27.705 Y40.017
X27.777 Y39.886
X27.856 Y39.746
X27.942 Y39.595
X28.036 Y39.433
X28.139 Y39.258
X28.254 Y39.066
X28.384 Y38.855
X28.53 Y38.619
X28.698 Y38.352
X28.895 Y38.045
X29.13 Y37.683
X29.309 Y37.413
X29.393 Y37.289
X29.478 Y37.165
X29.563 Y37.042
X29.651 Y36.918
X29.746 Y36.787
X29.849 Y36.646
X29.962 Y36.494
X30.086 Y36.33
X30.223 Y36.15
X30.377 Y35.952
X30.552 Y35.731
X30.752 Y35.481
X30.987 Y35.193
X31.268 Y34.852
X31.449 Y34.636
X31.546 Y34.522
X31.644 Y34.409
X31.743 Y34.296
X31.845 Y34.182
X31.955 Y34.062
X32.074 Y33.932
X32.204 Y33.793
X32.348 Y33.642
X32.506 Y33.477
X32.684 Y33.296
X32.884 Y33.093
X33.115 Y32.864
X33.385 Y32.6
X33.709 Y32.287
X33.886 Y32.119
X33.995 Y32.017
X34.105 Y31.915
X34.217 Y31.814
X34.331 Y31.712
X34.454 Y31.604
X34.588 Y31.488
X34.734 Y31.363
X34.895 Y31.229
X35.072 Y31.082
X35.271 Y30.92
X35.495 Y30.74
X35.753 Y30.536
X36.375 Y30.051
X36.928 Y29.49
X37.181 Y29.187
X37.593 Y28.682
X37.725 Y28.521
X37.862 Y28.358
X37.96 Y28.243
X38.058 Y28.13
X38.157 Y28.017
X38.257 Y27.906
X38.358 Y27.795
X38.46 Y27.685
X38.563 Y27.576
X38.668 Y27.469
X38.774 Y27.362
X38.88 Y27.257
X38.988 Y27.152
X39.097 Y27.049
X39.207 Y26.947
X39.318 Y26.846
X39.431 Y26.747
X39.544 Y26.649
X39.659 Y26.552
X39.774 Y26.457
X39.891 Y26.362
X40.009 Y26.27
X40.128 Y26.178
X40.247 Y26.088
X40.368 Y25.999
X40.489 Y25.911
X40.612 Y25.824
X40.736 Y25.739
X40.86 Y25.655
X40.985 Y25.573
X41.111 Y25.492
X41.238 Y25.411
X41.366 Y25.333
X41.495 Y25.256
X41.624 Y25.18
X41.754 Y25.105
X41.885 Y25.032
X42.016 Y24.959
X42.148 Y24.889
X42.281 Y24.819
X42.415 Y24.75
X42.549 Y24.683
X43.279 Y24.387
X44.016 Y24.105
X44.758 Y23.84
X45.508 Y23.595
X46.264 Y23.372
X47.025 Y23.168
X47.791 Y22.981
X48.561 Y22.812
X49.336 Y22.665
X50.114 Y22.539
X50.895 Y22.431
X51.189 Y22.397
X51.385 Y22.376
X51.581 Y22.356
X51.77 Y22.302
X51.947 Y22.215
X52.106 Y22.098
X52.242 Y21.955
X52.458 Y21.626
X52.646 Y20.86
X52.759 Y20.389
X52.894 Y19.981
X52.993 Y19.746
X53.136 Y19.469
X53.239 Y19.305
X53.345 Y19.162
X53.487 Y19
X53.617 Y18.874
X53.732 Y18.779
X53.862 Y18.691
X54.026 Y18.599
X54.162 Y18.536
X54.306 Y18.491
X54.457 Y18.459
X54.605 Y18.44
X54.755 Y18.442
X54.904 Y18.462
X55.051 Y18.494
X55.189 Y18.551
X55.32 Y18.625
X55.44 Y18.715
X55.543 Y18.824
X55.633 Y18.944
X55.695 Y19.081
X55.739 Y19.224
X55.751 Y19.373
X55.764 Y19.57
X55.859 Y19.953
X56.258 Y20.633
X56.853 Y21.15
X57.537 Y21.542
X58.265 Y21.845
X59.015 Y22.088
X59.775 Y22.298
X60.539 Y22.493
X61.304 Y22.684
X62.068 Y22.876
X62.832 Y23.074
X63.592 Y23.283
X64.347 Y23.508
X65.098 Y23.749
X65.844 Y24.004
X66.585 Y24.273
X67.319 Y24.56
X67.682 Y24.714
X67.953 Y24.833
X68.313 Y24.993
X68.492 Y25.075
X68.683 Y25.124
X68.88 Y25.139
X69.076 Y25.119
X69.265 Y25.064
X69.442 Y24.977
X70.076 Y24.508
X70.414 Y24.077
X70.647 Y23.826
X70.852 Y23.637
X71.1 Y23.444
X71.233 Y23.356
X71.403 Y23.262
X71.617 Y23.166
X71.758 Y23.116
X71.904 Y23.079
X72.072 Y23.051
X72.23 Y23.037
X72.38
X72.529 Y23.054
X72.689 Y23.088
X72.832 Y23.131
X72.968 Y23.196
X73.095 Y23.275
X73.215 Y23.365
X73.317 Y23.475
X73.406 Y23.596
X73.476 Y23.729
X73.524 Y23.871
X73.555 Y24.017
Y24.167
X73.537 Y24.316
X73.486 Y24.457
X73.302 Y24.806
X73.24 Y25.195
X73.293 Y25.982
X73.58 Y26.716
X73.994 Y27.387
X74.482 Y28.006
X75.012 Y28.59
X75.567 Y29.15
X76.133 Y29.698
X76.702 Y30.245
X77.267 Y30.795
X77.826 Y31.351
X78.378 Y31.913
X78.92 Y32.485
X79.45 Y33.07
X79.965 Y33.667
X80.467 Y34.274
X80.958 Y34.891
X81.196 Y35.205
X81.429 Y35.524
X81.543 Y35.684
X81.685 Y35.821
X81.848 Y35.932
X82.028 Y36.011
X82.22 Y36.058
X82.613 Y36.082
X83.371 Y35.865
X83.918 Y35.717
X84.354 Y35.637
X84.596 Y35.612
X84.835 Y35.607
X85.125 Y35.624
X85.274 Y35.645
X85.437 Y35.681
X85.631 Y35.742
X85.779 Y35.802
X85.914 Y35.869
X86.04 Y35.949
X86.184 Y36.058
X86.296 Y36.157
X86.394 Y36.272
X86.48 Y36.397
X86.555 Y36.527
X86.609 Y36.667
X86.647 Y36.812
X86.669 Y36.96
X86.665 Y37.11
X86.645 Y37.259
X86.598 Y37.401
X86.532 Y37.536
X86.445 Y37.658
X86.338 Y37.763
X86.217 Y37.852
X85.897 Y38.082
X85.667 Y38.402
X85.346 Y39.122
X85.239 Y39.903
X85.274 Y40.691
X85.396 Y41.47
X85.568 Y42.239
X85.768 Y43.002
X85.982 Y43.76
X86.203 Y44.517
X86.419 Y45.276
X86.624 Y46.037
X86.815 Y46.802
X86.995 Y47.569
X87.161 Y48.34
X87.308 Y49.115
X87.437 Y49.892
X87.547 Y50.673
X87.594 Y51.065
X87.625 Y51.358
X87.645 Y51.555
X87.699 Y51.744
X87.786 Y51.921
X87.902 Y52.08
X88.045 Y52.216
X88.374 Y52.433
X89.138 Y52.628
X89.618 Y52.748
X90.026 Y52.885
X90.264 Y52.987
X90.545 Y53.135
X90.704 Y53.236
X90.848 Y53.344
X91.011 Y53.489
X91.133 Y53.616
X91.228 Y53.733
X91.316 Y53.864
X91.409 Y54.031
X91.471 Y54.167
X91.515 Y54.311
X91.546 Y54.464
X91.564 Y54.613
X91.561 Y54.763
X91.54 Y54.912
X91.507 Y55.058
X91.449 Y55.196
X91.374 Y55.327
X91.283 Y55.446
X91.173 Y55.548
X91.053 Y55.637
X90.916 Y55.698
X90.772 Y55.742
X90.623 Y55.753
X90.426 Y55.767
X90.044 Y55.863
X89.365 Y56.264
X88.848 Y56.859
X88.456 Y57.544
X88.153 Y58.271
X87.91 Y59.022
X87.701 Y59.781
X87.506 Y60.545
X87.315 Y61.31
X87.123 Y62.075
X86.925 Y62.838
X86.715 Y63.598
X86.49 Y64.354
X86.249 Y65.104
X85.994 Y65.85
X85.725 Y66.592
X85.437 Y67.325
X85.283 Y67.688
X85.165 Y67.959
X85.004 Y68.319
X84.922 Y68.498
X84.873 Y68.689
X84.858 Y68.886
X84.878 Y69.082
X84.933 Y69.271
X85.02 Y69.448
X85.489 Y70.082
X85.916 Y70.416
X86.169 Y70.649
X86.357 Y70.852
X86.552 Y71.1
X86.64 Y71.233
X86.733 Y71.401
X86.829 Y71.613
X86.88 Y71.754
X86.918 Y71.899
X86.946 Y72.066
X86.961 Y72.228
X86.962 Y72.378
X86.945 Y72.527
X86.911 Y72.685
X86.869 Y72.829
X86.804 Y72.965
X86.726 Y73.092
X86.636 Y73.212
X86.526 Y73.315
X86.406 Y73.405
X86.273 Y73.474
X86.131 Y73.523
X85.985 Y73.555
X85.835
X85.686 Y73.537
X85.545 Y73.486
X85.196 Y73.303
X84.806 Y73.241
X84.02 Y73.293
X83.285 Y73.579
X82.615 Y73.994
X81.995 Y74.481
X81.411 Y75.011
X80.851 Y75.566
X80.303 Y76.132
X79.756 Y76.701
X79.206 Y77.266
X78.65 Y77.825
X78.088 Y78.377
X77.516 Y78.919
X76.931 Y79.449
X76.335 Y79.964
X75.727 Y80.466
X75.11 Y80.957
X74.796 Y81.195
X74.477 Y81.428
X74.317 Y81.543
X74.18 Y81.684
X74.07 Y81.847
X73.99 Y82.028
X73.944 Y82.219
X73.92 Y82.613
X74.136 Y83.371
X74.283 Y83.918
X74.364 Y84.354
X74.389 Y84.596
X74.394 Y84.835
X74.377 Y85.126
X74.356 Y85.274
X74.319 Y85.439
X74.258 Y85.633
X74.198 Y85.78
X74.131 Y85.914
X74.051 Y86.041
X73.942 Y86.185
X73.843 Y86.297
X73.728 Y86.394
X73.603 Y86.48
X73.473 Y86.555
X73.333 Y86.609
X73.188 Y86.647
X73.04 Y86.67
X72.89 Y86.666
X72.741 Y86.645
X72.598 Y86.598
X72.464 Y86.532
X72.341 Y86.445
X72.237 Y86.338
X72.148 Y86.217
X71.918 Y85.897
X71.598 Y85.667
X70.878 Y85.346
X70.097 Y85.24
X69.309 Y85.274
X68.53 Y85.396
X67.761 Y85.568
X66.998 Y85.768
X66.239 Y85.983
X65.482 Y86.203
X64.724 Y86.419
X63.963 Y86.623
X63.198 Y86.815
X62.43 Y86.995
X61.66 Y87.161
X60.885 Y87.308
X60.107 Y87.437
X59.327 Y87.547
X58.935 Y87.594
X58.641 Y87.625
X58.445 Y87.645
X58.256 Y87.699
X58.079 Y87.786
X57.92 Y87.902
X57.784 Y88.045
X57.567 Y88.374
X57.371 Y89.138
X57.252 Y89.618
X57.115 Y90.026
X57.013 Y90.264
X56.865 Y90.545
X56.764 Y90.704
X56.655 Y90.848
X56.511 Y91.011
X56.384 Y91.133
X56.267 Y91.228
X56.136 Y91.316
X55.969 Y91.409
X55.833 Y91.471
X55.689 Y91.515
X55.536 Y91.546
X55.387 Y91.564
X55.237 Y91.561
X55.088 Y91.54
X54.942 Y91.507
X54.804 Y91.449
X54.674 Y91.374
X54.554 Y91.283
X54.452 Y91.173
X54.363 Y91.053
X54.302 Y90.916
X54.258 Y90.772
X54.247 Y90.623
X54.233 Y90.426
X54.137 Y90.044
X53.736 Y89.365
X53.141 Y88.848
X52.457 Y88.456
X51.729 Y88.153
X50.979 Y87.91
X50.219 Y87.7
X49.455 Y87.505
X48.69 Y87.315
X47.925 Y87.123
X47.162 Y86.925
X46.402 Y86.715
X45.647 Y86.49
X44.896 Y86.249
X44.15 Y85.994
X43.409 Y85.725
X42.675 Y85.437
X42.312 Y85.283
X42.041 Y85.165
X41.681 Y85.004
X41.502 Y84.922
X41.311 Y84.873
X41.114 Y84.858
X40.918 Y84.878
X40.729 Y84.933
X40.552 Y85.021
X39.918 Y85.489
X39.584 Y85.916
X39.351 Y86.169
X39.148 Y86.357
X38.9 Y86.552
X38.767 Y86.64
X38.599 Y86.733
X38.387 Y86.829
X38.246 Y86.88
X38.101 Y86.918
X37.934 Y86.946
X37.772 Y86.961
X37.622 Y86.962
X37.473 Y86.945
X37.315 Y86.911
X37.171 Y86.869
X37.035 Y86.804
X36.907 Y86.726
X36.788 Y86.636
X36.685 Y86.526
X36.595 Y86.406
X36.526 Y86.273
X36.477 Y86.131
X36.445 Y85.985
Y85.835
X36.463 Y85.686
X36.514 Y85.545
X36.697 Y85.196
X36.759 Y84.806
X36.707 Y84.02
X36.421 Y83.285
X36.006 Y82.615
X35.519 Y81.995
X34.989 Y81.411
X34.434 Y80.851
X33.868 Y80.303
X33.299 Y79.756
X32.734 Y79.206
X32.175 Y78.65
X31.623 Y78.088
X31.081 Y77.516
X30.551 Y76.931
X30.036 Y76.334
X29.533 Y75.727
X29.042 Y75.11
X28.804 Y74.796
X28.572 Y74.478
X28.457 Y74.317
X28.316 Y74.18
X28.152 Y74.07
X27.972 Y73.99
X27.781 Y73.944
X27.387 Y73.92
X26.629 Y74.136
X26.082 Y74.283
X25.646 Y74.364
X25.404 Y74.389
X25.165 Y74.394
X24.874 Y74.377
X24.725 Y74.356
X24.561 Y74.319
X24.367 Y74.258
X24.22 Y74.198
X24.086 Y74.131
X23.959 Y74.051
X23.815 Y73.942
X23.703 Y73.843
X23.606 Y73.728
X23.52 Y73.603
X23.445 Y73.473
X23.391 Y73.333
X23.353 Y73.188
X23.33 Y73.04
X23.334 Y72.89
X23.355 Y72.741
X23.402 Y72.598
X23.468 Y72.464
X23.555 Y72.341
X23.662 Y72.237
X23.783 Y72.148
X24.103 Y71.918
X24.333 Y71.598
X24.654 Y70.878
X24.76 Y70.096
X24.723 Y69.309
X24.588 Y68.532
X24.399 Y67.767
X24.18 Y67.009
X23.946 Y66.257
X23.71 Y65.504
X23.483 Y64.749
X23.268 Y63.991
X23.067 Y63.228
X22.879 Y62.463
X22.708 Y61.693
X22.558 Y60.919
X22.426 Y60.142
X22.313 Y59.362
X22.264 Y58.97
X22.231 Y58.677
X22.21 Y58.481
X22.156 Y58.291
X22.068 Y58.115
X21.951 Y57.956
X21.807 Y57.821
X21.477 Y57.606
X20.719 Y57.389
X20.164 Y57.223
X19.878 Y57.113
X19.617 Y56.986
X19.36 Y56.836
X19.224 Y56.74
X19.069 Y56.612
X18.895 Y56.443
X18.796 Y56.33
X18.709 Y56.208
X18.617 Y56.053
X18.552 Y55.918
X18.499 Y55.778
X18.462 Y55.633
X18.437 Y55.485
X18.426 Y55.335
X18.437 Y55.185
X18.463 Y55.038
X18.505 Y54.894
X18.57 Y54.758
X18.648 Y54.631
X18.747 Y54.518
X18.861 Y54.421
X18.988 Y54.34
X19.128 Y54.285
X19.273 Y54.247
X19.663 Y54.194
X20.019 Y54.023
X20.65 Y53.551
X21.128 Y52.924
X21.49 Y52.224
X21.772 Y51.487
X22.004 Y50.734
X22.21 Y49.973
X22.403 Y49.208
X22.593 Y48.443
X22.784 Y47.678
X22.985 Y46.916
X23.2 Y46.157
X23.429 Y45.403
X23.673 Y44.653
X23.931 Y43.908
X24.206 Y43.169
X24.5 Y42.438
X24.617 Y42.166
X24.736 Y41.896
X24.817 Y41.716
X24.864 Y41.525
X24.877 Y41.328
X24.854 Y41.132
X24.798 Y40.943
X24.442 Y40.24
X23.878 Y39.688
X23.655 Y39.435
X23.437 Y39.144
X23.294 Y38.918
X23.2 Y38.737
X23.104 Y38.511
X23.043 Y38.328
X23.007 Y38.182
X22.98 Y38.011
X22.965 Y37.809
Y37.659
X22.984 Y37.51
X23.019 Y37.349
X23.063 Y37.206
X23.124 Y37.069
X23.201 Y36.94
X23.288 Y36.818
X23.392 Y36.71
X23.509 Y36.616
X23.635 Y36.534
X23.773 Y36.477
X23.918 Y36.437
X24.067 Y36.422
X24.217 Y36.43
X24.364 Y36.462
X24.726 Y36.617
X25.117 Y36.667
X25.902 Y36.598
X26.635 Y36.305
X27.304 Y35.888
X27.921 Y35.398
X28.503 Y34.866
X29.061 Y34.309
X29.609 Y33.743
X30.156 Y33.175
X30.706 Y32.61
X31.261 Y32.05
X31.823 Y31.497
X32.397 Y30.956
X32.982 Y30.428
X33.579 Y29.913
X34.175 Y29.397
X34.745 Y28.852
X35.019 Y28.569
X35.149 Y28.42
X35.25 Y28.251
X35.389 Y27.882
X35.465 Y27.097
X35.421 Y26.31
X35.378 Y25.636
X35.382 Y25.374
X35.414 Y25.054
X35.462 Y24.788
X35.508 Y24.611
X35.582 Y24.403
X35.669 Y24.207
X35.741 Y24.075
X35.83 Y23.943
X35.95 Y23.792
X36.053 Y23.683
X36.167 Y23.586
X36.292 Y23.499
X36.422 Y23.424
X36.56 Y23.364
X36.704 Y23.322
X36.851 Y23.293
X37.001 Y23.285
X37.15 Y23.298
X37.298 Y23.325
X38.047 Y23.569
X38.836 Y23.587
X39.615 Y23.469
X40.379 Y23.275
X41.134 Y23.048
X41.884 Y22.802
X42.63 Y22.55
X43.378 Y22.299
X44.128 Y22.057
X44.882 Y21.827
X45.64 Y21.609
X46.402 Y21.406
X47.168 Y21.219
X47.938 Y21.05
X48.711 Y20.898
X49.414 Y20.54
X50.013 Y20.027
X50.549 Y19.45
X51.072 Y18.859
X51.541 Y18.37
X51.921 Y18.033
X52.257 Y17.78
X52.58 Y17.575
X52.658 Y17.534
X52.806 Y17.469
X52.961 Y17.427
X53.121 Y17.407
X54.642 Y17.332
X54.855 Y17.34
X55.033 Y17.361
X55.208 Y17.396
X55.378 Y17.445
X55.533 Y17.503
X55.689 Y17.576
X55.837 Y17.66
X55.976 Y17.756
X56.59 Y18.251
X57.183 Y18.771
X57.832 Y19.218
X58.523 Y19.597
X59.243 Y19.919
X59.98 Y20.199
X60.727 Y20.45
X61.481 Y20.683
X62.237 Y20.906
X62.993 Y21.127
X63.749 Y21.352
X64.503 Y21.583
X65.253 Y21.825
X66 Y22.077
X66.743 Y22.343
X67.529 Y22.393
X68.304 Y22.247
X69.058 Y22.016
X69.805 Y21.765
X70.438 Y21.587
X70.906 Y21.495
X71.327 Y21.447
X71.683 Y21.435
X71.885 Y21.444
X72.034 Y21.462
X72.179 Y21.499
X72.318 Y21.555
X72.721 Y21.751
X72.9 Y21.846
X73.563 Y22.243
X73.742 Y22.363
X73.887 Y22.478
X74.012 Y22.594
X74.128 Y22.722
X74.232 Y22.856
X74.329 Y23.004
X74.407 Y23.148
X74.474 Y23.297
X74.735 Y24.041
X75.006 Y24.781
X75.358 Y25.487
X75.775 Y26.156
X76.243 Y26.79
X76.746 Y27.398
X77.27 Y27.986
X77.808 Y28.563
X78.351 Y29.134
X78.896 Y29.704
X79.439 Y30.276
X79.976 Y30.853
X80.505 Y31.438
X81.024 Y32.031
X81.279 Y32.332
X81.9 Y32.817
X82.63 Y33.115
X83.394 Y33.311
X84.166 Y33.471
X84.902 Y33.645
X85.41 Y33.809
X85.819 Y33.978
X86.154 Y34.15
X86.293 Y34.236
X86.435 Y34.34
X86.559 Y34.466
X86.662 Y34.61
X87.399 Y35.839
X87.53 Y36.085
X87.599 Y36.244
X87.652 Y36.401
X87.695 Y36.569
X87.723 Y36.732
X87.738 Y36.902
X87.739 Y37.062
X87.727 Y37.229
X87.607 Y38.009
X87.461 Y38.783
X87.402 Y39.569
X87.422 Y40.358
X87.503 Y41.142
X87.63 Y41.92
X87.787 Y42.693
X87.963 Y43.461
X88.148 Y44.228
X88.334 Y44.994
X88.517 Y45.76
X88.694 Y46.529
X88.861 Y47.299
X89.015 Y48.072
X89.085 Y48.46
X89.359 Y49.2
X89.834 Y49.829
X90.395 Y50.383
X90.982 Y50.909
X91.547 Y51.437
X91.92 Y51.846
X92.182 Y52.185
X92.396 Y52.512
X92.459 Y52.628
X92.527 Y52.779
X92.572 Y52.939
X92.592 Y53.104
X92.668 Y54.642
X92.66 Y54.858
X92.639 Y55.036
X92.604 Y55.21
X92.555 Y55.38
X92.497 Y55.535
X92.424 Y55.691
X92.34 Y55.838
X92.244 Y55.979
X91.749 Y56.592
X91.229 Y57.185
X90.782 Y57.834
X90.403 Y58.525
X90.081 Y59.245
X89.801 Y59.982
X89.55 Y60.729
X89.317 Y61.483
X89.094 Y62.239
X88.873 Y62.996
X88.648 Y63.751
X88.416 Y64.505
X88.175 Y65.255
X87.922 Y66.002
X87.657 Y66.744
X87.606 Y67.531
X87.751 Y68.306
X87.982 Y69.06
X88.233 Y69.807
X88.411 Y70.44
X88.503 Y70.909
X88.551 Y71.329
X88.563 Y71.684
X88.553 Y71.889
X88.536 Y72.038
X88.499 Y72.184
X88.443 Y72.323
X88.249 Y72.721
X88.154 Y72.9
X87.757 Y73.563
X87.637 Y73.742
X87.522 Y73.887
X87.406 Y74.011
X87.278 Y74.128
X87.144 Y74.232
X86.996 Y74.329
X86.853 Y74.407
X86.703 Y74.473
X85.959 Y74.735
X85.219 Y75.006
X84.513 Y75.358
X83.845 Y75.775
X83.21 Y76.243
X82.602 Y76.746
X82.014 Y77.27
X81.437 Y77.808
X80.866 Y78.351
X80.296 Y78.896
X79.725 Y79.439
X79.147 Y79.976
X78.562 Y80.505
X77.969 Y81.024
X77.668 Y81.279
X77.183 Y81.9
X76.886 Y82.63
X76.69 Y83.394
X76.53 Y84.166
X76.356 Y84.902
X76.192 Y85.41
X76.022 Y85.819
X75.85 Y86.154
X75.765 Y86.293
X75.66 Y86.435
X75.535 Y86.559
X75.391 Y86.661
X74.161 Y87.399
X73.915 Y87.53
X73.756 Y87.599
X73.599 Y87.652
X73.431 Y87.695
X73.268 Y87.723
X73.098 Y87.738
X72.938 Y87.739
X72.771 Y87.727
X71.991 Y87.607
X71.217 Y87.461
X70.43 Y87.402
X69.642 Y87.422
X68.858 Y87.503
X68.08 Y87.63
X67.307 Y87.787
X66.539 Y87.963
X65.772 Y88.147
X65.006 Y88.334
X64.24 Y88.517
X63.471 Y88.694
X62.701 Y88.861
X61.927 Y89.015
X61.539 Y89.085
X60.8 Y89.359
X60.171 Y89.834
X59.617 Y90.395
X59.091 Y90.982
X58.563 Y91.547
X58.154 Y91.92
X57.815 Y92.182
X57.488 Y92.395
X57.372 Y92.459
X57.221 Y92.527
X57.061 Y92.572
X56.896 Y92.592
X55.358 Y92.668
X55.142 Y92.66
X54.964 Y92.639
X54.79 Y92.604
X54.62 Y92.555
X54.465 Y92.497
X54.309 Y92.424
X54.162 Y92.34
X54.021 Y92.244
X53.408 Y91.749
X52.815 Y91.229
X52.166 Y90.782
X51.475 Y90.403
X50.755 Y90.081
X50.018 Y89.801
X49.271 Y89.549
X48.518 Y89.317
X47.761 Y89.094
X47.005 Y88.873
X46.249 Y88.648
X45.495 Y88.416
X44.745 Y88.175
X43.998 Y87.923
X43.256 Y87.657
X42.469 Y87.606
X41.694 Y87.751
X40.94 Y87.982
X40.193 Y88.233
X39.561 Y88.411
X39.091 Y88.503
X38.671 Y88.551
X38.316 Y88.563
X38.111 Y88.553
X37.962 Y88.536
X37.816 Y88.499
X37.677 Y88.443
X37.279 Y88.249
X37.1 Y88.154
X36.437 Y87.757
X36.258 Y87.637
X36.113 Y87.522
X35.989 Y87.406
X35.872 Y87.278
X35.768 Y87.144
X35.671 Y86.996
X35.593 Y86.853
X35.527 Y86.703
X35.265 Y85.959
X34.994 Y85.219
X34.642 Y84.513
X34.225 Y83.845
X33.757 Y83.21
X33.254 Y82.602
X32.73 Y82.014
X32.193 Y81.437
X31.649 Y80.866
X31.104 Y80.296
X30.561 Y79.725
X30.024 Y79.147
X29.495 Y78.562
X28.976 Y77.969
X28.721 Y77.668
X28.1 Y77.183
X27.37 Y76.886
X26.606 Y76.69
X25.834 Y76.53
X25.098 Y76.356
X24.59 Y76.192
X24.181 Y76.022
X23.846 Y75.85
X23.707 Y75.765
X23.565 Y75.66
X23.441 Y75.535
X23.339 Y75.391
X22.601 Y74.161
X22.47 Y73.915
X22.401 Y73.756
X22.348 Y73.599
X22.305 Y73.431
X22.277 Y73.268
X22.262 Y73.098
X22.261 Y72.938
X22.273 Y72.771
X22.393 Y71.991
X22.538 Y71.217
X22.59 Y70.43
X22.559 Y69.642
X22.464 Y68.859
X22.322 Y68.084
X22.149 Y67.315
X21.96 Y66.549
X21.566 Y65.023
X21.373 Y64.258
X21.188 Y63.492
X21.015 Y62.723
X20.856 Y61.95
X20.713 Y61.175
X20.323 Y60.489
X19.804 Y59.896
X19.232 Y59.354
X18.655 Y58.817
X18.216 Y58.362
X17.91 Y57.991
X17.675 Y57.652
X17.56 Y57.455
X17.484 Y57.296
X17.433 Y57.126
X17.411 Y56.951
X17.332 Y55.358
X17.341 Y55.134
X17.361 Y54.96
X17.395 Y54.79
X17.444 Y54.62
X17.503 Y54.461
X17.575 Y54.308
X17.658 Y54.162
X17.757 Y54.017
X18.253 Y53.404
X18.736 Y52.78
X19.154 Y52.112
X19.511 Y51.409
X19.818 Y50.683
X20.088 Y49.942
X20.332 Y49.193
X20.559 Y48.438
X20.998 Y46.923
X21.222 Y46.167
X21.453 Y45.414
X21.694 Y44.663
X21.946 Y43.916
X22.213 Y43.174
Y42.386
X22.057 Y41.613
X21.834 Y40.856
X21.605 Y40.102
X21.456 Y39.493
X21.379 Y39.017
X21.347 Y38.603
Y38.366
X21.359 Y38.204
X21.395 Y38.045
X21.454 Y37.893
X21.527 Y37.739
X21.751 Y37.279
X21.846 Y37.1
X22.243 Y36.437
X22.386 Y36.224
X22.489 Y36.093
X22.608 Y35.966
X22.73 Y35.855
X22.866 Y35.749
X23.003 Y35.66
X23.153 Y35.578
X23.874 Y35.257
X24.609 Y34.973
X25.313 Y34.617
X25.98 Y34.197
X26.613 Y33.728
X27.22 Y33.225
X27.809 Y32.7
X28.385 Y32.162
X28.955 Y31.617
X29.523 Y31.07
X30.094 Y30.526
X30.67 Y29.988
X31.253 Y29.458
X31.839 Y28.931
X32.374 Y28.351
X32.735 Y27.65
X32.979 Y26.901
X33.367 Y25.372
X33.557 Y24.77
X33.749 Y24.296
X33.938 Y23.919
X33.966 Y23.873
X34.071 Y23.728
X34.198 Y23.602
X34.344 Y23.497
X36.026 Y22.489
X36.158 Y22.419
X36.336 Y22.346
X37.087 Y22.107
X37.855 Y21.925
X38.62 Y21.736
X39.381 Y21.531
X40.138 Y21.311
X40.892 Y21.081
X42.397 Y20.608
X43.15 Y20.375
X43.905 Y20.149
X44.663 Y19.933
X45.424 Y19.727
X46.189 Y19.535
X46.941 Y19.299
X47.645 Y18.944
X48.3 Y18.505
X48.922 Y18.021
X48.942 Y18.005
X49.107 Y17.894
X49.288 Y17.813
X49.481 Y17.767
X51.062 Y17.533
X51.599 Y17.485
X51.778 Y17.473
X53.121 Y17.407
G3 X53.62 Y17.859 Z-0.4 I0.023 J0.475
X52.669 Y17.906 I-0.475 J0.024
X53.193 Y17.409 I0.475 J-0.024
G1 X54.212 Y17.514
G3 X54.115 Y18.461 I-0.049 J0.474
X53.9 Y17.59 I0.049 J-0.474
G1 X53.929 Y17.572
X53.939 Y17.565 F50
G3 X54.642 Y17.332 Z-0.6 I0.836 J1.344
G1 X54.821 Y17.33 F150
X55.179
X55.358 Y17.332
X56.611 Y17.394
X57.063 Y17.439
X57.734 Y17.561
X58.496 Y17.763
X59.251 Y17.992
X60.003 Y18.228
X60.756 Y18.461
X61.51 Y18.691
X63.02 Y19.146
X63.774 Y19.375
X64.527 Y19.609
X65.278 Y19.85
X66.043 Y20.039
X66.83 Y20.094
X67.617 Y20.048
X68.399 Y19.947
X68.573 Y19.938
X68.747 Y19.957
X68.916 Y20.002
X69.175 Y20.095
X69.499 Y20.225
X69.614 Y20.274
X72.184 Y21.49
X72.318 Y21.555
G3 X72.539 Y22.191 Z-0.4 I-0.208 J0.428
X71.682 Y21.775 I-0.428 J-0.208
X72.375 Y21.587 I0.428 J0.208
G1 X73.256 Y22.175
G3 X72.727 Y22.967 I-0.264 J0.396
X72.832 Y22.122 I0.264 J-0.396
G1 X72.844 Y22.119 F50
X72.917 Y22.101 Z-0.42
X72.993 Y22.095 Z-0.441
G3 X73.563 Y22.243 Z-0.6 I-0.004 J1.187
G1 X75.048 Y23.133 F150
X75.382 Y23.357
X75.799 Y23.687
X76.375 Y24.225
X76.92 Y24.794
X77.99 Y25.953
X78.526 Y26.531
X79.066 Y27.105
X79.607 Y27.679
X80.147 Y28.253
X80.684 Y28.83
X81.216 Y29.412
X81.762 Y29.981
X82.395 Y30.451
X83.088 Y30.827
X83.811 Y31.141
X84.016 Y31.222
X84.201 Y31.315
X84.365 Y31.44
X84.503 Y31.594
X86.064 Y33.699
X86.146 Y33.811
X86.325 Y34.064
X86.438 Y34.236
X86.662 Y34.61
G3 X86.498 Y35.262 Z-0.4 I-0.408 J0.245
X86.008 Y34.446 I-0.245 J-0.408
X86.696 Y34.68 I0.245 J0.408
G1 X87.039 Y35.552
G3 X86.153 Y35.9 I-0.443 J0.174
X86.822 Y35.307 I0.443 J-0.174
G1 X86.852 Y35.324
X86.862 Y35.329 F50
G3 X87.399 Y35.839 Z-0.6 I-0.791 J1.37
G1 X88.154 Y37.1 F150
X88.249 Y37.279
X88.423 Y37.637
X88.608 Y38.07
X88.857 Y38.818
X89.049 Y39.582
X89.222 Y40.352
X89.392 Y41.121
X89.566 Y41.89
X89.743 Y42.659
X90.104 Y44.194
X90.281 Y44.962
X90.453 Y45.731
X90.622 Y46.501
X90.9 Y47.239
X91.287 Y47.926
X91.742 Y48.57
X91.999 Y48.897
X92.104 Y49.057
X92.18 Y49.233
X92.224 Y49.42
X92.467 Y51.062
X92.515 Y51.599
X92.527 Y51.778
X92.592 Y53.104
G3 X92.14 Y53.603 Z-0.4 I-0.475 J0.023
X92.093 Y52.652 I-0.024 J-0.475
X92.59 Y53.175 I0.024 J0.475
G1 X92.487 Y54.211
G3 X91.539 Y54.116 I-0.474 J-0.047
X92.41 Y53.9 I0.474 J0.047
G1 X92.428 Y53.929
X92.435 Y53.939 F50
G3 X92.668 Y54.642 Z-0.6 I-1.344 J0.836
G1 X92.67 Y54.821 F150
Y55.179
X92.668 Y55.358
X92.606 Y56.611
X92.561 Y57.065
X92.439 Y57.737
X92.237 Y58.499
X92.007 Y59.253
X91.772 Y60.005
X91.538 Y60.758
X91.308 Y61.512
X90.854 Y63.022
X90.625 Y63.777
X90.39 Y64.529
X90.149 Y65.28
X89.96 Y66.045
X89.905 Y66.832
X89.951 Y67.619
X90.052 Y68.401
X90.06 Y68.577
X90.042 Y68.752
X89.995 Y68.922
X89.905 Y69.175
X89.775 Y69.499
X89.726 Y69.614
X88.51 Y72.184
X88.443 Y72.323
G3 X87.807 Y72.543 Z-0.4 I-0.428 J-0.208
X88.222 Y71.687 I0.208 J-0.428
X88.411 Y72.379 I-0.208 J0.428
G1 X87.825 Y73.256
G3 X87.033 Y72.727 I-0.396 J-0.264
X87.878 Y72.832 I0.396 J0.264
G1 X87.881 Y72.844 F50
X87.899 Y72.917 Z-0.42
X87.905 Y72.993 Z-0.441
G3 X87.757 Y73.563 Z-0.6 I-1.187 J-0.004
G1 X86.867 Y75.048 F150
X86.643 Y75.382
X86.313 Y75.799
X85.775 Y76.375
X85.205 Y76.92
X84.047 Y77.99
X83.469 Y78.527
X82.894 Y79.066
X82.321 Y79.607
X81.746 Y80.147
X81.169 Y80.684
X80.588 Y81.217
X80.019 Y81.762
X79.549 Y82.396
X79.173 Y83.089
X78.859 Y83.812
X78.779 Y84.016
X78.686 Y84.2
X78.56 Y84.365
X78.406 Y84.503
X76.301 Y86.064
X76.189 Y86.146
X75.936 Y86.325
X75.764 Y86.438
X75.391 Y86.661
G3 X74.738 Y86.498 Z-0.4 I-0.245 J-0.408
X75.554 Y86.008 I0.408 J-0.245
X75.32 Y86.696 I-0.408 J0.245
G1 X74.448 Y87.039
G3 X74.1 Y86.153 I-0.174 J-0.443
X74.693 Y86.822 I0.174 J0.443
G1 X74.676 Y86.852
X74.671 Y86.862 F50
G3 X74.161 Y87.399 Z-0.6 I-1.37 J-0.791
G1 X72.9 Y88.154 F150
X72.721 Y88.249
X72.363 Y88.423
X71.93 Y88.608
X71.182 Y88.857
X70.417 Y89.049
X69.648 Y89.222
X68.878 Y89.392
X68.109 Y89.566
X67.341 Y89.743
X65.806 Y90.104
X65.038 Y90.281
X64.269 Y90.453
X63.498 Y90.622
X62.761 Y90.9
X62.074 Y91.287
X61.43 Y91.742
X61.103 Y91.999
X60.943 Y92.104
X60.766 Y92.18
X60.58 Y92.224
X58.938 Y92.467
X58.401 Y92.515
X58.222 Y92.527
X56.896 Y92.592
G3 X56.397 Y92.14 Z-0.4 I-0.023 J-0.475
X57.348 Y92.093 I0.475 J-0.024
X56.825 Y92.59 I-0.475 J0.024
G1 X55.789 Y92.487
G3 X55.884 Y91.539 I0.047 J-0.474
X56.1 Y92.41 I-0.047 J0.474
G1 X56.071 Y92.428
X56.061 Y92.435 F50
G3 X55.358 Y92.668 Z-0.6 I-0.836 J-1.344
G1 X55.179 Y92.67 F150
X54.821
X54.642 Y92.668
X53.389 Y92.606
X52.935 Y92.561
X52.264 Y92.439
X51.502 Y92.237
X50.748 Y92.007
X49.995 Y91.772
X49.242 Y91.538
X48.488 Y91.308
X46.978 Y90.854
X46.224 Y90.625
X45.471 Y90.391
X44.721 Y90.15
X43.955 Y89.96
X43.169 Y89.905
X42.382 Y89.951
X41.6 Y90.052
X41.424 Y90.06
X41.248 Y90.041
X41.078 Y89.995
X40.825 Y89.905
X40.501 Y89.775
X40.386 Y89.726
X37.816 Y88.51
X37.677 Y88.443
G3 X37.457 Y87.807 Z-0.4 I0.208 J-0.428
X38.314 Y88.223 I0.428 J0.208
X37.621 Y88.411 I-0.428 J-0.208
G1 X36.744 Y87.825
G3 X37.273 Y87.033 I0.264 J-0.396
X37.168 Y87.878 I-0.264 J0.396
G1 X37.156 Y87.881 F50
X37.083 Y87.899 Z-0.42
X37.007 Y87.905 Z-0.441
G3 X36.437 Y87.757 Z-0.6 I0.004 J-1.187
G1 X34.952 Y86.867 F150
X34.618 Y86.643
X34.201 Y86.313
X33.625 Y85.775
X33.08 Y85.205
X32.01 Y84.047
X31.473 Y83.469
X30.934 Y82.894
X30.393 Y82.321
X29.853 Y81.746
X29.316 Y81.169
X28.783 Y80.588
X28.238 Y80.019
X27.605 Y79.549
X26.912 Y79.173
X26.189 Y78.859
X25.984 Y78.779
X25.8 Y78.686
X25.635 Y78.56
X25.497 Y78.406
X23.936 Y76.301
X23.854 Y76.189
X23.675 Y75.936
X23.562 Y75.764
X23.339 Y75.391
G3 X23.502 Y74.738 Z-0.4 I0.408 J-0.245
X23.992 Y75.554 I0.245 J0.408
X23.304 Y75.32 I-0.245 J-0.408
G1 X22.961 Y74.448
G3 X23.847 Y74.1 I0.443 J-0.174
X23.178 Y74.693 I-0.443 J0.174
G1 X23.148 Y74.676
X23.138 Y74.671 F50
G3 X22.601 Y74.161 Z-0.6 I0.791 J-1.37
G1 X21.846 Y72.9 F150
X21.751 Y72.721
X21.577 Y72.363
X21.373 Y71.885
X21.124 Y71.137
X20.923 Y70.375
X20.738 Y69.608
X20.554 Y68.842
X20.367 Y68.076
X20.177 Y67.311
X19.985 Y66.546
X19.794 Y65.781
X19.607 Y65.015
X19.427 Y64.248
X19.257 Y63.478
X18.981 Y62.739
X18.598 Y62.05
X18.149 Y61.402
X18.013 Y61.225
X17.912 Y61.066
X17.839 Y60.894
X17.795 Y60.711
X17.533 Y58.938
X17.485 Y58.401
X17.473 Y58.222
X17.411 Y56.951
G3 X17.862 Y56.452 Z-0.4 I0.475 J-0.023
X17.91 Y57.403 I0.024 J0.475
X17.412 Y56.884 I-0.024 J-0.475
G1 X17.513 Y55.793
G3 X18.461 Y55.881 I0.474 J0.044
X17.59 Y56.1 I-0.474 J-0.044
G1 X17.572 Y56.071
X17.565 Y56.061 F50
G3 X17.332 Y55.358 Z-0.6 I1.344 J-0.836
G1 X17.33 Y55.179 F150
Y54.821
X17.332 Y54.642
X17.403 Y53.21
X17.458 Y52.658
X17.598 Y51.882
X17.793 Y51.118
X18.009 Y50.36
X18.453 Y48.847
X18.896 Y47.334
X19.12 Y46.578
X19.348 Y45.823
X19.583 Y45.071
X19.821 Y44.319
X19.931 Y43.538
X19.93 Y42.75
X19.859 Y41.965
X19.848 Y41.882
X19.838 Y41.707
X19.857 Y41.532
X19.903 Y41.362
X20.095 Y40.825
X20.225 Y40.501
X20.274 Y40.386
X21.454 Y37.893
G3 X21.623 Y37.698 I0.43 J0.204
G1 X21.676 Y37.659
X21.722 Y37.612
X21.978 Y37.318
X22.022 Y37.258
X22.057 Y37.192
X22.078 Y37.132 F50
X22.091 Y37.07
X22.095 Y37.007
G3 X22.243 Y36.437 I1.187 J0.004
G1 X23.24 Y34.773 F150
X23.492 Y34.397
X23.894 Y33.89
X24.432 Y33.313
X24.994 Y32.76
X25.564 Y32.215
X26.706 Y31.128
X27.276 Y30.584
X27.847 Y30.04
X28.42 Y29.499
X28.997 Y28.962
X29.571 Y28.421
X30.067 Y27.808
X30.474 Y27.133
X30.814 Y26.421
X30.907 Y26.201
X30.999 Y26.026
X31.121 Y25.87
X31.269 Y25.738
X33.699 Y23.936
X33.811 Y23.854
X34.064 Y23.675
X34.236 Y23.562
X34.344 Y23.497
X34.417 Y23.465
X34.495 Y23.445
X34.574 Y23.438
X34.575
X34.643 Y23.443
X34.705 Y23.466 Z-0.595
X34.766 Y23.488 Z-0.581
X34.824 Y23.509 Z-0.559
X34.878 Y23.559 Z-0.517
X34.925 Y23.604 Z-0.464
X34.965 Y23.641 Z-0.399
X34.983 Y23.674 Z-0.337
X34.997 Y23.698 Z-0.269
X35.005 Y23.712 Z-0.197
X35.008 Y23.717 Z-0.124
Z5
X23.041 Y36.009
Z0.352
Z-0.124 F50
Y36.002 Z-0.207
Y35.981 Z-0.287
Y35.945 Z-0.362
Y35.898 Z-0.43
X23.042 Y35.839 Z-0.489
Y35.771 Z-0.536
Y35.696 Z-0.571
Y35.616 Z-0.593
X23.043 Y35.533 Z-0.6
G3 X23.24 Y34.773 I1.583 J0.006
G1 X23.562 Y34.236 F150
X23.68 Y34.057
X23.854 Y33.811
X23.936 Y33.699
X25.823 Y31.154
X25.945 Y31.014
X26.36 Y30.551
X28.049 Y28.687
X28.15 Y28.581
X28.581 Y28.15
X28.687 Y28.049
X30.656 Y26.265
X31.014 Y25.945
X31.154 Y25.823
X31.269 Y25.738
G3 X31.511 Y25.646 Z-0.53 I0.284 J0.382
G1 X31.587 Y25.633 Z-0.509
X31.66 Y25.608 Z-0.489
X31.728 Y25.572 Z-0.468
X31.941 Y25.434 Z-0.4
X31.951 Y25.427
X35.333 Y23.24
X35.396 Y23.192
X35.45 Y23.133
X35.494 Y23.067
X35.51 Y23.036
X35.516 Y23.026 F50
G3 X36.026 Y22.489 Z-0.6 I1.37 J0.791
G1 X37.1 Y21.846 F150
X37.279 Y21.751
X37.816 Y21.49
X40.386 Y20.274
X40.501 Y20.225
X40.825 Y20.095
X43.723 Y19.058
X43.829 Y19.021
X44.441 Y18.842
X47.303 Y18.125
X47.482 Y18.083
X48.019 Y17.985
X48.266 Y17.947
X49.481 Y17.767
X50.228 Y17.728 Z-0.4
X50.239 Y17.727
X55.853 Y17.433
X55.865 Y17.432 F50
X56.579 Y17.394 Z-0.592
X56.611 Z-0.6
X58.222 Y17.473 F150
X58.401 Y17.485
X58.938 Y17.533
X61.802 Y17.957
X61.981 Y17.985
X62.518 Y18.083
X62.701 Y18.126
X65.561 Y18.843
X66.171 Y19.021
X66.277 Y19.058
X68.916 Y20.002
X68.956 Y20.021 Z-0.588
X69.582 Y20.34 Z-0.4
X69.592 Y20.346
X74.372 Y22.788
X74.382 Y22.793 F50
X75.048 Y23.133 Z-0.6
X75.764 Y23.562 F150
X75.943 Y23.68
X76.189 Y23.854
X76.301 Y23.936
X78.846 Y25.823
X78.986 Y25.945
X79.449 Y26.36
X81.313 Y28.049
X81.419 Y28.15
X81.85 Y28.581
X81.951 Y28.687
X83.735 Y30.656
X84.055 Y31.014
X84.177 Y31.154
X84.503 Y31.594
X84.91 Y32.221 Z-0.4
X84.916 Y32.231
X88.012 Y36.999
X88.018 Y37.009 F50
X88.402 Y37.601 Z-0.589
X88.423 Y37.637 Z-0.6
X88.51 Y37.816 F150
X89.726 Y40.386
X89.775 Y40.501
X89.905 Y40.825
X90.942 Y43.723
X90.979 Y43.829
X91.158 Y44.441
X91.875 Y47.303
X91.917 Y47.482
X92.015 Y48.019
X92.053 Y48.266
X92.224 Y49.42
X92.264 Y50.166 Z-0.4
Y50.178
X92.567 Y55.853
Y55.865 F50
X92.605 Y56.579 Z-0.591
X92.606 Y56.611 Z-0.6
X92.527 Y58.222 F150
X92.515 Y58.401
X92.467 Y58.938
X92.043 Y61.802
X92.015 Y61.981
X91.917 Y62.518
X91.874 Y62.701
X91.157 Y65.561
X90.979 Y66.171
X90.942 Y66.277
X89.995 Y68.922
X89.977 Y68.963 Z-0.588
X89.657 Y69.588 Z-0.4
X89.652 Y69.599
X87.212 Y74.372
X87.207 Y74.382 F50
X86.867 Y75.048 Z-0.6
X86.438 Y75.764 F150
X86.32 Y75.943
X86.146 Y76.189
X86.064 Y76.301
X84.177 Y78.846
X84.055 Y78.986
X83.64 Y79.449
X81.951 Y81.313
X81.85 Y81.419
X81.419 Y81.85
X81.313 Y81.951
X79.344 Y83.735
X78.986 Y84.055
X78.846 Y84.177
X78.406 Y84.503
X77.779 Y84.91 Z-0.4
X77.77 Y84.916
X73.001 Y88.012
X72.991 Y88.018 F50
X72.399 Y88.402 Z-0.589
X72.363 Y88.423 Z-0.6
X72.184 Y88.51 F150
X69.614 Y89.726
X69.499 Y89.775
X69.175 Y89.905
X66.277 Y90.942
X66.171 Y90.979
X65.559 Y91.158
X62.697 Y91.875
X62.518 Y91.917
X61.981 Y92.015
X61.734 Y92.053
X60.58 Y92.224
X59.834 Y92.264 Z-0.4
X59.822
X54.147 Y92.567
X54.135 F50
X53.421 Y92.605 Z-0.591
X53.389 Y92.606 Z-0.6
X51.778 Y92.527 F150
X51.599 Y92.515
X51.062 Y92.467
X48.198 Y92.043
X48.019 Y92.015
X47.482 Y91.917
X47.299 Y91.874
X44.439 Y91.157
X43.829 Y90.979
X43.723 Y90.942
X41.078 Y89.995
X41.037 Y89.977 Z-0.588
X40.411 Y89.657 Z-0.4
X40.401 Y89.652
X35.628 Y87.212
X35.618 Y87.207 F50
X34.952 Y86.867 Z-0.6
X34.236 Y86.438 F150
X34.057 Y86.32
X33.811 Y86.146
X33.699 Y86.064
X31.154 Y84.177
X31.014 Y84.055
X30.551 Y83.64
X28.687 Y81.951
X28.581 Y81.85
X28.15 Y81.419
X28.049 Y81.313
X26.265 Y79.344
X25.945 Y78.986
X25.823 Y78.846
X25.497 Y78.406
X25.09 Y77.779 Z-0.4
X25.084 Y77.77
X21.988 Y73.001
X21.982 Y72.991 F50
X21.598 Y72.399 Z-0.589
X21.577 Y72.363 Z-0.6
X21.49 Y72.184 F150
X20.274 Y69.614
X20.225 Y69.499
X20.095 Y69.175
X19.058 Y66.277
X19.021 Y66.171
X18.842 Y65.559
X18.125 Y62.697
X18.083 Y62.518
X17.985 Y61.981
X17.947 Y61.734
X17.795 Y60.711
X17.756 Y59.965 Z-0.4
Y59.953
X17.441 Y53.968
Y53.956 F50
X17.403 Y53.242 Z-0.592
Y53.21 Z-0.6
X17.473 Y51.778 F150
X17.485 Y51.599
X17.533 Y51.062
X17.957 Y48.198
X17.985 Y48.019
X18.083 Y47.482
X18.126 Y47.299
X18.843 Y44.439
X19.021 Y43.829
X19.058 Y43.723
X19.903 Y41.362
G3 X20.1 Y41.13 I0.442 J0.176
G1 X20.162 Y41.109 Z-0.595
X20.223 Y41.087 Z-0.581
X20.281 Y41.066 Z-0.559
X20.345 Y41.062 Z-0.524
X20.408 Y41.075 Z-0.474
X20.461 Y41.086 Z-0.415
X20.503 Y41.095 Z-0.347
X20.534 Y41.101 Z-0.273
X20.55 Y41.109 Z-0.199
X20.556 Y41.111 Z-0.124
Z5
X40.241 Y33.345
Z-0.248
Z-0.724 F50
X40.239 Y33.338 Z-0.807
X40.234 Y33.317 Z-0.887
X40.225 Y33.283 Z-0.962
X40.213 Y33.237 Z-1.03
X40.199 Y33.18 Z-1.089
X40.182 Y33.114 Z-1.136
X40.163 Y33.041 Z-1.171
X40.143 Y32.964 Z-1.193
X40.123 Y32.884 Z-1.2
G3 X39.75 Y30.292 I11.772 J-3.015
G1 Y30.125 F150
X39.728 Y29.977
X39.739 Y29.828
X39.768 Y29.68
X39.815 Y29.525
X39.885 Y29.343
X39.989 Y29.13
X40.135 Y28.882
X40.319 Y28.62
X40.527 Y28.368
X40.813 Y28.075
X41.211 Y27.727
X41.793 Y27.296
X42.462 Y26.879
X43.154 Y26.501
X43.868 Y26.167
X44.6 Y25.872
X45.341 Y25.603
X46.088 Y25.352
X46.841 Y25.119
X47.604 Y24.92
X48.373 Y24.745
X49.145 Y24.584
X49.918 Y24.433
X50.698 Y24.314
X51.481 Y24.22
X52.265 Y24.144
X53.051 Y24.078
X53.248 Y24.067
X54.134 Y24.028
X54.922 Y24.022
X55.71 Y24.032
X56.499 Y24.054
X57.286 Y24.096
X58.071 Y24.169
X58.854 Y24.263
X59.635 Y24.369
X60.415 Y24.485
X61.189 Y24.636
X61.957 Y24.81
X62.723 Y24.999
X63.486 Y25.198
X64.242 Y25.421
X64.989 Y25.672
X65.731 Y25.94
X66.468 Y26.22
X67.2 Y26.512
X67.919 Y26.835
X68.629 Y27.179
X69.068 Y27.402
X69.768 Y27.764
X70.46 Y28.143
X71.135 Y28.55
X71.8 Y28.973
X72.458 Y29.408
X73.11 Y29.85
X73.742 Y30.322
X74.36 Y30.812
X74.967 Y31.315
X75.568 Y31.825
X76.153 Y32.354
X76.718 Y32.904
X77.27 Y33.467
X77.813 Y34.038
X78.346 Y34.619
X78.854 Y35.222
X79.344 Y35.84
X79.823 Y36.466
X80.294 Y37.098
X80.741 Y37.747
X80.954 Y38.079
X81.422 Y38.832
X81.827 Y39.509
X82.223 Y40.191
X82.589 Y40.889
X82.933 Y41.599
X83.262 Y42.315
X83.582 Y43.035
X83.88 Y43.765
X84.151 Y44.506
X84.404 Y45.252
X84.646 Y46.003
X84.875 Y46.757
X85.071 Y47.521
X85.245 Y48.29
X85.404 Y49.062
X85.555 Y49.836
X85.677 Y50.615
X85.772 Y51.397
X85.849 Y52.182
X85.916 Y52.968
X85.928 Y53.164
X85.938 Y53.361
X85.971 Y54.149
X85.978 Y54.937
X85.967 Y55.726
X85.945 Y56.514
X85.903 Y57.301
X85.829 Y58.086
X85.735 Y58.869
X85.628 Y59.65
X85.513 Y60.43
X85.361 Y61.203
X85.187 Y61.972
X84.997 Y62.737
X84.798 Y63.5
X84.574 Y64.256
X84.323 Y65.004
X84.055 Y65.745
X83.775 Y66.482
X83.482 Y67.214
X83.158 Y67.933
X82.814 Y68.642
X82.591 Y69.081
X82.229 Y69.782
X81.849 Y70.473
X81.442 Y71.148
X81.018 Y71.813
X80.583 Y72.47
X80.141 Y73.123
X79.669 Y73.754
X79.178 Y74.372
X78.676 Y74.979
X78.165 Y75.58
X77.636 Y76.164
X77.086 Y76.729
X76.522 Y77.28
X75.951 Y77.823
X75.37 Y78.356
X74.766 Y78.863
X74.148 Y79.353
X73.522 Y79.832
X72.89 Y80.303
X72.24 Y80.75
X71.908 Y80.962
X71.155 Y81.43
X70.478 Y81.834
X69.796 Y82.231
X69.097 Y82.596
X68.388 Y82.939
X67.671 Y83.268
X66.951 Y83.588
X66.221 Y83.886
X65.48 Y84.156
X64.733 Y84.409
X63.983 Y84.65
X63.228 Y84.879
X62.464 Y85.074
X61.695 Y85.248
X60.923 Y85.407
X60.149 Y85.558
X59.37 Y85.679
X58.588 Y85.773
X57.803 Y85.851
X57.017 Y85.917
X56.821 Y85.929
X56.624 Y85.939
X55.836 Y85.971
X55.048 Y85.978
X54.259 Y85.967
X53.471 Y85.945
X52.684 Y85.901
X51.899 Y85.827
X51.116 Y85.733
X50.335 Y85.626
X49.556 Y85.51
X48.782 Y85.358
X48.013 Y85.183
X47.248 Y84.993
X46.485 Y84.794
X45.729 Y84.569
X44.982 Y84.318
X44.241 Y84.049
X43.504 Y83.769
X42.772 Y83.476
X42.054 Y83.152
X41.344 Y82.807
X40.905 Y82.584
X40.205 Y82.222
X39.514 Y81.841
X38.839 Y81.434
X38.175 Y81.01
X37.517 Y80.575
X36.865 Y80.132
X36.234 Y79.66
X35.617 Y79.169
X35.01 Y78.666
X34.409 Y78.155
X33.825 Y77.626
X33.261 Y77.075
X32.709 Y76.512
X32.167 Y75.94
X31.634 Y75.358
X31.127 Y74.754
X30.638 Y74.136
X30.159 Y73.51
X29.688 Y72.878
X29.242 Y72.228
X29.03 Y71.895
X28.562 Y71.142
X28.158 Y70.465
X27.762 Y69.783
X27.397 Y69.084
X27.054 Y68.374
X26.725 Y67.658
X26.405 Y66.937
X26.296 Y66.714
X26.233 Y66.578
X26.17 Y66.442
X26.109 Y66.305
X26.049 Y66.167
X25.99 Y66.029
X25.933 Y65.891
X25.872 Y65.743
X25.809 Y65.583
X25.741 Y65.41
X25.669 Y65.221
X25.591 Y65.014
X25.507 Y64.783
X25.415 Y64.525
X25.312 Y64.231
X25.261 Y64.08
X25.213 Y63.938
X25.167 Y63.795
X25.123 Y63.652
X25.079 Y63.508
X25.037 Y63.364
X24.995 Y63.214
X24.95 Y63.053
X24.903 Y62.878
X24.853 Y62.689
X24.801 Y62.481
X24.744 Y62.251
X24.684 Y61.995
X24.617 Y61.705
X24.543 Y61.373
X24.459 Y60.983
X24.405 Y60.72
X24.375 Y60.573
X24.347 Y60.425
X24.321 Y60.278
X24.295 Y60.13
X24.269 Y59.974
X24.243 Y59.806
X24.216 Y59.624
X24.187 Y59.426
X24.158 Y59.209
X24.127 Y58.969
X24.095 Y58.701
X24.061 Y58.397
X24.024 Y58.046
X23.984 Y57.633
X23.952 Y57.281
X23.939 Y57.132
X23.928 Y56.982
X23.918 Y56.832
X23.91 Y56.683
X23.902 Y56.523
X23.894 Y56.35
X23.888 Y56.164
X23.882 Y55.961
X23.877 Y55.739
X23.874 Y55.493
X23.872 Y55.217
X23.873 Y54.905
X23.876 Y54.543
X23.883 Y54.116
X23.89 Y53.781
X23.895 Y53.631
X23.901 Y53.481
X23.908 Y53.332
X23.916 Y53.181
X23.926 Y53.02
X23.939 Y52.846
X23.953 Y52.658
X23.971 Y52.453
X23.992 Y52.229
X24.016 Y51.98
X24.046 Y51.702
X24.083 Y51.385
X24.127 Y51.019
X24.184 Y50.584
X24.224 Y50.292
X24.245 Y50.144
X24.268 Y49.995
X24.292 Y49.847
X24.318 Y49.697
X24.346 Y49.537
X24.378 Y49.364
X24.414 Y49.178
X24.455 Y48.975
X24.501 Y48.752
X24.555 Y48.504
X24.617 Y48.228
X24.69 Y47.913
X24.777 Y47.548
X24.884 Y47.113
X24.948 Y46.864
X24.986 Y46.719
X25.025 Y46.574
X25.066 Y46.43
X25.108 Y46.283
X25.155 Y46.126
X25.206 Y45.956
X25.264 Y45.774
X25.327 Y45.575
X25.399 Y45.356
X25.481 Y45.115
X25.575 Y44.843
X25.684 Y44.535
X25.814 Y44.177
X25.972 Y43.75
X26.051 Y43.541
X26.105 Y43.401
X26.161 Y43.261
X26.217 Y43.122
X26.276 Y42.98
X26.341 Y42.829
X26.411 Y42.666
X26.489 Y42.49
X26.576 Y42.298
X26.672 Y42.088
X26.781 Y41.855
X26.906 Y41.594
X27.051 Y41.296
X27.326 Y40.744
X27.494 Y40.415
X27.563 Y40.282
X27.633 Y40.149
X27.705 Y40.017
X27.777 Y39.886
X27.856 Y39.746
X27.942 Y39.595
X28.036 Y39.433
X28.139 Y39.258
X28.254 Y39.066
X28.384 Y38.855
X28.53 Y38.619
X28.698 Y38.352
X28.895 Y38.045
X29.13 Y37.683
X29.309 Y37.413
X29.393 Y37.289
X29.478 Y37.165
X29.563 Y37.042
X29.651 Y36.918
X29.746 Y36.787
X29.849 Y36.646
X29.962 Y36.494
X30.086 Y36.33
X30.223 Y36.15
X30.377 Y35.952
X30.552 Y35.731
X30.752 Y35.481
X30.987 Y35.193
X31.268 Y34.852
X31.449 Y34.636
X31.546 Y34.522
X31.644 Y34.409
X31.743 Y34.296
X31.845 Y34.182
X31.955 Y34.062
X32.074 Y33.932
X32.204 Y33.793
X32.348 Y33.642
X32.506 Y33.477
X32.684 Y33.296
X32.884 Y33.093
X33.115 Y32.864
X33.385 Y32.6
X33.709 Y32.287
X33.886 Y32.119
X33.995 Y32.017
X34.105 Y31.915
X34.217 Y31.814
X34.331 Y31.712
X34.454 Y31.604
X34.588 Y31.488
X34.734 Y31.363
X34.895 Y31.229
X35.072 Y31.082
X35.271 Y30.92
X35.495 Y30.74
X35.753 Y30.536
X36.375 Y30.051
X36.928 Y29.49
X37.181 Y29.187
X37.593 Y28.682
X37.725 Y28.521
X37.862 Y28.358
X37.96 Y28.243
X38.058 Y28.13
X38.157 Y28.017
X38.257 Y27.906
X38.358 Y27.795
X38.46 Y27.685
X38.563 Y27.576
X38.668 Y27.469
X38.774 Y27.362
X38.88 Y27.257
X38.988 Y27.152
X39.097 Y27.049
X39.207 Y26.947
X39.318 Y26.846
X39.431 Y26.747
X39.544 Y26.649
X39.659 Y26.552
X39.774 Y26.457
X39.891 Y26.362
X40.009 Y26.27
X40.128 Y26.178
X40.247 Y26.088
X40.368 Y25.999
X40.489 Y25.911
X40.612 Y25.824
X40.736 Y25.739
X40.86 Y25.655
X40.985 Y25.573
X41.111 Y25.492
X41.238 Y25.411
X41.366 Y25.333
X41.495 Y25.256
X41.624 Y25.18
X41.754 Y25.105
X41.885 Y25.032
X42.016 Y24.959
X42.148 Y24.889
X42.281 Y24.819
X42.415 Y24.75
X42.549 Y24.683
X43.279 Y24.387
X44.016 Y24.105
X44.758 Y23.84
X45.508 Y23.595
X46.264 Y23.372
X47.025 Y23.168
X47.791 Y22.981
X48.561 Y22.812
X49.336 Y22.665
X50.114 Y22.539
X50.895 Y22.431
X51.189 Y22.397
X51.385 Y22.376
X51.581 Y22.356
X51.77 Y22.302
X51.947 Y22.215
X52.106 Y22.098
X52.242 Y21.955
X52.458 Y21.626
X52.646 Y20.86
X52.759 Y20.389
X52.894 Y19.981
X52.993 Y19.746
X53.136 Y19.469
X53.239 Y19.305
X53.345 Y19.162
X53.487 Y19
X53.617 Y18.874
X53.732 Y18.779
X53.862 Y18.691
X54.026 Y18.599
X54.162 Y18.536
X54.306 Y18.491
X54.457 Y18.459
X54.605 Y18.44
X54.755 Y18.442
X54.904 Y18.462
X55.051 Y18.494
X55.189 Y18.551
X55.32 Y18.625
X55.44 Y18.715
X55.543 Y18.824
X55.633 Y18.944
X55.695 Y19.081
X55.739 Y19.224
X55.751 Y19.373
X55.764 Y19.57
X55.859 Y19.953
X56.258 Y20.633
X56.853 Y21.15
X57.537 Y21.542
X58.265 Y21.845
X59.015 Y22.088
X59.775 Y22.298
X60.539 Y22.493
X61.304 Y22.684
X62.068 Y22.876
X62.832 Y23.074
X63.592 Y23.283
X64.347 Y23.508
X65.098 Y23.749
X65.844 Y24.004
X66.585 Y24.273
X67.319 Y24.56
X67.682 Y24.714
X67.953 Y24.833
X68.313 Y24.993
X68.492 Y25.075
X68.683 Y25.124
X68.88 Y25.139
X69.076 Y25.119
X69.265 Y25.064
X69.442 Y24.977
X70.076 Y24.508
X70.414 Y24.077
X70.647 Y23.826
X70.852 Y23.637
X71.1 Y23.444
X71.233 Y23.356
X71.403 Y23.262
X71.617 Y23.166
X71.758 Y23.116
X71.904 Y23.079
X72.072 Y23.051
X72.23 Y23.037
X72.38
X72.529 Y23.054
X72.689 Y23.088
X72.832 Y23.131
X72.968 Y23.196
X73.095 Y23.275
X73.215 Y23.365
X73.317 Y23.475
X73.406 Y23.596
X73.476 Y23.729
X73.524 Y23.871
X73.555 Y24.017
Y24.167
X73.537 Y24.316
X73.486 Y24.457
X73.302 Y24.806
X73.24 Y25.195
X73.293 Y25.982
X73.58 Y26.716
X73.994 Y27.387
X74.482 Y28.006
X75.012 Y28.59
X75.567 Y29.15
X76.133 Y29.698
X76.702 Y30.245
X77.267 Y30.795
X77.826 Y31.351
X78.378 Y31.913
X78.92 Y32.485
X79.45 Y33.07
X79.965 Y33.667
X80.467 Y34.274
X80.958 Y34.891
X81.196 Y35.205
X81.429 Y35.524
X81.543 Y35.684
X81.685 Y35.821
X81.848 Y35.932
X82.028 Y36.011
X82.22 Y36.058
X82.613 Y36.082
X83.371 Y35.865
X83.918 Y35.717
X84.354 Y35.637
X84.596 Y35.612
X84.835 Y35.607
X85.125 Y35.624
X85.274 Y35.645
X85.437 Y35.681
X85.631 Y35.742
X85.779 Y35.802
X85.914 Y35.869
X86.04 Y35.949
X86.184 Y36.058
X86.296 Y36.157
X86.394 Y36.272
X86.48 Y36.397
X86.555 Y36.527
X86.609 Y36.667
X86.647 Y36.812
X86.669 Y36.96
X86.665 Y37.11
X86.645 Y37.259
X86.598 Y37.401
X86.532 Y37.536
X86.445 Y37.658
X86.338 Y37.763
X86.217 Y37.852
X85.897 Y38.082
X85.667 Y38.402
X85.346 Y39.122
X85.239 Y39.903
X85.274 Y40.691
X85.396 Y41.47
X85.568 Y42.239
X85.768 Y43.002
X85.982 Y43.76
X86.203 Y44.517
X86.419 Y45.276
X86.624 Y46.037
X86.815 Y46.802
X86.995 Y47.569
X87.161 Y48.34
X87.308 Y49.115
X87.437 Y49.892
X87.547 Y50.673
X87.594 Y51.065
X87.625 Y51.358
X87.645 Y51.555
X87.699 Y51.744
X87.786 Y51.921
X87.902 Y52.08
X88.045 Y52.216
X88.374 Y52.433
X89.138 Y52.628
X89.618 Y52.748
X90.026 Y52.885
X90.264 Y52.987
X90.545 Y53.135
X90.704 Y53.236
X90.848 Y53.344
X91.011 Y53.489
X91.133 Y53.616
X91.228 Y53.733
X91.316 Y53.864
X91.409 Y54.031
X91.471 Y54.167
X91.515 Y54.311
X91.546 Y54.464
X91.564 Y54.613
X91.561 Y54.763
X91.54 Y54.912
X91.507 Y55.058
X91.449 Y55.196
X91.374 Y55.327
X91.283 Y55.446
X91.173 Y55.548
X91.053 Y55.637
X90.916 Y55.698
X90.772 Y55.742
X90.623 Y55.753
X90.426 Y55.767
X90.044 Y55.863
X89.365 Y56.264
X88.848 Y56.859
X88.456 Y57.544
X88.153 Y58.271
X87.91 Y59.022
X87.701 Y59.781
X87.506 Y60.545
X87.315 Y61.31
X87.123 Y62.075
X86.925 Y62.838
X86.715 Y63.598
X86.49 Y64.354
X86.249 Y65.104
X85.994 Y65.85
X85.725 Y66.592
X85.437 Y67.325
X85.283 Y67.688
X85.165 Y67.959
X85.004 Y68.319
X84.922 Y68.498
X84.873 Y68.689
X84.858 Y68.886
X84.878 Y69.082
X84.933 Y69.271
X85.02 Y69.448
X85.489 Y70.082
X85.916 Y70.416
X86.169 Y70.649
X86.357 Y70.852
X86.552 Y71.1
X86.64 Y71.233
X86.733 Y71.401
X86.829 Y71.613
X86.88 Y71.754
X86.918 Y71.899
X86.946 Y72.066
X86.961 Y72.228
X86.962 Y72.378
X86.945 Y72.527
X86.911 Y72.685
X86.869 Y72.829
X86.804 Y72.965
X86.726 Y73.092
X86.636 Y73.212
X86.526 Y73.315
X86.406 Y73.405
X86.273 Y73.474
X86.131 Y73.523
X85.985 Y73.555
X85.835
X85.686 Y73.537
X85.545 Y73.486
X85.196 Y73.303
X84.806 Y73.241
X84.02 Y73.293
X83.285 Y73.579
X82.615 Y73.994
X81.995 Y74.481
X81.411 Y75.011
X80.851 Y75.566
X80.303 Y76.132
X79.756 Y76.701
X79.206 Y77.266
X78.65 Y77.825
X78.088 Y78.377
X77.516 Y78.919
X76.931 Y79.449
X76.335 Y79.964
X75.727 Y80.466
X75.11 Y80.957
X74.796 Y81.195
X74.477 Y81.428
X74.317 Y81.543
X74.18 Y81.684
X74.07 Y81.847
X73.99 Y82.028
X73.944 Y82.219
X73.92 Y82.613
X74.136 Y83.371
X74.283 Y83.918
X74.364 Y84.354
X74.389 Y84.596
X74.394 Y84.835
X74.377 Y85.126
X74.356 Y85.274
X74.319 Y85.439
X74.258 Y85.633
X74.198 Y85.78
X74.131 Y85.914
X74.051 Y86.041
X73.942 Y86.185
X73.843 Y86.297
X73.728 Y86.394
X73.603 Y86.48
X73.473 Y86.555
X73.333 Y86.609
X73.188 Y86.647
X73.04 Y86.67
X72.89 Y86.666
X72.741 Y86.645
X72.598 Y86.598
X72.464 Y86.532
X72.341 Y86.445
X72.237 Y86.338
X72.148 Y86.217
X71.918 Y85.897
X71.598 Y85.667
X70.878 Y85.346
X70.097 Y85.24
X69.309 Y85.274
X68.53 Y85.396
X67.761 Y85.568
X66.998 Y85.768
X66.239 Y85.983
X65.482 Y86.203
X64.724 Y86.419
X63.963 Y86.623
X63.198 Y86.815
X62.43 Y86.995
X61.66 Y87.161
X60.885 Y87.308
X60.107 Y87.437
X59.327 Y87.547
X58.935 Y87.594
X58.641 Y87.625
X58.445 Y87.645
X58.256 Y87.699
X58.079 Y87.786
X57.92 Y87.902
X57.784 Y88.045
X57.567 Y88.374
X57.371 Y89.138
X57.252 Y89.618
X57.115 Y90.026
X57.013 Y90.264
X56.865 Y90.545
X56.764 Y90.704
X56.655 Y90.848
X56.511 Y91.011
X56.384 Y91.133
X56.267 Y91.228
X56.136 Y91.316
X55.969 Y91.409
X55.833 Y91.471
X55.689 Y91.515
X55.536 Y91.546
X55.387 Y91.564
X55.237 Y91.561
X55.088 Y91.54
X54.942 Y91.507
X54.804 Y91.449
X54.674 Y91.374
X54.554 Y91.283
X54.452 Y91.173
X54.363 Y91.053
X54.302 Y90.916
X54.258 Y90.772
X54.247 Y90.623
X54.233 Y90.426
X54.137 Y90.044
X53.736 Y89.365
X53.141 Y88.848
X52.457 Y88.456
X51.729 Y88.153
X50.979 Y87.91
X50.219 Y87.7
X49.455 Y87.505
X48.69 Y87.315
X47.925 Y87.123
X47.162 Y86.925
X46.402 Y86.715
X45.647 Y86.49
X44.896 Y86.249
X44.15 Y85.994
X43.409 Y85.725
X42.675 Y85.437
X42.312 Y85.283
X42.041 Y85.165
X41.681 Y85.004
X41.502 Y84.922
X41.311 Y84.873
X41.114 Y84.858
X40.918 Y84.878
X40.729 Y84.933
X40.552 Y85.021
X39.918 Y85.489
X39.584 Y85.916
X39.351 Y86.169
X39.148 Y86.357
X38.9 Y86.552
X38.767 Y86.64
X38.599 Y86.733
X38.387 Y86.829
X38.246 Y86.88
X38.101 Y86.918
X37.934 Y86.946
X37.772 Y86.961
X37.622 Y86.962
X37.473 Y86.945
X37.315 Y86.911
X37.171 Y86.869
X37.035 Y86.804
X36.907 Y86.726
X36.788 Y86.636
X36.685 Y86.526
X36.595 Y86.406
X36.526 Y86.273
X36.477 Y86.131
X36.445 Y85.985
Y85.835
X36.463 Y85.686
X36.514 Y85.545
X36.697 Y85.196
X36.759 Y84.806
X36.707 Y84.02
X36.421 Y83.285
X36.006 Y82.615
X35.519 Y81.995
X34.989 Y81.411
X34.434 Y80.851
X33.868 Y80.303
X33.299 Y79.756
X32.734 Y79.206
X32.175 Y78.65
X31.623 Y78.088
X31.081 Y77.516
X30.551 Y76.931
X30.036 Y76.334
X29.533 Y75.727
X29.042 Y75.11
X28.804 Y74.796
X28.572 Y74.478
X28.457 Y74.317
X28.316 Y74.18
X28.152 Y74.07
X27.972 Y73.99
X27.781 Y73.944
X27.387 Y73.92
X26.629 Y74.136
X26.082 Y74.283
X25.646 Y74.364
X25.404 Y74.389
X25.165 Y74.394
X24.874 Y74.377
X24.725 Y74.356
X24.561 Y74.319
X24.367 Y74.258
X24.22 Y74.198
X24.086 Y74.131
X23.959 Y74.051
X23.815 Y73.942
X23.703 Y73.843
X23.606 Y73.728
X23.52 Y73.603
X23.445 Y73.473
X23.391 Y73.333
X23.353 Y73.188
X23.33 Y73.04
X23.334 Y72.89
X23.355 Y72.741
X23.402 Y72.598
X23.468 Y72.464
X23.555 Y72.341
X23.662 Y72.237
X23.783 Y72.148
X24.103 Y71.918
X24.333 Y71.598
X24.654 Y70.878
X24.76 Y70.096
X24.723 Y69.309
X24.588 Y68.532
X24.399 Y67.767
X24.18 Y67.009
X23.946 Y66.257
X23.71 Y65.504
X23.483 Y64.749
X23.268 Y63.991
X23.067 Y63.228
X22.879 Y62.463
X22.708 Y61.693
X22.558 Y60.919
X22.426 Y60.142
X22.313 Y59.362
X22.264 Y58.97
X22.231 Y58.677
X22.21 Y58.481
X22.156 Y58.291
X22.068 Y58.115
X21.951 Y57.956
X21.807 Y57.821
X21.477 Y57.606
X20.719 Y57.389
X20.164 Y57.223
X19.878 Y57.113
X19.617 Y56.986
X19.36 Y56.836
X19.224 Y56.74
X19.069 Y56.612
X18.895 Y56.443
X18.796 Y56.33
X18.709 Y56.208
X18.617 Y56.053
X18.552 Y55.918
X18.499 Y55.778
X18.462 Y55.633
X18.437 Y55.485
X18.426 Y55.335
X18.437 Y55.185
X18.463 Y55.038
X18.505 Y54.894
X18.57 Y54.758
X18.648 Y54.631
X18.747 Y54.518
X18.861 Y54.421
X18.988 Y54.34
X19.128 Y54.285
X19.273 Y54.247
X19.663 Y54.194
X20.019 Y54.023
X20.65 Y53.551
X21.128 Y52.924
X21.49 Y52.224
X21.772 Y51.487
X22.004 Y50.734
X22.21 Y49.973
X22.403 Y49.208
X22.593 Y48.443
X22.784 Y47.678
X22.985 Y46.916
X23.2 Y46.157
X23.429 Y45.403
X23.673 Y44.653
X23.931 Y43.908
X24.206 Y43.169
X24.5 Y42.438
X24.617 Y42.166
X24.736 Y41.896
X24.817 Y41.716
X24.864 Y41.525
X24.877 Y41.328
X24.854 Y41.132
X24.798 Y40.943
X24.442 Y40.24
X23.878 Y39.688
X23.655 Y39.435
X23.437 Y39.144
X23.294 Y38.918
X23.2 Y38.737
X23.104 Y38.511
X23.043 Y38.328
X23.007 Y38.182
X22.98 Y38.011
X22.965 Y37.809
Y37.659
X22.984 Y37.51
X23.019 Y37.349
X23.063 Y37.206
X23.124 Y37.069
X23.201 Y36.94
X23.288 Y36.818
X23.392 Y36.71
X23.509 Y36.616
X23.635 Y36.534
X23.773 Y36.477
X23.918 Y36.437
X24.067 Y36.422
X24.217 Y36.43
X24.364 Y36.462
X24.726 Y36.617
X25.117 Y36.667
X25.902 Y36.598
X26.635 Y36.305
X27.304 Y35.888
X27.921 Y35.398
X28.503 Y34.866
X29.061 Y34.309
X29.609 Y33.743
X30.156 Y33.175
X30.706 Y32.61
X31.261 Y32.05
X31.823 Y31.497
X32.397 Y30.956
X32.982 Y30.428
X33.579 Y29.913
X34.175 Y29.397
X34.745 Y28.852
X35.019 Y28.569
X35.149 Y28.42
X35.25 Y28.251
X35.389 Y27.882
X35.465 Y27.097
X35.421 Y26.31
X35.378 Y25.636
X35.382 Y25.374
X35.414 Y25.054
X35.462 Y24.788
X35.508 Y24.611
X35.582 Y24.403
X35.669 Y24.207
X35.741 Y24.075
X35.83 Y23.943
X35.95 Y23.792
X36.053 Y23.683
X36.167 Y23.586
X36.292 Y23.499
X36.422 Y23.424
X36.56 Y23.364
X36.704 Y23.322
X36.851 Y23.293
X37.001 Y23.285
X37.15 Y23.298
X37.298 Y23.325
X38.047 Y23.569
X38.836 Y23.587
X39.615 Y23.469
X40.379 Y23.275
X41.134 Y23.048
X41.884 Y22.802
X42.63 Y22.55
X43.378 Y22.299
X44.128 Y22.057
X44.882 Y21.827
X45.64 Y21.609
X46.402 Y21.406
X47.168 Y21.219
X47.938 Y21.05
X48.711 Y20.898
X49.414 Y20.54
X50.013 Y20.027
X50.549 Y19.45
X51.072 Y18.859
X51.541 Y18.37
X51.921 Y18.033
X52.257 Y17.78
X52.58 Y17.575
X52.658 Y17.534
X52.806 Y17.469
X52.961 Y17.427
X53.121 Y17.407
X54.642 Y17.332
X54.855 Y17.34
X55.033 Y17.361
X55.208 Y17.396
X55.378 Y17.445
X55.533 Y17.503
X55.689 Y17.576
X55.837 Y17.66
X55.976 Y17.756
X56.59 Y18.251
X57.183 Y18.771
X57.832 Y19.218
X58.523 Y19.597
X59.243 Y19.919
X59.98 Y20.199
X60.727 Y20.45
X61.481 Y20.683
X62.237 Y20.906
X62.993 Y21.127
X63.749 Y21.352
X64.503 Y21.583
X65.253 Y21.825
X66 Y22.077
X66.743 Y22.343
X67.529 Y22.393
X68.304 Y22.247
X69.058 Y22.016
X69.805 Y21.765
X70.438 Y21.587
X70.906 Y21.495
X71.327 Y21.447
X71.683 Y21.435
X71.885 Y21.444
X72.034 Y21.462
X72.179 Y21.499
X72.318 Y21.555
X72.721 Y21.751
X72.9 Y21.846
X73.563 Y22.243
X73.742 Y22.363
X73.887 Y22.478
X74.012 Y22.594
X74.128 Y22.722
X74.232 Y22.856
X74.329 Y23.004
X74.407 Y23.148
X74.474 Y23.297
X74.735 Y24.041
X75.006 Y24.781
X75.358 Y25.487
X75.775 Y26.156
X76.243 Y26.79
X76.746 Y27.398
X77.27 Y27.986
X77.808 Y28.563
X78.351 Y29.134
X78.896 Y29.704
X79.439 Y30.276
X79.976 Y30.853
X80.505 Y31.438
X81.024 Y32.031
X81.279 Y32.332
X81.9 Y32.817
X82.63 Y33.115
X83.394 Y33.311
X84.166 Y33.471
X84.902 Y33.645
X85.41 Y33.809
X85.819 Y33.978
X86.154 Y34.15
X86.293 Y34.236
X86.435 Y34.34
X86.559 Y34.466
X86.662 Y34.61
X87.399 Y35.839
X87.53 Y36.085
X87.599 Y36.244
X87.652 Y36.401
X87.695 Y36.569
X87.723 Y36.732
X87.738 Y36.902
X87.739 Y37.062
X87.727 Y37.229
X87.607 Y38.009
X87.461 Y38.783
X87.402 Y39.569
X87.422 Y40.358
X87.503 Y41.142
X87.63 Y41.92
X87.787 Y42.693
X87.963 Y43.461
X88.148 Y44.228
X88.334 Y44.994
X88.517 Y45.76
X88.694 Y46.529
X88.861 Y47.299
X89.015 Y48.072
X89.085 Y48.46
X89.359 Y49.2
X89.834 Y49.829
X90.395 Y50.383
X90.982 Y50.909
X91.547 Y51.437
X91.92 Y51.846
X92.182 Y52.185
X92.396 Y52.512
X92.459 Y52.628
X92.527 Y52.779
X92.572 Y52.939
X92.592 Y53.104
X92.668 Y54.642
X92.66 Y54.858
X92.639 Y55.036
X92.604 Y55.21
X92.555 Y55.38
X92.497 Y55.535
X92.424 Y55.691
X92.34 Y55.838
X92.244 Y55.979
X91.749 Y56.592
X91.229 Y57.185
X90.782 Y57.834
X90.403 Y58.525
X90.081 Y59.245
X89.801 Y59.982
X89.55 Y60.729
X89.317 Y61.483
X89.094 Y62.239
X88.873 Y62.996
X88.648 Y63.751
X88.416 Y64.505
X88.175 Y65.255
X87.922 Y66.002
X87.657 Y66.744
X87.606 Y67.531
X87.751 Y68.306
X87.982 Y69.06
X88.233 Y69.807
X88.411 Y70.44
X88.503 Y70.909
X88.551 Y71.329
X88.563 Y71.684
X88.553 Y71.889
X88.536 Y72.038
X88.499 Y72.184
X88.443 Y72.323
X88.249 Y72.721
X88.154 Y72.9
X87.757 Y73.563
X87.637 Y73.742
X87.522 Y73.887
X87.406 Y74.011
X87.278 Y74.128
X87.144 Y74.232
X86.996 Y74.329
X86.853 Y74.407
X86.703 Y74.473
X85.959 Y74.735
X85.219 Y75.006
X84.513 Y75.358
X83.845 Y75.775
X83.21 Y76.243
X82.602 Y76.746
X82.014 Y77.27
X81.437 Y77.808
X80.866 Y78.351
X80.296 Y78.896
X79.725 Y79.439
X79.147 Y79.976
X78.562 Y80.505
X77.969 Y81.024
X77.668 Y81.279
X77.183 Y81.9
X76.886 Y82.63
X76.69 Y83.394
X76.53 Y84.166
X76.356 Y84.902
X76.192 Y85.41
X76.022 Y85.819
X75.85 Y86.154
X75.765 Y86.293
X75.66 Y86.435
X75.535 Y86.559
X75.391 Y86.661
X74.161 Y87.399
X73.915 Y87.53
X73.756 Y87.599
X73.599 Y87.652
X73.431 Y87.695
X73.268 Y87.723
X73.098 Y87.738
X72.938 Y87.739
X72.771 Y87.727
X71.991 Y87.607
X71.217 Y87.461
X70.43 Y87.402
X69.642 Y87.422
X68.858 Y87.503
X68.08 Y87.63
X67.307 Y87.787
X66.539 Y87.963
X65.772 Y88.147
X65.006 Y88.334
X64.24 Y88.517
X63.471 Y88.694
X62.701 Y88.861
X61.927 Y89.015
X61.539 Y89.085
X60.8 Y89.359
X60.171 Y89.834
X59.617 Y90.395
X59.091 Y90.982
X58.563 Y91.547
X58.154 Y91.92
X57.815 Y92.182
X57.488 Y92.395
X57.372 Y92.459
X57.221 Y92.527
X57.061 Y92.572
X56.896 Y92.592
X55.358 Y92.668
X55.142 Y92.66
X54.964 Y92.639
X54.79 Y92.604
X54.62 Y92.555
X54.465 Y92.497
X54.309 Y92.424
X54.162 Y92.34
X54.021 Y92.244
X53.408 Y91.749
X52.815 Y91.229
X52.166 Y90.782
X51.475 Y90.403
X50.755 Y90.081
X50.018 Y89.801
X49.271 Y89.549
X48.518 Y89.317
X47.761 Y89.094
X47.005 Y88.873
X46.249 Y88.648
X45.495 Y88.416
X44.745 Y88.175
X43.998 Y87.923
X43.256 Y87.657
X42.469 Y87.606
X41.694 Y87.751
X40.94 Y87.982
X40.193 Y88.233
X39.561 Y88.411
X39.091 Y88.503
X38.671 Y88.551
X38.316 Y88.563
X38.111 Y88.553
X37.962 Y88.536
X37.816 Y88.499
X37.677 Y88.443
X37.279 Y88.249
X37.1 Y88.154
X36.437 Y87.757
X36.258 Y87.637
X36.113 Y87.522
X35.989 Y87.406
X35.872 Y87.278
X35.768 Y87.144
X35.671 Y86.996
X35.593 Y86.853
X35.527 Y86.703
X35.265 Y85.959
X34.994 Y85.219
X34.642 Y84.513
X34.225 Y83.845
X33.757 Y83.21
X33.254 Y82.602
X32.73 Y82.014
X32.193 Y81.437
X31.649 Y80.866
X31.104 Y80.296
X30.561 Y79.725
X30.024 Y79.147
X29.495 Y78.562
X28.976 Y77.969
X28.721 Y77.668
X28.1 Y77.183
X27.37 Y76.886
X26.606 Y76.69
X25.834 Y76.53
X25.098 Y76.356
X24.59 Y76.192
X24.181 Y76.022
X23.846 Y75.85
X23.707 Y75.765
X23.565 Y75.66
X23.441 Y75.535
X23.339 Y75.391
X22.601 Y74.161
X22.47 Y73.915
X22.401 Y73.756
X22.348 Y73.599
X22.305 Y73.431
X22.277 Y73.268
X22.262 Y73.098
X22.261 Y72.938
X22.273 Y72.771
X22.393 Y71.991
X22.538 Y71.217
X22.59 Y70.43
X22.559 Y69.642
X22.464 Y68.859
X22.322 Y68.084
X22.149 Y67.315
X21.96 Y66.549
X21.566 Y65.023
X21.373 Y64.258
X21.188 Y63.492
X21.015 Y62.723
X20.856 Y61.95
X20.713 Y61.175
X20.323 Y60.489
X19.804 Y59.896
X19.232 Y59.354
X18.655 Y58.817
X18.216 Y58.362
X17.91 Y57.991
X17.675 Y57.652
X17.56 Y57.455
X17.484 Y57.296
X17.433 Y57.126
X17.411 Y56.951
X17.332 Y55.358
X17.341 Y55.134
X17.361 Y54.96
X17.395 Y54.79
X17.444 Y54.62
X17.503 Y54.461
X17.575 Y54.308
X17.658 Y54.162
X17.757 Y54.017
X18.253 Y53.404
X18.736 Y52.78
X19.154 Y52.112
X19.511 Y51.409
X19.818 Y50.683
X20.088 Y49.942
X20.332 Y49.193
X20.559 Y48.438
X20.998 Y46.923
X21.222 Y46.167
X21.453 Y45.414
X21.694 Y44.663
X21.946 Y43.916
X22.213 Y43.174
Y42.386
X22.057 Y41.613
X21.834 Y40.856
X21.605 Y40.102
X21.456 Y39.493
X21.379 Y39.017
X21.347 Y38.603
Y38.366
X21.359 Y38.204
X21.395 Y38.045
X21.454 Y37.893
X21.527 Y37.739
X21.751 Y37.279
X21.846 Y37.1
X22.243 Y36.437
X22.386 Y36.224
X22.489 Y36.093
X22.608 Y35.966
X22.73 Y35.855
X22.866 Y35.749
X23.003 Y35.66
X23.153 Y35.578
X23.874 Y35.257
X24.609 Y34.973
X25.313 Y34.617
X25.98 Y34.197
X26.613 Y33.728
X27.22 Y33.225
X27.809 Y32.7
X28.385 Y32.162
X28.955 Y31.617
X29.523 Y31.07
X30.094 Y30.526
X30.67 Y29.988
X31.253 Y29.458
X31.839 Y28.931
X32.374 Y28.351
X32.735 Y27.65
X32.979 Y26.901
X33.367 Y25.372
X33.557 Y24.77
X33.749 Y24.296
X33.938 Y23.919
X33.966 Y23.873
X34.071 Y23.728
X34.198 Y23.602
X34.344 Y23.497
X36.026 Y22.489
X36.158 Y22.419
X36.336 Y22.346
X37.087 Y22.107
X37.855 Y21.925
X38.62 Y21.736
X39.381 Y21.531
X40.138 Y21.311
X40.892 Y21.081
X42.397 Y20.608
X43.15 Y20.375
X43.905 Y20.149
X44.663 Y19.933
X45.424 Y19.727
X46.189 Y19.535
X46.941 Y19.299
X47.645 Y18.944
X48.3 Y18.505
X48.922 Y18.021
X48.942 Y18.005
X49.107 Y17.894
X49.288 Y17.813
X49.481 Y17.767
X51.062 Y17.533
X51.599 Y17.485
X51.778 Y17.473
X53.121 Y17.407
G3 X53.62 Y17.859 Z-1 I0.023 J0.475
X52.669 Y17.906 I-0.475 J0.024
X53.193 Y17.409 I0.475 J-0.024
G1 X54.212 Y17.514
G3 X54.115 Y18.461 I-0.049 J0.474
X53.9 Y17.59 I0.049 J-0.474
G1 X53.929 Y17.572
X53.939 Y17.565 F50
G3 X54.642 Y17.332 Z-1.2 I0.836 J1.344
G1 X54.821 Y17.33 F150
X55.179
X55.358 Y17.332
X56.611 Y17.394
X57.063 Y17.439
X57.734 Y17.561
X58.496 Y17.763
X59.251 Y17.992
X60.003 Y18.228
X60.756 Y18.461
X61.51 Y18.691
X63.02 Y19.146
X63.774 Y19.375
X64.527 Y19.609
X65.278 Y19.85
X66.043 Y20.039
X66.83 Y20.094
X67.617 Y20.048
X68.399 Y19.947
X68.573 Y19.938
X68.747 Y19.957
X68.916 Y20.002
X69.175 Y20.095
X69.499 Y20.225
X69.614 Y20.274
X72.184 Y21.49
X72.318 Y21.555
G3 X72.539 Y22.191 Z-1 I-0.208 J0.428
X71.682 Y21.775 I-0.428 J-0.208
X72.375 Y21.587 I0.428 J0.208
G1 X73.256 Y22.175
G3 X72.727 Y22.967 I-0.264 J0.396
X72.832 Y22.122 I0.264 J-0.396
G1 X72.844 Y22.119 F50
X72.917 Y22.101 Z-1.02
X72.993 Y22.095 Z-1.041
G3 X73.563 Y22.243 Z-1.2 I-0.004 J1.187
G1 X75.048 Y23.133 F150
X75.382 Y23.357
X75.799 Y23.687
X76.375 Y24.225
X76.92 Y24.794
X77.99 Y25.953
X78.526 Y26.531
X79.066 Y27.105
X79.607 Y27.679
X80.147 Y28.253
X80.684 Y28.83
X81.216 Y29.412
X81.762 Y29.981
X82.395 Y30.451
X83.088 Y30.827
X83.811 Y31.141
X84.016 Y31.222
X84.201 Y31.315
X84.365 Y31.44
X84.503 Y31.594
X86.064 Y33.699
X86.146 Y33.811
X86.325 Y34.064
X86.438 Y34.236
X86.662 Y34.61
G3 X86.498 Y35.262 Z-1 I-0.408 J0.245
X86.008 Y34.446 I-0.245 J-0.408
X86.696 Y34.68 I0.245 J0.408
G1 X87.039 Y35.552
G3 X86.153 Y35.9 I-0.443 J0.174
X86.822 Y35.307 I0.443 J-0.174
G1 X86.852 Y35.324
X86.862 Y35.329 F50
G3 X87.399 Y35.839 Z-1.2 I-0.791 J1.37
G1 X88.154 Y37.1 F150
X88.249 Y37.279
X88.423 Y37.637
X88.608 Y38.07
X88.857 Y38.818
X89.049 Y39.582
X89.222 Y40.352
X89.392 Y41.121
X89.566 Y41.89
X89.743 Y42.659
X90.104 Y44.194
X90.281 Y44.962
X90.453 Y45.731
X90.622 Y46.501
X90.9 Y47.239
X91.287 Y47.926
X91.742 Y48.57
X91.999 Y48.897
X92.104 Y49.057
X92.18 Y49.233
X92.224 Y49.42
X92.467 Y51.062
X92.515 Y51.599
X92.527 Y51.778
X92.592 Y53.104
G3 X92.14 Y53.603 Z-1 I-0.475 J0.023
X92.093 Y52.652 I-0.024 J-0.475
X92.59 Y53.175 I0.024 J0.475
G1 X92.487 Y54.211
G3 X91.539 Y54.116 I-0.474 J-0.047
X92.41 Y53.9 I0.474 J0.047
G1 X92.428 Y53.929
X92.435 Y53.939 F50
G3 X92.668 Y54.642 Z-1.2 I-1.344 J0.836
G1 X92.67 Y54.821 F150
Y55.179
X92.668 Y55.358
X92.606 Y56.611
X92.561 Y57.065
X92.439 Y57.737
X92.237 Y58.499
X92.007 Y59.253
X91.772 Y60.005
X91.538 Y60.758
X91.308 Y61.512
X90.854 Y63.022
X90.625 Y63.777
X90.39 Y64.529
X90.149 Y65.28
X89.96 Y66.045
X89.905 Y66.832
X89.951 Y67.619
X90.052 Y68.401
X90.06 Y68.577
X90.042 Y68.752
X89.995 Y68.922
X89.905 Y69.175
X89.775 Y69.499
X89.726 Y69.614
X88.51 Y72.184
X88.443 Y72.323
G3 X87.807 Y72.543 Z-1 I-0.428 J-0.208
X88.222 Y71.687 I0.208 J-0.428
X88.411 Y72.379 I-0.208 J0.428
G1 X87.825 Y73.256
G3 X87.033 Y72.727 I-0.396 J-0.264
X87.878 Y72.832 I0.396 J0.264
G1 X87.881 Y72.844 F50
X87.899 Y72.917 Z-1.02
X87.905 Y72.993 Z-1.041
G3 X87.757 Y73.563 Z-1.2 I-1.187 J-0.004
G1 X86.867 Y75.048 F150
X86.643 Y75.382
X86.313 Y75.799
X85.775 Y76.375
X85.205 Y76.92
X84.047 Y77.99
X83.469 Y78.527
X82.894 Y79.066
X82.321 Y79.607
X81.746 Y80.147
X81.169 Y80.684
X80.588 Y81.217
X80.019 Y81.762
X79.549 Y82.396
X79.173 Y83.089
X78.859 Y83.812
X78.779 Y84.016
X78.686 Y84.2
X78.56 Y84.365
X78.406 Y84.503
X76.301 Y86.064
X76.189 Y86.146
X75.936 Y86.325
X75.764 Y86.438
X75.391 Y86.661
G3 X74.738 Y86.498 Z-1 I-0.245 J-0.408
X75.554 Y86.008 I0.408 J-0.245
X75.32 Y86.696 I-0.408 J0.245
G1 X74.448 Y87.039
G3 X74.1 Y86.153 I-0.174 J-0.443
X74.693 Y86.822 I0.174 J0.443
G1 X74.676 Y86.852
X74.671 Y86.862 F50
G3 X74.161 Y87.399 Z-1.2 I-1.37 J-0.791
G1 X72.9 Y88.154 F150
X72.721 Y88.249
X72.363 Y88.423
X71.93 Y88.608
X71.182 Y88.857
X70.417 Y89.049
X69.648 Y89.222
X68.878 Y89.392
X68.109 Y89.566
X67.341 Y89.743
X65.806 Y90.104
X65.038 Y90.281
X64.269 Y90.453
X63.498 Y90.622
X62.761 Y90.9
X62.074 Y91.287
X61.43 Y91.742
X61.103 Y91.999
X60.943 Y92.104
X60.766 Y92.18
X60.58 Y92.224
X58.938 Y92.467
X58.401 Y92.515
X58.222 Y92.527
X56.896 Y92.592
G3 X56.397 Y92.14 Z-1 I-0.023 J-0.475
X57.348 Y92.093 I0.475 J-0.024
X56.825 Y92.59 I-0.475 J0.024
G1 X55.789 Y92.487
G3 X55.884 Y91.539 I0.047 J-0.474
X56.1 Y92.41 I-0.047 J0.474
G1 X56.071 Y92.428
X56.061 Y92.435 F50
G3 X55.358 Y92.668 Z-1.2 I-0.836 J-1.344
G1 X55.179 Y92.67 F150
X54.821
X54.642 Y92.668
X53.389 Y92.606
X52.935 Y92.561
X52.264 Y92.439
X51.502 Y92.237
X50.748 Y92.007
X49.995 Y91.772
X49.242 Y91.538
X48.488 Y91.308
X46.978 Y90.854
X46.224 Y90.625
X45.471 Y90.391
X44.721 Y90.15
X43.955 Y89.96
X43.169 Y89.905
X42.382 Y89.951
X41.6 Y90.052
X41.424 Y90.06
X41.248 Y90.041
X41.078 Y89.995
X40.825 Y89.905
X40.501 Y89.775
X40.386 Y89.726
X37.816 Y88.51
X37.677 Y88.443
G3 X37.457 Y87.807 Z-1 I0.208 J-0.428
X38.314 Y88.223 I0.428 J0.208
X37.621 Y88.411 I-0.428 J-0.208
G1 X36.744 Y87.825
G3 X37.273 Y87.033 I0.264 J-0.396
X37.168 Y87.878 I-0.264 J0.396
G1 X37.156 Y87.881 F50
X37.083 Y87.899 Z-1.02
X37.007 Y87.905 Z-1.041
G3 X36.437 Y87.757 Z-1.2 I0.004 J-1.187
G1 X34.952 Y86.867 F150
X34.618 Y86.643
X34.201 Y86.313
X33.625 Y85.775
X33.08 Y85.205
X32.01 Y84.047
X31.473 Y83.469
X30.934 Y82.894
X30.393 Y82.321
X29.853 Y81.746
X29.316 Y81.169
X28.783 Y80.588
X28.238 Y80.019
X27.605 Y79.549
X26.912 Y79.173
X26.189 Y78.859
X25.984 Y78.779
X25.8 Y78.686
X25.635 Y78.56
X25.497 Y78.406
X23.936 Y76.301
X23.854 Y76.189
X23.675 Y75.936
X23.562 Y75.764
X23.339 Y75.391
G3 X23.502 Y74.738 Z-1 I0.408 J-0.245
X23.992 Y75.554 I0.245 J0.408
X23.304 Y75.32 I-0.245 J-0.408
G1 X22.961 Y74.448
G3 X23.847 Y74.1 I0.443 J-0.174
X23.178 Y74.693 I-0.443 J0.174
G1 X23.148 Y74.676
X23.138 Y74.671 F50
G3 X22.601 Y74.161 Z-1.2 I0.791 J-1.37
G1 X21.846 Y72.9 F150
X21.751 Y72.721
X21.577 Y72.363
X21.373 Y71.885
X21.124 Y71.137
X20.923 Y70.375
X20.738 Y69.608
X20.554 Y68.842
X20.367 Y68.076
X20.177 Y67.311
X19.985 Y66.546
X19.794 Y65.781
X19.607 Y65.015
X19.427 Y64.248
X19.257 Y63.478
X18.981 Y62.739
X18.598 Y62.05
X18.149 Y61.402
X18.013 Y61.225
X17.912 Y61.066
X17.839 Y60.894
X17.795 Y60.711
X17.533 Y58.938
X17.485 Y58.401
X17.473 Y58.222
X17.411 Y56.951
G3 X17.862 Y56.452 Z-1 I0.475 J-0.023
X17.91 Y57.403 I0.024 J0.475
X17.412 Y56.884 I-0.024 J-0.475
G1 X17.513 Y55.793
G3 X18.461 Y55.881 I0.474 J0.044
X17.59 Y56.1 I-0.474 J-0.044
G1 X17.572 Y56.071
X17.565 Y56.061 F50
G3 X17.332 Y55.358 Z-1.2 I1.344 J-0.836
G1 X17.33 Y55.179 F150
Y54.821
X17.332 Y54.642
X17.403 Y53.21
X17.458 Y52.658
X17.598 Y51.882
X17.793 Y51.118
X18.009 Y50.36
X18.453 Y48.847
X18.896 Y47.334
X19.12 Y46.578
X19.348 Y45.823
X19.583 Y45.071
X19.821 Y44.319
X19.931 Y43.538
X19.93 Y42.75
X19.859 Y41.965
X19.848 Y41.882
X19.838 Y41.707
X19.857 Y41.532
X19.903 Y41.362
X20.095 Y40.825
X20.225 Y40.501
X20.274 Y40.386
X21.454 Y37.893
G3 X21.623 Y37.698 I0.43 J0.204
G1 X21.676 Y37.659
X21.722 Y37.612
X21.978 Y37.318
X22.022 Y37.258
X22.057 Y37.192
X22.078 Y37.132 F50
X22.091 Y37.07
X22.095 Y37.007
G3 X22.243 Y36.437 I1.187 J0.004
G1 X23.24 Y34.773 F150
X23.492 Y34.397
X23.894 Y33.89
X24.432 Y33.313
X24.994 Y32.76
X25.564 Y32.215
X26.706 Y31.128
X27.276 Y30.584
X27.847 Y30.04
X28.42 Y29.499
X28.997 Y28.962
X29.571 Y28.421
X30.067 Y27.808
X30.474 Y27.133
X30.814 Y26.421
X30.907 Y26.201
X30.999 Y26.026
X31.121 Y25.87
X31.269 Y25.738
X33.699 Y23.936
X33.811 Y23.854
X34.064 Y23.675
X34.236 Y23.562
X34.344 Y23.497
X34.417 Y23.465
X34.495 Y23.445
X34.574 Y23.438
X34.575
X34.643 Y23.443
X34.705 Y23.466 Z-1.195
X34.766 Y23.488 Z-1.181
X34.824 Y23.509 Z-1.159
X34.878 Y23.559 Z-1.117
X34.925 Y23.604 Z-1.064
X34.965 Y23.641 Z-0.999
X34.983 Y23.674 Z-0.937
X34.997 Y23.698 Z-0.869
X35.005 Y23.712 Z-0.797
X35.008 Y23.717 Z-0.724
Z5
X23.041 Y36.009
Z-0.248
Z-0.724 F50
Y36.002 Z-0.807
Y35.981 Z-0.887
Y35.945 Z-0.962
Y35.898 Z-1.03
X23.042 Y35.839 Z-1.089
Y35.771 Z-1.136
Y35.696 Z-1.171
Y35.616 Z-1.193
X23.043 Y35.533 Z-1.2
G3 X23.24 Y34.773 I1.583 J0.006
G1 X23.562 Y34.236 F150
X23.68 Y34.057
X23.854 Y33.811
X23.936 Y33.699
X25.823 Y31.154
X25.945 Y31.014
X26.36 Y30.551
X28.049 Y28.687
X28.15 Y28.581
X28.581 Y28.15
X28.687 Y28.049
X30.656 Y26.265
X31.014 Y25.945
X31.154 Y25.823
X31.269 Y25.738
G3 X31.511 Y25.646 Z-1.13 I0.284 J0.382
G1 X31.587 Y25.633 Z-1.109
X31.66 Y25.608 Z-1.089
X31.728 Y25.572 Z-1.068
X31.941 Y25.434 Z-1
X31.951 Y25.427
X35.333 Y23.24
X35.396 Y23.192
X35.45 Y23.133
X35.494 Y23.067
X35.51 Y23.036
X35.516 Y23.026 F50
G3 X36.026 Y22.489 Z-1.2 I1.37 J0.791
G1 X37.1 Y21.846 F150
X37.279 Y21.751
X37.816 Y21.49
X40.386 Y20.274
X40.501 Y20.225
X40.825 Y20.095
X43.723 Y19.058
X43.829 Y19.021
X44.441 Y18.842
X47.303 Y18.125
X47.482 Y18.083
X48.019 Y17.985
X48.266 Y17.947
X49.481 Y17.767
X50.228 Y17.728 Z-1
X50.239 Y17.727
X55.853 Y17.433
X55.865 Y17.432 F50
X56.579 Y17.394 Z-1.192
X56.611 Z-1.2
X58.222 Y17.473 F150
X58.401 Y17.485
X58.938 Y17.533
X61.802 Y17.957
X61.981 Y17.985
X62.518 Y18.083
X62.701 Y18.126
X65.561 Y18.843
X66.171 Y19.021
X66.277 Y19.058
X68.916 Y20.002
X68.956 Y20.021 Z-1.188
X69.582 Y20.34 Z-1
X69.592 Y20.346
X74.372 Y22.788
X74.382 Y22.793 F50
X75.048 Y23.133 Z-1.2
X75.764 Y23.562 F150
X75.943 Y23.68
X76.189 Y23.854
X76.301 Y23.936
X78.846 Y25.823
X78.986 Y25.945
X79.449 Y26.36
X81.313 Y28.049
X81.419 Y28.15
X81.85 Y28.581
X81.951 Y28.687
X83.735 Y30.656
X84.055 Y31.014
X84.177 Y31.154
X84.503 Y31.594
X84.91 Y32.221 Z-1
X84.916 Y32.231
X88.012 Y36.999
X88.018 Y37.009 F50
X88.402 Y37.601 Z-1.189
X88.423 Y37.637 Z-1.2
X88.51 Y37.816 F150
X89.726 Y40.386
X89.775 Y40.501
X89.905 Y40.825
X90.942 Y43.723
X90.979 Y43.829
X91.158 Y44.441
X91.875 Y47.303
X91.917 Y47.482
X92.015 Y48.019
X92.053 Y48.266
X92.224 Y49.42
X92.264 Y50.166 Z-1
Y50.178
X92.567 Y55.853
Y55.865 F50
X92.605 Y56.579 Z-1.191
X92.606 Y56.611 Z-1.2
X92.527 Y58.222 F150
X92.515 Y58.401
X92.467 Y58.938
X92.043 Y61.802
X92.015 Y61.981
X91.917 Y62.518
X91.874 Y62.701
X91.157 Y65.561
X90.979 Y66.171
X90.942 Y66.277
X89.995 Y68.922
X89.977 Y68.963 Z-1.188
X89.657 Y69.588 Z-1
X89.652 Y69.599
X87.212 Y74.372
X87.207 Y74.382 F50
X86.867 Y75.048 Z-1.2
X86.438 Y75.764 F150
X86.32 Y75.943
X86.146 Y76.189
X86.064 Y76.301
X84.177 Y78.846
X84.055 Y78.986
X83.64 Y79.449
X81.951 Y81.313
X81.85 Y81.419
X81.419 Y81.85
X81.313 Y81.951
X79.344 Y83.735
X78.986 Y84.055
X78.846 Y84.177
X78.406 Y84.503
X77.779 Y84.91 Z-1
X77.77 Y84.916
X73.001 Y88.012
X72.991 Y88.018 F50
X72.399 Y88.402 Z-1.189
X72.363 Y88.423 Z-1.2
X72.184 Y88.51 F150
X69.614 Y89.726
X69.499 Y89.775
X69.175 Y89.905
X66.277 Y90.942
X66.171 Y90.979
X65.559 Y91.158
X62.697 Y91.875
X62.518 Y91.917
X61.981 Y92.015
X61.734 Y92.053
X60.58 Y92.224
X59.834 Y92.264 Z-1
X59.822
X54.147 Y92.567
X54.135 F50
X53.421 Y92.605 Z-1.191
X53.389 Y92.606 Z-1.2
X51.778 Y92.527 F150
X51.599 Y92.515
X51.062 Y92.467
X48.198 Y92.043
X48.019 Y92.015
X47.482 Y91.917
X47.299 Y91.874
X44.439 Y91.157
X43.829 Y90.979
X43.723 Y90.942
X41.078 Y89.995
X41.037 Y89.977 Z-1.188
X40.411 Y89.657 Z-1
X40.401 Y89.652
X35.628 Y87.212
X35.618 Y87.207 F50
X34.952 Y86.867 Z-1.2
X34.236 Y86.438 F150
X34.057 Y86.32
X33.811 Y86.146
X33.699 Y86.064
X31.154 Y84.177
X31.014 Y84.055
X30.551 Y83.64
X28.687 Y81.951
X28.581 Y81.85
X28.15 Y81.419
X28.049 Y81.313
X26.265 Y79.344
X25.945 Y78.986
X25.823 Y78.846
X25.497 Y78.406
X25.09 Y77.779 Z-1
X25.084 Y77.77
X21.988 Y73.001
X21.982 Y72.991 F50
X21.598 Y72.399 Z-1.189
X21.577 Y72.363 Z-1.2
X21.49 Y72.184 F150
X20.274 Y69.614
X20.225 Y69.499
X20.095 Y69.175
X19.058 Y66.277
X19.021 Y66.171
X18.842 Y65.559
X18.125 Y62.697
X18.083 Y62.518
X17.985 Y61.981
X17.947 Y61.734
X17.795 Y60.711
X17.756 Y59.965 Z-1
Y59.953
X17.441 Y53.968
Y53.956 F50
X17.403 Y53.242 Z-1.192
Y53.21 Z-1.2
X17.473 Y51.778 F150
X17.485 Y51.599
X17.533 Y51.062
X17.957 Y48.198
X17.985 Y48.019
X18.083 Y47.482
X18.126 Y47.299
X18.843 Y44.439
X19.021 Y43.829
X19.058 Y43.723
X19.903 Y41.362
G3 X20.1 Y41.13 I0.442 J0.176
G1 X20.162 Y41.109 Z-1.195
X20.223 Y41.087 Z-1.181
X20.281 Y41.066 Z-1.159
X20.345 Y41.062 Z-1.124
X20.408 Y41.075 Z-1.074
X20.461 Y41.086 Z-1.015
X20.503 Y41.095 Z-0.947
X20.534 Y41.101 Z-0.873
X20.55 Y41.109 Z-0.799
X20.556 Y41.111 Z-0.724
Z5
X40.241 Y33.345
Z-0.848
Z-1.324 F50
X40.239 Y33.338 Z-1.407
X40.234 Y33.317 Z-1.487
X40.225 Y33.283 Z-1.562
X40.213 Y33.237 Z-1.63
X40.199 Y33.18 Z-1.689
X40.182 Y33.114 Z-1.736
X40.163 Y33.041 Z-1.771
X40.143 Y32.964 Z-1.793
X40.123 Y32.884 Z-1.8
G3 X39.75 Y30.292 I11.772 J-3.015
G1 Y30.125 F150
X39.728 Y29.977
X39.739 Y29.828
X39.768 Y29.68
X39.815 Y29.525
X39.885 Y29.343
X39.989 Y29.13
X40.135 Y28.882
X40.319 Y28.62
X40.527 Y28.368
X40.813 Y28.075
X41.211 Y27.727
X41.793 Y27.296
X42.462 Y26.879
X43.154 Y26.501
X43.868 Y26.167
X44.6 Y25.872
X45.341 Y25.603
X46.088 Y25.352
X46.841 Y25.119
X47.604 Y24.92
X48.373 Y24.745
X49.145 Y24.584
X49.918 Y24.433
X50.698 Y24.314
X51.481 Y24.22
X52.265 Y24.144
X53.051 Y24.078
X53.248 Y24.067
X54.134 Y24.028
X54.922 Y24.022
X55.71 Y24.032
X56.499 Y24.054
X57.286 Y24.096
X58.071 Y24.169
X58.854 Y24.263
X59.635 Y24.369
X60.415 Y24.485
X61.189 Y24.636
X61.957 Y24.81
X62.723 Y24.999
X63.486 Y25.198
X64.242 Y25.421
X64.989 Y25.672
X65.731 Y25.94
X66.468 Y26.22
X67.2 Y26.512
X67.919 Y26.835
X68.629 Y27.179
X69.068 Y27.402
X69.768 Y27.764
X70.46 Y28.143
X71.135 Y28.55
X71.8 Y28.973
X72.458 Y29.408
X73.11 Y29.85
X73.742 Y30.322
X74.36 Y30.812
X74.967 Y31.315
X75.568 Y31.825
X76.153 Y32.354
X76.718 Y32.904
X77.27 Y33.467
X77.813 Y34.038
X78.346 Y34.619
X78.854 Y35.222
X79.344 Y35.84
X79.823 Y36.466
X80.294 Y37.098
X80.741 Y37.747
X80.954 Y38.079
X81.422 Y38.832
X81.827 Y39.509
X82.223 Y40.191
X82.589 Y40.889
X82.933 Y41.599
X83.262 Y42.315
X83.582 Y43.035
X83.88 Y43.765
X84.151 Y44.506
X84.404 Y45.252
X84.646 Y46.003
X84.875 Y46.757
X85.071 Y47.521
X85.245 Y48.29
X85.404 Y49.062
X85.555 Y49.836
X85.677 Y50.615
X85.772 Y51.397
X85.849 Y52.182
X85.916 Y52.968
X85.928 Y53.164
X85.938 Y53.361
X85.971 Y54.149
X85.978 Y54.937
X85.967 Y55.726
X85.945 Y56.514
X85.903 Y57.301
X85.829 Y58.086
X85.735 Y58.869
X85.628 Y59.65
X85.513 Y60.43
X85.361 Y61.203
X85.187 Y61.972
X84.997 Y62.737
X84.798 Y63.5
X84.574 Y64.256
X84.323 Y65.004
X84.055 Y65.745
X83.775 Y66.482
X83.482 Y67.214
X83.158 Y67.933
X82.814 Y68.642
X82.591 Y69.081
X82.229 Y69.782
X81.849 Y70.473
X81.442 Y71.148
X81.018 Y71.813
X80.583 Y72.47
X80.141 Y73.123
X79.669 Y73.754
X79.178 Y74.372
X78.676 Y74.979
X78.165 Y75.58
X77.636 Y76.164
X77.086 Y76.729
X76.522 Y77.28
X75.951 Y77.823
X75.37 Y78.356
X74.766 Y78.863
X74.148 Y79.353
X73.522 Y79.832
X72.89 Y80.303
X72.24 Y80.75
X71.908 Y80.962
X71.155 Y81.43
X70.478 Y81.834
X69.796 Y82.231
X69.097 Y82.596
X68.388 Y82.939
X67.671 Y83.268
X66.951 Y83.588
X66.221 Y83.886
X65.48 Y84.156
X64.733 Y84.409
X63.983 Y84.65
X63.228 Y84.879
X62.464 Y85.074
X61.695 Y85.248
X60.923 Y85.407
X60.149 Y85.558
X59.37 Y85.679
X58.588 Y85.773
X57.803 Y85.851
X57.017 Y85.917
X56.821 Y85.929
X56.624 Y85.939
X55.836 Y85.971
X55.048 Y85.978
X54.259 Y85.967
X53.471 Y85.945
X52.684 Y85.901
X51.899 Y85.827
X51.116 Y85.733
X50.335 Y85.626
X49.556 Y85.51
X48.782 Y85.358
X48.013 Y85.183
X47.248 Y84.993
X46.485 Y84.794
X45.729 Y84.569
X44.982 Y84.318
X44.241 Y84.049
X43.504 Y83.769
X42.772 Y83.476
X42.054 Y83.152
X41.344 Y82.807
X40.905 Y82.584
X40.205 Y82.222
X39.514 Y81.841
X38.839 Y81.434
X38.175 Y81.01
X37.517 Y80.575
X36.865 Y80.132
X36.234 Y79.66
X35.617 Y79.169
X35.01 Y78.666
X34.409 Y78.155
X33.825 Y77.626
X33.261 Y77.075
X32.709 Y76.512
X32.167 Y75.94
X31.634 Y75.358
X31.127 Y74.754
X30.638 Y74.136
X30.159 Y73.51
X29.688 Y72.878
X29.242 Y72.228
X29.03 Y71.895
X28.562 Y71.142
X28.158 Y70.465
X27.762 Y69.783
X27.397 Y69.084
X27.054 Y68.374
X26.725 Y67.658
X26.405 Y66.937
X26.296 Y66.714
X26.233 Y66.578
X26.17 Y66.442
X26.109 Y66.305
X26.049 Y66.167
X25.99 Y66.029
X25.933 Y65.891
X25.872 Y65.743
X25.809 Y65.583
X25.741 Y65.41
X25.669 Y65.221
X25.591 Y65.014
X25.507 Y64.783
X25.415 Y64.525
X25.312 Y64.231
X25.261 Y64.08
X25.213 Y63.938
X25.167 Y63.795
X25.123 Y63.652
X25.079 Y63.508
X25.037 Y63.364
X24.995 Y63.214
X24.95 Y63.053
X24.903 Y62.878
X24.853 Y62.689
X24.801 Y62.481
X24.744 Y62.251
X24.684 Y61.995
X24.617 Y61.705
X24.543 Y61.373
X24.459 Y60.983
X24.405 Y60.72
X24.375 Y60.573
X24.347 Y60.425
X24.321 Y60.278
X24.295 Y60.13
X24.269 Y59.974
X24.243 Y59.806
X24.216 Y59.624
X24.187 Y59.426
X24.158 Y59.209
X24.127 Y58.969
X24.095 Y58.701
X24.061 Y58.397
X24.024 Y58.046
X23.984 Y57.633
X23.952 Y57.281
X23.939 Y57.132
X23.928 Y56.982
X23.918 Y56.832
X23.91 Y56.683
X23.902 Y56.523
X23.894 Y56.35
X23.888 Y56.164
X23.882 Y55.961
X23.877 Y55.739
X23.874 Y55.493
X23.872 Y55.217
X23.873 Y54.905
X23.876 Y54.543
X23.883 Y54.116
X23.89 Y53.781
X23.895 Y53.631
X23.901 Y53.481
X23.908 Y53.332
X23.916 Y53.181
X23.926 Y53.02
X23.939 Y52.846
X23.953 Y52.658
X23.971 Y52.453
X23.992 Y52.229
X24.016 Y51.98
X24.046 Y51.702
X24.083 Y51.385
X24.127 Y51.019
X24.184 Y50.584
X24.224 Y50.292
X24.245 Y50.144
X24.268 Y49.995
X24.292 Y49.847
X24.318 Y49.697
X24.346 Y49.537
X24.378 Y49.364
X24.414 Y49.178
X24.455 Y48.975
X24.501 Y48.752
X24.555 Y48.504
X24.617 Y48.228
X24.69 Y47.913
X24.777 Y47.548
X24.884 Y47.113
X24.948 Y46.864
X24.986 Y46.719
X25.025 Y46.574
X25.066 Y46.43
X25.108 Y46.283
X25.155 Y46.126
X25.206 Y45.956
X25.264 Y45.774
X25.327 Y45.575
X25.399 Y45.356
X25.481 Y45.115
X25.575 Y44.843
X25.684 Y44.535
X25.814 Y44.177
X25.972 Y43.75
X26.051 Y43.541
X26.105 Y43.401
X26.161 Y43.261
X26.217 Y43.122
X26.276 Y42.98
X26.341 Y42.829
X26.411 Y42.666
X26.489 Y42.49
X26.576 Y42.298
X26.672 Y42.088
X26.781 Y41.855
X26.906 Y41.594
X27.051 Y41.296
X27.326 Y40.744
X27.494 Y40.415
X27.563 Y40.282
X27.633 Y40.149
X27.705 Y40.017
X27.777 Y39.886
X27.856 Y39.746
X27.942 Y39.595
X28.036 Y39.433
X28.139 Y39.258
X28.254 Y39.066
X28.384 Y38.855
X28.53 Y38.619
X28.698 Y38.352
X28.895 Y38.045
X29.13 Y37.683
X29.309 Y37.413
X29.393 Y37.289
X29.478 Y37.165
X29.563 Y37.042
X29.651 Y36.918
X29.746 Y36.787
X29.849 Y36.646
X29.962 Y36.494
X30.086 Y36.33
X30.223 Y36.15
X30.377 Y35.952
X30.552 Y35.731
X30.752 Y35.481
X30.987 Y35.193
X31.268 Y34.852
X31.449 Y34.636
X31.546 Y34.522
X31.644 Y34.409
X31.743 Y34.296
X31.845 Y34.182
X31.955 Y34.062
X32.074 Y33.932
X32.204 Y33.793
X32.348 Y33.642
X32.506 Y33.477
X32.684 Y33.296
X32.884 Y33.093
X33.115 Y32.864
X33.385 Y32.6
X33.709 Y32.287
X33.886 Y32.119
X33.995 Y32.017
X34.105 Y31.915
X34.217 Y31.814
X34.331 Y31.712
X34.454 Y31.604
X34.588 Y31.488
X34.734 Y31.363
X34.895 Y31.229
X35.072 Y31.082
X35.271 Y30.92
X35.495 Y30.74
X35.753 Y30.536
X36.375 Y30.051
X36.928 Y29.49
X37.181 Y29.187
X37.593 Y28.682
X37.725 Y28.521
X37.862 Y28.358
X37.96 Y28.243
X38.058 Y28.13
X38.157 Y28.017
X38.257 Y27.906
X38.358 Y27.795
X38.46 Y27.685
X38.563 Y27.576
X38.668 Y27.469
X38.774 Y27.362
X38.88 Y27.257
X38.988 Y27.152
X39.097 Y27.049
X39.207 Y26.947
X39.318 Y26.846
X39.431 Y26.747
X39.544 Y26.649
X39.659 Y26.552
X39.774 Y26.457
X39.891 Y26.362
X40.009 Y26.27
X40.128 Y26.178
X40.247 Y26.088
X40.368 Y25.999
X40.489 Y25.911
X40.612 Y25.824
X40.736 Y25.739
X40.86 Y25.655
X40.985 Y25.573
X41.111 Y25.492
X41.238 Y25.411
X41.366 Y25.333
X41.495 Y25.256
X41.624 Y25.18
X41.754 Y25.105
X41.885 Y25.032
X42.016 Y24.959
X42.148 Y24.889
X42.281 Y24.819
X42.415 Y24.75
X42.549 Y24.683
X43.279 Y24.387
X44.016 Y24.105
X44.758 Y23.84
X45.508 Y23.595
X46.264 Y23.372
X47.025 Y23.168
X47.791 Y22.981
X48.561 Y22.812
X49.336 Y22.665
X50.114 Y22.539
X50.895 Y22.431
X51.189 Y22.397
X51.385 Y22.376
X51.581 Y22.356
X51.77 Y22.302
X51.947 Y22.215
X52.106 Y22.098
X52.242 Y21.955
X52.458 Y21.626
X52.646 Y20.86
X52.759 Y20.389
X52.894 Y19.981
X52.993 Y19.746
X53.136 Y19.469
X53.239 Y19.305
X53.345 Y19.162
X53.487 Y19
X53.617 Y18.874
X53.732 Y18.779
X53.862 Y18.691
X54.026 Y18.599
X54.162 Y18.536
X54.306 Y18.491
X54.457 Y18.459
X54.605 Y18.44
X54.755 Y18.442
X54.904 Y18.462
X55.051 Y18.494
X55.189 Y18.551
X55.32 Y18.625
X55.44 Y18.715
X55.543 Y18.824
X55.633 Y18.944
X55.695 Y19.081
X55.739 Y19.224
X55.751 Y19.373
X55.764 Y19.57
X55.859 Y19.953
X56.258 Y20.633
X56.853 Y21.15
X57.537 Y21.542
X58.265 Y21.845
X59.015 Y22.088
X59.775 Y22.298
X60.539 Y22.493
X61.304 Y22.684
X62.068 Y22.876
X62.832 Y23.074
X63.592 Y23.283
X64.347 Y23.508
X65.098 Y23.749
X65.844 Y24.004
X66.585 Y24.273
X67.319 Y24.56
X67.682 Y24.714
X67.953 Y24.833
X68.313 Y24.993
X68.492 Y25.075
X68.683 Y25.124
X68.88 Y25.139
X69.076 Y25.119
X69.265 Y25.064
X69.442 Y24.977
X70.076 Y24.508
X70.414 Y24.077
X70.647 Y23.826
X70.852 Y23.637
X71.1 Y23.444
X71.233 Y23.356
X71.403 Y23.262
X71.617 Y23.166
X71.758 Y23.116
X71.904 Y23.079
X72.072 Y23.051
X72.23 Y23.037
X72.38
X72.529 Y23.054
X72.689 Y23.088
X72.832 Y23.131
X72.968 Y23.196
X73.095 Y23.275
X73.215 Y23.365
X73.317 Y23.475
X73.406 Y23.596
X73.476 Y23.729
X73.524 Y23.871
X73.555 Y24.017
Y24.167
X73.537 Y24.316
X73.486 Y24.457
X73.302 Y24.806
X73.24 Y25.195
X73.293 Y25.982
X73.58 Y26.716
X73.994 Y27.387
X74.482 Y28.006
X75.012 Y28.59
X75.567 Y29.15
X76.133 Y29.698
X76.702 Y30.245
X77.267 Y30.795
X77.826 Y31.351
X78.378 Y31.913
X78.92 Y32.485
X79.45 Y33.07
X79.965 Y33.667
X80.467 Y34.274
X80.958 Y34.891
X81.196 Y35.205
X81.429 Y35.524
X81.543 Y35.684
X81.685 Y35.821
X81.848 Y35.932
X82.028 Y36.011
X82.22 Y36.058
X82.613 Y36.082
X83.371 Y35.865
X83.918 Y35.717
X84.354 Y35.637
X84.596 Y35.612
X84.835 Y35.607
X85.125 Y35.624
X85.274 Y35.645
X85.437 Y35.681
X85.631 Y35.742
X85.779 Y35.802
X85.914 Y35.869
X86.04 Y35.949
X86.184 Y36.058
X86.296 Y36.157
X86.394 Y36.272
X86.48 Y36.397
X86.555 Y36.527
X86.609 Y36.667
X86.647 Y36.812
X86.669 Y36.96
X86.665 Y37.11
X86.645 Y37.259
X86.598 Y37.401
X86.532 Y37.536
X86.445 Y37.658
X86.338 Y37.763
X86.217 Y37.852
X85.897 Y38.082
X85.667 Y38.402
X85.346 Y39.122
X85.239 Y39.903
X85.274 Y40.691
X85.396 Y41.47
X85.568 Y42.239
X85.768 Y43.002
X85.982 Y43.76
X86.203 Y44.517
X86.419 Y45.276
X86.624 Y46.037
X86.815 Y46.802
X86.995 Y47.569
X87.161 Y48.34
X87.308 Y49.115
X87.437 Y49.892
X87.547 Y50.673
X87.594 Y51.065
X87.625 Y51.358
X87.645 Y51.555
X87.699 Y51.744
X87.786 Y51.921
X87.902 Y52.08
X88.045 Y52.216
X88.374 Y52.433
X89.138 Y52.628
X89.618 Y52.748
X90.026 Y52.885
X90.264 Y52.987
X90.545 Y53.135
X90.704 Y53.236
X90.848 Y53.344
X91.011 Y53.489
X91.133 Y53.616
X91.228 Y53.733
X91.316 Y53.864
X91.409 Y54.031
X91.471 Y54.167
X91.515 Y54.311
X91.546 Y54.464
X91.564 Y54.613
X91.561 Y54.763
X91.54 Y54.912
X91.507 Y55.058
X91.449 Y55.196
X91.374 Y55.327
X91.283 Y55.446
X91.173 Y55.548
X91.053 Y55.637
X90.916 Y55.698
X90.772 Y55.742
X90.623 Y55.753
X90.426 Y55.767
X90.044 Y55.863
X89.365 Y56.264
X88.848 Y56.859
X88.456 Y57.544
X88.153 Y58.271
X87.91 Y59.022
X87.701 Y59.781
X87.506 Y60.545
X87.315 Y61.31
X87.123 Y62.075
X86.925 Y62.838
X86.715 Y63.598
X86.49 Y64.354
X86.249 Y65.104
X85.994 Y65.85
X85.725 Y66.592
X85.437 Y67.325
X85.283 Y67.688
X85.165 Y67.959
X85.004 Y68.319
X84.922 Y68.498
X84.873 Y68.689
X84.858 Y68.886
X84.878 Y69.082
X84.933 Y69.271
X85.02 Y69.448
X85.489 Y70.082
X85.916 Y70.416
X86.169 Y70.649
X86.357 Y70.852
X86.552 Y71.1
X86.64 Y71.233
X86.733 Y71.401
X86.829 Y71.613
X86.88 Y71.754
X86.918 Y71.899
X86.946 Y72.066
X86.961 Y72.228
X86.962 Y72.378
X86.945 Y72.527
X86.911 Y72.685
X86.869 Y72.829
X86.804 Y72.965
X86.726 Y73.092
X86.636 Y73.212
X86.526 Y73.315
X86.406 Y73.405
X86.273 Y73.474
X86.131 Y73.523
X85.985 Y73.555
X85.835
X85.686 Y73.537
X85.545 Y73.486
X85.196 Y73.303
X84.806 Y73.241
X84.02 Y73.293
X83.285 Y73.579
X82.615 Y73.994
X81.995 Y74.481
X81.411 Y75.011
X80.851 Y75.566
X80.303 Y76.132
X79.756 Y76.701
X79.206 Y77.266
X78.65 Y77.825
X78.088 Y78.377
X77.516 Y78.919
X76.931 Y79.449
X76.335 Y79.964
X75.727 Y80.466
X75.11 Y80.957
X74.796 Y81.195
X74.477 Y81.428
X74.317 Y81.543
X74.18 Y81.684
X74.07 Y81.847
X73.99 Y82.028
X73.944 Y82.219
X73.92 Y82.613
X74.136 Y83.371
X74.283 Y83.918
X74.364 Y84.354
X74.389 Y84.596
X74.394 Y84.835
X74.377 Y85.126
X74.356 Y85.274
X74.319 Y85.439
X74.258 Y85.633
X74.198 Y85.78
X74.131 Y85.914
X74.051 Y86.041
X73.942 Y86.185
X73.843 Y86.297
X73.728 Y86.394
X73.603 Y86.48
X73.473 Y86.555
X73.333 Y86.609
X73.188 Y86.647
X73.04 Y86.67
X72.89 Y86.666
X72.741 Y86.645
X72.598 Y86.598
X72.464 Y86.532
X72.341 Y86.445
X72.237 Y86.338
X72.148 Y86.217
X71.918 Y85.897
X71.598 Y85.667
X70.878 Y85.346
X70.097 Y85.24
X69.309 Y85.274
X68.53 Y85.396
X67.761 Y85.568
X66.998 Y85.768
X66.239 Y85.983
X65.482 Y86.203
X64.724 Y86.419
X63.963 Y86.623
X63.198 Y86.815
X62.43 Y86.995
X61.66 Y87.161
X60.885 Y87.308
X60.107 Y87.437
X59.327 Y87.547
X58.935 Y87.594
X58.641 Y87.625
X58.445 Y87.645
X58.256 Y87.699
X58.079 Y87.786
X57.92 Y87.902
X57.784 Y88.045
X57.567 Y88.374
X57.371 Y89.138
X57.252 Y89.618
X57.115 Y90.026
X57.013 Y90.264
X56.865 Y90.545
X56.764 Y90.704
X56.655 Y90.848
X56.511 Y91.011
X56.384 Y91.133
X56.267 Y91.228
X56.136 Y91.316
X55.969 Y91.409
X55.833 Y91.471
X55.689 Y91.515
X55.536 Y91.546
X55.387 Y91.564
X55.237 Y91.561
X55.088 Y91.54
X54.942 Y91.507
X54.804 Y91.449
X54.674 Y91.374
X54.554 Y91.283
X54.452 Y91.173
X54.363 Y91.053
X54.302 Y90.916
X54.258 Y90.772
X54.247 Y90.623
X54.233 Y90.426
X54.137 Y90.044
X53.736 Y89.365
X53.141 Y88.848
X52.457 Y88.456
X51.729 Y88.153
X50.979 Y87.91
X50.219 Y87.7
X49.455 Y87.505
X48.69 Y87.315
X47.925 Y87.123
X47.162 Y86.925
X46.402 Y86.715
X45.647 Y86.49
X44.896 Y86.249
X44.15 Y85.994
X43.409 Y85.725
X42.675 Y85.437
X42.312 Y85.283
X42.041 Y85.165
X41.681 Y85.004
X41.502 Y84.922
X41.311 Y84.873
X41.114 Y84.858
X40.918 Y84.878
X40.729 Y84.933
X40.552 Y85.021
X39.918 Y85.489
X39.584 Y85.916
X39.351 Y86.169
X39.148 Y86.357
X38.9 Y86.552
X38.767 Y86.64
X38.599 Y86.733
X38.387 Y86.829
X38.246 Y86.88
X38.101 Y86.918
X37.934 Y86.946
X37.772 Y86.961
X37.622 Y86.962
X37.473 Y86.945
X37.315 Y86.911
X37.171 Y86.869
X37.035 Y86.804
X36.907 Y86.726
X36.788 Y86.636
X36.685 Y86.526
X36.595 Y86.406
X36.526 Y86.273
X36.477 Y86.131
X36.445 Y85.985
Y85.835
X36.463 Y85.686
X36.514 Y85.545
X36.697 Y85.196
X36.759 Y84.806
X36.707 Y84.02
X36.421 Y83.285
X36.006 Y82.615
X35.519 Y81.995
X34.989 Y81.411
X34.434 Y80.851
X33.868 Y80.303
X33.299 Y79.756
X32.734 Y79.206
X32.175 Y78.65
X31.623 Y78.088
X31.081 Y77.516
X30.551 Y76.931
X30.036 Y76.334
X29.533 Y75.727
X29.042 Y75.11
X28.804 Y74.796
X28.572 Y74.478
X28.457 Y74.317
X28.316 Y74.18
X28.152 Y74.07
X27.972 Y73.99
X27.781 Y73.944
X27.387 Y73.92
X26.629 Y74.136
X26.082 Y74.283
X25.646 Y74.364
X25.404 Y74.389
X25.165 Y74.394
X24.874 Y74.377
X24.725 Y74.356
X24.561 Y74.319
X24.367 Y74.258
X24.22 Y74.198
X24.086 Y74.131
X23.959 Y74.051
X23.815 Y73.942
X23.703 Y73.843
X23.606 Y73.728
X23.52 Y73.603
X23.445 Y73.473
X23.391 Y73.333
X23.353 Y73.188
X23.33 Y73.04
X23.334 Y72.89
X23.355 Y72.741
X23.402 Y72.598
X23.468 Y72.464
X23.555 Y72.341
X23.662 Y72.237
X23.783 Y72.148
X24.103 Y71.918
X24.333 Y71.598
X24.654 Y70.878
X24.76 Y70.096
X24.723 Y69.309
X24.588 Y68.532
X24.399 Y67.767
X24.18 Y67.009
X23.946 Y66.257
X23.71 Y65.504
X23.483 Y64.749
X23.268 Y63.991
X23.067 Y63.228
X22.879 Y62.463
X22.708 Y61.693
X22.558 Y60.919
X22.426 Y60.142
X22.313 Y59.362
X22.264 Y58.97
X22.231 Y58.677
X22.21 Y58.481
X22.156 Y58.291
X22.068 Y58.115
X21.951 Y57.956
X21.807 Y57.821
X21.477 Y57.606
X20.719 Y57.389
X20.164 Y57.223
X19.878 Y57.113
X19.617 Y56.986
X19.36 Y56.836
X19.224 Y56.74
X19.069 Y56.612
X18.895 Y56.443
X18.796 Y56.33
X18.709 Y56.208
X18.617 Y56.053
X18.552 Y55.918
X18.499 Y55.778
X18.462 Y55.633
X18.437 Y55.485
X18.426 Y55.335
X18.437 Y55.185
X18.463 Y55.038
X18.505 Y54.894
X18.57 Y54.758
X18.648 Y54.631
X18.747 Y54.518
X18.861 Y54.421
X18.988 Y54.34
X19.128 Y54.285
X19.273 Y54.247
X19.663 Y54.194
X20.019 Y54.023
X20.65 Y53.551
X21.128 Y52.924
X21.49 Y52.224
X21.772 Y51.487
X22.004 Y50.734
X22.21 Y49.973
X22.403 Y49.208
X22.593 Y48.443
X22.784 Y47.678
X22.985 Y46.916
X23.2 Y46.157
X23.429 Y45.403
X23.673 Y44.653
X23.931 Y43.908
X24.206 Y43.169
X24.5 Y42.438
X24.617 Y42.166
X24.736 Y41.896
X24.817 Y41.716
X24.864 Y41.525
X24.877 Y41.328
X24.854 Y41.132
X24.798 Y40.943
X24.442 Y40.24
X23.878 Y39.688
X23.655 Y39.435
X23.437 Y39.144
X23.294 Y38.918
X23.2 Y38.737
X23.104 Y38.511
X23.043 Y38.328
X23.007 Y38.182
X22.98 Y38.011
X22.965 Y37.809
Y37.659
X22.984 Y37.51
X23.019 Y37.349
X23.063 Y37.206
X23.124 Y37.069
X23.201 Y36.94
X23.288 Y36.818
X23.392 Y36.71
X23.509 Y36.616
X23.635 Y36.534
X23.773 Y36.477
X23.918 Y36.437
X24.067 Y36.422
X24.217 Y36.43
X24.364 Y36.462
X24.726 Y36.617
X25.117 Y36.667
X25.902 Y36.598
X26.635 Y36.305
X27.304 Y35.888
X27.921 Y35.398
X28.503 Y34.866
X29.061 Y34.309
X29.609 Y33.743
X30.156 Y33.175
X30.706 Y32.61
X31.261 Y32.05
X31.823 Y31.497
X32.397 Y30.956
X32.982 Y30.428
X33.579 Y29.913
X34.175 Y29.397
X34.745 Y28.852
X35.019 Y28.569
X35.149 Y28.42
X35.25 Y28.251
X35.389 Y27.882
X35.465 Y27.097
X35.421 Y26.31
X35.378 Y25.636
X35.382 Y25.374
X35.414 Y25.054
X35.462 Y24.788
X35.508 Y24.611
X35.582 Y24.403
X35.669 Y24.207
X35.741 Y24.075
X35.83 Y23.943
X35.95 Y23.792
X36.053 Y23.683
X36.167 Y23.586
X36.292 Y23.499
X36.422 Y23.424
X36.56 Y23.364
X36.704 Y23.322
X36.851 Y23.293
X37.001 Y23.285
X37.15 Y23.298
X37.298 Y23.325
X38.047 Y23.569
X38.836 Y23.587
X39.615 Y23.469
X40.379 Y23.275
X41.134 Y23.048
X41.884 Y22.802
X42.63 Y22.55
X43.378 Y22.299
X44.128 Y22.057
X44.882 Y21.827
X45.64 Y21.609
X46.402 Y21.406
X47.168 Y21.219
X47.938 Y21.05
X48.711 Y20.898
X49.414 Y20.54
X50.013 Y20.027
X50.549 Y19.45
X51.072 Y18.859
X51.541 Y18.37
X51.921 Y18.033
X52.257 Y17.78
X52.58 Y17.575
X52.658 Y17.534
X52.806 Y17.469
X52.961 Y17.427
X53.121 Y17.407
X54.642 Y17.332
X54.855 Y17.34
X55.033 Y17.361
X55.208 Y17.396
X55.378 Y17.445
X55.533 Y17.503
X55.689 Y17.576
X55.837 Y17.66
X55.976 Y17.756
X56.59 Y18.251
X57.183 Y18.771
X57.832 Y19.218
X58.523 Y19.597
X59.243 Y19.919
X59.98 Y20.199
X60.727 Y20.45
X61.481 Y20.683
X62.237 Y20.906
X62.993 Y21.127
X63.749 Y21.352
X64.503 Y21.583
X65.253 Y21.825
X66 Y22.077
X66.743 Y22.343
X67.529 Y22.393
X68.304 Y22.247
X69.058 Y22.016
X69.805 Y21.765
X70.438 Y21.587
X70.906 Y21.495
X71.327 Y21.447
X71.683 Y21.435
X71.885 Y21.444
X72.034 Y21.462
X72.179 Y21.499
X72.318 Y21.555
X72.721 Y21.751
X72.9 Y21.846
X73.563 Y22.243
X73.742 Y22.363
X73.887 Y22.478
X74.012 Y22.594
X74.128 Y22.722
X74.232 Y22.856
X74.329 Y23.004
X74.407 Y23.148
X74.474 Y23.297
X74.735 Y24.041
X75.006 Y24.781
X75.358 Y25.487
X75.775 Y26.156
X76.243 Y26.79
X76.746 Y27.398
X77.27 Y27.986
X77.808 Y28.563
X78.351 Y29.134
X78.896 Y29.704
X79.439 Y30.276
X79.976 Y30.853
X80.505 Y31.438
X81.024 Y32.031
X81.279 Y32.332
X81.9 Y32.817
X82.63 Y33.115
X83.394 Y33.311
X84.166 Y33.471
X84.902 Y33.645
X85.41 Y33.809
X85.819 Y33.978
X86.154 Y34.15
X86.293 Y34.236
X86.435 Y34.34
X86.559 Y34.466
X86.662 Y34.61
X87.399 Y35.839
X87.53 Y36.085
X87.599 Y36.244
X87.652 Y36.401
X87.695 Y36.569
X87.723 Y36.732
X87.738 Y36.902
X87.739 Y37.062
X87.727 Y37.229
X87.607 Y38.009
X87.461 Y38.783
X87.402 Y39.569
X87.422 Y40.358
X87.503 Y41.142
X87.63 Y41.92
X87.787 Y42.693
X87.963 Y43.461
X88.148 Y44.228
X88.334 Y44.994
X88.517 Y45.76
X88.694 Y46.529
X88.861 Y47.299
X89.015 Y48.072
X89.085 Y48.46
X89.359 Y49.2
X89.834 Y49.829
X90.395 Y50.383
X90.982 Y50.909
X91.547 Y51.437
X91.92 Y51.846
X92.182 Y52.185
X92.396 Y52.512
X92.459 Y52.628
X92.527 Y52.779
X92.572 Y52.939
X92.592 Y53.104
X92.668 Y54.642
X92.66 Y54.858
X92.639 Y55.036
X92.604 Y55.21
X92.555 Y55.38
X92.497 Y55.535
X92.424 Y55.691
X92.34 Y55.838
X92.244 Y55.979
X91.749 Y56.592
X91.229 Y57.185
X90.782 Y57.834
X90.403 Y58.525
X90.081 Y59.245
X89.801 Y59.982
X89.55 Y60.729
X89.317 Y61.483
X89.094 Y62.239
X88.873 Y62.996
X88.648 Y63.751
X88.416 Y64.505
X88.175 Y65.255
X87.922 Y66.002
X87.657 Y66.744
X87.606 Y67.531
X87.751 Y68.306
X87.982 Y69.06
X88.233 Y69.807
X88.411 Y70.44
X88.503 Y70.909
X88.551 Y71.329
X88.563 Y71.684
X88.553 Y71.889
X88.536 Y72.038
X88.499 Y72.184
X88.443 Y72.323
X88.249 Y72.721
X88.154 Y72.9
X87.757 Y73.563
X87.637 Y73.742
X87.522 Y73.887
X87.406 Y74.011
X87.278 Y74.128
X87.144 Y74.232
X86.996 Y74.329
X86.853 Y74.407
X86.703 Y74.473
X85.959 Y74.735
X85.219 Y75.006
X84.513 Y75.358
X83.845 Y75.775
X83.21 Y76.243
X82.602 Y76.746
X82.014 Y77.27
X81.437 Y77.808
X80.866 Y78.351
X80.296 Y78.896
X79.725 Y79.439
X79.147 Y79.976
X78.562 Y80.505
X77.969 Y81.024
X77.668 Y81.279
X77.183 Y81.9
X76.886 Y82.63
X76.69 Y83.394
X76.53 Y84.166
X76.356 Y84.902
X76.192 Y85.41
X76.022 Y85.819
X75.85 Y86.154
X75.765 Y86.293
X75.66 Y86.435
X75.535 Y86.559
X75.391 Y86.661
X74.161 Y87.399
X73.915 Y87.53
X73.756 Y87.599
X73.599 Y87.652
X73.431 Y87.695
X73.268 Y87.723
X73.098 Y87.738
X72.938 Y87.739
X72.771 Y87.727
X71.991 Y87.607
X71.217 Y87.461
X70.43 Y87.402
X69.642 Y87.422
X68.858 Y87.503
X68.08 Y87.63
X67.307 Y87.787
X66.539 Y87.963
X65.772 Y88.147
X65.006 Y88.334
X64.24 Y88.517
X63.471 Y88.694
X62.701 Y88.861
X61.927 Y89.015
X61.539 Y89.085
X60.8 Y89.359
X60.171 Y89.834
X59.617 Y90.395
X59.091 Y90.982
X58.563 Y91.547
X58.154 Y91.92
X57.815 Y92.182
X57.488 Y92.395
X57.372 Y92.459
X57.221 Y92.527
X57.061 Y92.572
X56.896 Y92.592
X55.358 Y92.668
X55.142 Y92.66
X54.964 Y92.639
X54.79 Y92.604
X54.62 Y92.555
X54.465 Y92.497
X54.309 Y92.424
X54.162 Y92.34
X54.021 Y92.244
X53.408 Y91.749
X52.815 Y91.229
X52.166 Y90.782
X51.475 Y90.403
X50.755 Y90.081
X50.018 Y89.801
X49.271 Y89.549
X48.518 Y89.317
X47.761 Y89.094
X47.005 Y88.873
X46.249 Y88.648
X45.495 Y88.416
X44.745 Y88.175
X43.998 Y87.923
X43.256 Y87.657
X42.469 Y87.606
X41.694 Y87.751
X40.94 Y87.982
X40.193 Y88.233
X39.561 Y88.411
X39.091 Y88.503
X38.671 Y88.551
X38.316 Y88.563
X38.111 Y88.553
X37.962 Y88.536
X37.816 Y88.499
X37.677 Y88.443
X37.279 Y88.249
X37.1 Y88.154
X36.437 Y87.757
X36.258 Y87.637
X36.113 Y87.522
X35.989 Y87.406
X35.872 Y87.278
X35.768 Y87.144
