(cartarm_base_mount_mid)
(Machine)
(  vendor: Autodesk)
(  model: Generic 3-axis)
(  description: This machine has XY axis on the Table and Z axis on the Head)
(T1 D=4.76 CR=0 - ZMIN=-6.66 - flat end mill)
G90 G94
G17
G21
(-Attention- Property Safe Retracts is set to Clearance Height.)
(Ensure the clearance height will clear the part and or fixtures.)
(Raise the Z-axis to a safe height before starting the program.)
(When using Fusion for Personal Use, the feedrate of rapid)
(moves is reduced to match the feedrate of cutting moves,)
(which can increase machining time. Unrestricted rapid moves)
(are available with a Fusion Subscription.)

(outer holes)
T1
S18000 M3
G17 G90 G94
G54
M8
G0 X100.128 Y10.11
Z4
G1 Z-1.876 F150
Z-3.4 F50
X99.89
X99.856 Y10.105
X99.825 Y10.089
X99.801 Y10.065
X99.785 Y10.034
X99.78 Y10
G3 X100.22 Y10 I0.22 J0 F150
X99.78 Y10 I-0.22 J0
G1 X99.785 Y9.966
X99.801 Y9.935
X99.825 Y9.911
X99.856 Y9.895
X99.89 Y9.89
X100.128
Z1
Y10.11
Z-2.276
Z-3.8 F50
X99.89
X99.856 Y10.105
X99.825 Y10.089
X99.801 Y10.065
X99.785 Y10.034
X99.78 Y10
G3 X100.22 Y10 I0.22 J0 F150
X99.78 Y10 I-0.22 J0
G1 X99.785 Y9.966
X99.801 Y9.935
X99.825 Y9.911
X99.856 Y9.895
X99.89 Y9.89
X100.128
Z1
Y10.11
Z-2.676
Z-4.2 F50
X99.89
X99.856 Y10.105
X99.825 Y10.089
X99.801 Y10.065
X99.785 Y10.034
X99.78 Y10
G3 X100.22 Y10 I0.22 J0 F150
X99.78 Y10 I-0.22 J0
G1 X99.785 Y9.966
X99.801 Y9.935
X99.825 Y9.911
X99.856 Y9.895
X99.89 Y9.89
X100.128
Z1
Y10.11
Z-3.076
Z-4.6 F50
X99.89
X99.856 Y10.105
X99.825 Y10.089
X99.801 Y10.065
X99.785 Y10.034
X99.78 Y10
G3 X100.22 Y10 I0.22 J0 F150
X99.78 Y10 I-0.22 J0
G1 X99.785 Y9.966
X99.801 Y9.935
X99.825 Y9.911
X99.856 Y9.895
X99.89 Y9.89
X100.128
Z1
Y10.11
Z-3.476
Z-5 F50
X99.89
X99.856 Y10.105
X99.825 Y10.089
X99.801 Y10.065
X99.785 Y10.034
X99.78 Y10
G3 X100.22 Y10 I0.22 J0 F150
X99.78 Y10 I-0.22 J0
G1 X99.785 Y9.966
X99.801 Y9.935
X99.825 Y9.911
X99.856 Y9.895
X99.89 Y9.89
X100.128
Z1
Y10.11
Z-3.876
Z-5.4 F50
X99.89
X99.856 Y10.105
X99.825 Y10.089
X99.801 Y10.065
X99.785 Y10.034
X99.78 Y10
G3 X100.22 Y10 I0.22 J0 F150
X99.78 Y10 I-0.22 J0
G1 X99.785 Y9.966
X99.801 Y9.935
X99.825 Y9.911
X99.856 Y9.895
X99.89 Y9.89
X100.128
Z1
Y10.11
Z-4.276
Z-5.8 F50
X99.89
X99.856 Y10.105
X99.825 Y10.089
X99.801 Y10.065
X99.785 Y10.034
X99.78 Y10
G3 X100.22 Y10 I0.22 J0 F150
X99.78 Y10 I-0.22 J0
G1 X99.785 Y9.966
X99.801 Y9.935
X99.825 Y9.911
X99.856 Y9.895
X99.89 Y9.89
X100.128
Z1
Y10.11
Z-4.676
Z-6.2 F50
X99.89
X99.856 Y10.105
X99.825 Y10.089
X99.801 Y10.065
X99.785 Y10.034
X99.78 Y10
G3 X100.22 Y10 I0.22 J0 F150
X99.78 Y10 I-0.22 J0
G1 X99.785 Y9.966
X99.801 Y9.935
X99.825 Y9.911
X99.856 Y9.895
X99.89 Y9.89
X100.128
Z1
Y10.11
Z-4.906
Z-6.43 F50
X99.89
X99.856 Y10.105
X99.825 Y10.089
X99.801 Y10.065
X99.785 Y10.034
X99.78 Y10
G3 X100.22 Y10 I0.22 J0 F150
X99.78 Y10 I-0.22 J0
G1 X99.785 Y9.966
X99.801 Y9.935
X99.825 Y9.911
X99.856 Y9.895
X99.89 Y9.89
X100.128
Z1
Y10.11
Z-5.136
Z-6.66 F50
X99.89
X99.856 Y10.105
X99.825 Y10.089
X99.801 Y10.065
X99.785 Y10.034
X99.78 Y10
G3 X100.22 Y10 I0.22 J0 F150
X99.78 Y10 I-0.22 J0
G1 X99.785 Y9.966
X99.801 Y9.935
X99.825 Y9.911
X99.856 Y9.895
X99.89 Y9.89
X100.128
Z1
X10.128 Y10.11
Z-1.876
Z-3.4 F50
X9.89
X9.856 Y10.105
X9.825 Y10.089
X9.801 Y10.065
X9.785 Y10.034
X9.78 Y10
G3 X10.22 Y10 I0.22 J0 F150
X9.78 Y10 I-0.22 J0
G1 X9.785 Y9.966
X9.801 Y9.935
X9.825 Y9.911
X9.856 Y9.895
X9.89 Y9.89
X10.128
Z1
Y10.11
Z-2.276
Z-3.8 F50
X9.89
X9.856 Y10.105
X9.825 Y10.089
X9.801 Y10.065
X9.785 Y10.034
X9.78 Y10
G3 X10.22 Y10 I0.22 J0 F150
X9.78 Y10 I-0.22 J0
G1 X9.785 Y9.966
X9.801 Y9.935
X9.825 Y9.911
X9.856 Y9.895
X9.89 Y9.89
X10.128
Z1
Y10.11
Z-2.676
Z-4.2 F50
X9.89
X9.856 Y10.105
X9.825 Y10.089
X9.801 Y10.065
X9.785 Y10.034
X9.78 Y10
G3 X10.22 Y10 I0.22 J0 F150
X9.78 Y10 I-0.22 J0
G1 X9.785 Y9.966
X9.801 Y9.935
X9.825 Y9.911
X9.856 Y9.895
X9.89 Y9.89
X10.128
Z1
Y10.11
Z-3.076
Z-4.6 F50
X9.89
X9.856 Y10.105
X9.825 Y10.089
X9.801 Y10.065
X9.785 Y10.034
X9.78 Y10
G3 X10.22 Y10 I0.22 J0 F150
X9.78 Y10 I-0.22 J0
G1 X9.785 Y9.966
X9.801 Y9.935
X9.825 Y9.911
X9.856 Y9.895
X9.89 Y9.89
X10.128
Z1
Y10.11
Z-3.476
Z-5 F50
X9.89
X9.856 Y10.105
X9.825 Y10.089
X9.801 Y10.065
X9.785 Y10.034
X9.78 Y10
G3 X10.22 Y10 I0.22 J0 F150
X9.78 Y10 I-0.22 J0
G1 X9.785 Y9.966
X9.801 Y9.935
X9.825 Y9.911
X9.856 Y9.895
X9.89 Y9.89
X10.128
Z1
Y10.11
Z-3.876
Z-5.4 F50
X9.89
X9.856 Y10.105
X9.825 Y10.089
X9.801 Y10.065
X9.785 Y10.034
X9.78 Y10
G3 X10.22 Y10 I0.22 J0 F150
X9.78 Y10 I-0.22 J0
G1 X9.785 Y9.966
X9.801 Y9.935
X9.825 Y9.911
X9.856 Y9.895
X9.89 Y9.89
X10.128
Z1
Y10.11
Z-4.276
Z-5.8 F50
X9.89
X9.856 Y10.105
X9.825 Y10.089
X9.801 Y10.065
X9.785 Y10.034
X9.78 Y10
G3 X10.22 Y10 I0.22 J0 F150
X9.78 Y10 I-0.22 J0
G1 X9.785 Y9.966
X9.801 Y9.935
X9.825 Y9.911
X9.856 Y9.895
X9.89 Y9.89
X10.128
Z1
Y10.11
Z-4.676
Z-6.2 F50
X9.89
X9.856 Y10.105
X9.825 Y10.089
X9.801 Y10.065
X9.785 Y10.034
X9.78 Y10
G3 X10.22 Y10 I0.22 J0 F150
X9.78 Y10 I-0.22 J0
G1 X9.785 Y9.966
X9.801 Y9.935
X9.825 Y9.911
X9.856 Y9.895
X9.89 Y9.89
X10.128
Z1
Y10.11
Z-4.906
Z-6.43 F50
X9.89
X9.856 Y10.105
X9.825 Y10.089
X9.801 Y10.065
X9.785 Y10.034
X9.78 Y10
G3 X10.22 Y10 I0.22 J0 F150
X9.78 Y10 I-0.22 J0
G1 X9.785 Y9.966
X9.801 Y9.935
X9.825 Y9.911
X9.856 Y9.895
X9.89 Y9.89
X10.128
Z1
Y10.11
Z-5.136
Z-6.66 F50
X9.89
X9.856 Y10.105
X9.825 Y10.089
X9.801 Y10.065
X9.785 Y10.034
X9.78 Y10
G3 X10.22 Y10 I0.22 J0 F150
X9.78 Y10 I-0.22 J0
G1 X9.785 Y9.966
X9.801 Y9.935
X9.825 Y9.911
X9.856 Y9.895
X9.89 Y9.89
X10.128
Z1
Y100.11
Z-1.876
Z-3.4 F50
X9.89
X9.856 Y100.105
X9.825 Y100.089
X9.801 Y100.065
X9.785 Y100.034
X9.78 Y100
G3 X10.22 Y100 I0.22 J0 F150
X9.78 Y100 I-0.22 J0
G1 X9.785 Y99.966
X9.801 Y99.935
X9.825 Y99.911
X9.856 Y99.895
X9.89 Y99.89
X10.128
Z1
Y100.11
Z-2.276
Z-3.8 F50
X9.89
X9.856 Y100.105
X9.825 Y100.089
X9.801 Y100.065
X9.785 Y100.034
X9.78 Y100
G3 X10.22 Y100 I0.22 J0 F150
X9.78 Y100 I-0.22 J0
G1 X9.785 Y99.966
X9.801 Y99.935
X9.825 Y99.911
X9.856 Y99.895
X9.89 Y99.89
X10.128
Z1
Y100.11
Z-2.676
Z-4.2 F50
X9.89
X9.856 Y100.105
X9.825 Y100.089
X9.801 Y100.065
X9.785 Y100.034
X9.78 Y100
G3 X10.22 Y100 I0.22 J0 F150
X9.78 Y100 I-0.22 J0
G1 X9.785 Y99.966
X9.801 Y99.935
X9.825 Y99.911
X9.856 Y99.895
X9.89 Y99.89
X10.128
Z1
Y100.11
Z-3.076
Z-4.6 F50
X9.89
X9.856 Y100.105
X9.825 Y100.089
X9.801 Y100.065
X9.785 Y100.034
X9.78 Y100
G3 X10.22 Y100 I0.22 J0 F150
X9.78 Y100 I-0.22 J0
G1 X9.785 Y99.966
X9.801 Y99.935
X9.825 Y99.911
X9.856 Y99.895
X9.89 Y99.89
X10.128
Z1
Y100.11
Z-3.476
Z-5 F50
X9.89
X9.856 Y100.105
X9.825 Y100.089
X9.801 Y100.065
X9.785 Y100.034
X9.78 Y100
G3 X10.22 Y100 I0.22 J0 F150
X9.78 Y100 I-0.22 J0
G1 X9.785 Y99.966
X9.801 Y99.935
X9.825 Y99.911
X9.856 Y99.895
X9.89 Y99.89
X10.128
Z1
Y100.11
Z-3.876
Z-5.4 F50
X9.89
X9.856 Y100.105
X9.825 Y100.089
X9.801 Y100.065
X9.785 Y100.034
X9.78 Y100
G3 X10.22 Y100 I0.22 J0 F150
X9.78 Y100 I-0.22 J0
G1 X9.785 Y99.966
X9.801 Y99.935
X9.825 Y99.911
X9.856 Y99.895
X9.89 Y99.89
X10.128
Z1
Y100.11
Z-4.276
Z-5.8 F50
X9.89
X9.856 Y100.105
X9.825 Y100.089
X9.801 Y100.065
X9.785 Y100.034
X9.78 Y100
G3 X10.22 Y100 I0.22 J0 F150
X9.78 Y100 I-0.22 J0
G1 X9.785 Y99.966
X9.801 Y99.935
X9.825 Y99.911
X9.856 Y99.895
X9.89 Y99.89
X10.128
Z1
Y100.11
Z-4.676
Z-6.2 F50
X9.89
X9.856 Y100.105
X9.825 Y100.089
X9.801 Y100.065
X9.785 Y100.034
X9.78 Y100
G3 X10.22 Y100 I0.22 J0 F150
X9.78 Y100 I-0.22 J0
G1 X9.785 Y99.966
X9.801 Y99.935
X9.825 Y99.911
X9.856 Y99.895
X9.89 Y99.89
X10.128
Z1
Y100.11
Z-4.906
Z-6.43 F50
X9.89
X9.856 Y100.105
X9.825 Y100.089
X9.801 Y100.065
X9.785 Y100.034
X9.78 Y100
G3 X10.22 Y100 I0.22 J0 F150
X9.78 Y100 I-0.22 J0
G1 X9.785 Y99.966
X9.801 Y99.935
X9.825 Y99.911
X9.856 Y99.895
X9.89 Y99.89
X10.128
Z1
Y100.11
Z-5.136
Z-6.66 F50
X9.89
X9.856 Y100.105
X9.825 Y100.089
X9.801 Y100.065
X9.785 Y100.034
X9.78 Y100
G3 X10.22 Y100 I0.22 J0 F150
X9.78 Y100 I-0.22 J0
G1 X9.785 Y99.966
X9.801 Y99.935
X9.825 Y99.911
X9.856 Y99.895
X9.89 Y99.89
X10.128
Z1
X100.128 Y100.11
Z-1.876
Z-3.4 F50
X99.89
X99.856 Y100.105
X99.825 Y100.089
X99.801 Y100.065
X99.785 Y100.034
X99.78 Y100
G3 X100.22 Y100 I0.22 J0 F150
X99.78 Y100 I-0.22 J0
G1 X99.785 Y99.966
X99.801 Y99.935
X99.825 Y99.911
X99.856 Y99.895
X99.89 Y99.89
X100.128
Z1
Y100.11
Z-2.276
Z-3.8 F50
X99.89
X99.856 Y100.105
X99.825 Y100.089
X99.801 Y100.065
X99.785 Y100.034
X99.78 Y100
G3 X100.22 Y100 I0.22 J0 F150
X99.78 Y100 I-0.22 J0
G1 X99.785 Y99.966
X99.801 Y99.935
X99.825 Y99.911
X99.856 Y99.895
X99.89 Y99.89
X100.128
Z1
Y100.11
Z-2.676
Z-4.2 F50
X99.89
X99.856 Y100.105
X99.825 Y100.089
X99.801 Y100.065
X99.785 Y100.034
X99.78 Y100
G3 X100.22 Y100 I0.22 J0 F150
X99.78 Y100 I-0.22 J0
G1 X99.785 Y99.966
X99.801 Y99.935
X99.825 Y99.911
X99.856 Y99.895
X99.89 Y99.89
X100.128
Z1
Y100.11
Z-3.076
Z-4.6 F50
X99.89
X99.856 Y100.105
X99.825 Y100.089
X99.801 Y100.065
X99.785 Y100.034
X99.78 Y100
G3 X100.22 Y100 I0.22 J0 F150
X99.78 Y100 I-0.22 J0
G1 X99.785 Y99.966
X99.801 Y99.935
X99.825 Y99.911
X99.856 Y99.895
X99.89 Y99.89
X100.128
Z1
Y100.11
Z-3.476
Z-5 F50
X99.89
X99.856 Y100.105
X99.825 Y100.089
X99.801 Y100.065
X99.785 Y100.034
X99.78 Y100
G3 X100.22 Y100 I0.22 J0 F150
X99.78 Y100 I-0.22 J0
G1 X99.785 Y99.966
X99.801 Y99.935
X99.825 Y99.911
X99.856 Y99.895
X99.89 Y99.89
X100.128
Z1
Y100.11
Z-3.876
Z-5.4 F50
X99.89
X99.856 Y100.105
X99.825 Y100.089
X99.801 Y100.065
X99.785 Y100.034
X99.78 Y100
G3 X100.22 Y100 I0.22 J0 F150
X99.78 Y100 I-0.22 J0
G1 X99.785 Y99.966
X99.801 Y99.935
X99.825 Y99.911
X99.856 Y99.895
X99.89 Y99.89
X100.128
Z1
Y100.11
Z-4.276
Z-5.8 F50
X99.89
X99.856 Y100.105
X99.825 Y100.089
X99.801 Y100.065
X99.785 Y100.034
X99.78 Y100
G3 X100.22 Y100 I0.22 J0 F150
X99.78 Y100 I-0.22 J0
G1 X99.785 Y99.966
X99.801 Y99.935
X99.825 Y99.911
X99.856 Y99.895
X99.89 Y99.89
X100.128
Z1
Y100.11
Z-4.676
Z-6.2 F50
X99.89
X99.856 Y100.105
X99.825 Y100.089
X99.801 Y100.065
X99.785 Y100.034
X99.78 Y100
G3 X100.22 Y100 I0.22 J0 F150
X99.78 Y100 I-0.22 J0
G1 X99.785 Y99.966
X99.801 Y99.935
X99.825 Y99.911
X99.856 Y99.895
X99.89 Y99.89
X100.128
Z1
Y100.11
Z-4.906
Z-6.43 F50
X99.89
X99.856 Y100.105
X99.825 Y100.089
X99.801 Y100.065
X99.785 Y100.034
X99.78 Y100
G3 X100.22 Y100 I0.22 J0 F150
X99.78 Y100 I-0.22 J0
G1 X99.785 Y99.966
X99.801 Y99.935
X99.825 Y99.911
X99.856 Y99.895
X99.89 Y99.89
X100.128
Z1
Y100.11
Z-5.136
Z-6.66 F50
X99.89
X99.856 Y100.105
X99.825 Y100.089
X99.801 Y100.065
X99.785 Y100.034
X99.78 Y100
G3 X100.22 Y100 I0.22 J0 F150
X99.78 Y100 I-0.22 J0
G1 X99.785 Y99.966
X99.801 Y99.935
X99.825 Y99.911
X99.856 Y99.895
X99.89 Y99.89
X100.128
Z4
(When using Fusion for Personal Use, the feedrate of rapid)
(moves is reduced to match the feedrate of cutting moves,)
(which can increase machining time. Unrestricted rapid moves)
(are available with a Fusion Subscription.)

(inner holes)
G0 X24.256 Y72.75
G1 Z4 F150
Z-1.876
Z-3.4 F50
X24.196 Y72.81
X24.173 Y72.805
X24.154 Y72.792
X24.141 Y72.773
X24.136 Y72.75
G3 X24.376 Y72.75 I0.12 J0 F150
X24.136 Y72.75 I-0.12 J0
G1 X24.141 Y72.727
X24.154 Y72.708
X24.173 Y72.695
X24.196 Y72.69
X24.256 Y72.75
Z1
Z-2.276
Z-3.8 F50
X24.196 Y72.81
X24.173 Y72.805
X24.154 Y72.792
X24.141 Y72.773
X24.136 Y72.75
G3 X24.376 Y72.75 I0.12 J0 F150
X24.136 Y72.75 I-0.12 J0
G1 X24.141 Y72.727
X24.154 Y72.708
X24.173 Y72.695
X24.196 Y72.69
X24.256 Y72.75
Z1
Z-2.676
Z-4.2 F50
X24.196 Y72.81
X24.173 Y72.805
X24.154 Y72.792
X24.141 Y72.773
X24.136 Y72.75
G3 X24.376 Y72.75 I0.12 J0 F150
X24.136 Y72.75 I-0.12 J0
G1 X24.141 Y72.727
X24.154 Y72.708
X24.173 Y72.695
X24.196 Y72.69
X24.256 Y72.75
Z1
Z-3.076
Z-4.6 F50
X24.196 Y72.81
X24.173 Y72.805
X24.154 Y72.792
X24.141 Y72.773
X24.136 Y72.75
G3 X24.376 Y72.75 I0.12 J0 F150
X24.136 Y72.75 I-0.12 J0
G1 X24.141 Y72.727
X24.154 Y72.708
X24.173 Y72.695
X24.196 Y72.69
X24.256 Y72.75
Z1
Z-3.476
Z-5 F50
X24.196 Y72.81
X24.173 Y72.805
X24.154 Y72.792
X24.141 Y72.773
X24.136 Y72.75
G3 X24.376 Y72.75 I0.12 J0 F150
X24.136 Y72.75 I-0.12 J0
G1 X24.141 Y72.727
X24.154 Y72.708
X24.173 Y72.695
X24.196 Y72.69
X24.256 Y72.75
Z1
Z-3.876
Z-5.4 F50
X24.196 Y72.81
X24.173 Y72.805
X24.154 Y72.792
X24.141 Y72.773
X24.136 Y72.75
G3 X24.376 Y72.75 I0.12 J0 F150
X24.136 Y72.75 I-0.12 J0
G1 X24.141 Y72.727
X24.154 Y72.708
X24.173 Y72.695
X24.196 Y72.69
X24.256 Y72.75
Z1
Z-4.276
Z-5.8 F50
X24.196 Y72.81
X24.173 Y72.805
X24.154 Y72.792
X24.141 Y72.773
X24.136 Y72.75
G3 X24.376 Y72.75 I0.12 J0 F150
X24.136 Y72.75 I-0.12 J0
G1 X24.141 Y72.727
X24.154 Y72.708
X24.173 Y72.695
X24.196 Y72.69
X24.256 Y72.75
Z1
Z-4.676
Z-6.2 F50
X24.196 Y72.81
X24.173 Y72.805
X24.154 Y72.792
X24.141 Y72.773
X24.136 Y72.75
G3 X24.376 Y72.75 I0.12 J0 F150
X24.136 Y72.75 I-0.12 J0
G1 X24.141 Y72.727
X24.154 Y72.708
X24.173 Y72.695
X24.196 Y72.69
X24.256 Y72.75
Z1
Z-4.906
Z-6.43 F50
X24.196 Y72.81
X24.173 Y72.805
X24.154 Y72.792
X24.141 Y72.773
X24.136 Y72.75
G3 X24.376 Y72.75 I0.12 J0 F150
X24.136 Y72.75 I-0.12 J0
G1 X24.141 Y72.727
X24.154 Y72.708
X24.173 Y72.695
X24.196 Y72.69
X24.256 Y72.75
Z1
Z-5.136
Z-6.66 F50
X24.196 Y72.81
X24.173 Y72.805
X24.154 Y72.792
X24.141 Y72.773
X24.136 Y72.75
G3 X24.376 Y72.75 I0.12 J0 F150
X24.136 Y72.75 I-0.12 J0
G1 X24.141 Y72.727
X24.154 Y72.708
X24.173 Y72.695
X24.196 Y72.69
X24.256 Y72.75
Z1
X37.25 Y85.744
Z-1.876
Z-3.4 F50
X37.19 Y85.804
X37.167 Y85.799
X37.148 Y85.786
X37.135 Y85.767
X37.13 Y85.744
G3 X37.37 Y85.744 I0.12 J0 F150
X37.13 Y85.744 I-0.12 J0
G1 X37.135 Y85.721
X37.148 Y85.701
X37.167 Y85.688
X37.19 Y85.684
X37.25 Y85.744
Z1
Z-2.276
Z-3.8 F50
X37.19 Y85.804
X37.167 Y85.799
X37.148 Y85.786
X37.135 Y85.767
X37.13 Y85.744
G3 X37.37 Y85.744 I0.12 J0 F150
X37.13 Y85.744 I-0.12 J0
G1 X37.135 Y85.721
X37.148 Y85.701
X37.167 Y85.688
X37.19 Y85.684
X37.25 Y85.744
Z1
Z-2.676
Z-4.2 F50
X37.19 Y85.804
X37.167 Y85.799
X37.148 Y85.786
X37.135 Y85.767
X37.13 Y85.744
G3 X37.37 Y85.744 I0.12 J0 F150
X37.13 Y85.744 I-0.12 J0
G1 X37.135 Y85.721
X37.148 Y85.701
X37.167 Y85.688
X37.19 Y85.684
X37.25 Y85.744
Z1
Z-3.076
Z-4.6 F50
X37.19 Y85.804
X37.167 Y85.799
X37.148 Y85.786
X37.135 Y85.767
X37.13 Y85.744
G3 X37.37 Y85.744 I0.12 J0 F150
X37.13 Y85.744 I-0.12 J0
G1 X37.135 Y85.721
X37.148 Y85.701
X37.167 Y85.688
X37.19 Y85.684
X37.25 Y85.744
Z1
Z-3.476
Z-5 F50
X37.19 Y85.804
X37.167 Y85.799
X37.148 Y85.786
X37.135 Y85.767
X37.13 Y85.744
G3 X37.37 Y85.744 I0.12 J0 F150
X37.13 Y85.744 I-0.12 J0
G1 X37.135 Y85.721
X37.148 Y85.701
X37.167 Y85.688
X37.19 Y85.684
X37.25 Y85.744
Z1
Z-3.876
Z-5.4 F50
X37.19 Y85.804
X37.167 Y85.799
X37.148 Y85.786
X37.135 Y85.767
X37.13 Y85.744
G3 X37.37 Y85.744 I0.12 J0 F150
X37.13 Y85.744 I-0.12 J0
G1 X37.135 Y85.721
X37.148 Y85.701
X37.167 Y85.688
X37.19 Y85.684
X37.25 Y85.744
Z1
Z-4.276
Z-5.8 F50
X37.19 Y85.804
X37.167 Y85.799
X37.148 Y85.786
X37.135 Y85.767
X37.13 Y85.744
G3 X37.37 Y85.744 I0.12 J0 F150
X37.13 Y85.744 I-0.12 J0
G1 X37.135 Y85.721
X37.148 Y85.701
X37.167 Y85.688
X37.19 Y85.684
X37.25 Y85.744
Z1
Z-4.676
Z-6.2 F50
X37.19 Y85.804
X37.167 Y85.799
X37.148 Y85.786
X37.135 Y85.767
X37.13 Y85.744
G3 X37.37 Y85.744 I0.12 J0 F150
X37.13 Y85.744 I-0.12 J0
G1 X37.135 Y85.721
X37.148 Y85.701
X37.167 Y85.688
X37.19 Y85.684
X37.25 Y85.744
Z1
Z-4.906
Z-6.43 F50
X37.19 Y85.804
X37.167 Y85.799
X37.148 Y85.786
X37.135 Y85.767
X37.13 Y85.744
G3 X37.37 Y85.744 I0.12 J0 F150
X37.13 Y85.744 I-0.12 J0
G1 X37.135 Y85.721
X37.148 Y85.701
X37.167 Y85.688
X37.19 Y85.684
X37.25 Y85.744
Z1
Z-5.136
Z-6.66 F50
X37.19 Y85.804
X37.167 Y85.799
X37.148 Y85.786
X37.135 Y85.767
X37.13 Y85.744
G3 X37.37 Y85.744 I0.12 J0 F150
X37.13 Y85.744 I-0.12 J0
G1 X37.135 Y85.721
X37.148 Y85.701
X37.167 Y85.688
X37.19 Y85.684
X37.25 Y85.744
Z1
X55 Y90.5
Z-1.876
Z-3.4 F50
X54.94 Y90.56
X54.917 Y90.555
X54.898 Y90.542
X54.885 Y90.523
X54.88 Y90.5
G3 X55.12 Y90.5 I0.12 J0 F150
X54.88 Y90.5 I-0.12 J0
G1 X54.885 Y90.477
X54.898 Y90.458
X54.917 Y90.445
X54.94 Y90.44
X55 Y90.5
Z1
Z-2.276
Z-3.8 F50
X54.94 Y90.56
X54.917 Y90.555
X54.898 Y90.542
X54.885 Y90.523
X54.88 Y90.5
G3 X55.12 Y90.5 I0.12 J0 F150
X54.88 Y90.5 I-0.12 J0
G1 X54.885 Y90.477
X54.898 Y90.458
X54.917 Y90.445
X54.94 Y90.44
X55 Y90.5
Z1
Z-2.676
Z-4.2 F50
X54.94 Y90.56
X54.917 Y90.555
X54.898 Y90.542
X54.885 Y90.523
X54.88 Y90.5
G3 X55.12 Y90.5 I0.12 J0 F150
X54.88 Y90.5 I-0.12 J0
G1 X54.885 Y90.477
X54.898 Y90.458
X54.917 Y90.445
X54.94 Y90.44
X55 Y90.5
Z1
Z-3.076
Z-4.6 F50
X54.94 Y90.56
X54.917 Y90.555
X54.898 Y90.542
X54.885 Y90.523
X54.88 Y90.5
G3 X55.12 Y90.5 I0.12 J0 F150
X54.88 Y90.5 I-0.12 J0
G1 X54.885 Y90.477
X54.898 Y90.458
X54.917 Y90.445
X54.94 Y90.44
X55 Y90.5
Z1
Z-3.476
Z-5 F50
X54.94 Y90.56
X54.917 Y90.555
X54.898 Y90.542
X54.885 Y90.523
X54.88 Y90.5
G3 X55.12 Y90.5 I0.12 J0 F150
X54.88 Y90.5 I-0.12 J0
G1 X54.885 Y90.477
X54.898 Y90.458
X54.917 Y90.445
X54.94 Y90.44
X55 Y90.5
Z1
Z-3.876
Z-5.4 F50
X54.94 Y90.56
X54.917 Y90.555
X54.898 Y90.542
X54.885 Y90.523
X54.88 Y90.5
G3 X55.12 Y90.5 I0.12 J0 F150
X54.88 Y90.5 I-0.12 J0
G1 X54.885 Y90.477
X54.898 Y90.458
X54.917 Y90.445
X54.94 Y90.44
X55 Y90.5
Z1
Z-4.276
Z-5.8 F50
X54.94 Y90.56
X54.917 Y90.555
X54.898 Y90.542
X54.885 Y90.523
X54.88 Y90.5
G3 X55.12 Y90.5 I0.12 J0 F150
X54.88 Y90.5 I-0.12 J0
G1 X54.885 Y90.477
X54.898 Y90.458
X54.917 Y90.445
X54.94 Y90.44
X55 Y90.5
Z1
Z-4.676
Z-6.2 F50
X54.94 Y90.56
X54.917 Y90.555
X54.898 Y90.542
X54.885 Y90.523
X54.88 Y90.5
G3 X55.12 Y90.5 I0.12 J0 F150
X54.88 Y90.5 I-0.12 J0
G1 X54.885 Y90.477
X54.898 Y90.458
X54.917 Y90.445
X54.94 Y90.44
X55 Y90.5
Z1
Z-4.906
Z-6.43 F50
X54.94 Y90.56
X54.917 Y90.555
X54.898 Y90.542
X54.885 Y90.523
X54.88 Y90.5
G3 X55.12 Y90.5 I0.12 J0 F150
X54.88 Y90.5 I-0.12 J0
G1 X54.885 Y90.477
X54.898 Y90.458
X54.917 Y90.445
X54.94 Y90.44
X55 Y90.5
Z1
Z-5.136
Z-6.66 F50
X54.94 Y90.56
X54.917 Y90.555
X54.898 Y90.542
X54.885 Y90.523
X54.88 Y90.5
G3 X55.12 Y90.5 I0.12 J0 F150
X54.88 Y90.5 I-0.12 J0
G1 X54.885 Y90.477
X54.898 Y90.458
X54.917 Y90.445
X54.94 Y90.44
X55 Y90.5
Z1
X72.75 Y85.744
Z-1.876
Z-3.4 F50
X72.69 Y85.804
X72.667 Y85.799
X72.648 Y85.786
X72.635 Y85.767
X72.63 Y85.744
G3 X72.87 Y85.744 I0.12 J0 F150
X72.63 Y85.744 I-0.12 J0
G1 X72.635 Y85.721
X72.648 Y85.701
X72.667 Y85.688
X72.69 Y85.684
X72.75 Y85.744
Z1
Z-2.276
Z-3.8 F50
X72.69 Y85.804
X72.667 Y85.799
X72.648 Y85.786
X72.635 Y85.767
X72.63 Y85.744
G3 X72.87 Y85.744 I0.12 J0 F150
X72.63 Y85.744 I-0.12 J0
G1 X72.635 Y85.721
X72.648 Y85.701
X72.667 Y85.688
X72.69 Y85.684
X72.75 Y85.744
Z1
Z-2.676
Z-4.2 F50
X72.69 Y85.804
X72.667 Y85.799
X72.648 Y85.786
X72.635 Y85.767
X72.63 Y85.744
G3 X72.87 Y85.744 I0.12 J0 F150
X72.63 Y85.744 I-0.12 J0
G1 X72.635 Y85.721
X72.648 Y85.701
X72.667 Y85.688
X72.69 Y85.684
X72.75 Y85.744
Z1
Z-3.076
Z-4.6 F50
X72.69 Y85.804
X72.667 Y85.799
X72.648 Y85.786
X72.635 Y85.767
X72.63 Y85.744
G3 X72.87 Y85.744 I0.12 J0 F150
X72.63 Y85.744 I-0.12 J0
G1 X72.635 Y85.721
X72.648 Y85.701
X72.667 Y85.688
X72.69 Y85.684
X72.75 Y85.744
Z1
Z-3.476
Z-5 F50
X72.69 Y85.804
X72.667 Y85.799
X72.648 Y85.786
X72.635 Y85.767
X72.63 Y85.744
G3 X72.87 Y85.744 I0.12 J0 F150
X72.63 Y85.744 I-0.12 J0
G1 X72.635 Y85.721
X72.648 Y85.701
X72.667 Y85.688
X72.69 Y85.684
X72.75 Y85.744
Z1
Z-3.876
Z-5.4 F50
X72.69 Y85.804
X72.667 Y85.799
X72.648 Y85.786
X72.635 Y85.767
X72.63 Y85.744
G3 X72.87 Y85.744 I0.12 J0 F150
X72.63 Y85.744 I-0.12 J0
G1 X72.635 Y85.721
X72.648 Y85.701
X72.667 Y85.688
X72.69 Y85.684
X72.75 Y85.744
Z1
Z-4.276
Z-5.8 F50
X72.69 Y85.804
X72.667 Y85.799
X72.648 Y85.786
X72.635 Y85.767
X72.63 Y85.744
G3 X72.87 Y85.744 I0.12 J0 F150
X72.63 Y85.744 I-0.12 J0
G1 X72.635 Y85.721
X72.648 Y85.701
X72.667 Y85.688
X72.69 Y85.684
X72.75 Y85.744
Z1
Z-4.676
Z-6.2 F50
X72.69 Y85.804
X72.667 Y85.799
X72.648 Y85.786
X72.635 Y85.767
X72.63 Y85.744
G3 X72.87 Y85.744 I0.12 J0 F150
X72.63 Y85.744 I-0.12 J0
G1 X72.635 Y85.721
X72.648 Y85.701
X72.667 Y85.688
X72.69 Y85.684
X72.75 Y85.744
Z1
Z-4.906
Z-6.43 F50
X72.69 Y85.804
X72.667 Y85.799
X72.648 Y85.786
X72.635 Y85.767
X72.63 Y85.744
G3 X72.87 Y85.744 I0.12 J0 F150
X72.63 Y85.744 I-0.12 J0
G1 X72.635 Y85.721
X72.648 Y85.701
X72.667 Y85.688
X72.69 Y85.684
X72.75 Y85.744
Z1
Z-5.136
Z-6.66 F50
X72.69 Y85.804
X72.667 Y85.799
X72.648 Y85.786
X72.635 Y85.767
X72.63 Y85.744
G3 X72.87 Y85.744 I0.12 J0 F150
X72.63 Y85.744 I-0.12 J0
G1 X72.635 Y85.721
X72.648 Y85.701
X72.667 Y85.688
X72.69 Y85.684
X72.75 Y85.744
Z1
X85.744 Y72.75
Z-1.876
Z-3.4 F50
X85.684 Y72.81
X85.661 Y72.805
X85.641 Y72.792
X85.628 Y72.773
X85.624 Y72.75
G3 X85.864 Y72.75 I0.12 J0 F150
X85.624 Y72.75 I-0.12 J0
G1 X85.628 Y72.727
X85.641 Y72.708
X85.661 Y72.695
X85.684 Y72.69
X85.744 Y72.75
Z1
Z-2.276
Z-3.8 F50
X85.684 Y72.81
X85.661 Y72.805
X85.641 Y72.792
X85.628 Y72.773
X85.624 Y72.75
G3 X85.864 Y72.75 I0.12 J0 F150
X85.624 Y72.75 I-0.12 J0
G1 X85.628 Y72.727
X85.641 Y72.708
X85.661 Y72.695
X85.684 Y72.69
X85.744 Y72.75
Z1
Z-2.676
Z-4.2 F50
X85.684 Y72.81
X85.661 Y72.805
X85.641 Y72.792
X85.628 Y72.773
X85.624 Y72.75
G3 X85.864 Y72.75 I0.12 J0 F150
X85.624 Y72.75 I-0.12 J0
G1 X85.628 Y72.727
X85.641 Y72.708
X85.661 Y72.695
X85.684 Y72.69
X85.744 Y72.75
Z1
Z-3.076
Z-4.6 F50
X85.684 Y72.81
X85.661 Y72.805
X85.641 Y72.792
X85.628 Y72.773
X85.624 Y72.75
G3 X85.864 Y72.75 I0.12 J0 F150
X85.624 Y72.75 I-0.12 J0
G1 X85.628 Y72.727
X85.641 Y72.708
X85.661 Y72.695
X85.684 Y72.69
X85.744 Y72.75
Z1
Z-3.476
Z-5 F50
X85.684 Y72.81
X85.661 Y72.805
X85.641 Y72.792
X85.628 Y72.773
X85.624 Y72.75
G3 X85.864 Y72.75 I0.12 J0 F150
X85.624 Y72.75 I-0.12 J0
G1 X85.628 Y72.727
X85.641 Y72.708
X85.661 Y72.695
X85.684 Y72.69
X85.744 Y72.75
Z1
Z-3.876
Z-5.4 F50
X85.684 Y72.81
X85.661 Y72.805
X85.641 Y72.792
X85.628 Y72.773
X85.624 Y72.75
G3 X85.864 Y72.75 I0.12 J0 F150
X85.624 Y72.75 I-0.12 J0
G1 X85.628 Y72.727
X85.641 Y72.708
X85.661 Y72.695
X85.684 Y72.69
X85.744 Y72.75
Z1
Z-4.276
Z-5.8 F50
X85.684 Y72.81
X85.661 Y72.805
X85.641 Y72.792
X85.628 Y72.773
X85.624 Y72.75
G3 X85.864 Y72.75 I0.12 J0 F150
X85.624 Y72.75 I-0.12 J0
G1 X85.628 Y72.727
X85.641 Y72.708
X85.661 Y72.695
X85.684 Y72.69
X85.744 Y72.75
Z1
Z-4.676
Z-6.2 F50
X85.684 Y72.81
X85.661 Y72.805
X85.641 Y72.792
X85.628 Y72.773
X85.624 Y72.75
G3 X85.864 Y72.75 I0.12 J0 F150
X85.624 Y72.75 I-0.12 J0
G1 X85.628 Y72.727
X85.641 Y72.708
X85.661 Y72.695
X85.684 Y72.69
X85.744 Y72.75
Z1
Z-4.906
Z-6.43 F50
X85.684 Y72.81
X85.661 Y72.805
X85.641 Y72.792
X85.628 Y72.773
X85.624 Y72.75
G3 X85.864 Y72.75 I0.12 J0 F150
X85.624 Y72.75 I-0.12 J0
G1 X85.628 Y72.727
X85.641 Y72.708
X85.661 Y72.695
X85.684 Y72.69
X85.744 Y72.75
Z1
Z-5.136
Z-6.66 F50
X85.684 Y72.81
X85.661 Y72.805
X85.641 Y72.792
X85.628 Y72.773
X85.624 Y72.75
G3 X85.864 Y72.75 I0.12 J0 F150
X85.624 Y72.75 I-0.12 J0
G1 X85.628 Y72.727
X85.641 Y72.708
X85.661 Y72.695
X85.684 Y72.69
X85.744 Y72.75
Z1
X90.5 Y55
Z-1.876
Z-3.4 F50
X90.44 Y55.06
X90.417 Y55.055
X90.398 Y55.042
X90.385 Y55.023
X90.38 Y55
G3 X90.62 Y55 I0.12 J0 F150
X90.38 Y55 I-0.12 J0
G1 X90.385 Y54.977
X90.398 Y54.958
X90.417 Y54.945
X90.44 Y54.94
X90.5 Y55
Z1
Z-2.276
Z-3.8 F50
X90.44 Y55.06
X90.417 Y55.055
X90.398 Y55.042
X90.385 Y55.023
X90.38 Y55
G3 X90.62 Y55 I0.12 J0 F150
X90.38 Y55 I-0.12 J0
G1 X90.385 Y54.977
X90.398 Y54.958
X90.417 Y54.945
X90.44 Y54.94
X90.5 Y55
Z1
Z-2.676
Z-4.2 F50
X90.44 Y55.06
X90.417 Y55.055
X90.398 Y55.042
X90.385 Y55.023
X90.38 Y55
G3 X90.62 Y55 I0.12 J0 F150
X90.38 Y55 I-0.12 J0
G1 X90.385 Y54.977
X90.398 Y54.958
X90.417 Y54.945
X90.44 Y54.94
X90.5 Y55
Z1
Z-3.076
Z-4.6 F50
X90.44 Y55.06
X90.417 Y55.055
X90.398 Y55.042
X90.385 Y55.023
X90.38 Y55
G3 X90.62 Y55 I0.12 J0 F150
X90.38 Y55 I-0.12 J0
G1 X90.385 Y54.977
X90.398 Y54.958
X90.417 Y54.945
X90.44 Y54.94
X90.5 Y55
Z1
Z-3.476
Z-5 F50
X90.44 Y55.06
X90.417 Y55.055
X90.398 Y55.042
X90.385 Y55.023
X90.38 Y55
G3 X90.62 Y55 I0.12 J0 F150
X90.38 Y55 I-0.12 J0
G1 X90.385 Y54.977
X90.398 Y54.958
X90.417 Y54.945
X90.44 Y54.94
X90.5 Y55
Z1
Z-3.876
Z-5.4 F50
X90.44 Y55.06
X90.417 Y55.055
X90.398 Y55.042
X90.385 Y55.023
X90.38 Y55
G3 X90.62 Y55 I0.12 J0 F150
X90.38 Y55 I-0.12 J0
G1 X90.385 Y54.977
X90.398 Y54.958
X90.417 Y54.945
X90.44 Y54.94
X90.5 Y55
Z1
Z-4.276
Z-5.8 F50
X90.44 Y55.06
X90.417 Y55.055
X90.398 Y55.042
X90.385 Y55.023
X90.38 Y55
G3 X90.62 Y55 I0.12 J0 F150
X90.38 Y55 I-0.12 J0
G1 X90.385 Y54.977
X90.398 Y54.958
X90.417 Y54.945
X90.44 Y54.94
X90.5 Y55
Z1
Z-4.676
Z-6.2 F50
X90.44 Y55.06
X90.417 Y55.055
X90.398 Y55.042
X90.385 Y55.023
X90.38 Y55
G3 X90.62 Y55 I0.12 J0 F150
X90.38 Y55 I-0.12 J0
G1 X90.385 Y54.977
X90.398 Y54.958
X90.417 Y54.945
X90.44 Y54.94
X90.5 Y55
Z1
Z-4.906
Z-6.43 F50
X90.44 Y55.06
X90.417 Y55.055
X90.398 Y55.042
X90.385 Y55.023
X90.38 Y55
G3 X90.62 Y55 I0.12 J0 F150
X90.38 Y55 I-0.12 J0
G1 X90.385 Y54.977
X90.398 Y54.958
X90.417 Y54.945
X90.44 Y54.94
X90.5 Y55
Z1
Z-5.136
Z-6.66 F50
X90.44 Y55.06
X90.417 Y55.055
X90.398 Y55.042
X90.385 Y55.023
X90.38 Y55
G3 X90.62 Y55 I0.12 J0 F150
X90.38 Y55 I-0.12 J0
G1 X90.385 Y54.977
X90.398 Y54.958
X90.417 Y54.945
X90.44 Y54.94
X90.5 Y55
Z1
X85.744 Y37.25
Z-1.876
Z-3.4 F50
X85.684 Y37.31
X85.661 Y37.305
X85.641 Y37.292
X85.628 Y37.273
X85.624 Y37.25
G3 X85.864 Y37.25 I0.12 J0 F150
X85.624 Y37.25 I-0.12 J0
G1 X85.628 Y37.227
X85.641 Y37.208
X85.661 Y37.195
X85.684 Y37.19
X85.744 Y37.25
Z1
Z-2.276
Z-3.8 F50
X85.684 Y37.31
X85.661 Y37.305
X85.641 Y37.292
X85.628 Y37.273
X85.624 Y37.25
G3 X85.864 Y37.25 I0.12 J0 F150
X85.624 Y37.25 I-0.12 J0
G1 X85.628 Y37.227
X85.641 Y37.208
X85.661 Y37.195
X85.684 Y37.19
X85.744 Y37.25
Z1
Z-2.676
Z-4.2 F50
X85.684 Y37.31
X85.661 Y37.305
X85.641 Y37.292
X85.628 Y37.273
X85.624 Y37.25
G3 X85.864 Y37.25 I0.12 J0 F150
X85.624 Y37.25 I-0.12 J0
G1 X85.628 Y37.227
X85.641 Y37.208
X85.661 Y37.195
X85.684 Y37.19
X85.744 Y37.25
Z1
Z-3.076
Z-4.6 F50
X85.684 Y37.31
X85.661 Y37.305
X85.641 Y37.292
X85.628 Y37.273
X85.624 Y37.25
G3 X85.864 Y37.25 I0.12 J0 F150
X85.624 Y37.25 I-0.12 J0
G1 X85.628 Y37.227
X85.641 Y37.208
X85.661 Y37.195
X85.684 Y37.19
X85.744 Y37.25
Z1
Z-3.476
Z-5 F50
X85.684 Y37.31
X85.661 Y37.305
X85.641 Y37.292
X85.628 Y37.273
X85.624 Y37.25
G3 X85.864 Y37.25 I0.12 J0 F150
X85.624 Y37.25 I-0.12 J0
G1 X85.628 Y37.227
X85.641 Y37.208
X85.661 Y37.195
X85.684 Y37.19
X85.744 Y37.25
Z1
Z-3.876
Z-5.4 F50
X85.684 Y37.31
X85.661 Y37.305
X85.641 Y37.292
X85.628 Y37.273
X85.624 Y37.25
G3 X85.864 Y37.25 I0.12 J0 F150
X85.624 Y37.25 I-0.12 J0
G1 X85.628 Y37.227
X85.641 Y37.208
X85.661 Y37.195
X85.684 Y37.19
X85.744 Y37.25
Z1
Z-4.276
Z-5.8 F50
X85.684 Y37.31
X85.661 Y37.305
X85.641 Y37.292
X85.628 Y37.273
X85.624 Y37.25
G3 X85.864 Y37.25 I0.12 J0 F150
X85.624 Y37.25 I-0.12 J0
G1 X85.628 Y37.227
X85.641 Y37.208
X85.661 Y37.195
X85.684 Y37.19
X85.744 Y37.25
Z1
Z-4.676
Z-6.2 F50
X85.684 Y37.31
X85.661 Y37.305
X85.641 Y37.292
X85.628 Y37.273
X85.624 Y37.25
G3 X85.864 Y37.25 I0.12 J0 F150
X85.624 Y37.25 I-0.12 J0
G1 X85.628 Y37.227
X85.641 Y37.208
X85.661 Y37.195
X85.684 Y37.19
X85.744 Y37.25
Z1
Z-4.906
Z-6.43 F50
X85.684 Y37.31
X85.661 Y37.305
X85.641 Y37.292
X85.628 Y37.273
X85.624 Y37.25
G3 X85.864 Y37.25 I0.12 J0 F150
X85.624 Y37.25 I-0.12 J0
G1 X85.628 Y37.227
X85.641 Y37.208
X85.661 Y37.195
X85.684 Y37.19
X85.744 Y37.25
Z1
Z-5.136
Z-6.66 F50
X85.684 Y37.31
X85.661 Y37.305
X85.641 Y37.292
X85.628 Y37.273
X85.624 Y37.25
G3 X85.864 Y37.25 I0.12 J0 F150
X85.624 Y37.25 I-0.12 J0
G1 X85.628 Y37.227
X85.641 Y37.208
X85.661 Y37.195
X85.684 Y37.19
X85.744 Y37.25
Z1
X72.75 Y24.256
Z-1.876
Z-3.4 F50
X72.69 Y24.316
X72.667 Y24.312
X72.648 Y24.299
X72.635 Y24.279
X72.63 Y24.256
G3 X72.87 Y24.256 I0.12 J0 F150
X72.63 Y24.256 I-0.12 J0
G1 X72.635 Y24.233
X72.648 Y24.214
X72.667 Y24.201
X72.69 Y24.196
X72.75 Y24.256
Z1
Z-2.276
Z-3.8 F50
X72.69 Y24.316
X72.667 Y24.312
X72.648 Y24.299
X72.635 Y24.279
X72.63 Y24.256
G3 X72.87 Y24.256 I0.12 J0 F150
X72.63 Y24.256 I-0.12 J0
G1 X72.635 Y24.233
X72.648 Y24.214
X72.667 Y24.201
X72.69 Y24.196
X72.75 Y24.256
Z1
Z-2.676
Z-4.2 F50
X72.69 Y24.316
X72.667 Y24.312
X72.648 Y24.299
X72.635 Y24.279
X72.63 Y24.256
G3 X72.87 Y24.256 I0.12 J0 F150
X72.63 Y24.256 I-0.12 J0
G1 X72.635 Y24.233
X72.648 Y24.214
X72.667 Y24.201
X72.69 Y24.196
X72.75 Y24.256
Z1
Z-3.076
Z-4.6 F50
X72.69 Y24.316
X72.667 Y24.312
X72.648 Y24.299
X72.635 Y24.279
X72.63 Y24.256
G3 X72.87 Y24.256 I0.12 J0 F150
X72.63 Y24.256 I-0.12 J0
G1 X72.635 Y24.233
X72.648 Y24.214
X72.667 Y24.201
X72.69 Y24.196
X72.75 Y24.256
Z1
Z-3.476
Z-5 F50
X72.69 Y24.316
X72.667 Y24.312
X72.648 Y24.299
X72.635 Y24.279
X72.63 Y24.256
G3 X72.87 Y24.256 I0.12 J0 F150
X72.63 Y24.256 I-0.12 J0
G1 X72.635 Y24.233
X72.648 Y24.214
X72.667 Y24.201
X72.69 Y24.196
X72.75 Y24.256
Z1
Z-3.876
Z-5.4 F50
X72.69 Y24.316
X72.667 Y24.312
X72.648 Y24.299
X72.635 Y24.279
X72.63 Y24.256
G3 X72.87 Y24.256 I0.12 J0 F150
X72.63 Y24.256 I-0.12 J0
G1 X72.635 Y24.233
X72.648 Y24.214
X72.667 Y24.201
X72.69 Y24.196
X72.75 Y24.256
Z1
Z-4.276
Z-5.8 F50
X72.69 Y24.316
X72.667 Y24.312
X72.648 Y24.299
X72.635 Y24.279
X72.63 Y24.256
G3 X72.87 Y24.256 I0.12 J0 F150
X72.63 Y24.256 I-0.12 J0
G1 X72.635 Y24.233
X72.648 Y24.214
X72.667 Y24.201
X72.69 Y24.196
X72.75 Y24.256
Z1
Z-4.676
Z-6.2 F50
X72.69 Y24.316
X72.667 Y24.312
X72.648 Y24.299
X72.635 Y24.279
X72.63 Y24.256
G3 X72.87 Y24.256 I0.12 J0 F150
X72.63 Y24.256 I-0.12 J0
G1 X72.635 Y24.233
X72.648 Y24.214
X72.667 Y24.201
X72.69 Y24.196
X72.75 Y24.256
Z1
Z-4.906
Z-6.43 F50
X72.69 Y24.316
X72.667 Y24.312
X72.648 Y24.299
X72.635 Y24.279
X72.63 Y24.256
G3 X72.87 Y24.256 I0.12 J0 F150
X72.63 Y24.256 I-0.12 J0
G1 X72.635 Y24.233
X72.648 Y24.214
X72.667 Y24.201
X72.69 Y24.196
X72.75 Y24.256
Z1
Z-5.136
Z-6.66 F50
X72.69 Y24.316
X72.667 Y24.312
X72.648 Y24.299
X72.635 Y24.279
X72.63 Y24.256
G3 X72.87 Y24.256 I0.12 J0 F150
X72.63 Y24.256 I-0.12 J0
G1 X72.635 Y24.233
X72.648 Y24.214
X72.667 Y24.201
X72.69 Y24.196
X72.75 Y24.256
Z1
X55 Y19.5
Z-1.876
Z-3.4 F50
X54.94 Y19.56
X54.917 Y19.555
X54.898 Y19.542
X54.885 Y19.523
X54.88 Y19.5
G3 X55.12 Y19.5 I0.12 J0 F150
X54.88 Y19.5 I-0.12 J0
G1 X54.885 Y19.477
X54.898 Y19.458
X54.917 Y19.445
X54.94 Y19.44
X55 Y19.5
Z1
Z-2.276
Z-3.8 F50
X54.94 Y19.56
X54.917 Y19.555
X54.898 Y19.542
X54.885 Y19.523
X54.88 Y19.5
G3 X55.12 Y19.5 I0.12 J0 F150
X54.88 Y19.5 I-0.12 J0
G1 X54.885 Y19.477
X54.898 Y19.458
X54.917 Y19.445
X54.94 Y19.44
X55 Y19.5
Z1
Z-2.676
Z-4.2 F50
X54.94 Y19.56
X54.917 Y19.555
X54.898 Y19.542
X54.885 Y19.523
X54.88 Y19.5
G3 X55.12 Y19.5 I0.12 J0 F150
X54.88 Y19.5 I-0.12 J0
G1 X54.885 Y19.477
X54.898 Y19.458
X54.917 Y19.445
X54.94 Y19.44
X55 Y19.5
Z1
Z-3.076
Z-4.6 F50
X54.94 Y19.56
X54.917 Y19.555
X54.898 Y19.542
X54.885 Y19.523
X54.88 Y19.5
G3 X55.12 Y19.5 I0.12 J0 F150
X54.88 Y19.5 I-0.12 J0
G1 X54.885 Y19.477
X54.898 Y19.458
X54.917 Y19.445
X54.94 Y19.44
X55 Y19.5
Z1
Z-3.476
Z-5 F50
X54.94 Y19.56
X54.917 Y19.555
X54.898 Y19.542
X54.885 Y19.523
X54.88 Y19.5
G3 X55.12 Y19.5 I0.12 J0 F150
X54.88 Y19.5 I-0.12 J0
G1 X54.885 Y19.477
X54.898 Y19.458
X54.917 Y19.445
X54.94 Y19.44
X55 Y19.5
Z1
Z-3.876
Z-5.4 F50
X54.94 Y19.56
X54.917 Y19.555
X54.898 Y19.542
X54.885 Y19.523
X54.88 Y19.5
G3 X55.12 Y19.5 I0.12 J0 F150
X54.88 Y19.5 I-0.12 J0
G1 X54.885 Y19.477
X54.898 Y19.458
X54.917 Y19.445
X54.94 Y19.44
X55 Y19.5
Z1
Z-4.276
Z-5.8 F50
X54.94 Y19.56
X54.917 Y19.555
X54.898 Y19.542
X54.885 Y19.523
X54.88 Y19.5
G3 X55.12 Y19.5 I0.12 J0 F150
X54.88 Y19.5 I-0.12 J0
G1 X54.885 Y19.477
X54.898 Y19.458
X54.917 Y19.445
X54.94 Y19.44
X55 Y19.5
Z1
Z-4.676
Z-6.2 F50
X54.94 Y19.56
X54.917 Y19.555
X54.898 Y19.542
X54.885 Y19.523
X54.88 Y19.5
G3 X55.12 Y19.5 I0.12 J0 F150
X54.88 Y19.5 I-0.12 J0
G1 X54.885 Y19.477
X54.898 Y19.458
X54.917 Y19.445
X54.94 Y19.44
X55 Y19.5
Z1
Z-4.906
Z-6.43 F50
X54.94 Y19.56
X54.917 Y19.555
X54.898 Y19.542
X54.885 Y19.523
X54.88 Y19.5
G3 X55.12 Y19.5 I0.12 J0 F150
X54.88 Y19.5 I-0.12 J0
G1 X54.885 Y19.477
X54.898 Y19.458
X54.917 Y19.445
X54.94 Y19.44
X55 Y19.5
Z1
Z-5.136
Z-6.66 F50
X54.94 Y19.56
X54.917 Y19.555
X54.898 Y19.542
X54.885 Y19.523
X54.88 Y19.5
G3 X55.12 Y19.5 I0.12 J0 F150
X54.88 Y19.5 I-0.12 J0
G1 X54.885 Y19.477
X54.898 Y19.458
X54.917 Y19.445
X54.94 Y19.44
X55 Y19.5
Z1
X37.25 Y24.256
Z-1.876
Z-3.4 F50
X37.19 Y24.316
X37.167 Y24.312
X37.148 Y24.299
X37.135 Y24.279
X37.13 Y24.256
G3 X37.37 Y24.256 I0.12 J0 F150
X37.13 Y24.256 I-0.12 J0
G1 X37.135 Y24.233
X37.148 Y24.214
X37.167 Y24.201
X37.19 Y24.196
X37.25 Y24.256
Z1
Z-2.276
Z-3.8 F50
X37.19 Y24.316
X37.167 Y24.312
X37.148 Y24.299
X37.135 Y24.279
X37.13 Y24.256
G3 X37.37 Y24.256 I0.12 J0 F150
X37.13 Y24.256 I-0.12 J0
G1 X37.135 Y24.233
X37.148 Y24.214
X37.167 Y24.201
X37.19 Y24.196
X37.25 Y24.256
Z1
Z-2.676
Z-4.2 F50
X37.19 Y24.316
X37.167 Y24.312
X37.148 Y24.299
X37.135 Y24.279
X37.13 Y24.256
G3 X37.37 Y24.256 I0.12 J0 F150
X37.13 Y24.256 I-0.12 J0
G1 X37.135 Y24.233
X37.148 Y24.214
X37.167 Y24.201
X37.19 Y24.196
X37.25 Y24.256
Z1
Z-3.076
Z-4.6 F50
X37.19 Y24.316
X37.167 Y24.312
X37.148 Y24.299
X37.135 Y24.279
X37.13 Y24.256
G3 X37.37 Y24.256 I0.12 J0 F150
X37.13 Y24.256 I-0.12 J0
G1 X37.135 Y24.233
X37.148 Y24.214
X37.167 Y24.201
X37.19 Y24.196
X37.25 Y24.256
Z1
Z-3.476
Z-5 F50
X37.19 Y24.316
X37.167 Y24.312
X37.148 Y24.299
X37.135 Y24.279
X37.13 Y24.256
G3 X37.37 Y24.256 I0.12 J0 F150
X37.13 Y24.256 I-0.12 J0
G1 X37.135 Y24.233
X37.148 Y24.214
X37.167 Y24.201
X37.19 Y24.196
X37.25 Y24.256
Z1
Z-3.876
Z-5.4 F50
X37.19 Y24.316
X37.167 Y24.312
X37.148 Y24.299
X37.135 Y24.279
X37.13 Y24.256
G3 X37.37 Y24.256 I0.12 J0 F150
X37.13 Y24.256 I-0.12 J0
G1 X37.135 Y24.233
X37.148 Y24.214
X37.167 Y24.201
X37.19 Y24.196
X37.25 Y24.256
Z1
Z-4.276
Z-5.8 F50
X37.19 Y24.316
X37.167 Y24.312
X37.148 Y24.299
X37.135 Y24.279
X37.13 Y24.256
G3 X37.37 Y24.256 I0.12 J0 F150
X37.13 Y24.256 I-0.12 J0
G1 X37.135 Y24.233
X37.148 Y24.214
X37.167 Y24.201
X37.19 Y24.196
X37.25 Y24.256
Z1
Z-4.676
Z-6.2 F50
X37.19 Y24.316
X37.167 Y24.312
X37.148 Y24.299
X37.135 Y24.279
X37.13 Y24.256
G3 X37.37 Y24.256 I0.12 J0 F150
X37.13 Y24.256 I-0.12 J0
G1 X37.135 Y24.233
X37.148 Y24.214
X37.167 Y24.201
X37.19 Y24.196
X37.25 Y24.256
Z1
Z-4.906
Z-6.43 F50
X37.19 Y24.316
X37.167 Y24.312
X37.148 Y24.299
X37.135 Y24.279
X37.13 Y24.256
G3 X37.37 Y24.256 I0.12 J0 F150
X37.13 Y24.256 I-0.12 J0
G1 X37.135 Y24.233
X37.148 Y24.214
X37.167 Y24.201
X37.19 Y24.196
X37.25 Y24.256
Z1
Z-5.136
Z-6.66 F50
X37.19 Y24.316
X37.167 Y24.312
X37.148 Y24.299
X37.135 Y24.279
X37.13 Y24.256
G3 X37.37 Y24.256 I0.12 J0 F150
X37.13 Y24.256 I-0.12 J0
G1 X37.135 Y24.233
X37.148 Y24.214
X37.167 Y24.201
X37.19 Y24.196
X37.25 Y24.256
Z1
X24.256 Y37.25
Z-1.876
Z-3.4 F50
X24.196 Y37.31
X24.173 Y37.305
X24.154 Y37.292
X24.141 Y37.273
X24.136 Y37.25
G3 X24.376 Y37.25 I0.12 J0 F150
X24.136 Y37.25 I-0.12 J0
G1 X24.141 Y37.227
X24.154 Y37.208
X24.173 Y37.195
X24.196 Y37.19
X24.256 Y37.25
Z1
Z-2.276
Z-3.8 F50
X24.196 Y37.31
X24.173 Y37.305
X24.154 Y37.292
X24.141 Y37.273
X24.136 Y37.25
G3 X24.376 Y37.25 I0.12 J0 F150
X24.136 Y37.25 I-0.12 J0
G1 X24.141 Y37.227
X24.154 Y37.208
X24.173 Y37.195
X24.196 Y37.19
X24.256 Y37.25
Z1
Z-2.676
Z-4.2 F50
X24.196 Y37.31
X24.173 Y37.305
X24.154 Y37.292
X24.141 Y37.273
X24.136 Y37.25
G3 X24.376 Y37.25 I0.12 J0 F150
X24.136 Y37.25 I-0.12 J0
G1 X24.141 Y37.227
X24.154 Y37.208
X24.173 Y37.195
X24.196 Y37.19
X24.256 Y37.25
Z1
Z-3.076
Z-4.6 F50
X24.196 Y37.31
X24.173 Y37.305
X24.154 Y37.292
X24.141 Y37.273
X24.136 Y37.25
G3 X24.376 Y37.25 I0.12 J0 F150
X24.136 Y37.25 I-0.12 J0
G1 X24.141 Y37.227
X24.154 Y37.208
X24.173 Y37.195
X24.196 Y37.19
X24.256 Y37.25
Z1
Z-3.476
Z-5 F50
X24.196 Y37.31
X24.173 Y37.305
X24.154 Y37.292
X24.141 Y37.273
X24.136 Y37.25
G3 X24.376 Y37.25 I0.12 J0 F150
X24.136 Y37.25 I-0.12 J0
G1 X24.141 Y37.227
X24.154 Y37.208
X24.173 Y37.195
X24.196 Y37.19
X24.256 Y37.25
Z1
Z-3.876
Z-5.4 F50
X24.196 Y37.31
X24.173 Y37.305
X24.154 Y37.292
X24.141 Y37.273
X24.136 Y37.25
G3 X24.376 Y37.25 I0.12 J0 F150
X24.136 Y37.25 I-0.12 J0
G1 X24.141 Y37.227
X24.154 Y37.208
X24.173 Y37.195
X24.196 Y37.19
X24.256 Y37.25
Z1
Z-4.276
Z-5.8 F50
X24.196 Y37.31
X24.173 Y37.305
X24.154 Y37.292
X24.141 Y37.273
X24.136 Y37.25
G3 X24.376 Y37.25 I0.12 J0 F150
X24.136 Y37.25 I-0.12 J0
G1 X24.141 Y37.227
X24.154 Y37.208
X24.173 Y37.195
X24.196 Y37.19
X24.256 Y37.25
Z1
Z-4.676
Z-6.2 F50
X24.196 Y37.31
X24.173 Y37.305
X24.154 Y37.292
X24.141 Y37.273
X24.136 Y37.25
G3 X24.376 Y37.25 I0.12 J0 F150
X24.136 Y37.25 I-0.12 J0
G1 X24.141 Y37.227
X24.154 Y37.208
X24.173 Y37.195
X24.196 Y37.19
X24.256 Y37.25
Z1
Z-4.906
Z-6.43 F50
X24.196 Y37.31
X24.173 Y37.305
X24.154 Y37.292
X24.141 Y37.273
X24.136 Y37.25
G3 X24.376 Y37.25 I0.12 J0 F150
X24.136 Y37.25 I-0.12 J0
G1 X24.141 Y37.227
X24.154 Y37.208
X24.173 Y37.195
X24.196 Y37.19
X24.256 Y37.25
Z1
Z-5.136
Z-6.66 F50
X24.196 Y37.31
X24.173 Y37.305
X24.154 Y37.292
X24.141 Y37.273
X24.136 Y37.25
G3 X24.376 Y37.25 I0.12 J0 F150
X24.136 Y37.25 I-0.12 J0
G1 X24.141 Y37.227
X24.154 Y37.208
X24.173 Y37.195
X24.196 Y37.19
X24.256 Y37.25
Z1
X19.5 Y55
Z-1.876
Z-3.4 F50
X19.44 Y55.06
X19.417 Y55.055
X19.398 Y55.042
X19.385 Y55.023
X19.38 Y55
G3 X19.62 Y55 I0.12 J0 F150
X19.38 Y55 I-0.12 J0
G1 X19.385 Y54.977
X19.398 Y54.958
X19.417 Y54.945
X19.44 Y54.94
X19.5 Y55
Z1
Z-2.276
Z-3.8 F50
X19.44 Y55.06
X19.417 Y55.055
X19.398 Y55.042
X19.385 Y55.023
X19.38 Y55
G3 X19.62 Y55 I0.12 J0 F150
X19.38 Y55 I-0.12 J0
G1 X19.385 Y54.977
X19.398 Y54.958
X19.417 Y54.945
X19.44 Y54.94
X19.5 Y55
Z1
Z-2.676
Z-4.2 F50
X19.44 Y55.06
X19.417 Y55.055
X19.398 Y55.042
X19.385 Y55.023
X19.38 Y55
G3 X19.62 Y55 I0.12 J0 F150
X19.38 Y55 I-0.12 J0
G1 X19.385 Y54.977
X19.398 Y54.958
X19.417 Y54.945
X19.44 Y54.94
X19.5 Y55
Z1
Z-3.076
Z-4.6 F50
X19.44 Y55.06
X19.417 Y55.055
X19.398 Y55.042
X19.385 Y55.023
X19.38 Y55
G3 X19.62 Y55 I0.12 J0 F150
X19.38 Y55 I-0.12 J0
G1 X19.385 Y54.977
X19.398 Y54.958
X19.417 Y54.945
X19.44 Y54.94
X19.5 Y55
Z1
Z-3.476
Z-5 F50
X19.44 Y55.06
X19.417 Y55.055
X19.398 Y55.042
X19.385 Y55.023
X19.38 Y55
G3 X19.62 Y55 I0.12 J0 F150
X19.38 Y55 I-0.12 J0
G1 X19.385 Y54.977
X19.398 Y54.958
X19.417 Y54.945
X19.44 Y54.94
X19.5 Y55
Z1
Z-3.876
Z-5.4 F50
X19.44 Y55.06
X19.417 Y55.055
X19.398 Y55.042
X19.385 Y55.023
X19.38 Y55
G3 X19.62 Y55 I0.12 J0 F150
X19.38 Y55 I-0.12 J0
G1 X19.385 Y54.977
X19.398 Y54.958
X19.417 Y54.945
X19.44 Y54.94
X19.5 Y55
Z1
Z-4.276
Z-5.8 F50
X19.44 Y55.06
X19.417 Y55.055
X19.398 Y55.042
X19.385 Y55.023
X19.38 Y55
G3 X19.62 Y55 I0.12 J0 F150
X19.38 Y55 I-0.12 J0
G1 X19.385 Y54.977
X19.398 Y54.958
X19.417 Y54.945
X19.44 Y54.94
X19.5 Y55
Z1
Z-4.676
Z-6.2 F50
X19.44 Y55.06
X19.417 Y55.055
X19.398 Y55.042
X19.385 Y55.023
X19.38 Y55
G3 X19.62 Y55 I0.12 J0 F150
X19.38 Y55 I-0.12 J0
G1 X19.385 Y54.977
X19.398 Y54.958
X19.417 Y54.945
X19.44 Y54.94
X19.5 Y55
Z1
Z-4.906
Z-6.43 F50
X19.44 Y55.06
X19.417 Y55.055
X19.398 Y55.042
X19.385 Y55.023
X19.38 Y55
G3 X19.62 Y55 I0.12 J0 F150
X19.38 Y55 I-0.12 J0
G1 X19.385 Y54.977
X19.398 Y54.958
X19.417 Y54.945
X19.44 Y54.94
X19.5 Y55
Z1
Z-5.136
Z-6.66 F50
X19.44 Y55.06
X19.417 Y55.055
X19.398 Y55.042
X19.385 Y55.023
X19.38 Y55
G3 X19.62 Y55 I0.12 J0 F150
X19.38 Y55 I-0.12 J0
G1 X19.385 Y54.977
X19.398 Y54.958
X19.417 Y54.945
X19.44 Y54.94
X19.5 Y55
Z4
(When using Fusion for Personal Use, the feedrate of rapid)
(moves is reduced to match the feedrate of cutting moves,)
(which can increase machining time. Unrestricted rapid moves)
(are available with a Fusion Subscription.)

(center hole)
G0 Z6
X82.742 Y54.524
G1 Z0.952 F150
Z-0.124 F50
G18 G2 X83.218 Z-0.6 I0.476 K0
G1 X83.694
G17 G3 X84.17 Y55 I0 J0.476
X25.83 Y55 I-29.17 J0 F150
X84.17 Y55 I29.17 J0
X83.694 Y55.476 I-0.476 J0
G1 X83.218
G18 G3 X82.742 Z-0.124 I0 K0.476
G1 Z1
Y54.524
Z0.352
Z-0.724 F50
G2 X83.218 Z-1.2 I0.476 K0
G1 X83.694
G17 G3 X84.17 Y55 I0 J0.476
X25.83 Y55 I-29.17 J0 F150
X84.17 Y55 I29.17 J0
X83.694 Y55.476 I-0.476 J0
G1 X83.218
G18 G3 X82.742 Z-0.724 I0 K0.476
G1 Z1
Y54.524
Z0.33
Z-0.248 F50
Z-1.324
G2 X83.218 Z-1.8 I0.476 K0
G1 X83.694
G17 G3 X84.17 Y55 I0 J0.476
X25.83 Y55 I-29.17 J0 F150
X84.17 Y55 I29.17 J0
X83.694 Y55.476 I-0.476 J0
G1 X83.218
G18 G3 X82.742 Z-1.324 I0 K0.476
G1 Z1
Y54.524
Z0.33
Z-0.848 F50
Z-1.924
G2 X83.218 Z-2.4 I0.476 K0
G1 X83.694
G17 G3 X84.17 Y55 I0 J0.476
X25.83 Y55 I-29.17 J0 F150
X84.17 Y55 I29.17 J0
X83.694 Y55.476 I-0.476 J0
G1 X83.218
G18 G3 X82.742 Z-1.924 I0 K0.476
G1 Z1
Y54.524
Z0.33
Z-1.448 F50
Z-2.524
G2 X83.218 Z-3 I0.476 K0
G1 X83.694
G17 G3 X84.17 Y55 I0 J0.476
X25.83 Y55 I-29.17 J0 F150
X84.17 Y55 I29.17 J0
X83.694 Y55.476 I-0.476 J0
G1 X83.218
G18 G3 X82.742 Z-2.524 I0 K0.476
G1 Z1
Y54.524
Z0.33
Z-2.048 F50
Z-3.124
G2 X83.218 Z-3.6 I0.476 K0
G1 X83.694
G17 G3 X84.17 Y55 I0 J0.476
X25.83 Y55 I-29.17 J0 F150
X84.17 Y55 I29.17 J0
X83.694 Y55.476 I-0.476 J0
G1 X83.218
G18 G3 X82.742 Z-3.124 I0 K0.476
G1 Z1
Y54.524
Z0.33
Z-2.648 F50
Z-3.724
G2 X83.218 Z-4.2 I0.476 K0
G1 X83.694
G17 G3 X84.17 Y55 I0 J0.476
X25.83 Y55 I-29.17 J0 F150
X84.17 Y55 I29.17 J0
X83.694 Y55.476 I-0.476 J0
G1 X83.218
G18 G3 X82.742 Z-3.724 I0 K0.476
G1 Z1
Y54.524
Z0.33
Z-3.248 F50
Z-4.324
G2 X83.218 Z-4.8 I0.476 K0
G1 X83.694
G17 G3 X84.17 Y55 I0 J0.476
X25.83 Y55 I-29.17 J0 F150
X84.17 Y55 I29.17 J0
X83.694 Y55.476 I-0.476 J0
G1 X83.218
G18 G3 X82.742 Z-4.324 I0 K0.476
G1 Z1
Y54.524
Z0.33
Z-3.848 F50
Z-4.924
G2 X83.218 Z-5.4 I0.476 K0
G1 X83.694
G17 G3 X84.17 Y55 I0 J0.476
X25.83 Y55 I-29.17 J0 F150
X84.17 Y55 I29.17 J0
X83.694 Y55.476 I-0.476 J0
G1 X83.218
G18 G3 X82.742 Z-4.924 I0 K0.476
G1 Z1
Y54.524
Z0.33
Z-4.448 F50
Z-5.524
G2 X83.218 Z-6 I0.476 K0
G1 X83.694
G17 G3 X84.17 Y55 I0 J0.476
X25.83 Y55 I-29.17 J0 F150
X84.17 Y55 I29.17 J0
X83.694 Y55.476 I-0.476 J0
G1 X83.218
G18 G3 X82.742 Z-5.524 I0 K0.476
G1 Z1
Y54.524
Z0.33
Z-5.048 F50
Z-5.854
G2 X83.218 Z-6.33 I0.476 K0
G1 X83.694
G17 G3 X84.17 Y55 I0 J0.476
X25.83 Y55 I-29.17 J0 F150
X84.17 Y55 I29.17 J0
X83.694 Y55.476 I-0.476 J0
G1 X83.218
G18 G3 X82.742 Z-5.854 I0 K0.476
G1 Z6
G17
(When using Fusion for Personal Use, the feedrate of rapid)
(moves is reduced to match the feedrate of cutting moves,)
(which can increase machining time. Unrestricted rapid moves)
(are available with a Fusion Subscription.)

(countersinks)
G0 X81.008 Y68.209
G1 Z6 F150
Z0.952
Z-0.6 F50
G3 X79.203 Y71.282 I-26.008 J-13.209 F150
G2 X78.799 Y72.537 I1.975 J1.328
X92.689 Y72.963 I6.945 J0.213
X82.087 Y66.842 I-6.945 J-0.213
X81.202 Y67.82 I1.253 J2.024
G3 X81.008 Y68.209 I-26.202 J-12.819
G1 Z1
X85.864 Y72.75
Z0.952
Z-0.6 F50
G3 X85.624 Y72.75 I-0.12 J0 F150
X85.864 Y72.75 I0.12 J0
G1 Z-1.2 F50
G3 X85.624 Y72.75 I-0.12 J0 F150
X85.864 Y72.75 I0.12 J0
G1 Z-1.8 F50
G3 X85.624 Y72.75 I-0.12 J0 F150
X85.864 Y72.75 I0.12 J0
G1 Z-2.4 F50
G3 X85.624 Y72.75 I-0.12 J0 F150
X85.864 Y72.75 I0.12 J0
G1 Z-3 F50
G3 X85.624 Y72.75 I-0.12 J0 F150
X85.864 Y72.75 I0.12 J0
G1 Z1
X97.448 Y55
Z0.952
Z-0.6 F50
G2 X84.379 Y51.712 I-6.948 J0 F150
X84.101 Y53.001 I2.097 J1.126
G3 X84.101 Y56.999 I-29.101 J1.999
G2 X84.379 Y58.288 I2.374 J0.163
X97.448 Y55 I6.121 J-3.288
G1 Z1
X90.62
Z0.952
Z-0.6 F50
G3 X90.38 Y55 I-0.12 J0 F150
X90.62 Y55 I0.12 J0
G1 Z-1.2 F50
G3 X90.38 Y55 I-0.12 J0 F150
X90.62 Y55 I0.12 J0
G1 Z-1.8 F50
G3 X90.38 Y55 I-0.12 J0 F150
X90.62 Y55 I0.12 J0
G1 Z-2.4 F50
G3 X90.38 Y55 I-0.12 J0 F150
X90.62 Y55 I0.12 J0
G1 Z-3 F50
G3 X90.38 Y55 I-0.12 J0 F150
X90.62 Y55 I0.12 J0
G1 Z1
X92.691 Y37.374
Z0.952
Z-0.6 F50
G2 X85.699 Y30.302 I-6.947 J-0.124 F150
X78.799 Y37.463 I0.044 J6.948
X79.203 Y38.718 I2.379 J-0.073
G3 X81.202 Y42.18 I-24.203 J16.282
G2 X82.087 Y43.158 I2.138 J-1.046
X92.691 Y37.374 I3.657 J-5.908
G1 Z1
X85.864 Y37.25
Z0.952
Z-0.6 F50
G3 X85.624 Y37.25 I-0.12 J0 F150
X85.864 Y37.25 I0.12 J0
G1 Z-1.2 F50
G3 X85.624 Y37.25 I-0.12 J0 F150
X85.864 Y37.25 I0.12 J0
G1 Z-1.8 F50
G3 X85.624 Y37.25 I-0.12 J0 F150
X85.864 Y37.25 I0.12 J0
G1 Z-2.4 F50
G3 X85.624 Y37.25 I-0.12 J0 F150
X85.864 Y37.25 I0.12 J0
G1 Z-3 F50
G3 X85.624 Y37.25 I-0.12 J0 F150
X85.864 Y37.25 I0.12 J0
G1 Z1
X97.448 Y55
Z0.352
Z-1.2 F50
G2 X84.379 Y51.712 I-6.948 J0 F150
X84.101 Y53.001 I2.097 J1.126
G3 X84.101 Y56.999 I-29.101 J1.999
G2 X84.379 Y58.288 I2.374 J0.163
X97.448 Y55 I6.121 J-3.288
G1 Z1
X79.598 Y86.92
Z0.952
Z-0.6 F50
G2 X72.537 Y78.799 I-6.848 J-1.176 F150
X71.282 Y79.203 I0.073 J2.379
G3 X67.82 Y81.202 I-16.282 J-24.203
G2 X66.842 Y82.087 I1.046 J2.138
X78.658 Y89.401 I5.908 J3.657
X79.598 Y86.92 I-5.908 J-3.657
G1 Z1
X72.87 Y85.744
Z0.952
Z-0.6 F50
G3 X72.63 Y85.744 I-0.12 J0 F150
X72.87 Y85.744 I0.12 J0
G1 Z-1.2 F50
G3 X72.63 Y85.744 I-0.12 J0 F150
X72.87 Y85.744 I0.12 J0
G1 Z-1.8 F50
G3 X72.63 Y85.744 I-0.12 J0 F150
X72.87 Y85.744 I0.12 J0
G1 Z-2.4 F50
G3 X72.63 Y85.744 I-0.12 J0 F150
X72.87 Y85.744 I0.12 J0
G1 Z-3 F50
G3 X72.63 Y85.744 I-0.12 J0 F150
X72.87 Y85.744 I0.12 J0
G1 Z1
X91.761 Y76.224
Z0.352
Z-1.2 F50
G2 X82.087 Y66.842 I-6.017 J-3.474 F150
X81.202 Y67.82 I1.253 J2.024
G3 X79.203 Y71.282 I-26.202 J-12.819
G2 X78.799 Y72.537 I1.975 J1.328
X91.761 Y76.224 I6.945 J0.213
G1 Z1
X92.62 Y100
Z0.952
Z-0.6 F50
G2 X107.38 Y100 I7.38 J0 F150
X92.62 Y100 I-7.38 J0
G1 Z-1.2 F50
G2 X107.38 Y100 I7.38 J0 F150
X92.62 Y100 I-7.38 J0
G1 Z-1.8 F50
G2 X107.38 Y100 I7.38 J0 F150
X92.62 Y100 I-7.38 J0
G1 Z-2.4 F50
G2 X107.38 Y100 I7.38 J0 F150
X92.62 Y100 I-7.38 J0
G1 Z-3 F50
G2 X107.38 Y100 I7.38 J0 F150
X92.62 Y100 I-7.38 J0
G1 Z1
X100.22
Z0.952
Z-0.6 F50
G3 X99.78 Y100 I-0.22 J0 F150
X100.22 Y100 I0.22 J0
G1 Z-1.2 F50
G3 X99.78 Y100 I-0.22 J0 F150
X100.22 Y100 I0.22 J0
G1 Z-1.8 F50
G3 X99.78 Y100 I-0.22 J0 F150
X100.22 Y100 I0.22 J0
G1 Z-2.4 F50
G3 X99.78 Y100 I-0.22 J0 F150
X100.22 Y100 I0.22 J0
G1 Z-3 F50
G3 X99.78 Y100 I-0.22 J0 F150
X100.22 Y100 I0.22 J0
G1 Z1
X55.435 Y97.435
Z0.952
Z-0.6 F50
G2 X58.288 Y84.379 I-0.435 J-6.935 F150
X56.999 Y84.101 I-1.126 J2.097
G3 X53.001 Y84.101 I-1.999 J-29.101
G2 X51.712 Y84.379 I-0.163 J2.374
X55.435 Y97.435 I3.288 J6.121
G1 Z1
X55.12 Y90.5
Z0.952
Z-0.6 F50
G3 X54.88 Y90.5 I-0.12 J0 F150
X55.12 Y90.5 I0.12 J0
G1 Z-1.2 F50
G3 X54.88 Y90.5 I-0.12 J0 F150
X55.12 Y90.5 I0.12 J0
G1 Z-1.8 F50
G3 X54.88 Y90.5 I-0.12 J0 F150
X55.12 Y90.5 I0.12 J0
G1 Z-2.4 F50
G3 X54.88 Y90.5 I-0.12 J0 F150
X55.12 Y90.5 I0.12 J0
G1 Z-3 F50
G3 X54.88 Y90.5 I-0.12 J0 F150
X55.12 Y90.5 I0.12 J0
G1 Z1
X72.626 Y92.691
Z0.352
Z-1.2 F50
G2 X79.698 Y85.699 I0.124 J-6.947 F150
X72.537 Y78.799 I-6.948 J0.044
X71.282 Y79.203 I0.073 J2.379
G3 X67.82 Y81.202 I-16.282 J-24.203
G2 X66.842 Y82.087 I1.046 J2.138
X72.626 Y92.691 I5.908 J3.657
G1 Z1
X91.761 Y76.224
Z0.33
Z-0.248 F50
Z-1.8
G2 X82.087 Y66.842 I-6.017 J-3.474 F150
X81.202 Y67.82 I1.253 J2.024
G3 X79.203 Y71.282 I-26.202 J-12.819
G2 X78.799 Y72.537 I1.975 J1.328
X91.761 Y76.224 I6.945 J0.213
G1 Z1
X67.82 Y28.798
Z0.952
Z-0.6 F50
G3 X71.282 Y30.797 I-12.819 J26.202 F150
G2 X72.537 Y31.201 I1.328 J-1.975
X72.963 Y17.311 I0.213 J-6.945
X66.842 Y27.913 I-0.213 J6.945
X67.82 Y28.798 I2.024 J-1.253
G1 Z1
X72.63 Y24.256
Z0.952
Z-0.6 F50
G3 X72.87 Y24.256 I0.12 J0 F150
X72.63 Y24.256 I-0.12 J0
G1 Z-1.2 F50
G3 X72.87 Y24.256 I0.12 J0 F150
X72.63 Y24.256 I-0.12 J0
G1 Z-1.8 F50
G3 X72.87 Y24.256 I0.12 J0 F150
X72.63 Y24.256 I-0.12 J0
G1 Z-2.4 F50
G3 X72.87 Y24.256 I0.12 J0 F150
X72.63 Y24.256 I-0.12 J0
G1 Z-3 F50
G3 X72.87 Y24.256 I0.12 J0 F150
X72.63 Y24.256 I-0.12 J0
G1 Z1
X86.92 Y30.402
Z0.352
Z-1.2 F50
G2 X78.799 Y37.463 I-1.176 J6.848 F150
X79.203 Y38.718 I2.379 J-0.073
G3 X81.202 Y42.18 I-24.203 J16.282
G2 X82.087 Y43.158 I2.138 J-1.046
X89.401 Y31.342 I3.657 J-5.908
X86.92 Y30.402 I-3.657 J5.908
G1 Z1
X100 Y17.38
Z0.952
Z-0.6 F50
G2 X100 Y2.62 I0 J-7.38 F150
X100 Y17.38 I0 J7.38
G1 Z-1.2 F50
G2 X100 Y2.62 I0 J-7.38 F150
X100 Y17.38 I0 J7.38
G1 Z-1.8 F50
G2 X100 Y2.62 I0 J-7.38 F150
X100 Y17.38 I0 J7.38
G1 Z-2.4 F50
G2 X100 Y2.62 I0 J-7.38 F150
X100 Y17.38 I0 J7.38
G1 Z-3 F50
G2 X100 Y2.62 I0 J-7.38 F150
X100 Y17.38 I0 J7.38
G1 Z1
X100.22 Y10
Z0.952
Z-0.6 F50
G3 X99.78 Y10 I-0.22 J0 F150
X100.22 Y10 I0.22 J0
G1 Z-1.2 F50
G3 X99.78 Y10 I-0.22 J0 F150
X100.22 Y10 I0.22 J0
G1 Z-1.8 F50
G3 X99.78 Y10 I-0.22 J0 F150
X100.22 Y10 I0.22 J0
G1 Z-2.4 F50
G3 X99.78 Y10 I-0.22 J0 F150
X100.22 Y10 I0.22 J0
G1 Z-3 F50
G3 X99.78 Y10 I-0.22 J0 F150
X100.22 Y10 I0.22 J0
G1 Z1
X97.448 Y55
Z0.33
Z-0.248 F50
Z-1.8
G2 X84.379 Y51.712 I-6.948 J0 F150
X84.101 Y53.001 I2.097 J1.126
G3 X84.101 Y56.999 I-29.101 J1.999
G2 X84.379 Y58.288 I2.374 J0.163
X97.448 Y55 I6.121 J-3.288
G1 Z1
X54.565 Y12.565
Z0.952
Z-0.6 F50
G2 X51.712 Y25.621 I0.435 J6.935 F150
X53.001 Y25.899 I1.126 J-2.097
G3 X56.999 Y25.899 I1.999 J29.101
G2 X58.288 Y25.621 I0.163 J-2.374
X54.565 Y12.565 I-3.288 J-6.121
G1 Z1
X55.12 Y19.5
Z0.952
Z-0.6 F50
G3 X54.88 Y19.5 I-0.12 J0 F150
X55.12 Y19.5 I0.12 J0
G1 Z-1.2 F50
G3 X54.88 Y19.5 I-0.12 J0 F150
X55.12 Y19.5 I0.12 J0
G1 Z-1.8 F50
G3 X54.88 Y19.5 I-0.12 J0 F150
X55.12 Y19.5 I0.12 J0
G1 Z-2.4 F50
G3 X54.88 Y19.5 I-0.12 J0 F150
X55.12 Y19.5 I0.12 J0
G1 Z-3 F50
G3 X54.88 Y19.5 I-0.12 J0 F150
X55.12 Y19.5 I0.12 J0
G1 Z1
X75.841 Y18.033
Z0.352
Z-1.2 F50
G2 X66.842 Y27.913 I-3.091 J6.223 F150
X67.82 Y28.798 I2.024 J-1.253
G3 X71.282 Y30.797 I-12.819 J26.202
G2 X72.537 Y31.201 I1.328 J-1.975
X75.841 Y18.033 I0.213 J-6.945
G1 Z1
X86.92 Y30.402
Z0.33
Z-0.248 F50
Z-1.8
G2 X78.799 Y37.463 I-1.176 J6.848 F150
X79.203 Y38.718 I2.379 J-0.073
G3 X81.202 Y42.18 I-24.203 J16.282
G2 X82.087 Y43.158 I2.138 J-1.046
X89.401 Y31.342 I3.657 J-5.908
X86.92 Y30.402 I-3.657 J5.908
G1 Z1
X97.448 Y55
Z0.33
Z-0.848 F50
Z-2.4
G2 X84.379 Y51.712 I-6.948 J0 F150
X84.101 Y53.001 I2.097 J1.126
G3 X84.101 Y56.999 I-29.101 J1.999
G2 X84.379 Y58.288 I2.374 J0.163
X97.448 Y55 I6.121 J-3.288
G1 Z1
X42.18 Y81.202
Z0.952
Z-0.6 F50
G3 X38.718 Y79.203 I12.819 J-26.202 F150
G2 X37.463 Y78.799 I-1.328 J1.975
X37.037 Y92.689 I-0.213 J6.945
X43.158 Y82.087 I0.213 J-6.945
X42.18 Y81.202 I-2.024 J1.253
G1 Z1
X37.13 Y85.744
Z0.952
Z-0.6 F50
G3 X37.37 Y85.744 I0.12 J0 F150
X37.13 Y85.744 I-0.12 J0
G1 Z-1.2 F50
G3 X37.37 Y85.744 I0.12 J0 F150
X37.13 Y85.744 I-0.12 J0
G1 Z-1.8 F50
G3 X37.37 Y85.744 I0.12 J0 F150
X37.13 Y85.744 I-0.12 J0
G1 Z-2.4 F50
G3 X37.37 Y85.744 I0.12 J0 F150
X37.13 Y85.744 I-0.12 J0
G1 Z-3 F50
G3 X37.37 Y85.744 I0.12 J0 F150
X37.13 Y85.744 I-0.12 J0
G1 Z1
X55.435 Y97.435
Z0.352
Z-1.2 F50
G2 X58.288 Y84.379 I-0.435 J-6.935 F150
X56.999 Y84.101 I-1.126 J2.097
G3 X53.001 Y84.101 I-1.999 J-29.101
G2 X51.712 Y84.379 I-0.163 J2.374
X55.435 Y97.435 I3.288 J6.121
G1 Z1
X72.626 Y92.691
Z0.33
Z-0.248 F50
Z-1.8
G2 X79.698 Y85.699 I0.124 J-6.947 F150
X72.537 Y78.799 I-6.948 J0.044
X71.282 Y79.203 I0.073 J2.379
G3 X67.82 Y81.202 I-16.282 J-24.203
G2 X66.842 Y82.087 I1.046 J2.138
X72.626 Y92.691 I5.908 J3.657
G1 Z1
X91.761 Y76.224
Z0.33
Z-0.848 F50
Z-2.4
G2 X82.087 Y66.842 I-6.017 J-3.474 F150
X81.202 Y67.82 I1.253 J2.024
G3 X79.203 Y71.282 I-26.202 J-12.819
G2 X78.799 Y72.537 I1.975 J1.328
X91.761 Y76.224 I6.945 J0.213
G1 Z1
X28.798 Y67.82
Z0.952
Z-0.6 F50
G2 X27.913 Y66.842 I-2.138 J1.046 F150
X20.599 Y78.658 I-3.657 J5.908
X31.201 Y72.537 I3.657 J-5.908
X30.797 Y71.282 I-2.379 J0.073
G3 X28.798 Y67.82 I24.203 J-16.282
G1 Z1
X24.376 Y72.75
Z0.952
Z-0.6 F50
G3 X24.136 Y72.75 I-0.12 J0 F150
X24.376 Y72.75 I0.12 J0
G1 Z-1.2 F50
G3 X24.136 Y72.75 I-0.12 J0 F150
X24.376 Y72.75 I0.12 J0
G1 Z-1.8 F50
G3 X24.136 Y72.75 I-0.12 J0 F150
X24.376 Y72.75 I0.12 J0
G1 Z-2.4 F50
G3 X24.136 Y72.75 I-0.12 J0 F150
X24.376 Y72.75 I0.12 J0
G1 Z-3 F50
G3 X24.136 Y72.75 I-0.12 J0 F150
X24.376 Y72.75 I0.12 J0
G1 Z1
X34.159 Y91.967
Z0.352
Z-1.2 F50
G2 X43.158 Y82.087 I3.091 J-6.223 F150
X42.18 Y81.202 I-2.024 J1.253
G3 X38.718 Y79.203 I12.819 J-26.202
G2 X37.463 Y78.799 I-1.328 J1.975
X34.159 Y91.967 I-0.213 J6.945
G1 Z1
X55.435 Y97.435
Z0.33
Z-0.248 F50
Z-1.8
G2 X58.288 Y84.379 I-0.435 J-6.935 F150
X56.999 Y84.101 I-1.126 J2.097
G3 X53.001 Y84.101 I-1.999 J-29.101
G2 X51.712 Y84.379 I-0.163 J2.374
X55.435 Y97.435 I3.288 J6.121
G1 Z1
X72.626 Y92.691
Z0.33
Z-0.848 F50
Z-2.4
G2 X79.698 Y85.699 I0.124 J-6.947 F150
X72.537 Y78.799 I-6.948 J0.044
X71.282 Y79.203 I0.073 J2.379
G3 X67.82 Y81.202 I-16.282 J-24.203
G2 X66.842 Y82.087 I1.046 J2.138
X72.626 Y92.691 I5.908 J3.657
G1 Z1
X91.761 Y76.224
Z0.33
Z-1.448 F50
Z-3
G2 X82.087 Y66.842 I-6.017 J-3.474 F150
X81.202 Y67.82 I1.253 J2.024
G3 X79.203 Y71.282 I-26.202 J-12.819
G2 X78.799 Y72.537 I1.975 J1.328
X91.761 Y76.224 I6.945 J0.213
G1 Z1
X42.18 Y28.798
Z0.952
Z-0.6 F50
G2 X43.158 Y27.913 I-1.046 J-2.138 F150
X31.342 Y20.599 I-5.908 J-3.657
X37.463 Y31.201 I5.908 J3.657
X38.718 Y30.797 I-0.073 J-2.379
G3 X42.18 Y28.798 I16.282 J24.203
G1 Z1
X37.37 Y24.256
Z0.952
Z-0.6 F50
G3 X37.13 Y24.256 I-0.12 J0 F150
X37.37 Y24.256 I0.12 J0
G1 Z-1.2 F50
G3 X37.13 Y24.256 I-0.12 J0 F150
X37.37 Y24.256 I0.12 J0
G1 Z-1.8 F50
G3 X37.13 Y24.256 I-0.12 J0 F150
X37.37 Y24.256 I0.12 J0
G1 Z-2.4 F50
G3 X37.13 Y24.256 I-0.12 J0 F150
X37.37 Y24.256 I0.12 J0
G1 Z-3 F50
G3 X37.13 Y24.256 I-0.12 J0 F150
X37.37 Y24.256 I0.12 J0
G1 Z1
X54.565 Y12.565
Z0.352
Z-1.2 F50
G2 X51.712 Y25.621 I0.435 J6.935 F150
X53.001 Y25.899 I1.126 J-2.097
G3 X56.999 Y25.899 I1.999 J29.101
G2 X58.288 Y25.621 I0.163 J-2.374
X54.565 Y12.565 I-3.288 J-6.121
G1 Z1
X75.841 Y18.033
Z0.33
Z-0.248 F50
Z-1.8
G2 X66.842 Y27.913 I-3.091 J6.223 F150
X67.82 Y28.798 I2.024 J-1.253
G3 X71.282 Y30.797 I-12.819 J26.202
G2 X72.537 Y31.201 I1.328 J-1.975
X75.841 Y18.033 I0.213 J-6.945
G1 Z1
X86.92 Y30.402
Z0.33
Z-0.848 F50
Z-2.4
G2 X78.799 Y37.463 I-1.176 J6.848 F150
X79.203 Y38.718 I2.379 J-0.073
G3 X81.202 Y42.18 I-24.203 J16.282
G2 X82.087 Y43.158 I2.138 J-1.046
X89.401 Y31.342 I3.657 J-5.908
X86.92 Y30.402 I-3.657 J5.908
G1 Z1
X97.448 Y55
Z0.33
Z-1.448 F50
Z-3
G2 X84.379 Y51.712 I-6.948 J0 F150
X84.101 Y53.001 I2.097 J1.126
G3 X84.101 Y56.999 I-29.101 J1.999
G2 X84.379 Y58.288 I2.374 J0.163
X97.448 Y55 I6.121 J-3.288
G1 Z1
X28.798 Y42.18
Z0.952
Z-0.6 F50
G3 X30.797 Y38.718 I26.202 J12.819 F150
G2 X31.201 Y37.463 I-1.975 J-1.328
X17.311 Y37.037 I-6.945 J-0.213
X27.913 Y43.158 I6.945 J0.213
X28.798 Y42.18 I-1.253 J-2.024
G1 Z1
X24.376 Y37.25
Z0.952
Z-0.6 F50
G3 X24.136 Y37.25 I-0.12 J0 F150
X24.376 Y37.25 I0.12 J0
G1 Z-1.2 F50
G3 X24.136 Y37.25 I-0.12 J0 F150
X24.376 Y37.25 I0.12 J0
G1 Z-1.8 F50
G3 X24.136 Y37.25 I-0.12 J0 F150
X24.376 Y37.25 I0.12 J0
G1 Z-2.4 F50
G3 X24.136 Y37.25 I-0.12 J0 F150
X24.376 Y37.25 I0.12 J0
G1 Z-3 F50
G3 X24.136 Y37.25 I-0.12 J0 F150
X24.376 Y37.25 I0.12 J0
G1 Z1
X30.402 Y23.08
Z0.352
Z-1.2 F50
G2 X37.463 Y31.201 I6.848 J1.176 F150
X38.718 Y30.797 I-0.073 J-2.379
G3 X42.18 Y28.798 I16.282 J24.203
G2 X43.158 Y27.913 I-1.046 J-2.138
X31.342 Y20.599 I-5.908 J-3.657
X30.402 Y23.08 I5.908 J3.657
G1 Z1
X17.38 Y10
Z0.952
Z-0.6 F50
G2 X2.62 Y10 I-7.38 J0 F150
X17.38 Y10 I7.38 J0
G1 Z-1.2 F50
G2 X2.62 Y10 I-7.38 J0 F150
X17.38 Y10 I7.38 J0
G1 Z-1.8 F50
G2 X2.62 Y10 I-7.38 J0 F150
X17.38 Y10 I7.38 J0
G1 Z-2.4 F50
G2 X2.62 Y10 I-7.38 J0 F150
X17.38 Y10 I7.38 J0
G1 Z-3 F50
G2 X2.62 Y10 I-7.38 J0 F150
X17.38 Y10 I7.38 J0
G1 Z1
X10.22
Z0.952
Z-0.6 F50
G3 X9.78 Y10 I-0.22 J0 F150
X10.22 Y10 I0.22 J0
G1 Z-1.2 F50
G3 X9.78 Y10 I-0.22 J0 F150
X10.22 Y10 I0.22 J0
G1 Z-1.8 F50
G3 X9.78 Y10 I-0.22 J0 F150
X10.22 Y10 I0.22 J0
G1 Z-2.4 F50
G3 X9.78 Y10 I-0.22 J0 F150
X10.22 Y10 I0.22 J0
G1 Z-3 F50
G3 X9.78 Y10 I-0.22 J0 F150
X10.22 Y10 I0.22 J0
G1 Z1
X54.565 Y12.565
Z0.33
Z-0.248 F50
Z-1.8
G2 X51.712 Y25.621 I0.435 J6.935 F150
X53.001 Y25.899 I1.126 J-2.097
G3 X56.999 Y25.899 I1.999 J29.101
G2 X58.288 Y25.621 I0.163 J-2.374
X54.565 Y12.565 I-3.288 J-6.121
G1 Z1
X75.841 Y18.033
Z0.33
Z-0.848 F50
Z-2.4
G2 X66.842 Y27.913 I-3.091 J6.223 F150
X67.82 Y28.798 I2.024 J-1.253
G3 X71.282 Y30.797 I-12.819 J26.202
G2 X72.537 Y31.201 I1.328 J-1.975
X75.841 Y18.033 I0.213 J-6.945
G1 Z1
X86.92 Y30.402
Z0.33
Z-1.448 F50
Z-3
G2 X78.799 Y37.463 I-1.176 J6.848 F150
X79.203 Y38.718 I2.379 J-0.073
G3 X81.202 Y42.18 I-24.203 J16.282
G2 X82.087 Y43.158 I2.138 J-1.046
X89.401 Y31.342 I3.657 J-5.908
X86.92 Y30.402 I-3.657 J5.908
G1 Z1
X12.565 Y55.435
Z0.952
Z-0.6 F50
G2 X25.621 Y58.288 I6.935 J-0.435 F150
X25.899 Y56.999 I-2.097 J-1.126
G3 X25.899 Y53.001 I29.101 J-1.999
G2 X25.621 Y51.712 I-2.374 J-0.163
X12.565 Y55.435 I-6.121 J3.288
G1 Z-1.2 F50
G2 X25.621 Y58.288 I6.935 J-0.435 F150
X25.899 Y56.999 I-2.097 J-1.126
G3 X25.899 Y53.001 I29.101 J-1.999
G2 X25.621 Y51.712 I-2.374 J-0.163
X12.565 Y55.435 I-6.121 J3.288
G1 Z1
X19.62 Y55
Z0.952
Z-0.6 F50
G3 X19.38 Y55 I-0.12 J0 F150
X19.62 Y55 I0.12 J0
G1 Z-1.2 F50
G3 X19.38 Y55 I-0.12 J0 F150
X19.62 Y55 I0.12 J0
G1 Z-1.8 F50
G3 X19.38 Y55 I-0.12 J0 F150
X19.62 Y55 I0.12 J0
G1 Z-2.4 F50
G3 X19.38 Y55 I-0.12 J0 F150
X19.62 Y55 I0.12 J0
G1 Z-3 F50
G3 X19.38 Y55 I-0.12 J0 F150
X19.62 Y55 I0.12 J0
G1 Z1
X17.309 Y72.626
Z0.352
Z-1.2 F50
G2 X24.301 Y79.698 I6.947 J0.124 F150
X31.201 Y72.537 I-0.044 J-6.948
X30.797 Y71.282 I-2.379 J0.073
G3 X28.798 Y67.82 I24.203 J-16.282
G2 X27.913 Y66.842 I-2.138 J1.046
X17.309 Y72.626 I-3.657 J5.908
G1 Z1
X23.08 Y79.598
Z0.33
Z-0.248 F50
Z-1.8
G2 X31.201 Y72.537 I1.176 J-6.848 F150
X30.797 Y71.282 I-2.379 J0.073
G3 X28.798 Y67.82 I24.203 J-16.282
G2 X27.913 Y66.842 I-2.138 J1.046
X20.599 Y78.658 I-3.657 J5.908
X23.08 Y79.598 I3.657 J-5.908
G1 Z1
X34.159 Y91.967
Z0.33
Z-0.248 F50
Z-1.8
G2 X43.158 Y82.087 I3.091 J-6.223 F150
X42.18 Y81.202 I-2.024 J1.253
G3 X38.718 Y79.203 I12.819 J-26.202
G2 X37.463 Y78.799 I-1.328 J1.975
X34.159 Y91.967 I-0.213 J6.945
G1 Z-2.4 F50
G2 X43.158 Y82.087 I3.091 J-6.223 F150
X42.18 Y81.202 I-2.024 J1.253
G3 X38.718 Y79.203 I12.819 J-26.202
G2 X37.463 Y78.799 I-1.328 J1.975
X34.159 Y91.967 I-0.213 J6.945
G1 Z1
X55.435 Y97.435
Z0.33
Z-0.848 F50
Z-2.4
G2 X58.288 Y84.379 I-0.435 J-6.935 F150
X56.999 Y84.101 I-1.126 J2.097
G3 X53.001 Y84.101 I-1.999 J-29.101
G2 X51.712 Y84.379 I-0.163 J2.374
X55.435 Y97.435 I3.288 J6.121
G1 Z-3 F50
G2 X58.288 Y84.379 I-0.435 J-6.935 F150
X56.999 Y84.101 I-1.126 J2.097
G3 X53.001 Y84.101 I-1.999 J-29.101
G2 X51.712 Y84.379 I-0.163 J2.374
X55.435 Y97.435 I3.288 J6.121
G1 Z1
X72.626 Y92.691
Z0.33
Z-1.448 F50
Z-3
G2 X79.698 Y85.699 I0.124 J-6.947 F150
X72.537 Y78.799 I-6.948 J0.044
X71.282 Y79.203 I0.073 J2.379
G3 X67.82 Y81.202 I-16.282 J-24.203
G2 X66.842 Y82.087 I1.046 J2.138
X72.626 Y92.691 I5.908 J3.657
G1 Z1
X10 Y92.62
Z0.952
Z-0.6 F50
G2 X10 Y107.38 I0 J7.38 F150
X10 Y92.62 I0 J-7.38
G1 Z-1.2 F50
G2 X10 Y107.38 I0 J7.38 F150
X10 Y92.62 I0 J-7.38
G1 Z-1.8 F50
G2 X10 Y107.38 I0 J7.38 F150
X10 Y92.62 I0 J-7.38
G1 Z-2.4 F50
G2 X10 Y107.38 I0 J7.38 F150
X10 Y92.62 I0 J-7.38
G1 Z-3 F50
G2 X10 Y107.38 I0 J7.38 F150
X10 Y92.62 I0 J-7.38
G1 Z1
X10.22 Y100
Z0.952
Z-0.6 F50
G3 X9.78 Y100 I-0.22 J0 F150
X10.22 Y100 I0.22 J0
G1 Z-1.2 F50
G3 X9.78 Y100 I-0.22 J0 F150
X10.22 Y100 I0.22 J0
G1 Z-1.8 F50
G3 X9.78 Y100 I-0.22 J0 F150
X10.22 Y100 I0.22 J0
G1 Z-2.4 F50
G3 X9.78 Y100 I-0.22 J0 F150
X10.22 Y100 I0.22 J0
G1 Z-3 F50
G3 X9.78 Y100 I-0.22 J0 F150
X10.22 Y100 I0.22 J0
G1 Z1
X28.798 Y42.18
Z0.352
Z-1.2 F50
G3 X30.797 Y38.718 I26.202 J12.819 F150
G2 X31.201 Y37.463 I-1.975 J-1.328
X17.311 Y37.037 I-6.945 J-0.213
X27.913 Y43.158 I6.945 J0.213
X28.798 Y42.18 I-1.253 J-2.024
G1 Z1
X18.033 Y34.159
Z0.33
Z-0.248 F50
Z-1.8
G2 X27.913 Y43.158 I6.223 J3.091 F150
X28.798 Y42.18 I-1.253 J-2.024
G3 X30.797 Y38.718 I26.202 J12.819
G2 X31.201 Y37.463 I-1.975 J-1.328
X18.033 Y34.159 I-6.945 J-0.213
G1 Z1
X12.565 Y55.435
Z0.33
Z-0.248 F50
Z-1.8
G2 X25.621 Y58.288 I6.935 J-0.435 F150
X25.899 Y56.999 I-2.097 J-1.126
G3 X25.899 Y53.001 I29.101 J-1.999
G2 X25.621 Y51.712 I-2.374 J-0.163
X12.565 Y55.435 I-6.121 J3.288
G1 Z-2.4 F50
G2 X25.621 Y58.288 I6.935 J-0.435 F150
X25.899 Y56.999 I-2.097 J-1.126
G3 X25.899 Y53.001 I29.101 J-1.999
G2 X25.621 Y51.712 I-2.374 J-0.163
X12.565 Y55.435 I-6.121 J3.288
G1 Z1
X17.309 Y72.626
Z0.33
Z-0.848 F50
Z-2.4
G2 X24.301 Y79.698 I6.947 J0.124 F150
X31.201 Y72.537 I-0.044 J-6.948
X30.797 Y71.282 I-2.379 J0.073
G3 X28.798 Y67.82 I24.203 J-16.282
G2 X27.913 Y66.842 I-2.138 J1.046
X17.309 Y72.626 I-3.657 J5.908
G1 Z1
X23.08 Y79.598
Z0.33
Z-1.448 F50
Z-3
G2 X31.201 Y72.537 I1.176 J-6.848 F150
X30.797 Y71.282 I-2.379 J0.073
G3 X28.798 Y67.82 I24.203 J-16.282
G2 X27.913 Y66.842 I-2.138 J1.046
X20.599 Y78.658 I-3.657 J5.908
X23.08 Y79.598 I3.657 J-5.908
G1 Z1
X34.159 Y91.967
Z0.33
Z-1.448 F50
Z-3
G2 X43.158 Y82.087 I3.091 J-6.223 F150
X42.18 Y81.202 I-2.024 J1.253
G3 X38.718 Y79.203 I12.819 J-26.202
G2 X37.463 Y78.799 I-1.328 J1.975
X34.159 Y91.967 I-0.213 J6.945
G1 Z1
X42.18 Y28.798
Z0.33
Z-0.248 F50
Z-1.8
G2 X43.158 Y27.913 I-1.046 J-2.138 F150
X31.342 Y20.599 I-5.908 J-3.657
X37.463 Y31.201 I5.908 J3.657
X38.718 Y30.797 I-0.073 J-2.379
G3 X42.18 Y28.798 I16.282 J24.203
G1 Z1
X30.402 Y23.08
Z0.33
Z-0.848 F50
Z-2.4
G2 X37.463 Y31.201 I6.848 J1.176 F150
X38.718 Y30.797 I-0.073 J-2.379
G3 X42.18 Y28.798 I16.282 J24.203
G2 X43.158 Y27.913 I-1.046 J-2.138
X31.342 Y20.599 I-5.908 J-3.657
X30.402 Y23.08 I5.908 J3.657
G1 Z1
X18.033 Y34.159
Z0.33
Z-0.848 F50
Z-2.4
G2 X27.913 Y43.158 I6.223 J3.091 F150
X28.798 Y42.18 I-1.253 J-2.024
G3 X30.797 Y38.718 I26.202 J12.819
G2 X31.201 Y37.463 I-1.975 J-1.328
X18.033 Y34.159 I-6.945 J-0.213
G1 Z-3 F50
G2 X27.913 Y43.158 I6.223 J3.091 F150
X28.798 Y42.18 I-1.253 J-2.024
G3 X30.797 Y38.718 I26.202 J12.819
G2 X31.201 Y37.463 I-1.975 J-1.328
X18.033 Y34.159 I-6.945 J-0.213
G1 Z1
X12.565 Y55.435
Z0.33
Z-1.448 F50
Z-3
G2 X25.621 Y58.288 I6.935 J-0.435 F150
X25.899 Y56.999 I-2.097 J-1.126
G3 X25.899 Y53.001 I29.101 J-1.999
G2 X25.621 Y51.712 I-2.374 J-0.163
X12.565 Y55.435 I-6.121 J3.288
G1 Z1
X54.565 Y12.565
Z0.33
Z-0.848 F50
Z-2.4
G2 X51.712 Y25.621 I0.435 J6.935 F150
X53.001 Y25.899 I1.126 J-2.097
G3 X56.999 Y25.899 I1.999 J29.101
G2 X58.288 Y25.621 I0.163 J-2.374
X54.565 Y12.565 I-3.288 J-6.121
G1 Z-3 F50
G2 X51.712 Y25.621 I0.435 J6.935 F150
X53.001 Y25.899 I1.126 J-2.097
G3 X56.999 Y25.899 I1.999 J29.101
G2 X58.288 Y25.621 I0.163 J-2.374
X54.565 Y12.565 I-3.288 J-6.121
G1 Z1
X37.374 Y17.309
Z0.33
Z-1.448 F50
Z-3
G2 X30.302 Y24.301 I-0.124 J6.947 F150
X37.463 Y31.201 I6.948 J-0.044
X38.718 Y30.797 I-0.073 J-2.379
G3 X42.18 Y28.798 I16.282 J24.203
G2 X43.158 Y27.913 I-1.046 J-2.138
X37.374 Y17.309 I-5.908 J-3.657
G1 Z1
X67.82 Y28.798
Z0.33
Z-1.448 F50
Z-3
G3 X71.282 Y30.797 I-12.819 J26.202 F150
G2 X72.537 Y31.201 I1.328 J-1.975
X72.963 Y17.311 I0.213 J-6.945
X66.842 Y27.913 I-0.213 J6.945
X67.82 Y28.798 I2.024 J-1.253
G1 Z6
(When using Fusion for Personal Use, the feedrate of rapid)
(moves is reduced to match the feedrate of cutting moves,)
(which can increase machining time. Unrestricted rapid moves)
(are available with a Fusion Subscription.)

(2D Contour3)
G0 X55.476 Y-3.808
G1 Z6 F150
Z0.952
Z-0.124 F50
G19 G3 Y-3.332 Z-0.6 J0.476 K0
G1 Y-2.856
G17 G3 X55 Y-2.38 I-0.476 J0
G1 X0 F150
G2 X-2.38 Y0 I0 J2.38
G1 Y110
G2 X0 Y112.38 I2.38 J0
G1 X110
G2 X112.38 Y110 I0 J-2.38
G1 Y0
G2 X110 Y-2.38 I-2.38 J0
G1 X55
G3 X54.524 Y-2.856 I0 J-0.476
G1 Y-3.332
G19 G2 Y-3.808 Z-0.124 J0 K0.476
G1 Z1
X55.476
Z0.352
Z-0.724 F50
G3 Y-3.332 Z-1.2 J0.476 K0
G1 Y-2.856
G17 G3 X55 Y-2.38 I-0.476 J0
G1 X0 F150
G2 X-2.38 Y0 I0 J2.38
G1 Y110
G2 X0 Y112.38 I2.38 J0
G1 X110
G2 X112.38 Y110 I0 J-2.38
G1 Y0
G2 X110 Y-2.38 I-2.38 J0
G1 X55
G3 X54.524 Y-2.856 I0 J-0.476
G1 Y-3.332
G19 G2 Y-3.808 Z-0.724 J0 K0.476
G1 Z1
X55.476
Z0.33
Z-0.248 F50
Z-1.324
G3 Y-3.332 Z-1.8 J0.476 K0
G1 Y-2.856
G17 G3 X55 Y-2.38 I-0.476 J0
G1 X0 F150
G2 X-2.38 Y0 I0 J2.38
G1 Y110
G2 X0 Y112.38 I2.38 J0
G1 X110
G2 X112.38 Y110 I0 J-2.38
G1 Y0
G2 X110 Y-2.38 I-2.38 J0
G1 X55
G3 X54.524 Y-2.856 I0 J-0.476
G1 Y-3.332
G19 G2 Y-3.808 Z-1.324 J0 K0.476
G1 Z1
X55.476
Z0.33
Z-0.848 F50
Z-1.924
G3 Y-3.332 Z-2.4 J0.476 K0
G1 Y-2.856
G17 G3 X55 Y-2.38 I-0.476 J0
G1 X0 F150
G2 X-2.38 Y0 I0 J2.38
G1 Y110
G2 X0 Y112.38 I2.38 J0
G1 X110
G2 X112.38 Y110 I0 J-2.38
G1 Y0
G2 X110 Y-2.38 I-2.38 J0
G1 X55
G3 X54.524 Y-2.856 I0 J-0.476
G1 Y-3.332
G19 G2 Y-3.808 Z-1.924 J0 K0.476
G1 Z1
X55.476
Z0.33
Z-1.448 F50
Z-2.524
G3 Y-3.332 Z-3 J0.476 K0
G1 Y-2.856
G17 G3 X55 Y-2.38 I-0.476 J0
G1 X0 F150
G2 X-2.38 Y0 I0 J2.38
G1 Y110
G2 X0 Y112.38 I2.38 J0
G1 X110
G2 X112.38 Y110 I0 J-2.38
G1 Y0
G2 X110 Y-2.38 I-2.38 J0
G1 X55
G3 X54.524 Y-2.856 I0 J-0.476
G1 Y-3.332
G19 G2 Y-3.808 Z-2.524 J0 K0.476
G1 Z1
X55.476
Z0.33
Z-2.048 F50
Z-3.124
G3 Y-3.332 Z-3.6 J0.476 K0
G1 Y-2.856
G17 G3 X55 Y-2.38 I-0.476 J0
G1 X0 F150
G2 X-2.38 Y0 I0 J2.38
G1 Y110
G2 X0 Y112.38 I2.38 J0
G1 X110
G2 X112.38 Y110 I0 J-2.38
G1 Y0
G2 X110 Y-2.38 I-2.38 J0
G1 X55
G3 X54.524 Y-2.856 I0 J-0.476
G1 Y-3.332
G19 G2 Y-3.808 Z-3.124 J0 K0.476
G1 Z1
X55.476
Z0.33
Z-2.648 F50
Z-3.724
G3 Y-3.332 Z-4.2 J0.476 K0
G1 Y-2.856
G17 G3 X55 Y-2.38 I-0.476 J0
G1 X0 F150
G2 X-2.38 Y0 I0 J2.38
G1 Y110
G2 X0 Y112.38 I2.38 J0
G1 X110
G2 X112.38 Y110 I0 J-2.38
G1 Y0
G2 X110 Y-2.38 I-2.38 J0
G1 X55
G3 X54.524 Y-2.856 I0 J-0.476
G1 Y-3.332
G19 G2 Y-3.808 Z-3.724 J0 K0.476
G1 Z1
X55.476
Z0.33
Z-3.248 F50
Z-4.324
G3 Y-3.332 Z-4.8 J0.476 K0
G1 Y-2.856
G17 G3 X55 Y-2.38 I-0.476 J0
G1 X0 F150
G2 X-2.38 Y0 I0 J2.38
G1 Y110
G2 X0 Y112.38 I2.38 J0
G1 X110
G2 X112.38 Y110 I0 J-2.38
G1 Y0
G2 X110 Y-2.38 I-2.38 J0
G1 X55
G3 X54.524 Y-2.856 I0 J-0.476
G1 Y-3.332
G19 G2 Y-3.808 Z-4.324 J0 K0.476
G1 Z1
X55.476
Z0.33
Z-3.848 F50
Z-4.924
G3 Y-3.332 Z-5.4 J0.476 K0
G1 Y-2.856
G17 G3 X55 Y-2.38 I-0.476 J0
G1 X0 F150
G2 X-2.38 Y0 I0 J2.38
G1 Y110
G2 X0 Y112.38 I2.38 J0
G1 X110
G2 X112.38 Y110 I0 J-2.38
G1 Y0
G2 X110 Y-2.38 I-2.38 J0
G1 X55
G3 X54.524 Y-2.856 I0 J-0.476
G1 Y-3.332
G19 G2 Y-3.808 Z-4.924 J0 K0.476
G1 Z1
X55.476
Z0.33
Z-4.448 F50
Z-5.524
G3 Y-3.332 Z-6 J0.476 K0
G1 Y-2.856
G17 G3 X55 Y-2.38 I-0.476 J0
G1 X54.76 F150
Z-5.47
X45.24
Z-6 F50
X14.76 F150
Z-5.47
X5.24
Z-6 F50
X0 F150
G2 X-2.38 Y0 I0 J2.38
G1 Y25.24
Z-5.47
Y34.76
Z-6 F50
Y65.24 F150
Z-5.47
Y74.76
Z-6 F50
Y107.62 F150
Z-5.47
Y110
G2 X0 Y112.38 I2.38 J0
G1 X4.76
Z-6 F50
X35.24 F150
Z-5.47
X44.76
Z-6 F50
X75.24 F150
Z-5.47
X84.76
Z-6 F50
X110 F150
G2 X112.38 Y110 I0 J-2.38
G1 Y104.76
Z-5.47
Y95.24
Z-6 F50
Y64.76 F150
Z-5.47
Y55.24
Z-6 F50
Y24.76 F150
Z-5.47
Y15.24
Z-6 F50
Y0 F150
G2 X110 Y-2.38 I-2.38 J0
G1 X94.76
Z-5.47
X85.24
Z-6 F50
X55 F150
X54.917 Y-2.387
X54.836 Y-2.409
X54.76 Y-2.445
Z-5.47
G3 X54.524 Y-2.856 I0.24 J-0.411
G1 Y-3.808
Z1
X55.476
Z0.33
Z-5.048 F50
Z-5.854
G19 G3 Y-3.332 Z-6.33 J0.476 K0
G1 Y-2.856
G17 G3 X55 Y-2.38 I-0.476 J0
G1 X54.76 F150
Z-5.47
X45.24
Z-6.33 F50
X14.76 F150
Z-5.47
X5.24
Z-6.33 F50
X0 F150
G2 X-2.38 Y0 I0 J2.38
G1 Y25.24
Z-5.47
Y34.76
Z-6.33 F50
Y65.24 F150
Z-5.47
Y74.76
Z-6.33 F50
Y107.62 F150
Z-5.47
Y110
G2 X0 Y112.38 I2.38 J0
G1 X4.76
Z-6.33 F50
X35.24 F150
Z-5.47
X44.76
Z-6.33 F50
X75.24 F150
Z-5.47
X84.76
Z-6.33 F50
X110 F150
G2 X112.38 Y110 I0 J-2.38
G1 Y104.76
Z-5.47
Y95.24
Z-6.33 F50
Y64.76 F150
Z-5.47
Y55.24
Z-6.33 F50
Y24.76 F150
Z-5.47
Y15.24
Z-6.33 F50
Y0 F150
G2 X110 Y-2.38 I-2.38 J0
G1 X94.76
Z-5.47
X85.24
Z-6.33 F50
X55 F150
X54.917 Y-2.387
X54.836 Y-2.409
X54.76 Y-2.445
Z-5.47
G3 X54.524 Y-2.856 I0.24 J-0.411
G1 Y-3.808
Z1
X55.476
Z0.33
Z-5.378 F50
Z-6.184
G19 G3 Y-3.332 Z-6.66 J0.476 K0
G1 Y-2.856
G17 G3 X55 Y-2.38 I-0.476 J0
G1 X54.76 F150
Z-5.47
X45.24
Z-6.66 F50
X14.76 F150
Z-5.47
X5.24
Z-6.66 F50
X0 F150
G2 X-2.38 Y0 I0 J2.38
G1 Y25.24
Z-5.47
Y34.76
Z-6.66 F50
Y65.24 F150
Z-5.47
Y74.76
Z-6.66 F50
Y107.62 F150
Z-5.47
Y110
G2 X0 Y112.38 I2.38 J0
G1 X4.76
Z-6.66 F50
X35.24 F150
Z-5.47
X44.76
Z-6.66 F50
X75.24 F150
Z-5.47
X84.76
Z-6.66 F50
X110 F150
G2 X112.38 Y110 I0 J-2.38
G1 Y104.76
Z-5.47
Y95.24
Z-6.66 F50
Y64.76 F150
Z-5.47
Y55.24
Z-6.66 F50
Y24.76 F150
Z-5.47
Y15.24
Z-6.66 F50
Y0 F150
G2 X110 Y-2.38 I-2.38 J0
G1 X94.76
Z-5.47
X85.24
Z-6.66 F50
X55 F150
X54.917 Y-2.387
X54.836 Y-2.409
X54.76 Y-2.445
Z-5.47
G3 X54.524 Y-2.856 I0.24 J-0.411
G1 Y-3.808
Z6

M9
M5
M30
