(cartarm_2060_bushing)
(Machine)
(  vendor: Autodesk)
(  model: Generic 3-axis)
(  description: This machine has XY axis on the Table and Z axis on the Head)
(T1 D=4.78 CR=2.39 - ZMIN=-7.5 - ball end mill)
G90 G94
G17
G21
(-Attention- Property Safe Retracts is set to Clearance Height.)
(Ensure the clearance height will clear the part and or fixtures.)
(Raise the Z-axis to a safe height before starting the program.)

(Drill3)
T1
S24000 M3
G17 G90 G94
G54
M8
G0 X25.688 Y30.034
Z15
G0 Z5
Z4
Z1
G1 Z-1.3 F33.3
G0 Z4
Z0.7
G1 Z-1.6 F33.3
G0 Z4
Z0.4
G1 Z-1.9 F33.3
G0 Z4
Z0.1
G1 Z-2.2 F33.3
G0 Z4
Z-0.2
G1 Z-2.5 F33.3
G0 Z4
Z-0.5
G1 Z-2.8 F33.3
G0 Z4
Z-0.8
G1 Z-3.1 F33.3
G0 Z4
Z-1.1
G1 Z-3.4 F33.3
G0 Z4
Z-1.4
G1 Z-3.7 F33.3
G0 Z4
Z-1.7
G1 Z-4 F33.3
G0 Z4
Z-2
G1 Z-4.3 F33.3
G0 Z4
Z-2.3
G1 Z-4.6 F33.3
G0 Z4
Z-2.6
G1 Z-4.9 F33.3
G0 Z4
Z-2.9
G1 Z-5.2 F33.3
G0 Z4
Z-3.2
G1 Z-5.5 F33.3
G0 Z4
Z-3.5
G1 Z-5.8 F33.3
G0 Z4
Z-3.8
G1 Z-6.1 F33.3
G0 Z4
Z-4.1
G1 Z-6.4 F33.3
G0 Z4
Z-4.4
G1 Z-6.7 F33.3
G0 Z4
Z-4.7
G1 Z-7 F33.3
G0 Z4
Z-5
G1 Z-7.3 F33.3
G0 Z4
Z-5.3
G1 Z-7.5 F33.3
G4 P1.
G0 Z5
X13.813
Z4
Z1
G1 Z-1.3 F33.3
G0 Z4
Z0.7
G1 Z-1.6 F33.3
G0 Z4
Z0.4
G1 Z-1.9 F33.3
G0 Z4
Z0.1
G1 Z-2.2 F33.3
G0 Z4
Z-0.2
G1 Z-2.5 F33.3
G0 Z4
Z-0.5
G1 Z-2.8 F33.3
G0 Z4
Z-0.8
G1 Z-3.1 F33.3
G0 Z4
Z-1.1
G1 Z-3.4 F33.3
G0 Z4
Z-1.4
G1 Z-3.7 F33.3
G0 Z4
Z-1.7
G1 Z-4 F33.3
G0 Z4
Z-2
G1 Z-4.3 F33.3
G0 Z4
Z-2.3
G1 Z-4.6 F33.3
G0 Z4
Z-2.6
G1 Z-4.9 F33.3
G0 Z4
Z-2.9
G1 Z-5.2 F33.3
G0 Z4
Z-3.2
G1 Z-5.5 F33.3
G0 Z4
Z-3.5
G1 Z-5.8 F33.3
G0 Z4
Z-3.8
G1 Z-6.1 F33.3
G0 Z4
Z-4.1
G1 Z-6.4 F33.3
G0 Z4
Z-4.4
G1 Z-6.7 F33.3
G0 Z4
Z-4.7
G1 Z-7 F33.3
G0 Z4
Z-5
G1 Z-7.3 F33.3
G0 Z4
Z-5.3
G1 Z-7.5 F33.3
G4 P1.
G0 Z5
Y9.467
Z4
Z1
G1 Z-1.3 F33.3
G0 Z4
Z0.7
G1 Z-1.6 F33.3
G0 Z4
Z0.4
G1 Z-1.9 F33.3
G0 Z4
Z0.1
G1 Z-2.2 F33.3
G0 Z4
Z-0.2
G1 Z-2.5 F33.3
G0 Z4
Z-0.5
G1 Z-2.8 F33.3
G0 Z4
Z-0.8
G1 Z-3.1 F33.3
G0 Z4
Z-1.1
G1 Z-3.4 F33.3
G0 Z4
Z-1.4
G1 Z-3.7 F33.3
G0 Z4
Z-1.7
G1 Z-4 F33.3
G0 Z4
Z-2
G1 Z-4.3 F33.3
G0 Z4
Z-2.3
G1 Z-4.6 F33.3
G0 Z4
Z-2.6
G1 Z-4.9 F33.3
G0 Z4
Z-2.9
G1 Z-5.2 F33.3
G0 Z4
Z-3.2
G1 Z-5.5 F33.3
G0 Z4
Z-3.5
G1 Z-5.8 F33.3
G0 Z4
Z-3.8
G1 Z-6.1 F33.3
G0 Z4
Z-4.1
G1 Z-6.4 F33.3
G0 Z4
Z-4.4
G1 Z-6.7 F33.3
G0 Z4
Z-4.7
G1 Z-7 F33.3
G0 Z4
Z-5
G1 Z-7.3 F33.3
G0 Z4
Z-5.3
G1 Z-7.5 F33.3
G4 P1.
G0 Z5
X25.688
Z4
Z1
G1 Z-1.3 F33.3
G0 Z4
Z0.7
G1 Z-1.6 F33.3
G0 Z4
Z0.4
G1 Z-1.9 F33.3
G0 Z4
Z0.1
G1 Z-2.2 F33.3
G0 Z4
Z-0.2
G1 Z-2.5 F33.3
G0 Z4
Z-0.5
G1 Z-2.8 F33.3
G0 Z4
Z-0.8
G1 Z-3.1 F33.3
G0 Z4
Z-1.1
G1 Z-3.4 F33.3
G0 Z4
Z-1.4
G1 Z-3.7 F33.3
G0 Z4
Z-1.7
G1 Z-4 F33.3
G0 Z4
Z-2
G1 Z-4.3 F33.3
G0 Z4
Z-2.3
G1 Z-4.6 F33.3
G0 Z4
Z-2.6
G1 Z-4.9 F33.3
G0 Z4
Z-2.9
G1 Z-5.2 F33.3
G0 Z4
Z-3.2
G1 Z-5.5 F33.3
G0 Z4
Z-3.5
G1 Z-5.8 F33.3
G0 Z4
Z-3.8
G1 Z-6.1 F33.3
G0 Z4
Z-4.1
G1 Z-6.4 F33.3
G0 Z4
Z-4.4
G1 Z-6.7 F33.3
G0 Z4
Z-4.7
G1 Z-7 F33.3
G0 Z4
Z-5
G1 Z-7.3 F33.3
G0 Z4
Z-5.3
G1 Z-7.5 F33.3
G4 P1.
G0 Z5
Z15
(When using Fusion for Personal Use, the feedrate of rapid)
(moves is reduced to match the feedrate of cutting moves,)
(which can increase machining time. Unrestricted rapid moves)
(are available with a Fusion Subscription.)

(2D Contour4)
S20000 M3
G0 X19.885 Y19.75
G1 Z15 F100
Z5
Z0.956 F33.3
Z-0.3
G3 X19.615 Y19.75 I-0.135 J0 F100
X19.885 Y19.75 I0.135 J0
G1 Z-0.6 F33.3
G3 X19.615 Y19.75 I-0.135 J0 F100
X19.885 Y19.75 I0.135 J0
G1 Z-0.9 F33.3
G3 X19.615 Y19.75 I-0.135 J0 F100
X19.885 Y19.75 I0.135 J0
G1 Z-1.2 F33.3
G3 X19.615 Y19.75 I-0.135 J0 F100
X19.885 Y19.75 I0.135 J0
G1 Z-1.5 F33.3
G3 X19.615 Y19.75 I-0.135 J0 F100
X19.885 Y19.75 I0.135 J0
G1 Z-1.8 F33.3
G3 X19.615 Y19.75 I-0.135 J0 F100
X19.885 Y19.75 I0.135 J0
G1 Z-2.1 F33.3
G3 X19.615 Y19.75 I-0.135 J0 F100
X19.885 Y19.75 I0.135 J0
G1 Z-2.4 F33.3
G3 X19.615 Y19.75 I-0.135 J0 F100
X19.885 Y19.75 I0.135 J0
G1 Z-2.7 F33.3
G3 X19.615 Y19.75 I-0.135 J0 F100
X19.885 Y19.75 I0.135 J0
G1 Z-3 F33.3
G3 X19.615 Y19.75 I-0.135 J0 F100
X19.885 Y19.75 I0.135 J0
G1 Z-3.3 F33.3
G3 X19.615 Y19.75 I-0.135 J0 F100
X19.885 Y19.75 I0.135 J0
G1 Z-3.6 F33.3
G3 X19.615 Y19.75 I-0.135 J0 F100
X19.885 Y19.75 I0.135 J0
G1 Z-3.9 F33.3
G3 X19.615 Y19.75 I-0.135 J0 F100
X19.885 Y19.75 I0.135 J0
G1 Z-4.2 F33.3
G3 X19.615 Y19.75 I-0.135 J0 F100
X19.885 Y19.75 I0.135 J0
G1 Z-4.5 F33.3
G3 X19.615 Y19.75 I-0.135 J0 F100
X19.885 Y19.75 I0.135 J0
G1 Z-4.8 F33.3
G3 X19.615 Y19.75 I-0.135 J0 F100
X19.885 Y19.75 I0.135 J0
G1 Z-5.1 F33.3
G3 X19.615 Y19.75 I-0.135 J0 F100
X19.885 Y19.75 I0.135 J0
G1 Z-5.4 F33.3
G3 X19.615 Y19.75 I-0.135 J0 F100
X19.885 Y19.75 I0.135 J0
G1 Z-5.7 F33.3
G3 X19.615 Y19.75 I-0.135 J0 F100
X19.885 Y19.75 I0.135 J0
G1 Z-6 F33.3
G3 X19.615 Y19.75 I-0.135 J0 F100
X19.885 Y19.75 I0.135 J0
G1 Z-6.3 F33.3
G3 X19.615 Y19.75 I-0.135 J0 F100
X19.885 Y19.75 I0.135 J0
G1 Z-6.6 F33.3
G3 X19.615 Y19.75 I-0.135 J0 F100
X19.885 Y19.75 I0.135 J0
G1 Z-6.9 F33.3
G3 X19.615 Y19.75 I-0.135 J0 F100
X19.885 Y19.75 I0.135 J0
G1 Z-7.2 F33.3
G3 X19.615 Y19.75 I-0.135 J0 F100
X19.885 Y19.75 I0.135 J0
G1 Z-7.5 F33.3
G3 X19.615 Y19.75 I-0.135 J0 F100
X19.885 Y19.75 I0.135 J0
G1 Z15
(When using Fusion for Personal Use, the feedrate of rapid)
(moves is reduced to match the feedrate of cutting moves,)
(which can increase machining time. Unrestricted rapid moves)
(are available with a Fusion Subscription.)

(2D Contour5)
G0 X20.228 Y-3.824
G1 Z15 F200
Z5
Z0.956 F66.7
Z0.178
G19 G3 Y-3.346 Z-0.3 J0.478 K0 F50
G1 Y-2.868
G17 G3 X19.75 Y-2.39 I-0.478 J0
G2 X19.75 Y41.89 I0 J22.14 F200
X19.75 Y-2.39 I0 J-22.14
G3 X19.272 Y-2.868 I0 J-0.478
G1 Y-3.346
G19 G2 Y-3.824 Z0.178 J0 K0.478
G1 Z5
X20.228
Z2.515 F66.7
Z-0.122
G3 Y-3.346 Z-0.6 J0.478 K0 F50
G1 Y-2.868
G17 G3 X19.75 Y-2.39 I-0.478 J0
G2 X19.75 Y41.89 I0 J22.14 F200
X19.75 Y-2.39 I0 J-22.14
G3 X19.272 Y-2.868 I0 J-0.478
G1 Y-3.346
G19 G2 Y-3.824 Z-0.122 J0 K0.478
G1 Z5
X20.228
Z2.215 F66.7
Z-0.422
G3 Y-3.346 Z-0.9 J0.478 K0 F50
G1 Y-2.868
G17 G3 X19.75 Y-2.39 I-0.478 J0
G2 X19.75 Y41.89 I0 J22.14 F200
X19.75 Y-2.39 I0 J-22.14
G3 X19.272 Y-2.868 I0 J-0.478
G1 Y-3.346
G19 G2 Y-3.824 Z-0.422 J0 K0.478
G1 Z5
X20.228
Z1.915 F66.7
Z-0.722
G3 Y-3.346 Z-1.2 J0.478 K0 F50
G1 Y-2.868
G17 G3 X19.75 Y-2.39 I-0.478 J0
G2 X19.75 Y41.89 I0 J22.14 F200
X19.75 Y-2.39 I0 J-22.14
G3 X19.272 Y-2.868 I0 J-0.478
G1 Y-3.346
G19 G2 Y-3.824 Z-0.722 J0 K0.478
G1 Z5
X20.228
Z1.615 F66.7
Z-1.022
G3 Y-3.346 Z-1.5 J0.478 K0 F50
G1 Y-2.868
G17 G3 X19.75 Y-2.39 I-0.478 J0
G2 X19.75 Y41.89 I0 J22.14 F200
X19.75 Y-2.39 I0 J-22.14
G3 X19.272 Y-2.868 I0 J-0.478
G1 Y-3.346
G19 G2 Y-3.824 Z-1.022 J0 K0.478
G1 Z5
X20.228
Z1.315 F66.7
Z-1.322
G3 Y-3.346 Z-1.8 J0.478 K0 F50
G1 Y-2.868
G17 G3 X19.75 Y-2.39 I-0.478 J0
G2 X19.75 Y41.89 I0 J22.14 F200
X19.75 Y-2.39 I0 J-22.14
G3 X19.272 Y-2.868 I0 J-0.478
G1 Y-3.346
G19 G2 Y-3.824 Z-1.322 J0 K0.478
G1 Z5
X20.228
Z1.015 F66.7
Z-1.622
G3 Y-3.346 Z-2.1 J0.478 K0 F50
G1 Y-2.868
G17 G3 X19.75 Y-2.39 I-0.478 J0
G2 X19.75 Y41.89 I0 J22.14 F200
X19.75 Y-2.39 I0 J-22.14
G3 X19.272 Y-2.868 I0 J-0.478
G1 Y-3.346
G19 G2 Y-3.824 Z-1.622 J0 K0.478
G1 Z5
X20.228
Z0.715 F66.7
Z-1.922
G3 Y-3.346 Z-2.4 J0.478 K0 F50
G1 Y-2.868
G17 G3 X19.75 Y-2.39 I-0.478 J0
G2 X19.75 Y41.89 I0 J22.14 F200
X19.75 Y-2.39 I0 J-22.14
G3 X19.272 Y-2.868 I0 J-0.478
G1 Y-3.346
G19 G2 Y-3.824 Z-1.922 J0 K0.478
G1 Z5
X20.228
Z0.415 F66.7
Z-2.222
G3 Y-3.346 Z-2.7 J0.478 K0 F50
G1 Y-2.868
G17 G3 X19.75 Y-2.39 I-0.478 J0
G2 X19.75 Y41.89 I0 J22.14 F200
X19.75 Y-2.39 I0 J-22.14
G3 X19.272 Y-2.868 I0 J-0.478
G1 Y-3.346
G19 G2 Y-3.824 Z-2.222 J0 K0.478
G1 Z5
X20.228
Z0.115 F66.7
Z-2.522
G3 Y-3.346 Z-3 J0.478 K0 F50
G1 Y-2.868
G17 G3 X19.75 Y-2.39 I-0.478 J0
G2 X19.75 Y41.89 I0 J22.14 F200
X19.75 Y-2.39 I0 J-22.14
G3 X19.272 Y-2.868 I0 J-0.478
G1 Y-3.346
G19 G2 Y-3.824 Z-2.522 J0 K0.478
G1 Z5
X20.228
Z-0.185 F66.7
Z-2.822
G3 Y-3.346 Z-3.3 J0.478 K0 F50
G1 Y-2.868
G17 G3 X19.75 Y-2.39 I-0.478 J0
G2 X19.75 Y41.89 I0 J22.14 F200
X19.75 Y-2.39 I0 J-22.14
G3 X19.272 Y-2.868 I0 J-0.478
G1 Y-3.346
G19 G2 Y-3.824 Z-2.822 J0 K0.478
G1 Z5
X20.228
Z-0.485 F66.7
Z-3.122
G3 Y-3.346 Z-3.6 J0.478 K0 F50
G1 Y-2.868
G17 G3 X19.75 Y-2.39 I-0.478 J0
G2 X19.75 Y41.89 I0 J22.14 F200
X19.75 Y-2.39 I0 J-22.14
G3 X19.272 Y-2.868 I0 J-0.478
G1 Y-3.346
G19 G2 Y-3.824 Z-3.122 J0 K0.478
G1 Z5
X20.228
Z-0.785 F66.7
Z-3.422
G3 Y-3.346 Z-3.9 J0.478 K0 F50
G1 Y-2.868
G17 G3 X19.75 Y-2.39 I-0.478 J0
G2 X19.75 Y41.89 I0 J22.14 F200
X19.75 Y-2.39 I0 J-22.14
G3 X19.272 Y-2.868 I0 J-0.478
G1 Y-3.346
G19 G2 Y-3.824 Z-3.422 J0 K0.478
G1 Z5
X20.228
Z-1.085 F66.7
Z-3.722
G3 Y-3.346 Z-4.2 J0.478 K0 F50
G1 Y-2.868
G17 G3 X19.75 Y-2.39 I-0.478 J0
G2 X19.75 Y41.89 I0 J22.14 F200
X19.75 Y-2.39 I0 J-22.14
G3 X19.272 Y-2.868 I0 J-0.478
G1 Y-3.346
G19 G2 Y-3.824 Z-3.722 J0 K0.478
G1 Z5
X20.228
Z-1.385 F66.7
Z-4.022
G3 Y-3.346 Z-4.5 J0.478 K0 F50
G1 Y-2.868
G17 G3 X19.75 Y-2.39 I-0.478 J0
G2 X19.75 Y41.89 I0 J22.14 F200
X19.75 Y-2.39 I0 J-22.14
G3 X19.272 Y-2.868 I0 J-0.478
G1 Y-3.346
G19 G2 Y-3.824 Z-4.022 J0 K0.478
G1 Z5
X20.228
Z-1.685 F66.7
Z-4.322
G3 Y-3.346 Z-4.8 J0.478 K0 F50
G1 Y-2.868
G17 G3 X19.75 Y-2.39 I-0.478 J0
G2 X19.75 Y41.89 I0 J22.14 F200
X19.75 Y-2.39 I0 J-22.14
G3 X19.272 Y-2.868 I0 J-0.478
G1 Y-3.346
G19 G2 Y-3.824 Z-4.322 J0 K0.478
G1 Z5
X20.228
Z-1.985 F66.7
Z-4.622
G3 Y-3.346 Z-5.1 J0.478 K0 F50
G1 Y-2.868
G17 G3 X19.75 Y-2.39 I-0.478 J0
G2 X19.75 Y41.89 I0 J22.14 F200
X19.75 Y-2.39 I0 J-22.14
G3 X19.272 Y-2.868 I0 J-0.478
G1 Y-3.346
G19 G2 Y-3.824 Z-4.622 J0 K0.478
G1 Z5
X20.228
Z-2.285 F66.7
Z-4.922
G3 Y-3.346 Z-5.4 J0.478 K0 F50
G1 Y-2.868
G17 G3 X19.75 Y-2.39 I-0.478 J0
G2 X19.75 Y41.89 I0 J22.14 F200
X19.75 Y-2.39 I0 J-22.14
G3 X19.272 Y-2.868 I0 J-0.478
G1 Y-3.346
G19 G2 Y-3.824 Z-4.922 J0 K0.478
G1 Z5
X20.228
Z-2.585 F66.7
Z-5.222
G3 Y-3.346 Z-5.7 J0.478 K0 F50
G1 Y-2.868
G17 G3 X19.75 Y-2.39 I-0.478 J0
G2 X19.75 Y41.89 I0 J22.14 F200
X19.75 Y-2.39 I0 J-22.14
G3 X19.272 Y-2.868 I0 J-0.478
G1 Y-3.346
G19 G2 Y-3.824 Z-5.222 J0 K0.478
G1 Z5
X20.228
Z-2.885 F66.7
Z-5.522
G3 Y-3.346 Z-6 J0.478 K0 F50
G1 Y-2.868
G17 G3 X19.75 Y-2.39 I-0.478 J0
G2 X19.75 Y41.89 I0 J22.14 F200
X19.75 Y-2.39 I0 J-22.14
G3 X19.272 Y-2.868 I0 J-0.478
G1 Y-3.346
G19 G2 Y-3.824 Z-5.522 J0 K0.478
G1 Z5
X20.228
Z-3.185 F66.7
Z-5.822
G3 Y-3.346 Z-6.3 J0.478 K0 F50
G1 Y-2.868
G17 G3 X19.75 Y-2.39 I-0.478 J0
G2 X19.75 Y41.89 I0 J22.14 F200
X19.75 Y-2.39 I0 J-22.14
G3 X19.272 Y-2.868 I0 J-0.478
G1 Y-3.346
G19 G2 Y-3.824 Z-5.822 J0 K0.478
G1 Z5
X20.228
Z-3.485 F66.7
Z-6.122
G3 Y-3.346 Z-6.6 J0.478 K0 F50
G1 Y-2.868
G17 G3 X19.75 Y-2.39 I-0.478 J0
G2 X19.75 Y41.89 I0 J22.14 F200
X19.75 Y-2.39 I0 J-22.14
G3 X19.272 Y-2.868 I0 J-0.478
G1 Y-3.346
G19 G2 Y-3.824 Z-6.122 J0 K0.478
G1 Z5
X20.228
Z-3.785 F66.7
Z-6.422
G3 Y-3.346 Z-6.9 J0.478 K0 F50
G1 Y-2.868
G17 G3 X19.75 Y-2.39 I-0.478 J0
G2 X19.75 Y41.89 I0 J22.14 F200
X19.75 Y-2.39 I0 J-22.14
G3 X19.272 Y-2.868 I0 J-0.478
G1 Y-3.346
G19 G2 Y-3.824 Z-6.422 J0 K0.478
G1 Z5
X20.228
Z-4.085 F66.7
Z-6.722
G3 Y-3.346 Z-7.2 J0.478 K0 F50
G1 Y-2.868
G17 G3 X19.75 Y-2.39 I-0.478 J0
G2 X19.75 Y41.89 I0 J22.14 F200
X19.75 Y-2.39 I0 J-22.14
G3 X19.272 Y-2.868 I0 J-0.478
G1 Y-3.346
G19 G2 Y-3.824 Z-6.722 J0 K0.478
G1 Z15
G17

M9
M5
M30
