(cartarm_gear_bracket_drill)
(Machine)
(  vendor: Autodesk)
(  model: Generic 3-axis)
(  description: This machine has XY axis on the Table and Z axis on the Head)
(T3 D=3.1 CR=0 - ZMIN=-7.85 - flat end mill)
G90 G94
G17
G21
(-Attention- Property Safe Retracts is set to Clearance Height.)
(Ensure the clearance height will clear the part and or fixtures.)
(Raise the Z-axis to a safe height before starting the program.)

(Drill1)
T3
S14000 M3
G17 G90 G94
G54
M8
G0 X56.526 Y8
Z15
G0 Z5
Z4
Z1
G1 Z-1.3 F100
G0 Z4
Z0.7
G1 Z-1.6 F100
G0 Z4
Z0.4
G1 Z-1.9 F100
G0 Z4
Z0.1
G1 Z-2.2 F100
G0 Z4
Z-0.2
G1 Z-2.5 F100
G0 Z4
Z-0.5
G1 Z-2.8 F100
G0 Z4
Z-0.8
G1 Z-3.1 F100
G0 Z4
Z-1.1
G1 Z-3.4 F100
G0 Z4
Z-1.4
G1 Z-3.7 F100
G0 Z4
Z-1.7
G1 Z-4 F100
G0 Z4
Z-2
G1 Z-4.3 F100
G0 Z4
Z-2.3
G1 Z-4.6 F100
G0 Z4
Z-2.6
G1 Z-4.9 F100
G0 Z4
Z-2.9
G1 Z-5.2 F100
G0 Z4
Z-3.2
G1 Z-5.5 F100
G0 Z4
Z-3.5
G1 Z-5.8 F100
G0 Z4
Z-3.8
G1 Z-6.1 F100
G0 Z4
Z-4.1
G1 Z-6.4 F100
G0 Z4
Z-4.4
G1 Z-6.7 F100
G0 Z4
Z-4.7
G1 Z-7 F100
G0 Z4
Z-5
G1 Z-7.3 F100
G0 Z4
Z-5.3
G1 Z-7.6 F100
G0 Z4
Z-5.6
G1 Z-7.85 F100
G4 P1.
G0 Z5
X46.526
Z4
Z1
G1 Z-1.3 F100
G0 Z4
Z0.7
G1 Z-1.6 F100
G0 Z4
Z0.4
G1 Z-1.9 F100
G0 Z4
Z0.1
G1 Z-2.2 F100
G0 Z4
Z-0.2
G1 Z-2.5 F100
G0 Z4
Z-0.5
G1 Z-2.8 F100
G0 Z4
Z-0.8
G1 Z-3.1 F100
G0 Z4
Z-1.1
G1 Z-3.4 F100
G0 Z4
Z-1.4
G1 Z-3.7 F100
G0 Z4
Z-1.7
G1 Z-4 F100
G0 Z4
Z-2
G1 Z-4.3 F100
G0 Z4
Z-2.3
G1 Z-4.6 F100
G0 Z4
Z-2.6
G1 Z-4.9 F100
G0 Z4
Z-2.9
G1 Z-5.2 F100
G0 Z4
Z-3.2
G1 Z-5.5 F100
G0 Z4
Z-3.5
G1 Z-5.8 F100
G0 Z4
Z-3.8
G1 Z-6.1 F100
G0 Z4
Z-4.1
G1 Z-6.4 F100
G0 Z4
Z-4.4
G1 Z-6.7 F100
G0 Z4
Z-4.7
G1 Z-7 F100
G0 Z4
Z-5
G1 Z-7.3 F100
G0 Z4
Z-5.3
G1 Z-7.6 F100
G0 Z4
Z-5.6
G1 Z-7.85 F100
G4 P1.
G0 Z5
X36.526
Z4
Z1
G1 Z-1.3 F100
G0 Z4
Z0.7
G1 Z-1.6 F100
G0 Z4
Z0.4
G1 Z-1.9 F100
G0 Z4
Z0.1
G1 Z-2.2 F100
G0 Z4
Z-0.2
G1 Z-2.5 F100
G0 Z4
Z-0.5
G1 Z-2.8 F100
G0 Z4
Z-0.8
G1 Z-3.1 F100
G0 Z4
Z-1.1
G1 Z-3.4 F100
G0 Z4
Z-1.4
G1 Z-3.7 F100
G0 Z4
Z-1.7
G1 Z-4 F100
G0 Z4
Z-2
G1 Z-4.3 F100
G0 Z4
Z-2.3
G1 Z-4.6 F100
G0 Z4
Z-2.6
G1 Z-4.9 F100
G0 Z4
Z-2.9
G1 Z-5.2 F100
G0 Z4
Z-3.2
G1 Z-5.5 F100
G0 Z4
Z-3.5
G1 Z-5.8 F100
G0 Z4
Z-3.8
G1 Z-6.1 F100
G0 Z4
Z-4.1
G1 Z-6.4 F100
G0 Z4
Z-4.4
G1 Z-6.7 F100
G0 Z4
Z-4.7
G1 Z-7 F100
G0 Z4
Z-5
G1 Z-7.3 F100
G0 Z4
Z-5.3
G1 Z-7.6 F100
G0 Z4
Z-5.6
G1 Z-7.85 F100
G4 P1.
G0 Z5
X26.526
Z4
Z1
G1 Z-1.3 F100
G0 Z4
Z0.7
G1 Z-1.6 F100
G0 Z4
Z0.4
G1 Z-1.9 F100
G0 Z4
Z0.1
G1 Z-2.2 F100
G0 Z4
Z-0.2
G1 Z-2.5 F100
G0 Z4
Z-0.5
G1 Z-2.8 F100
G0 Z4
Z-0.8
G1 Z-3.1 F100
G0 Z4
Z-1.1
G1 Z-3.4 F100
G0 Z4
Z-1.4
G1 Z-3.7 F100
G0 Z4
Z-1.7
G1 Z-4 F100
G0 Z4
Z-2
G1 Z-4.3 F100
G0 Z4
Z-2.3
G1 Z-4.6 F100
G0 Z4
Z-2.6
G1 Z-4.9 F100
G0 Z4
Z-2.9
G1 Z-5.2 F100
G0 Z4
Z-3.2
G1 Z-5.5 F100
G0 Z4
Z-3.5
G1 Z-5.8 F100
G0 Z4
Z-3.8
G1 Z-6.1 F100
G0 Z4
Z-4.1
G1 Z-6.4 F100
G0 Z4
Z-4.4
G1 Z-6.7 F100
G0 Z4
Z-4.7
G1 Z-7 F100
G0 Z4
Z-5
G1 Z-7.3 F100
G0 Z4
Z-5.3
G1 Z-7.6 F100
G0 Z4
Z-5.6
G1 Z-7.85 F100
G4 P1.
G0 Z5
X16.526
Z4
Z1
G1 Z-1.3 F100
G0 Z4
Z0.7
G1 Z-1.6 F100
G0 Z4
Z0.4
G1 Z-1.9 F100
G0 Z4
Z0.1
G1 Z-2.2 F100
G0 Z4
Z-0.2
G1 Z-2.5 F100
G0 Z4
Z-0.5
G1 Z-2.8 F100
G0 Z4
Z-0.8
G1 Z-3.1 F100
G0 Z4
Z-1.1
G1 Z-3.4 F100
G0 Z4
Z-1.4
G1 Z-3.7 F100
G0 Z4
Z-1.7
G1 Z-4 F100
G0 Z4
Z-2
G1 Z-4.3 F100
G0 Z4
Z-2.3
G1 Z-4.6 F100
G0 Z4
Z-2.6
G1 Z-4.9 F100
G0 Z4
Z-2.9
G1 Z-5.2 F100
G0 Z4
Z-3.2
G1 Z-5.5 F100
G0 Z4
Z-3.5
G1 Z-5.8 F100
G0 Z4
Z-3.8
G1 Z-6.1 F100
G0 Z4
Z-4.1
G1 Z-6.4 F100
G0 Z4
Z-4.4
G1 Z-6.7 F100
G0 Z4
Z-4.7
G1 Z-7 F100
G0 Z4
Z-5
G1 Z-7.3 F100
G0 Z4
Z-5.3
G1 Z-7.6 F100
G0 Z4
Z-5.6
G1 Z-7.85 F100
G4 P1.
G0 Z5
X8.4 Y49.386
Z4
Z1
G1 Z-1.3 F100
G0 Z4
Z0.7
G1 Z-1.6 F100
G0 Z4
Z0.4
G1 Z-1.9 F100
G0 Z4
Z0.1
G1 Z-2.2 F100
G0 Z4
Z-0.2
G1 Z-2.5 F100
G0 Z4
Z-0.5
G1 Z-2.8 F100
G0 Z4
Z-0.8
G1 Z-3.1 F100
G0 Z4
Z-1.1
G1 Z-3.4 F100
G0 Z4
Z-1.4
G1 Z-3.7 F100
G0 Z4
Z-1.7
G1 Z-4 F100
G0 Z4
Z-2
G1 Z-4.3 F100
G0 Z4
Z-2.3
G1 Z-4.6 F100
G0 Z4
Z-2.6
G1 Z-4.9 F100
G0 Z4
Z-2.9
G1 Z-5.2 F100
G0 Z4
Z-3.2
G1 Z-5.5 F100
G0 Z4
Z-3.5
G1 Z-5.8 F100
G0 Z4
Z-3.8
G1 Z-6.1 F100
G0 Z4
Z-4.1
G1 Z-6.4 F100
G0 Z4
Z-4.4
G1 Z-6.7 F100
G0 Z4
Z-4.7
G1 Z-7 F100
G0 Z4
Z-5
G1 Z-7.3 F100
G0 Z4
Z-5.3
G1 Z-7.6 F100
G0 Z4
Z-5.6
G1 Z-7.85 F100
G4 P1.
G0 Z5
X8.352 Y81.945
Z4
Z1
G1 Z-1.3 F100
G0 Z4
Z0.7
G1 Z-1.6 F100
G0 Z4
Z0.4
G1 Z-1.9 F100
G0 Z4
Z0.1
G1 Z-2.2 F100
G0 Z4
Z-0.2
G1 Z-2.5 F100
G0 Z4
Z-0.5
G1 Z-2.8 F100
G0 Z4
Z-0.8
G1 Z-3.1 F100
G0 Z4
Z-1.1
G1 Z-3.4 F100
G0 Z4
Z-1.4
G1 Z-3.7 F100
G0 Z4
Z-1.7
G1 Z-4 F100
G0 Z4
Z-2
G1 Z-4.3 F100
G0 Z4
Z-2.3
G1 Z-4.6 F100
G0 Z4
Z-2.6
G1 Z-4.9 F100
G0 Z4
Z-2.9
G1 Z-5.2 F100
G0 Z4
Z-3.2
G1 Z-5.5 F100
G0 Z4
Z-3.5
G1 Z-5.8 F100
G0 Z4
Z-3.8
G1 Z-6.1 F100
G0 Z4
Z-4.1
G1 Z-6.4 F100
G0 Z4
Z-4.4
G1 Z-6.7 F100
G0 Z4
Z-4.7
G1 Z-7 F100
G0 Z4
Z-5
G1 Z-7.3 F100
G0 Z4
Z-5.3
G1 Z-7.6 F100
G0 Z4
Z-5.6
G1 Z-7.85 F100
G4 P1.
G0 Z5
X36.526 Y98.15
Z4
Z1
G1 Z-1.3 F100
G0 Z4
Z0.7
G1 Z-1.6 F100
G0 Z4
Z0.4
G1 Z-1.9 F100
G0 Z4
Z0.1
G1 Z-2.2 F100
G0 Z4
Z-0.2
G1 Z-2.5 F100
G0 Z4
Z-0.5
G1 Z-2.8 F100
G0 Z4
Z-0.8
G1 Z-3.1 F100
G0 Z4
Z-1.1
G1 Z-3.4 F100
G0 Z4
Z-1.4
G1 Z-3.7 F100
G0 Z4
Z-1.7
G1 Z-4 F100
G0 Z4
Z-2
G1 Z-4.3 F100
G0 Z4
Z-2.3
G1 Z-4.6 F100
G0 Z4
Z-2.6
G1 Z-4.9 F100
G0 Z4
Z-2.9
G1 Z-5.2 F100
G0 Z4
Z-3.2
G1 Z-5.5 F100
G0 Z4
Z-3.5
G1 Z-5.8 F100
G0 Z4
Z-3.8
G1 Z-6.1 F100
G0 Z4
Z-4.1
G1 Z-6.4 F100
G0 Z4
Z-4.4
G1 Z-6.7 F100
G0 Z4
Z-4.7
G1 Z-7 F100
G0 Z4
Z-5
G1 Z-7.3 F100
G0 Z4
Z-5.3
G1 Z-7.6 F100
G0 Z4
Z-5.6
G1 Z-7.85 F100
G4 P1.
G0 Z5
X64.668 Y81.892
Z4
Z1
G1 Z-1.3 F100
G0 Z4
Z0.7
G1 Z-1.6 F100
G0 Z4
Z0.4
G1 Z-1.9 F100
G0 Z4
Z0.1
G1 Z-2.2 F100
G0 Z4
Z-0.2
G1 Z-2.5 F100
G0 Z4
Z-0.5
G1 Z-2.8 F100
G0 Z4
Z-0.8
G1 Z-3.1 F100
G0 Z4
Z-1.1
G1 Z-3.4 F100
G0 Z4
Z-1.4
G1 Z-3.7 F100
G0 Z4
Z-1.7
G1 Z-4 F100
G0 Z4
Z-2
G1 Z-4.3 F100
G0 Z4
Z-2.3
G1 Z-4.6 F100
G0 Z4
Z-2.6
G1 Z-4.9 F100
G0 Z4
Z-2.9
G1 Z-5.2 F100
G0 Z4
Z-3.2
G1 Z-5.5 F100
G0 Z4
Z-3.5
G1 Z-5.8 F100
G0 Z4
Z-3.8
G1 Z-6.1 F100
G0 Z4
Z-4.1
G1 Z-6.4 F100
G0 Z4
Z-4.4
G1 Z-6.7 F100
G0 Z4
Z-4.7
G1 Z-7 F100
G0 Z4
Z-5
G1 Z-7.3 F100
G0 Z4
Z-5.3
G1 Z-7.6 F100
G0 Z4
Z-5.6
G1 Z-7.85 F100
G4 P1.
G0 Z5
X64.655 Y49.398
Z4
Z1
G1 Z-1.3 F100
G0 Z4
Z0.7
G1 Z-1.6 F100
G0 Z4
Z0.4
G1 Z-1.9 F100
G0 Z4
Z0.1
G1 Z-2.2 F100
G0 Z4
Z-0.2
G1 Z-2.5 F100
G0 Z4
Z-0.5
G1 Z-2.8 F100
G0 Z4
Z-0.8
G1 Z-3.1 F100
G0 Z4
Z-1.1
G1 Z-3.4 F100
G0 Z4
Z-1.4
G1 Z-3.7 F100
G0 Z4
Z-1.7
G1 Z-4 F100
G0 Z4
Z-2
G1 Z-4.3 F100
G0 Z4
Z-2.3
G1 Z-4.6 F100
G0 Z4
Z-2.6
G1 Z-4.9 F100
G0 Z4
Z-2.9
G1 Z-5.2 F100
G0 Z4
Z-3.2
G1 Z-5.5 F100
G0 Z4
Z-3.5
G1 Z-5.8 F100
G0 Z4
Z-3.8
G1 Z-6.1 F100
G0 Z4
Z-4.1
G1 Z-6.4 F100
G0 Z4
Z-4.4
G1 Z-6.7 F100
G0 Z4
Z-4.7
G1 Z-7 F100
G0 Z4
Z-5
G1 Z-7.3 F100
G0 Z4
Z-5.3
G1 Z-7.6 F100
G0 Z4
Z-5.6
G1 Z-7.85 F100
G4 P1.
G0 Z5
Z15

M9
M5
M30
