(cartarm_bearing_bracket)
(T2 D=6.35 CR=3.175 - ZMIN=-7.85 - ball end mill)
G90 G94
G17
G21
(-Attention- Property Safe Retracts is set to Clearance Height.)
(Ensure the clearance height will clear the part and or fixtures.)
(Raise the Z-axis to a safe height before starting the program.)
(When using Fusion for Personal Use, the feedrate of rapid)
(moves is reduced to match the feedrate of cutting moves,)
(which can increase machining time. Unrestricted rapid moves)
(are available with a Fusion Subscription.)

(2D Contour1)
T2
S24000 M3
G17 G90 G94
G54
M8
G0 X57.496 Y65.015
Z15
G1 Z5 F150
Z1 F333.3
Z0.135
G18 G2 X58.131 Z-0.5 I0.635 K0 F150
G1 X58.766
G17 G3 X59.401 Y65.65 I0 J0.635
X13.651 Y65.65 I-22.875 J0
X59.401 Y65.65 I22.875 J0
X58.766 Y66.285 I-0.635 J0
G1 X58.131
G18 G3 X57.496 Z0.135 I0 K0.635
G1 Z5
Y65.015
Z2.97 F333.3
Z-0.365
G2 X58.131 Z-1 I0.635 K0 F150
G1 X58.766
G17 G3 X59.401 Y65.65 I0 J0.635
X13.651 Y65.65 I-22.875 J0
X59.401 Y65.65 I22.875 J0
X58.766 Y66.285 I-0.635 J0
G1 X58.131
G18 G3 X57.496 Z-0.365 I0 K0.635
G1 Z5
Y65.015
Z2.47 F333.3
Z-0.865
G2 X58.131 Z-1.5 I0.635 K0 F150
G1 X58.766
G17 G3 X59.401 Y65.65 I0 J0.635
X13.651 Y65.65 I-22.875 J0
X59.401 Y65.65 I22.875 J0
X58.766 Y66.285 I-0.635 J0
G1 X58.131
G18 G3 X57.496 Z-0.865 I0 K0.635
G1 Z5
Y65.015
Z1.97 F333.3
Z-1.365
G2 X58.131 Z-2 I0.635 K0 F150
G1 X58.766
G17 G3 X59.401 Y65.65 I0 J0.635
X13.651 Y65.65 I-22.875 J0
X59.401 Y65.65 I22.875 J0
X58.766 Y66.285 I-0.635 J0
G1 X58.131
G18 G3 X57.496 Z-1.365 I0 K0.635
G1 Z5
Y65.015
Z1.47 F333.3
Z-1.865
G2 X58.131 Z-2.5 I0.635 K0 F150
G1 X58.766
G17 G3 X59.401 Y65.65 I0 J0.635
X13.651 Y65.65 I-22.875 J0
X59.401 Y65.65 I22.875 J0
X58.766 Y66.285 I-0.635 J0
G1 X58.131
G18 G3 X57.496 Z-1.865 I0 K0.635
G1 Z5
Y65.015
Z0.97 F333.3
Z-2.365
G2 X58.131 Z-3 I0.635 K0 F150
G1 X58.766
G17 G3 X59.401 Y65.65 I0 J0.635
X13.651 Y65.65 I-22.875 J0
X59.401 Y65.65 I22.875 J0
X58.766 Y66.285 I-0.635 J0
G1 X58.131
G18 G3 X57.496 Z-2.365 I0 K0.635
G1 Z5
Y65.015
Z0.47 F333.3
Z-2.865
G2 X58.131 Z-3.5 I0.635 K0 F150
G1 X58.766
G17 G3 X59.401 Y65.65 I0 J0.635
X13.651 Y65.65 I-22.875 J0
X59.401 Y65.65 I22.875 J0
X58.766 Y66.285 I-0.635 J0
G1 X58.131
G18 G3 X57.496 Z-2.865 I0 K0.635
G1 Z5
Y65.015
Z-0.03 F333.3
Z-3.365
G2 X58.131 Z-4 I0.635 K0 F150
G1 X58.766
G17 G3 X59.401 Y65.65 I0 J0.635
X13.651 Y65.65 I-22.875 J0
X59.401 Y65.65 I22.875 J0
X58.766 Y66.285 I-0.635 J0
G1 X58.131
G18 G3 X57.496 Z-3.365 I0 K0.635
G1 Z5
Y65.015
Z-0.53 F333.3
Z-3.865
G2 X58.131 Z-4.5 I0.635 K0 F150
G1 X58.766
G17 G3 X59.401 Y65.65 I0 J0.635
X13.651 Y65.65 I-22.875 J0
X59.401 Y65.65 I22.875 J0
X58.766 Y66.285 I-0.635 J0
G1 X58.131
G18 G3 X57.496 Z-3.865 I0 K0.635
G1 Z5
Y65.015
Z-1.03 F333.3
Z-4.365
G2 X58.131 Z-5 I0.635 K0 F150
G1 X58.766
G17 G3 X59.401 Y65.65 I0 J0.635
X13.651 Y65.65 I-22.875 J0
X59.401 Y65.65 I22.875 J0
X58.766 Y66.285 I-0.635 J0
G1 X58.131
G18 G3 X57.496 Z-4.365 I0 K0.635
G1 Z5
Y65.015
Z-1.53 F333.3
Z-4.865
G2 X58.131 Z-5.5 I0.635 K0 F150
G1 X58.766
G17 G3 X59.401 Y65.65 I0 J0.635
X13.651 Y65.65 I-22.875 J0
X59.401 Y65.65 I22.875 J0
X58.766 Y66.285 I-0.635 J0
G1 X58.131
G18 G3 X57.496 Z-4.865 I0 K0.635
G1 Z5
Y65.015
Z-2.03 F333.3
Z-5.365
G2 X58.131 Z-6 I0.635 K0 F150
G1 X58.766
G17 G3 X59.401 Y65.65 I0 J0.635
X13.651 Y65.65 I-22.875 J0
X59.401 Y65.65 I22.875 J0
X58.766 Y66.285 I-0.635 J0
G1 X58.131
G18 G3 X57.496 Z-5.365 I0 K0.635
G1 Z5
Y65.015
Z-2.53 F333.3
Z-5.865
G2 X58.131 Z-6.5 I0.635 K0 F150
G1 X58.766
G17 G3 X59.401 Y65.65 I0 J0.635
X13.651 Y65.65 I-22.875 J0
X59.401 Y65.65 I22.875 J0
X58.766 Y66.285 I-0.635 J0
G1 X58.131
G18 G3 X57.496 Z-5.865 I0 K0.635
G1 Z5
Y65.015
Z-3.03 F333.3
Z-6.365
G2 X58.131 Z-7 I0.635 K0 F150
G1 X58.766
G17 G3 X59.401 Y65.65 I0 J0.635
X13.651 Y65.65 I-22.875 J0
X59.401 Y65.65 I22.875 J0
X58.766 Y66.285 I-0.635 J0
G1 X58.131
G18 G3 X57.496 Z-6.365 I0 K0.635
G1 Z5
Y65.015
Z-3.53 F333.3
Z-6.865
G2 X58.131 Z-7.5 I0.635 K0 F150
G1 X58.766
G17 G3 X59.401 Y65.65 I0 J0.635
X13.651 Y65.65 I-22.875 J0
X59.401 Y65.65 I22.875 J0
X58.766 Y66.285 I-0.635 J0
G1 X58.131
G18 G3 X57.496 Z-6.865 I0 K0.635
G1 Z5
Y65.015
Z-4.03 F333.3
Z-7.215
G2 X58.131 Z-7.85 I0.635 K0 F150
G1 X58.766
G17 G3 X59.401 Y65.65 I0 J0.635
X13.651 Y65.65 I-22.875 J0
X59.401 Y65.65 I22.875 J0
X58.766 Y66.285 I-0.635 J0
G1 X58.131
G18 G3 X57.496 Z-7.215 I0 K0.635
G1 Z15
G17
(When using Fusion for Personal Use, the feedrate of rapid)
(moves is reduced to match the feedrate of cutting moves,)
(which can increase machining time. Unrestricted rapid moves)
(are available with a Fusion Subscription.)

(2D Contour2)
G0 X-5.08 Y64.202
G1 Z15 F150
Z5
Z1 F333.3
Z0.135
G18 G2 X-4.445 Z-0.5 I0.635 K0 F150
G1 X-3.81
G17 G3 X-3.175 Y64.837 I0 J0.635
G2 X37.5 Y105.512 I40.675 J0
G1 X37.585 Y105.511
G2 X77.175 Y64.85 I-1.085 J-40.661
G1 Y0
G3 X77.81 Y-0.635 I0.635 J0
G1 X78.445
G18 G2 X79.08 Z0.135 I0 K0.635
G1 Z5
X-5.08 Y64.202
Z2.97 F333.3
Z-0.365
G2 X-4.445 Z-1 I0.635 K0 F150
G1 X-3.81
G17 G3 X-3.175 Y64.837 I0 J0.635
G2 X37.5 Y105.512 I40.675 J0
G1 X37.585 Y105.511
G2 X77.175 Y64.85 I-1.085 J-40.661
G1 Y0
G3 X77.81 Y-0.635 I0.635 J0
G1 X78.445
G18 G2 X79.08 Z-0.365 I0 K0.635
G1 Z5
X-5.08 Y64.202
Z2.47 F333.3
Z-0.865
G2 X-4.445 Z-1.5 I0.635 K0 F150
G1 X-3.81
G17 G3 X-3.175 Y64.837 I0 J0.635
G2 X37.5 Y105.512 I40.675 J0
G1 X37.585 Y105.511
G2 X77.175 Y64.85 I-1.085 J-40.661
G1 Y0
G3 X77.81 Y-0.635 I0.635 J0
G1 X78.445
G18 G2 X79.08 Z-0.865 I0 K0.635
G1 Z5
X-5.08 Y64.202
Z1.97 F333.3
Z-1.365
G2 X-4.445 Z-2 I0.635 K0 F150
G1 X-3.81
G17 G3 X-3.175 Y64.837 I0 J0.635
G2 X37.5 Y105.512 I40.675 J0
G1 X37.585 Y105.511
G2 X77.175 Y64.85 I-1.085 J-40.661
G1 Y0
G3 X77.81 Y-0.635 I0.635 J0
G1 X78.445
G18 G2 X79.08 Z-1.365 I0 K0.635
G1 Z5
X-5.08 Y64.202
Z1.47 F333.3
Z-1.865
G2 X-4.445 Z-2.5 I0.635 K0 F150
G1 X-3.81
G17 G3 X-3.175 Y64.837 I0 J0.635
G2 X37.5 Y105.512 I40.675 J0
G1 X37.585 Y105.511
G2 X77.175 Y64.85 I-1.085 J-40.661
G1 Y0
G3 X77.81 Y-0.635 I0.635 J0
G1 X78.445
G18 G2 X79.08 Z-1.865 I0 K0.635
G1 Z5
X-5.08 Y64.202
Z0.97 F333.3
Z-2.365
G2 X-4.445 Z-3 I0.635 K0 F150
G1 X-3.81
G17 G3 X-3.175 Y64.837 I0 J0.635
G2 X37.5 Y105.512 I40.675 J0
G1 X37.585 Y105.511
G2 X77.175 Y64.85 I-1.085 J-40.661
G1 Y0
G3 X77.81 Y-0.635 I0.635 J0
G1 X78.445
G18 G2 X79.08 Z-2.365 I0 K0.635
G1 Z5
X-5.08 Y64.202
Z0.47 F333.3
Z-2.865
G2 X-4.445 Z-3.5 I0.635 K0 F150
G1 X-3.81
G17 G3 X-3.175 Y64.837 I0 J0.635
G2 X37.5 Y105.512 I40.675 J0
G1 X37.585 Y105.511
G2 X77.175 Y64.85 I-1.085 J-40.661
G1 Y0
G3 X77.81 Y-0.635 I0.635 J0
G1 X78.445
G18 G2 X79.08 Z-2.865 I0 K0.635
G1 Z5
X-5.08 Y64.202
Z-0.03 F333.3
Z-3.365
G2 X-4.445 Z-4 I0.635 K0 F150
G1 X-3.81
G17 G3 X-3.175 Y64.837 I0 J0.635
G2 X37.5 Y105.512 I40.675 J0
G1 X37.585 Y105.511
G2 X77.175 Y64.85 I-1.085 J-40.661
G1 Y0
G3 X77.81 Y-0.635 I0.635 J0
G1 X78.445
G18 G2 X79.08 Z-3.365 I0 K0.635
G1 Z5
X-5.08 Y64.202
Z-0.53 F333.3
Z-3.865
G2 X-4.445 Z-4.5 I0.635 K0 F150
G1 X-3.81
G17 G3 X-3.175 Y64.837 I0 J0.635
G2 X37.5 Y105.512 I40.675 J0
G1 X37.585 Y105.511
G2 X77.175 Y64.85 I-1.085 J-40.661
G1 Y0
G3 X77.81 Y-0.635 I0.635 J0
G1 X78.445
G18 G2 X79.08 Z-3.865 I0 K0.635
G1 Z5
X-5.08 Y64.202
Z-1.03 F333.3
Z-4.365
G2 X-4.445 Z-5 I0.635 K0 F150
G1 X-3.81
G17 G3 X-3.175 Y64.837 I0 J0.635
G2 X37.5 Y105.512 I40.675 J0
G1 X37.585 Y105.511
G2 X77.175 Y64.85 I-1.085 J-40.661
G1 Y0
G3 X77.81 Y-0.635 I0.635 J0
G1 X78.445
G18 G2 X79.08 Z-4.365 I0 K0.635
G1 Z5
X-5.08 Y64.202
Z-1.53 F333.3
Z-4.865
G2 X-4.445 Z-5.5 I0.635 K0 F150
G1 X-3.81
G17 G3 X-3.175 Y64.837 I0 J0.635
G2 X37.5 Y105.512 I40.675 J0
G1 X37.585 Y105.511
G2 X77.175 Y64.85 I-1.085 J-40.661
G1 Y0
G3 X77.81 Y-0.635 I0.635 J0
G1 X78.445
G18 G2 X79.08 Z-4.865 I0 K0.635
G1 Z5
X-5.08 Y64.202
Z-2.03 F333.3
Z-5.365
G2 X-4.445 Z-6 I0.635 K0 F150
G1 X-3.81
G17 G3 X-3.175 Y64.837 I0 J0.635
G2 X37.5 Y105.512 I40.675 J0
G1 X37.585 Y105.511
G2 X77.175 Y64.85 I-1.085 J-40.661
G1 Y0
G3 X77.81 Y-0.635 I0.635 J0
G1 X78.445
G18 G2 X79.08 Z-5.365 I0 K0.635
G1 Z5
X-5.08 Y64.202
Z-2.53 F333.3
Z-5.865
G2 X-4.445 Z-6.5 I0.635 K0 F150
G1 X-3.81
G17 G3 X-3.175 Y64.837 I0 J0.635
G2 X37.5 Y105.512 I40.675 J0
G1 X37.585 Y105.511
G2 X77.175 Y64.85 I-1.085 J-40.661
G1 Y0
G3 X77.81 Y-0.635 I0.635 J0
G1 X78.445
G18 G2 X79.08 Z-5.865 I0 K0.635
G1 Z5
X-5.08 Y64.202
Z-3.03 F333.3
Z-6.365
G2 X-4.445 Z-7 I0.635 K0 F150
G1 X-3.81
G17 G3 X-3.175 Y64.837 I0 J0.635
G2 X37.5 Y105.512 I40.675 J0
G1 X37.585 Y105.511
G2 X77.175 Y64.85 I-1.085 J-40.661
G1 Y0
G3 X77.81 Y-0.635 I0.635 J0
G1 X78.445
G18 G2 X79.08 Z-6.365 I0 K0.635
G1 Z5
X-5.08 Y64.202
Z-3.53 F333.3
Z-6.865
G2 X-4.445 Z-7.5 I0.635 K0 F150
G1 X-3.81
G17 G3 X-3.175 Y64.837 I0 J0.635
G2 X37.5 Y105.512 I40.675 J0
G1 X37.585 Y105.511
G2 X77.175 Y64.85 I-1.085 J-40.661
G1 Y0
G3 X77.81 Y-0.635 I0.635 J0
G1 X78.445
G18 G2 X79.08 Z-6.865 I0 K0.635
G1 Z5
X-5.08 Y64.202
Z-4.03 F333.3
Z-7.215
G2 X-4.445 Z-7.85 I0.635 K0 F150
G1 X-3.81
G17 G3 X-3.175 Y64.837 I0 J0.635
G2 X37.5 Y105.512 I40.675 J0
G1 X37.585 Y105.511
G2 X77.175 Y64.85 I-1.085 J-40.661
G1 Y0
G3 X77.81 Y-0.635 I0.635 J0
G1 X78.445
G18 G2 X79.08 Z-7.215 I0 K0.635
G1 Z15
G17

M9
M5
M30
