(cartarm_base_plate)
(Machine)
(  vendor: Autodesk)
(  model: Generic 3-axis)
(  description: This machine has XY axis on the Table and Z axis on the Head)
(T1 D=4.76 CR=0 - ZMIN=-7.55 - flat end mill)
G90 G94
G17
G21
(-Attention- Property Safe Retracts is set to Clearance Height.)
(Ensure the clearance height will clear the part and or fixtures.)
(Raise the Z-axis to a safe height before starting the program.)

(Drill3)
T1
S18000 M3
G17 G90 G94
G54
M8
G0 X253.2 Y52.4
Z15
G0 Z5
Z4
Z1
G1 Z-1.3 F50
G0 Z4
Z0.7
G1 Z-1.6 F50
G0 Z4
Z0.4
G1 Z-1.9 F50
G0 Z4
Z0.1
G1 Z-2.2 F50
G0 Z4
Z-0.2
G1 Z-2.5 F50
G0 Z4
Z-0.5
G1 Z-2.8 F50
G0 Z4
Z-0.8
G1 Z-3.1 F50
G0 Z4
Z-1.1
G1 Z-3.4 F50
G0 Z4
Z-1.4
G1 Z-3.7 F50
G0 Z4
Z-1.7
G1 Z-4 F50
G0 Z4
Z-2
G1 Z-4.3 F50
G0 Z4
Z-2.3
G1 Z-4.6 F50
G0 Z4
Z-2.6
G1 Z-4.9 F50
G0 Z4
Z-2.9
G1 Z-5.2 F50
G0 Z4
Z-3.2
G1 Z-5.5 F50
G0 Z4
Z-3.5
G1 Z-5.8 F50
G0 Z4
Z-3.8
G1 Z-6.1 F50
G0 Z4
Z-4.1
G1 Z-6.4 F50
G0 Z4
Z-4.4
G1 Z-6.7 F50
G0 Z4
Z-4.7
G1 Z-7 F50
G0 Z4
Z-5
G1 Z-7.3 F50
G0 Z4
Z-5.3
G1 Z-7.55 F50
G0 Z5
X203.2
Z4
Z1
G1 Z-1.3 F50
G0 Z4
Z0.7
G1 Z-1.6 F50
G0 Z4
Z0.4
G1 Z-1.9 F50
G0 Z4
Z0.1
G1 Z-2.2 F50
G0 Z4
Z-0.2
G1 Z-2.5 F50
G0 Z4
Z-0.5
G1 Z-2.8 F50
G0 Z4
Z-0.8
G1 Z-3.1 F50
G0 Z4
Z-1.1
G1 Z-3.4 F50
G0 Z4
Z-1.4
G1 Z-3.7 F50
G0 Z4
Z-1.7
G1 Z-4 F50
G0 Z4
Z-2
G1 Z-4.3 F50
G0 Z4
Z-2.3
G1 Z-4.6 F50
G0 Z4
Z-2.6
G1 Z-4.9 F50
G0 Z4
Z-2.9
G1 Z-5.2 F50
G0 Z4
Z-3.2
G1 Z-5.5 F50
G0 Z4
Z-3.5
G1 Z-5.8 F50
G0 Z4
Z-3.8
G1 Z-6.1 F50
G0 Z4
Z-4.1
G1 Z-6.4 F50
G0 Z4
Z-4.4
G1 Z-6.7 F50
G0 Z4
Z-4.7
G1 Z-7 F50
G0 Z4
Z-5
G1 Z-7.3 F50
G0 Z4
Z-5.3
G1 Z-7.55 F50
G0 Z5
X153.2
Z4
Z1
G1 Z-1.3 F50
G0 Z4
Z0.7
G1 Z-1.6 F50
G0 Z4
Z0.4
G1 Z-1.9 F50
G0 Z4
Z0.1
G1 Z-2.2 F50
G0 Z4
Z-0.2
G1 Z-2.5 F50
G0 Z4
Z-0.5
G1 Z-2.8 F50
G0 Z4
Z-0.8
G1 Z-3.1 F50
G0 Z4
Z-1.1
G1 Z-3.4 F50
G0 Z4
Z-1.4
G1 Z-3.7 F50
G0 Z4
Z-1.7
G1 Z-4 F50
G0 Z4
Z-2
G1 Z-4.3 F50
G0 Z4
Z-2.3
G1 Z-4.6 F50
G0 Z4
Z-2.6
G1 Z-4.9 F50
G0 Z4
Z-2.9
G1 Z-5.2 F50
G0 Z4
Z-3.2
G1 Z-5.5 F50
G0 Z4
Z-3.5
G1 Z-5.8 F50
G0 Z4
Z-3.8
G1 Z-6.1 F50
G0 Z4
Z-4.1
G1 Z-6.4 F50
G0 Z4
Z-4.4
G1 Z-6.7 F50
G0 Z4
Z-4.7
G1 Z-7 F50
G0 Z4
Z-5
G1 Z-7.3 F50
G0 Z4
Z-5.3
G1 Z-7.55 F50
G0 Z5
X103.2
Z4
Z1
G1 Z-1.3 F50
G0 Z4
Z0.7
G1 Z-1.6 F50
G0 Z4
Z0.4
G1 Z-1.9 F50
G0 Z4
Z0.1
G1 Z-2.2 F50
G0 Z4
Z-0.2
G1 Z-2.5 F50
G0 Z4
Z-0.5
G1 Z-2.8 F50
G0 Z4
Z-0.8
G1 Z-3.1 F50
G0 Z4
Z-1.1
G1 Z-3.4 F50
G0 Z4
Z-1.4
G1 Z-3.7 F50
G0 Z4
Z-1.7
G1 Z-4 F50
G0 Z4
Z-2
G1 Z-4.3 F50
G0 Z4
Z-2.3
G1 Z-4.6 F50
G0 Z4
Z-2.6
G1 Z-4.9 F50
G0 Z4
Z-2.9
G1 Z-5.2 F50
G0 Z4
Z-3.2
G1 Z-5.5 F50
G0 Z4
Z-3.5
G1 Z-5.8 F50
G0 Z4
Z-3.8
G1 Z-6.1 F50
G0 Z4
Z-4.1
G1 Z-6.4 F50
G0 Z4
Z-4.4
G1 Z-6.7 F50
G0 Z4
Z-4.7
G1 Z-7 F50
G0 Z4
Z-5
G1 Z-7.3 F50
G0 Z4
Z-5.3
G1 Z-7.55 F50
G0 Z5
X53.2
Z4
Z1
G1 Z-1.3 F50
G0 Z4
Z0.7
G1 Z-1.6 F50
G0 Z4
Z0.4
G1 Z-1.9 F50
G0 Z4
Z0.1
G1 Z-2.2 F50
G0 Z4
Z-0.2
G1 Z-2.5 F50
G0 Z4
Z-0.5
G1 Z-2.8 F50
G0 Z4
Z-0.8
G1 Z-3.1 F50
G0 Z4
Z-1.1
G1 Z-3.4 F50
G0 Z4
Z-1.4
G1 Z-3.7 F50
G0 Z4
Z-1.7
G1 Z-4 F50
G0 Z4
Z-2
G1 Z-4.3 F50
G0 Z4
Z-2.3
G1 Z-4.6 F50
G0 Z4
Z-2.6
G1 Z-4.9 F50
G0 Z4
Z-2.9
G1 Z-5.2 F50
G0 Z4
Z-3.2
G1 Z-5.5 F50
G0 Z4
Z-3.5
G1 Z-5.8 F50
G0 Z4
Z-3.8
G1 Z-6.1 F50
G0 Z4
Z-4.1
G1 Z-6.4 F50
G0 Z4
Z-4.4
G1 Z-6.7 F50
G0 Z4
Z-4.7
G1 Z-7 F50
G0 Z4
Z-5
G1 Z-7.3 F50
G0 Z4
Z-5.3
G1 Z-7.55 F50
G0 Z5
Y252.4
Z4
Z1
G1 Z-1.3 F50
G0 Z4
Z0.7
G1 Z-1.6 F50
G0 Z4
Z0.4
G1 Z-1.9 F50
G0 Z4
Z0.1
G1 Z-2.2 F50
G0 Z4
Z-0.2
G1 Z-2.5 F50
G0 Z4
Z-0.5
G1 Z-2.8 F50
G0 Z4
Z-0.8
G1 Z-3.1 F50
G0 Z4
Z-1.1
G1 Z-3.4 F50
G0 Z4
Z-1.4
G1 Z-3.7 F50
G0 Z4
Z-1.7
G1 Z-4 F50
G0 Z4
Z-2
G1 Z-4.3 F50
G0 Z4
Z-2.3
G1 Z-4.6 F50
G0 Z4
Z-2.6
G1 Z-4.9 F50
G0 Z4
Z-2.9
G1 Z-5.2 F50
G0 Z4
Z-3.2
G1 Z-5.5 F50
G0 Z4
Z-3.5
G1 Z-5.8 F50
G0 Z4
Z-3.8
G1 Z-6.1 F50
G0 Z4
Z-4.1
G1 Z-6.4 F50
G0 Z4
Z-4.4
G1 Z-6.7 F50
G0 Z4
Z-4.7
G1 Z-7 F50
G0 Z4
Z-5
G1 Z-7.3 F50
G0 Z4
Z-5.3
G1 Z-7.55 F50
G0 Z5
X103.2
Z4
Z1
G1 Z-1.3 F50
G0 Z4
Z0.7
G1 Z-1.6 F50
G0 Z4
Z0.4
G1 Z-1.9 F50
G0 Z4
Z0.1
G1 Z-2.2 F50
G0 Z4
Z-0.2
G1 Z-2.5 F50
G0 Z4
Z-0.5
G1 Z-2.8 F50
G0 Z4
Z-0.8
G1 Z-3.1 F50
G0 Z4
Z-1.1
G1 Z-3.4 F50
G0 Z4
Z-1.4
G1 Z-3.7 F50
G0 Z4
Z-1.7
G1 Z-4 F50
G0 Z4
Z-2
G1 Z-4.3 F50
G0 Z4
Z-2.3
G1 Z-4.6 F50
G0 Z4
Z-2.6
G1 Z-4.9 F50
G0 Z4
Z-2.9
G1 Z-5.2 F50
G0 Z4
Z-3.2
G1 Z-5.5 F50
G0 Z4
Z-3.5
G1 Z-5.8 F50
G0 Z4
Z-3.8
G1 Z-6.1 F50
G0 Z4
Z-4.1
G1 Z-6.4 F50
G0 Z4
Z-4.4
G1 Z-6.7 F50
G0 Z4
Z-4.7
G1 Z-7 F50
G0 Z4
Z-5
G1 Z-7.3 F50
G0 Z4
Z-5.3
G1 Z-7.55 F50
G0 Z5
X153.2
Z4
Z1
G1 Z-1.3 F50
G0 Z4
Z0.7
G1 Z-1.6 F50
G0 Z4
Z0.4
G1 Z-1.9 F50
G0 Z4
Z0.1
G1 Z-2.2 F50
G0 Z4
Z-0.2
G1 Z-2.5 F50
G0 Z4
Z-0.5
G1 Z-2.8 F50
G0 Z4
Z-0.8
G1 Z-3.1 F50
G0 Z4
Z-1.1
G1 Z-3.4 F50
G0 Z4
Z-1.4
G1 Z-3.7 F50
G0 Z4
Z-1.7
G1 Z-4 F50
G0 Z4
Z-2
G1 Z-4.3 F50
G0 Z4
Z-2.3
G1 Z-4.6 F50
G0 Z4
Z-2.6
G1 Z-4.9 F50
G0 Z4
Z-2.9
G1 Z-5.2 F50
G0 Z4
Z-3.2
G1 Z-5.5 F50
G0 Z4
Z-3.5
G1 Z-5.8 F50
G0 Z4
Z-3.8
G1 Z-6.1 F50
G0 Z4
Z-4.1
G1 Z-6.4 F50
G0 Z4
Z-4.4
G1 Z-6.7 F50
G0 Z4
Z-4.7
G1 Z-7 F50
G0 Z4
Z-5
G1 Z-7.3 F50
G0 Z4
Z-5.3
G1 Z-7.55 F50
G0 Z5
X203.2
Z4
Z1
G1 Z-1.3 F50
G0 Z4
Z0.7
G1 Z-1.6 F50
G0 Z4
Z0.4
G1 Z-1.9 F50
G0 Z4
Z0.1
G1 Z-2.2 F50
G0 Z4
Z-0.2
G1 Z-2.5 F50
G0 Z4
Z-0.5
G1 Z-2.8 F50
G0 Z4
Z-0.8
G1 Z-3.1 F50
G0 Z4
Z-1.1
G1 Z-3.4 F50
G0 Z4
Z-1.4
G1 Z-3.7 F50
G0 Z4
Z-1.7
G1 Z-4 F50
G0 Z4
Z-2
G1 Z-4.3 F50
G0 Z4
Z-2.3
G1 Z-4.6 F50
G0 Z4
Z-2.6
G1 Z-4.9 F50
G0 Z4
Z-2.9
G1 Z-5.2 F50
G0 Z4
Z-3.2
G1 Z-5.5 F50
G0 Z4
Z-3.5
G1 Z-5.8 F50
G0 Z4
Z-3.8
G1 Z-6.1 F50
G0 Z4
Z-4.1
G1 Z-6.4 F50
G0 Z4
Z-4.4
G1 Z-6.7 F50
G0 Z4
Z-4.7
G1 Z-7 F50
G0 Z4
Z-5
G1 Z-7.3 F50
G0 Z4
Z-5.3
G1 Z-7.55 F50
G0 Z5
X253.2
Z4
Z1
G1 Z-1.3 F50
G0 Z4
Z0.7
G1 Z-1.6 F50
G0 Z4
Z0.4
G1 Z-1.9 F50
G0 Z4
Z0.1
G1 Z-2.2 F50
G0 Z4
Z-0.2
G1 Z-2.5 F50
G0 Z4
Z-0.5
G1 Z-2.8 F50
G0 Z4
Z-0.8
G1 Z-3.1 F50
G0 Z4
Z-1.1
G1 Z-3.4 F50
G0 Z4
Z-1.4
G1 Z-3.7 F50
G0 Z4
Z-1.7
G1 Z-4 F50
G0 Z4
Z-2
G1 Z-4.3 F50
G0 Z4
Z-2.3
G1 Z-4.6 F50
G0 Z4
Z-2.6
G1 Z-4.9 F50
G0 Z4
Z-2.9
G1 Z-5.2 F50
G0 Z4
Z-3.2
G1 Z-5.5 F50
G0 Z4
Z-3.5
G1 Z-5.8 F50
G0 Z4
Z-3.8
G1 Z-6.1 F50
G0 Z4
Z-4.1
G1 Z-6.4 F50
G0 Z4
Z-4.4
G1 Z-6.7 F50
G0 Z4
Z-4.7
G1 Z-7 F50
G0 Z4
Z-5
G1 Z-7.3 F50
G0 Z4
Z-5.3
G1 Z-7.55 F50
G0 Z5
Z15
(When using Fusion for Personal Use, the feedrate of rapid)
(moves is reduced to match the feedrate of cutting moves,)
(which can increase machining time. Unrestricted rapid moves)
(are available with a Fusion Subscription.)

(countersink)
G0 X153.392 Y51.924
G1 Z15 F150
Z5
Z0.952 F50
Z0.176
G18 G2 X153.868 Z-0.3 I0.476 K0 F150
G1 X154.344
G17 G3 X154.82 Y52.4 I0 J0.476
X151.58 Y52.4 I-1.62 J0
X154.82 Y52.4 I1.62 J0
X154.344 Y52.876 I-0.476 J0
G1 X153.868
G18 G3 X153.392 Z0.176 I0 K0.476
G1 Z5
Y51.924
Z0.652 F50
Z-0.124
G2 X153.868 Z-0.6 I0.476 K0 F150
G1 X154.344
G17 G3 X154.82 Y52.4 I0 J0.476
X151.58 Y52.4 I-1.62 J0
X154.82 Y52.4 I1.62 J0
X154.344 Y52.876 I-0.476 J0
G1 X153.868
G18 G3 X153.392 Z-0.124 I0 K0.476
G1 Z5
Y51.924
Z0.352 F50
Z-0.424
G2 X153.868 Z-0.9 I0.476 K0 F150
G1 X154.344
G17 G3 X154.82 Y52.4 I0 J0.476
X151.58 Y52.4 I-1.62 J0
X154.82 Y52.4 I1.62 J0
X154.344 Y52.876 I-0.476 J0
G1 X153.868
G18 G3 X153.392 Z-0.424 I0 K0.476
G1 Z5
Y51.924
Z0.052 F50
Z-0.724
G2 X153.868 Z-1.2 I0.476 K0 F150
G1 X154.344
G17 G3 X154.82 Y52.4 I0 J0.476
X151.58 Y52.4 I-1.62 J0
X154.82 Y52.4 I1.62 J0
X154.344 Y52.876 I-0.476 J0
G1 X153.868
G18 G3 X153.392 Z-0.724 I0 K0.476
G1 Z5
Y51.924
Z-0.248 F50
Z-1.024
G2 X153.868 Z-1.5 I0.476 K0 F150
G1 X154.344
G17 G3 X154.82 Y52.4 I0 J0.476
X151.58 Y52.4 I-1.62 J0
X154.82 Y52.4 I1.62 J0
X154.344 Y52.876 I-0.476 J0
G1 X153.868
G18 G3 X153.392 Z-1.024 I0 K0.476
G1 Z5
Y51.924
Z-0.548 F50
Z-1.324
G2 X153.868 Z-1.8 I0.476 K0 F150
G1 X154.344
G17 G3 X154.82 Y52.4 I0 J0.476
X151.58 Y52.4 I-1.62 J0
X154.82 Y52.4 I1.62 J0
X154.344 Y52.876 I-0.476 J0
G1 X153.868
G18 G3 X153.392 Z-1.324 I0 K0.476
G1 Z5
Y51.924
Z-0.848 F50
Z-1.624
G2 X153.868 Z-2.1 I0.476 K0 F150
G1 X154.344
G17 G3 X154.82 Y52.4 I0 J0.476
X151.58 Y52.4 I-1.62 J0
X154.82 Y52.4 I1.62 J0
X154.344 Y52.876 I-0.476 J0
G1 X153.868
G18 G3 X153.392 Z-1.624 I0 K0.476
G1 Z5
Y51.924
Z-1.148 F50
Z-1.924
G2 X153.868 Z-2.4 I0.476 K0 F150
G1 X154.344
G17 G3 X154.82 Y52.4 I0 J0.476
X151.58 Y52.4 I-1.62 J0
X154.82 Y52.4 I1.62 J0
X154.344 Y52.876 I-0.476 J0
G1 X153.868
G18 G3 X153.392 Z-1.924 I0 K0.476
G1 Z5
Y51.924
Z-1.448 F50
Z-2.224
G2 X153.868 Z-2.7 I0.476 K0 F150
G1 X154.344
G17 G3 X154.82 Y52.4 I0 J0.476
X151.58 Y52.4 I-1.62 J0
X154.82 Y52.4 I1.62 J0
X154.344 Y52.876 I-0.476 J0
G1 X153.868
G18 G3 X153.392 Z-2.224 I0 K0.476
G1 Z5
Y51.924
Z-1.748 F50
Z-2.524
G2 X153.868 Z-3 I0.476 K0 F150
G1 X154.344
G17 G3 X154.82 Y52.4 I0 J0.476
X151.58 Y52.4 I-1.62 J0
X154.82 Y52.4 I1.62 J0
X154.344 Y52.876 I-0.476 J0
G1 X153.868
G18 G3 X153.392 Z-2.524 I0 K0.476
G1 Z5
Y51.924
Z-2.048 F50
Z-2.824
G2 X153.868 Z-3.3 I0.476 K0 F150
G1 X154.344
G17 G3 X154.82 Y52.4 I0 J0.476
X151.58 Y52.4 I-1.62 J0
X154.82 Y52.4 I1.62 J0
X154.344 Y52.876 I-0.476 J0
G1 X153.868
G18 G3 X153.392 Z-2.824 I0 K0.476
G1 Z5
Y51.924
Z-2.348 F50
Z-3.124
G2 X153.868 Z-3.6 I0.476 K0 F150
G1 X154.344
G17 G3 X154.82 Y52.4 I0 J0.476
X151.58 Y52.4 I-1.62 J0
X154.82 Y52.4 I1.62 J0
X154.344 Y52.876 I-0.476 J0
G1 X153.868
G18 G3 X153.392 Z-3.124 I0 K0.476
G1 Z5
Y51.924
Z-2.648 F50
Z-3.424
G2 X153.868 Z-3.9 I0.476 K0 F150
G1 X154.344
G17 G3 X154.82 Y52.4 I0 J0.476
X151.58 Y52.4 I-1.62 J0
X154.82 Y52.4 I1.62 J0
X154.344 Y52.876 I-0.476 J0
G1 X153.868
G18 G3 X153.392 Z-3.424 I0 K0.476
G1 Z5
Y51.924
Z-2.948 F50
Z-3.724
G2 X153.868 Z-4.2 I0.476 K0 F150
G1 X154.344
G17 G3 X154.82 Y52.4 I0 J0.476
X151.58 Y52.4 I-1.62 J0
X154.82 Y52.4 I1.62 J0
X154.344 Y52.876 I-0.476 J0
G1 X153.868
G18 G3 X153.392 Z-3.724 I0 K0.476
G1 Z5
Y51.924
Z-3.248 F50
Z-4.024
G2 X153.868 Z-4.5 I0.476 K0 F150
G1 X154.344
G17 G3 X154.82 Y52.4 I0 J0.476
X151.58 Y52.4 I-1.62 J0
X154.82 Y52.4 I1.62 J0
X154.344 Y52.876 I-0.476 J0
G1 X153.868
G18 G3 X153.392 Z-4.024 I0 K0.476
G1 Z5
Y51.924
Z-3.548 F50
Z-4.324
G2 X153.868 Z-4.8 I0.476 K0 F150
G1 X154.344
G17 G3 X154.82 Y52.4 I0 J0.476
X151.58 Y52.4 I-1.62 J0
X154.82 Y52.4 I1.62 J0
X154.344 Y52.876 I-0.476 J0
G1 X153.868
G18 G3 X153.392 Z-4.324 I0 K0.476
G1 Z5
Y51.924
Z-3.848 F50
Z-4.524
G2 X153.868 Z-5 I0.476 K0 F150
G1 X154.344
G17 G3 X154.82 Y52.4 I0 J0.476
X151.58 Y52.4 I-1.62 J0
X154.82 Y52.4 I1.62 J0
X154.344 Y52.876 I-0.476 J0
G1 X153.868
G18 G3 X153.392 Z-4.524 I0 K0.476
G1 Z5
X203.392 Y51.924
Z0.952 F50
Z0.176
G2 X203.868 Z-0.3 I0.476 K0 F150
G1 X204.344
G17 G3 X204.82 Y52.4 I0 J0.476
X201.58 Y52.4 I-1.62 J0
X204.82 Y52.4 I1.62 J0
X204.344 Y52.876 I-0.476 J0
G1 X203.868
G18 G3 X203.392 Z0.176 I0 K0.476
G1 Z5
Y51.924
Z0.652 F50
Z-0.124
G2 X203.868 Z-0.6 I0.476 K0 F150
G1 X204.344
G17 G3 X204.82 Y52.4 I0 J0.476
X201.58 Y52.4 I-1.62 J0
X204.82 Y52.4 I1.62 J0
X204.344 Y52.876 I-0.476 J0
G1 X203.868
G18 G3 X203.392 Z-0.124 I0 K0.476
G1 Z5
Y51.924
Z0.352 F50
Z-0.424
G2 X203.868 Z-0.9 I0.476 K0 F150
G1 X204.344
G17 G3 X204.82 Y52.4 I0 J0.476
X201.58 Y52.4 I-1.62 J0
X204.82 Y52.4 I1.62 J0
X204.344 Y52.876 I-0.476 J0
G1 X203.868
G18 G3 X203.392 Z-0.424 I0 K0.476
G1 Z5
Y51.924
Z0.052 F50
Z-0.724
G2 X203.868 Z-1.2 I0.476 K0 F150
G1 X204.344
G17 G3 X204.82 Y52.4 I0 J0.476
X201.58 Y52.4 I-1.62 J0
X204.82 Y52.4 I1.62 J0
X204.344 Y52.876 I-0.476 J0
G1 X203.868
G18 G3 X203.392 Z-0.724 I0 K0.476
G1 Z5
Y51.924
Z-0.248 F50
Z-1.024
G2 X203.868 Z-1.5 I0.476 K0 F150
G1 X204.344
G17 G3 X204.82 Y52.4 I0 J0.476
X201.58 Y52.4 I-1.62 J0
X204.82 Y52.4 I1.62 J0
X204.344 Y52.876 I-0.476 J0
G1 X203.868
G18 G3 X203.392 Z-1.024 I0 K0.476
G1 Z5
Y51.924
Z-0.548 F50
Z-1.324
G2 X203.868 Z-1.8 I0.476 K0 F150
G1 X204.344
G17 G3 X204.82 Y52.4 I0 J0.476
X201.58 Y52.4 I-1.62 J0
X204.82 Y52.4 I1.62 J0
X204.344 Y52.876 I-0.476 J0
G1 X203.868
G18 G3 X203.392 Z-1.324 I0 K0.476
G1 Z5
Y51.924
Z-0.848 F50
Z-1.624
G2 X203.868 Z-2.1 I0.476 K0 F150
G1 X204.344
G17 G3 X204.82 Y52.4 I0 J0.476
X201.58 Y52.4 I-1.62 J0
X204.82 Y52.4 I1.62 J0
X204.344 Y52.876 I-0.476 J0
G1 X203.868
G18 G3 X203.392 Z-1.624 I0 K0.476
G1 Z5
Y51.924
Z-1.148 F50
Z-1.924
G2 X203.868 Z-2.4 I0.476 K0 F150
G1 X204.344
G17 G3 X204.82 Y52.4 I0 J0.476
X201.58 Y52.4 I-1.62 J0
X204.82 Y52.4 I1.62 J0
X204.344 Y52.876 I-0.476 J0
G1 X203.868
G18 G3 X203.392 Z-1.924 I0 K0.476
G1 Z5
Y51.924
Z-1.448 F50
Z-2.224
G2 X203.868 Z-2.7 I0.476 K0 F150
G1 X204.344
G17 G3 X204.82 Y52.4 I0 J0.476
X201.58 Y52.4 I-1.62 J0
X204.82 Y52.4 I1.62 J0
X204.344 Y52.876 I-0.476 J0
G1 X203.868
G18 G3 X203.392 Z-2.224 I0 K0.476
G1 Z5
Y51.924
Z-1.748 F50
Z-2.524
G2 X203.868 Z-3 I0.476 K0 F150
G1 X204.344
G17 G3 X204.82 Y52.4 I0 J0.476
X201.58 Y52.4 I-1.62 J0
X204.82 Y52.4 I1.62 J0
X204.344 Y52.876 I-0.476 J0
G1 X203.868
G18 G3 X203.392 Z-2.524 I0 K0.476
G1 Z5
Y51.924
Z-2.048 F50
Z-2.824
G2 X203.868 Z-3.3 I0.476 K0 F150
G1 X204.344
G17 G3 X204.82 Y52.4 I0 J0.476
X201.58 Y52.4 I-1.62 J0
X204.82 Y52.4 I1.62 J0
X204.344 Y52.876 I-0.476 J0
G1 X203.868
G18 G3 X203.392 Z-2.824 I0 K0.476
G1 Z5
Y51.924
Z-2.348 F50
Z-3.124
G2 X203.868 Z-3.6 I0.476 K0 F150
G1 X204.344
G17 G3 X204.82 Y52.4 I0 J0.476
X201.58 Y52.4 I-1.62 J0
X204.82 Y52.4 I1.62 J0
X204.344 Y52.876 I-0.476 J0
G1 X203.868
G18 G3 X203.392 Z-3.124 I0 K0.476
G1 Z5
Y51.924
Z-2.648 F50
Z-3.424
G2 X203.868 Z-3.9 I0.476 K0 F150
G1 X204.344
G17 G3 X204.82 Y52.4 I0 J0.476
X201.58 Y52.4 I-1.62 J0
X204.82 Y52.4 I1.62 J0
X204.344 Y52.876 I-0.476 J0
G1 X203.868
G18 G3 X203.392 Z-3.424 I0 K0.476
G1 Z5
Y51.924
Z-2.948 F50
Z-3.724
G2 X203.868 Z-4.2 I0.476 K0 F150
G1 X204.344
G17 G3 X204.82 Y52.4 I0 J0.476
X201.58 Y52.4 I-1.62 J0
X204.82 Y52.4 I1.62 J0
X204.344 Y52.876 I-0.476 J0
G1 X203.868
G18 G3 X203.392 Z-3.724 I0 K0.476
G1 Z5
Y51.924
Z-3.248 F50
Z-4.024
G2 X203.868 Z-4.5 I0.476 K0 F150
G1 X204.344
G17 G3 X204.82 Y52.4 I0 J0.476
X201.58 Y52.4 I-1.62 J0
X204.82 Y52.4 I1.62 J0
X204.344 Y52.876 I-0.476 J0
G1 X203.868
G18 G3 X203.392 Z-4.024 I0 K0.476
G1 Z5
Y51.924
Z-3.548 F50
Z-4.324
G2 X203.868 Z-4.8 I0.476 K0 F150
G1 X204.344
G17 G3 X204.82 Y52.4 I0 J0.476
X201.58 Y52.4 I-1.62 J0
X204.82 Y52.4 I1.62 J0
X204.344 Y52.876 I-0.476 J0
G1 X203.868
G18 G3 X203.392 Z-4.324 I0 K0.476
G1 Z5
Y51.924
Z-3.848 F50
Z-4.524
G2 X203.868 Z-5 I0.476 K0 F150
G1 X204.344
G17 G3 X204.82 Y52.4 I0 J0.476
X201.58 Y52.4 I-1.62 J0
X204.82 Y52.4 I1.62 J0
X204.344 Y52.876 I-0.476 J0
G1 X203.868
G18 G3 X203.392 Z-4.524 I0 K0.476
G1 Z5
X253.509 Y51.99
Z0.952 F50
Z0.176
X253.516 Y51.992 Z0.093 F150
X253.536 Y51.997 Z0.013
X253.57 Y52.006 Z-0.062
X253.616 Y52.019 Z-0.13
X253.673 Y52.034 Z-0.189
X253.739 Y52.052 Z-0.236
X253.811 Y52.071 Z-0.271
X253.889 Y52.092 Z-0.293
X253.968 Y52.113 Z-0.3
X254.428 Y52.236
G17 G3 X254.765 Y52.819 I-0.123 J0.46
X251.635 Y51.981 I-1.565 J-0.419
X254.765 Y52.819 I1.565 J0.419
X254.182 Y53.156 I-0.46 J-0.123
G1 X253.722 Y53.033
X253.642 Y53.011 Z-0.293
X253.565 Y52.991 Z-0.271
X253.492 Y52.971 Z-0.236
X253.427 Y52.953 Z-0.189
X253.37 Y52.938 Z-0.13
X253.324 Y52.926 Z-0.062
X253.29 Y52.917 Z0.013
X253.269 Y52.911 Z0.093
X253.262 Y52.909 Z0.176
Z5
X253.509 Y51.99
Z0.652 F50
Z-0.124
X253.516 Y51.992 Z-0.207 F150
X253.536 Y51.997 Z-0.287
X253.57 Y52.006 Z-0.362
X253.616 Y52.019 Z-0.43
X253.673 Y52.034 Z-0.489
X253.739 Y52.052 Z-0.536
X253.811 Y52.071 Z-0.571
X253.889 Y52.092 Z-0.593
X253.968 Y52.113 Z-0.6
X254.428 Y52.236
G3 X254.765 Y52.819 I-0.123 J0.46
X251.635 Y51.981 I-1.565 J-0.419
X254.765 Y52.819 I1.565 J0.419
X254.182 Y53.156 I-0.46 J-0.123
G1 X253.722 Y53.033
X253.642 Y53.011 Z-0.593
X253.565 Y52.991 Z-0.571
X253.492 Y52.971 Z-0.536
X253.427 Y52.953 Z-0.489
X253.37 Y52.938 Z-0.43
X253.324 Y52.926 Z-0.362
X253.29 Y52.917 Z-0.287
X253.269 Y52.911 Z-0.207
X253.262 Y52.909 Z-0.124
Z5
X253.509 Y51.99
Z0.352 F50
Z-0.424
X253.516 Y51.992 Z-0.507 F150
X253.536 Y51.997 Z-0.587
X253.57 Y52.006 Z-0.662
X253.616 Y52.019 Z-0.73
X253.673 Y52.034 Z-0.789
X253.739 Y52.052 Z-0.836
X253.811 Y52.071 Z-0.871
X253.889 Y52.092 Z-0.893
X253.968 Y52.113 Z-0.9
X254.428 Y52.236
G3 X254.765 Y52.819 I-0.123 J0.46
X251.635 Y51.981 I-1.565 J-0.419
X254.765 Y52.819 I1.565 J0.419
X254.182 Y53.156 I-0.46 J-0.123
G1 X253.722 Y53.033
X253.642 Y53.011 Z-0.893
X253.565 Y52.991 Z-0.871
X253.492 Y52.971 Z-0.836
X253.427 Y52.953 Z-0.789
X253.37 Y52.938 Z-0.73
X253.324 Y52.926 Z-0.662
X253.29 Y52.917 Z-0.587
X253.269 Y52.911 Z-0.507
X253.262 Y52.909 Z-0.424
Z5
X253.509 Y51.99
Z0.052 F50
Z-0.724
X253.516 Y51.992 Z-0.807 F150
X253.536 Y51.997 Z-0.887
X253.57 Y52.006 Z-0.962
X253.616 Y52.019 Z-1.03
X253.673 Y52.034 Z-1.089
X253.739 Y52.052 Z-1.136
X253.811 Y52.071 Z-1.171
X253.889 Y52.092 Z-1.193
X253.968 Y52.113 Z-1.2
X254.428 Y52.236
G3 X254.765 Y52.819 I-0.123 J0.46
X251.635 Y51.981 I-1.565 J-0.419
X254.765 Y52.819 I1.565 J0.419
X254.182 Y53.156 I-0.46 J-0.123
G1 X253.722 Y53.033
X253.642 Y53.011 Z-1.193
X253.565 Y52.991 Z-1.171
X253.492 Y52.971 Z-1.136
X253.427 Y52.953 Z-1.089
X253.37 Y52.938 Z-1.03
X253.324 Y52.926 Z-0.962
X253.29 Y52.917 Z-0.887
X253.269 Y52.911 Z-0.807
X253.262 Y52.909 Z-0.724
Z5
X253.509 Y51.99
Z-0.248 F50
Z-1.024
X253.516 Y51.992 Z-1.107 F150
X253.536 Y51.997 Z-1.187
X253.57 Y52.006 Z-1.262
X253.616 Y52.019 Z-1.33
X253.673 Y52.034 Z-1.389
X253.739 Y52.052 Z-1.436
X253.811 Y52.071 Z-1.471
X253.889 Y52.092 Z-1.493
X253.968 Y52.113 Z-1.5
X254.428 Y52.236
G3 X254.765 Y52.819 I-0.123 J0.46
X251.635 Y51.981 I-1.565 J-0.419
X254.765 Y52.819 I1.565 J0.419
X254.182 Y53.156 I-0.46 J-0.123
G1 X253.722 Y53.033
X253.642 Y53.011 Z-1.493
X253.565 Y52.991 Z-1.471
X253.492 Y52.971 Z-1.436
X253.427 Y52.953 Z-1.389
X253.37 Y52.938 Z-1.33
X253.324 Y52.926 Z-1.262
X253.29 Y52.917 Z-1.187
X253.269 Y52.911 Z-1.107
X253.262 Y52.909 Z-1.024
Z5
X253.509 Y51.99
Z-0.548 F50
Z-1.324
X253.516 Y51.992 Z-1.407 F150
X253.536 Y51.997 Z-1.487
X253.57 Y52.006 Z-1.562
X253.616 Y52.019 Z-1.63
X253.673 Y52.034 Z-1.689
X253.739 Y52.052 Z-1.736
X253.811 Y52.071 Z-1.771
X253.889 Y52.092 Z-1.793
X253.968 Y52.113 Z-1.8
X254.428 Y52.236
G3 X254.765 Y52.819 I-0.123 J0.46
X251.635 Y51.981 I-1.565 J-0.419
X254.765 Y52.819 I1.565 J0.419
X254.182 Y53.156 I-0.46 J-0.123
G1 X253.722 Y53.033
X253.642 Y53.011 Z-1.793
X253.565 Y52.991 Z-1.771
X253.492 Y52.971 Z-1.736
X253.427 Y52.953 Z-1.689
X253.37 Y52.938 Z-1.63
X253.324 Y52.926 Z-1.562
X253.29 Y52.917 Z-1.487
X253.269 Y52.911 Z-1.407
X253.262 Y52.909 Z-1.324
Z5
X253.509 Y51.99
Z-0.848 F50
Z-1.624
X253.516 Y51.992 Z-1.707 F150
X253.536 Y51.997 Z-1.787
X253.57 Y52.006 Z-1.862
X253.616 Y52.019 Z-1.93
X253.673 Y52.034 Z-1.989
X253.739 Y52.052 Z-2.036
X253.811 Y52.071 Z-2.071
X253.889 Y52.092 Z-2.093
X253.968 Y52.113 Z-2.1
X254.428 Y52.236
G3 X254.765 Y52.819 I-0.123 J0.46
X251.635 Y51.981 I-1.565 J-0.419
X254.765 Y52.819 I1.565 J0.419
X254.182 Y53.156 I-0.46 J-0.123
G1 X253.722 Y53.033
X253.642 Y53.011 Z-2.093
X253.565 Y52.991 Z-2.071
X253.492 Y52.971 Z-2.036
X253.427 Y52.953 Z-1.989
X253.37 Y52.938 Z-1.93
X253.324 Y52.926 Z-1.862
X253.29 Y52.917 Z-1.787
X253.269 Y52.911 Z-1.707
X253.262 Y52.909 Z-1.624
Z5
X253.509 Y51.99
Z-1.148 F50
Z-1.924
X253.516 Y51.992 Z-2.007 F150
X253.536 Y51.997 Z-2.087
X253.57 Y52.006 Z-2.162
X253.616 Y52.019 Z-2.23
X253.673 Y52.034 Z-2.289
X253.739 Y52.052 Z-2.336
X253.811 Y52.071 Z-2.371
X253.889 Y52.092 Z-2.393
X253.968 Y52.113 Z-2.4
X254.428 Y52.236
G3 X254.765 Y52.819 I-0.123 J0.46
X251.635 Y51.981 I-1.565 J-0.419
X254.765 Y52.819 I1.565 J0.419
X254.182 Y53.156 I-0.46 J-0.123
G1 X253.722 Y53.033
X253.642 Y53.011 Z-2.393
X253.565 Y52.991 Z-2.371
X253.492 Y52.971 Z-2.336
X253.427 Y52.953 Z-2.289
X253.37 Y52.938 Z-2.23
X253.324 Y52.926 Z-2.162
X253.29 Y52.917 Z-2.087
X253.269 Y52.911 Z-2.007
X253.262 Y52.909 Z-1.924
Z5
X253.509 Y51.99
Z-1.448 F50
Z-2.224
X253.516 Y51.992 Z-2.307 F150
X253.536 Y51.997 Z-2.387
X253.57 Y52.006 Z-2.462
X253.616 Y52.019 Z-2.53
X253.673 Y52.034 Z-2.589
X253.739 Y52.052 Z-2.636
X253.811 Y52.071 Z-2.671
X253.889 Y52.092 Z-2.693
X253.968 Y52.113 Z-2.7
X254.428 Y52.236
G3 X254.765 Y52.819 I-0.123 J0.46
X251.635 Y51.981 I-1.565 J-0.419
X254.765 Y52.819 I1.565 J0.419
X254.182 Y53.156 I-0.46 J-0.123
G1 X253.722 Y53.033
X253.642 Y53.011 Z-2.693
X253.565 Y52.991 Z-2.671
X253.492 Y52.971 Z-2.636
X253.427 Y52.953 Z-2.589
X253.37 Y52.938 Z-2.53
X253.324 Y52.926 Z-2.462
X253.29 Y52.917 Z-2.387
X253.269 Y52.911 Z-2.307
X253.262 Y52.909 Z-2.224
Z5
X253.509 Y51.99
Z-1.748 F50
Z-2.524
X253.516 Y51.992 Z-2.607 F150
X253.536 Y51.997 Z-2.687
X253.57 Y52.006 Z-2.762
X253.616 Y52.019 Z-2.83
X253.673 Y52.034 Z-2.889
X253.739 Y52.052 Z-2.936
X253.811 Y52.071 Z-2.971
X253.889 Y52.092 Z-2.993
X253.968 Y52.113 Z-3
X254.428 Y52.236
G3 X254.765 Y52.819 I-0.123 J0.46
X251.635 Y51.981 I-1.565 J-0.419
X254.765 Y52.819 I1.565 J0.419
X254.182 Y53.156 I-0.46 J-0.123
G1 X253.722 Y53.033
X253.642 Y53.011 Z-2.993
X253.565 Y52.991 Z-2.971
X253.492 Y52.971 Z-2.936
X253.427 Y52.953 Z-2.889
X253.37 Y52.938 Z-2.83
X253.324 Y52.926 Z-2.762
X253.29 Y52.917 Z-2.687
X253.269 Y52.911 Z-2.607
X253.262 Y52.909 Z-2.524
Z5
X253.509 Y51.99
Z-2.048 F50
Z-2.824
X253.516 Y51.992 Z-2.907 F150
X253.536 Y51.997 Z-2.987
X253.57 Y52.006 Z-3.062
X253.616 Y52.019 Z-3.13
X253.673 Y52.034 Z-3.189
X253.739 Y52.052 Z-3.236
X253.811 Y52.071 Z-3.271
X253.889 Y52.092 Z-3.293
X253.968 Y52.113 Z-3.3
X254.428 Y52.236
G3 X254.765 Y52.819 I-0.123 J0.46
X251.635 Y51.981 I-1.565 J-0.419
X254.765 Y52.819 I1.565 J0.419
X254.182 Y53.156 I-0.46 J-0.123
G1 X253.722 Y53.033
X253.642 Y53.011 Z-3.293
X253.565 Y52.991 Z-3.271
X253.492 Y52.971 Z-3.236
X253.427 Y52.953 Z-3.189
X253.37 Y52.938 Z-3.13
X253.324 Y52.926 Z-3.062
X253.29 Y52.917 Z-2.987
X253.269 Y52.911 Z-2.907
X253.262 Y52.909 Z-2.824
Z5
X253.509 Y51.99
Z-2.348 F50
Z-3.124
X253.516 Y51.992 Z-3.207 F150
X253.536 Y51.997 Z-3.287
X253.57 Y52.006 Z-3.362
X253.616 Y52.019 Z-3.43
X253.673 Y52.034 Z-3.489
X253.739 Y52.052 Z-3.536
X253.811 Y52.071 Z-3.571
X253.889 Y52.092 Z-3.593
X253.968 Y52.113 Z-3.6
X254.428 Y52.236
G3 X254.765 Y52.819 I-0.123 J0.46
X251.635 Y51.981 I-1.565 J-0.419
X254.765 Y52.819 I1.565 J0.419
X254.182 Y53.156 I-0.46 J-0.123
G1 X253.722 Y53.033
X253.642 Y53.011 Z-3.593
X253.565 Y52.991 Z-3.571
X253.492 Y52.971 Z-3.536
X253.427 Y52.953 Z-3.489
X253.37 Y52.938 Z-3.43
X253.324 Y52.926 Z-3.362
X253.29 Y52.917 Z-3.287
X253.269 Y52.911 Z-3.207
X253.262 Y52.909 Z-3.124
Z5
X253.509 Y51.99
Z-2.648 F50
Z-3.424
X253.516 Y51.992 Z-3.507 F150
X253.536 Y51.997 Z-3.587
X253.57 Y52.006 Z-3.662
X253.616 Y52.019 Z-3.73
X253.673 Y52.034 Z-3.789
X253.739 Y52.052 Z-3.836
X253.811 Y52.071 Z-3.871
X253.889 Y52.092 Z-3.893
X253.968 Y52.113 Z-3.9
X254.428 Y52.236
G3 X254.765 Y52.819 I-0.123 J0.46
X251.635 Y51.981 I-1.565 J-0.419
X254.765 Y52.819 I1.565 J0.419
X254.182 Y53.156 I-0.46 J-0.123
G1 X253.722 Y53.033
X253.642 Y53.011 Z-3.893
X253.565 Y52.991 Z-3.871
X253.492 Y52.971 Z-3.836
X253.427 Y52.953 Z-3.789
X253.37 Y52.938 Z-3.73
X253.324 Y52.926 Z-3.662
X253.29 Y52.917 Z-3.587
X253.269 Y52.911 Z-3.507
X253.262 Y52.909 Z-3.424
Z5
X253.509 Y51.99
Z-2.948 F50
Z-3.724
X253.516 Y51.992 Z-3.807 F150
X253.536 Y51.997 Z-3.887
X253.57 Y52.006 Z-3.962
X253.616 Y52.019 Z-4.03
X253.673 Y52.034 Z-4.089
X253.739 Y52.052 Z-4.136
X253.811 Y52.071 Z-4.171
X253.889 Y52.092 Z-4.193
X253.968 Y52.113 Z-4.2
X254.428 Y52.236
G3 X254.765 Y52.819 I-0.123 J0.46
X251.635 Y51.981 I-1.565 J-0.419
X254.765 Y52.819 I1.565 J0.419
X254.182 Y53.156 I-0.46 J-0.123
G1 X253.722 Y53.033
X253.642 Y53.011 Z-4.193
X253.565 Y52.991 Z-4.171
X253.492 Y52.971 Z-4.136
X253.427 Y52.953 Z-4.089
X253.37 Y52.938 Z-4.03
X253.324 Y52.926 Z-3.962
X253.29 Y52.917 Z-3.887
X253.269 Y52.911 Z-3.807
X253.262 Y52.909 Z-3.724
Z5
X253.509 Y51.99
Z-3.248 F50
Z-4.024
X253.516 Y51.992 Z-4.107 F150
X253.536 Y51.997 Z-4.187
X253.57 Y52.006 Z-4.262
X253.616 Y52.019 Z-4.33
X253.673 Y52.034 Z-4.389
X253.739 Y52.052 Z-4.436
X253.811 Y52.071 Z-4.471
X253.889 Y52.092 Z-4.493
X253.968 Y52.113 Z-4.5
X254.428 Y52.236
G3 X254.765 Y52.819 I-0.123 J0.46
X251.635 Y51.981 I-1.565 J-0.419
X254.765 Y52.819 I1.565 J0.419
X254.182 Y53.156 I-0.46 J-0.123
G1 X253.722 Y53.033
X253.642 Y53.011 Z-4.493
X253.565 Y52.991 Z-4.471
X253.492 Y52.971 Z-4.436
X253.427 Y52.953 Z-4.389
X253.37 Y52.938 Z-4.33
X253.324 Y52.926 Z-4.262
X253.29 Y52.917 Z-4.187
X253.269 Y52.911 Z-4.107
X253.262 Y52.909 Z-4.024
Z5
X253.509 Y51.99
Z-3.548 F50
Z-4.324
X253.516 Y51.992 Z-4.407 F150
X253.536 Y51.997 Z-4.487
X253.57 Y52.006 Z-4.562
X253.616 Y52.019 Z-4.63
X253.673 Y52.034 Z-4.689
X253.739 Y52.052 Z-4.736
X253.811 Y52.071 Z-4.771
X253.889 Y52.092 Z-4.793
X253.968 Y52.113 Z-4.8
X254.428 Y52.236
G3 X254.765 Y52.819 I-0.123 J0.46
X251.635 Y51.981 I-1.565 J-0.419
X254.765 Y52.819 I1.565 J0.419
X254.182 Y53.156 I-0.46 J-0.123
G1 X253.722 Y53.033
X253.642 Y53.011 Z-4.793
X253.565 Y52.991 Z-4.771
X253.492 Y52.971 Z-4.736
X253.427 Y52.953 Z-4.689
X253.37 Y52.938 Z-4.63
X253.324 Y52.926 Z-4.562
X253.29 Y52.917 Z-4.487
X253.269 Y52.911 Z-4.407
X253.262 Y52.909 Z-4.324
Z5
X253.509 Y51.99
Z-3.848 F50
Z-4.524
X253.516 Y51.992 Z-4.607 F150
X253.536 Y51.997 Z-4.687
X253.57 Y52.006 Z-4.762
X253.616 Y52.019 Z-4.83
X253.673 Y52.034 Z-4.889
X253.739 Y52.052 Z-4.936
X253.811 Y52.071 Z-4.971
X253.889 Y52.092 Z-4.993
X253.968 Y52.113 Z-5
X254.428 Y52.236
G3 X254.765 Y52.819 I-0.123 J0.46
X251.635 Y51.981 I-1.565 J-0.419
X254.765 Y52.819 I1.565 J0.419
X254.182 Y53.156 I-0.46 J-0.123
G1 X253.722 Y53.033
X253.642 Y53.011 Z-4.993
X253.565 Y52.991 Z-4.971
X253.492 Y52.971 Z-4.936
X253.427 Y52.953 Z-4.889
X253.37 Y52.938 Z-4.83
X253.324 Y52.926 Z-4.762
X253.29 Y52.917 Z-4.687
X253.269 Y52.911 Z-4.607
X253.262 Y52.909 Z-4.524
Z5
X103.392 Y51.924
Z0.952 F50
Z0.176
G18 G2 X103.868 Z-0.3 I0.476 K0 F150
G1 X104.344
G17 G3 X104.82 Y52.4 I0 J0.476
X101.58 Y52.4 I-1.62 J0
X104.82 Y52.4 I1.62 J0
X104.344 Y52.876 I-0.476 J0
G1 X103.868
G18 G3 X103.392 Z0.176 I0 K0.476
G1 Z5
Y51.924
Z0.652 F50
Z-0.124
G2 X103.868 Z-0.6 I0.476 K0 F150
G1 X104.344
G17 G3 X104.82 Y52.4 I0 J0.476
X101.58 Y52.4 I-1.62 J0
X104.82 Y52.4 I1.62 J0
X104.344 Y52.876 I-0.476 J0
G1 X103.868
G18 G3 X103.392 Z-0.124 I0 K0.476
G1 Z5
Y51.924
Z0.352 F50
Z-0.424
G2 X103.868 Z-0.9 I0.476 K0 F150
G1 X104.344
G17 G3 X104.82 Y52.4 I0 J0.476
X101.58 Y52.4 I-1.62 J0
X104.82 Y52.4 I1.62 J0
X104.344 Y52.876 I-0.476 J0
G1 X103.868
G18 G3 X103.392 Z-0.424 I0 K0.476
G1 Z5
Y51.924
Z0.052 F50
Z-0.724
G2 X103.868 Z-1.2 I0.476 K0 F150
G1 X104.344
G17 G3 X104.82 Y52.4 I0 J0.476
X101.58 Y52.4 I-1.62 J0
X104.82 Y52.4 I1.62 J0
X104.344 Y52.876 I-0.476 J0
G1 X103.868
G18 G3 X103.392 Z-0.724 I0 K0.476
G1 Z5
Y51.924
Z-0.248 F50
Z-1.024
G2 X103.868 Z-1.5 I0.476 K0 F150
G1 X104.344
G17 G3 X104.82 Y52.4 I0 J0.476
X101.58 Y52.4 I-1.62 J0
X104.82 Y52.4 I1.62 J0
X104.344 Y52.876 I-0.476 J0
G1 X103.868
G18 G3 X103.392 Z-1.024 I0 K0.476
G1 Z5
Y51.924
Z-0.548 F50
Z-1.324
G2 X103.868 Z-1.8 I0.476 K0 F150
G1 X104.344
G17 G3 X104.82 Y52.4 I0 J0.476
X101.58 Y52.4 I-1.62 J0
X104.82 Y52.4 I1.62 J0
X104.344 Y52.876 I-0.476 J0
G1 X103.868
G18 G3 X103.392 Z-1.324 I0 K0.476
G1 Z5
Y51.924
Z-0.848 F50
Z-1.624
G2 X103.868 Z-2.1 I0.476 K0 F150
G1 X104.344
G17 G3 X104.82 Y52.4 I0 J0.476
X101.58 Y52.4 I-1.62 J0
X104.82 Y52.4 I1.62 J0
X104.344 Y52.876 I-0.476 J0
G1 X103.868
G18 G3 X103.392 Z-1.624 I0 K0.476
G1 Z5
Y51.924
Z-1.148 F50
Z-1.924
G2 X103.868 Z-2.4 I0.476 K0 F150
G1 X104.344
G17 G3 X104.82 Y52.4 I0 J0.476
X101.58 Y52.4 I-1.62 J0
X104.82 Y52.4 I1.62 J0
X104.344 Y52.876 I-0.476 J0
G1 X103.868
G18 G3 X103.392 Z-1.924 I0 K0.476
G1 Z5
Y51.924
Z-1.448 F50
Z-2.224
G2 X103.868 Z-2.7 I0.476 K0 F150
G1 X104.344
G17 G3 X104.82 Y52.4 I0 J0.476
X101.58 Y52.4 I-1.62 J0
X104.82 Y52.4 I1.62 J0
X104.344 Y52.876 I-0.476 J0
G1 X103.868
G18 G3 X103.392 Z-2.224 I0 K0.476
G1 Z5
Y51.924
Z-1.748 F50
Z-2.524
G2 X103.868 Z-3 I0.476 K0 F150
G1 X104.344
G17 G3 X104.82 Y52.4 I0 J0.476
X101.58 Y52.4 I-1.62 J0
X104.82 Y52.4 I1.62 J0
X104.344 Y52.876 I-0.476 J0
G1 X103.868
G18 G3 X103.392 Z-2.524 I0 K0.476
G1 Z5
Y51.924
Z-2.048 F50
Z-2.824
G2 X103.868 Z-3.3 I0.476 K0 F150
G1 X104.344
G17 G3 X104.82 Y52.4 I0 J0.476
X101.58 Y52.4 I-1.62 J0
X104.82 Y52.4 I1.62 J0
X104.344 Y52.876 I-0.476 J0
G1 X103.868
G18 G3 X103.392 Z-2.824 I0 K0.476
G1 Z5
Y51.924
Z-2.348 F50
Z-3.124
G2 X103.868 Z-3.6 I0.476 K0 F150
G1 X104.344
G17 G3 X104.82 Y52.4 I0 J0.476
X101.58 Y52.4 I-1.62 J0
X104.82 Y52.4 I1.62 J0
X104.344 Y52.876 I-0.476 J0
G1 X103.868
G18 G3 X103.392 Z-3.124 I0 K0.476
G1 Z5
Y51.924
Z-2.648 F50
Z-3.424
G2 X103.868 Z-3.9 I0.476 K0 F150
G1 X104.344
G17 G3 X104.82 Y52.4 I0 J0.476
X101.58 Y52.4 I-1.62 J0
X104.82 Y52.4 I1.62 J0
X104.344 Y52.876 I-0.476 J0
G1 X103.868
G18 G3 X103.392 Z-3.424 I0 K0.476
G1 Z5
Y51.924
Z-2.948 F50
Z-3.724
G2 X103.868 Z-4.2 I0.476 K0 F150
G1 X104.344
G17 G3 X104.82 Y52.4 I0 J0.476
X101.58 Y52.4 I-1.62 J0
X104.82 Y52.4 I1.62 J0
X104.344 Y52.876 I-0.476 J0
G1 X103.868
G18 G3 X103.392 Z-3.724 I0 K0.476
G1 Z5
Y51.924
Z-3.248 F50
Z-4.024
G2 X103.868 Z-4.5 I0.476 K0 F150
G1 X104.344
G17 G3 X104.82 Y52.4 I0 J0.476
X101.58 Y52.4 I-1.62 J0
X104.82 Y52.4 I1.62 J0
X104.344 Y52.876 I-0.476 J0
G1 X103.868
G18 G3 X103.392 Z-4.024 I0 K0.476
G1 Z5
Y51.924
Z-3.548 F50
Z-4.324
G2 X103.868 Z-4.8 I0.476 K0 F150
G1 X104.344
G17 G3 X104.82 Y52.4 I0 J0.476
X101.58 Y52.4 I-1.62 J0
X104.82 Y52.4 I1.62 J0
X104.344 Y52.876 I-0.476 J0
G1 X103.868
G18 G3 X103.392 Z-4.324 I0 K0.476
G1 Z5
Y51.924
Z-3.848 F50
Z-4.524
G2 X103.868 Z-5 I0.476 K0 F150
G1 X104.344
G17 G3 X104.82 Y52.4 I0 J0.476
X101.58 Y52.4 I-1.62 J0
X104.82 Y52.4 I1.62 J0
X104.344 Y52.876 I-0.476 J0
G1 X103.868
G18 G3 X103.392 Z-4.524 I0 K0.476
G1 Z5
X53.392 Y51.924
Z0.952 F50
Z0.176
G2 X53.868 Z-0.3 I0.476 K0 F150
G1 X54.344
G17 G3 X54.82 Y52.4 I0 J0.476
X51.58 Y52.4 I-1.62 J0
X54.82 Y52.4 I1.62 J0
X54.344 Y52.876 I-0.476 J0
G1 X53.868
G18 G3 X53.392 Z0.176 I0 K0.476
G1 Z5
Y51.924
Z0.652 F50
Z-0.124
G2 X53.868 Z-0.6 I0.476 K0 F150
G1 X54.344
G17 G3 X54.82 Y52.4 I0 J0.476
X51.58 Y52.4 I-1.62 J0
X54.82 Y52.4 I1.62 J0
X54.344 Y52.876 I-0.476 J0
G1 X53.868
G18 G3 X53.392 Z-0.124 I0 K0.476
G1 Z5
Y51.924
Z0.352 F50
Z-0.424
G2 X53.868 Z-0.9 I0.476 K0 F150
G1 X54.344
G17 G3 X54.82 Y52.4 I0 J0.476
X51.58 Y52.4 I-1.62 J0
X54.82 Y52.4 I1.62 J0
X54.344 Y52.876 I-0.476 J0
G1 X53.868
G18 G3 X53.392 Z-0.424 I0 K0.476
G1 Z5
Y51.924
Z0.052 F50
Z-0.724
G2 X53.868 Z-1.2 I0.476 K0 F150
G1 X54.344
G17 G3 X54.82 Y52.4 I0 J0.476
X51.58 Y52.4 I-1.62 J0
X54.82 Y52.4 I1.62 J0
X54.344 Y52.876 I-0.476 J0
G1 X53.868
G18 G3 X53.392 Z-0.724 I0 K0.476
G1 Z5
Y51.924
Z-0.248 F50
Z-1.024
G2 X53.868 Z-1.5 I0.476 K0 F150
G1 X54.344
G17 G3 X54.82 Y52.4 I0 J0.476
X51.58 Y52.4 I-1.62 J0
X54.82 Y52.4 I1.62 J0
X54.344 Y52.876 I-0.476 J0
G1 X53.868
G18 G3 X53.392 Z-1.024 I0 K0.476
G1 Z5
Y51.924
Z-0.548 F50
Z-1.324
G2 X53.868 Z-1.8 I0.476 K0 F150
G1 X54.344
G17 G3 X54.82 Y52.4 I0 J0.476
X51.58 Y52.4 I-1.62 J0
X54.82 Y52.4 I1.62 J0
X54.344 Y52.876 I-0.476 J0
G1 X53.868
G18 G3 X53.392 Z-1.324 I0 K0.476
G1 Z5
Y51.924
Z-0.848 F50
Z-1.624
G2 X53.868 Z-2.1 I0.476 K0 F150
G1 X54.344
G17 G3 X54.82 Y52.4 I0 J0.476
X51.58 Y52.4 I-1.62 J0
X54.82 Y52.4 I1.62 J0
X54.344 Y52.876 I-0.476 J0
G1 X53.868
G18 G3 X53.392 Z-1.624 I0 K0.476
G1 Z5
Y51.924
Z-1.148 F50
Z-1.924
G2 X53.868 Z-2.4 I0.476 K0 F150
G1 X54.344
G17 G3 X54.82 Y52.4 I0 J0.476
X51.58 Y52.4 I-1.62 J0
X54.82 Y52.4 I1.62 J0
X54.344 Y52.876 I-0.476 J0
G1 X53.868
G18 G3 X53.392 Z-1.924 I0 K0.476
G1 Z5
Y51.924
Z-1.448 F50
Z-2.224
G2 X53.868 Z-2.7 I0.476 K0 F150
G1 X54.344
G17 G3 X54.82 Y52.4 I0 J0.476
X51.58 Y52.4 I-1.62 J0
X54.82 Y52.4 I1.62 J0
X54.344 Y52.876 I-0.476 J0
G1 X53.868
G18 G3 X53.392 Z-2.224 I0 K0.476
G1 Z5
Y51.924
Z-1.748 F50
Z-2.524
G2 X53.868 Z-3 I0.476 K0 F150
G1 X54.344
G17 G3 X54.82 Y52.4 I0 J0.476
X51.58 Y52.4 I-1.62 J0
X54.82 Y52.4 I1.62 J0
X54.344 Y52.876 I-0.476 J0
G1 X53.868
G18 G3 X53.392 Z-2.524 I0 K0.476
G1 Z5
Y51.924
Z-2.048 F50
Z-2.824
G2 X53.868 Z-3.3 I0.476 K0 F150
G1 X54.344
G17 G3 X54.82 Y52.4 I0 J0.476
X51.58 Y52.4 I-1.62 J0
X54.82 Y52.4 I1.62 J0
X54.344 Y52.876 I-0.476 J0
G1 X53.868
G18 G3 X53.392 Z-2.824 I0 K0.476
G1 Z5
Y51.924
Z-2.348 F50
Z-3.124
G2 X53.868 Z-3.6 I0.476 K0 F150
G1 X54.344
G17 G3 X54.82 Y52.4 I0 J0.476
X51.58 Y52.4 I-1.62 J0
X54.82 Y52.4 I1.62 J0
X54.344 Y52.876 I-0.476 J0
G1 X53.868
G18 G3 X53.392 Z-3.124 I0 K0.476
G1 Z5
Y51.924
Z-2.648 F50
Z-3.424
G2 X53.868 Z-3.9 I0.476 K0 F150
G1 X54.344
G17 G3 X54.82 Y52.4 I0 J0.476
X51.58 Y52.4 I-1.62 J0
X54.82 Y52.4 I1.62 J0
X54.344 Y52.876 I-0.476 J0
G1 X53.868
G18 G3 X53.392 Z-3.424 I0 K0.476
G1 Z5
Y51.924
Z-2.948 F50
Z-3.724
G2 X53.868 Z-4.2 I0.476 K0 F150
G1 X54.344
G17 G3 X54.82 Y52.4 I0 J0.476
X51.58 Y52.4 I-1.62 J0
X54.82 Y52.4 I1.62 J0
X54.344 Y52.876 I-0.476 J0
G1 X53.868
G18 G3 X53.392 Z-3.724 I0 K0.476
G1 Z5
Y51.924
Z-3.248 F50
Z-4.024
G2 X53.868 Z-4.5 I0.476 K0 F150
G1 X54.344
G17 G3 X54.82 Y52.4 I0 J0.476
X51.58 Y52.4 I-1.62 J0
X54.82 Y52.4 I1.62 J0
X54.344 Y52.876 I-0.476 J0
G1 X53.868
G18 G3 X53.392 Z-4.024 I0 K0.476
G1 Z5
Y51.924
Z-3.548 F50
Z-4.324
G2 X53.868 Z-4.8 I0.476 K0 F150
G1 X54.344
G17 G3 X54.82 Y52.4 I0 J0.476
X51.58 Y52.4 I-1.62 J0
X54.82 Y52.4 I1.62 J0
X54.344 Y52.876 I-0.476 J0
G1 X53.868
G18 G3 X53.392 Z-4.324 I0 K0.476
G1 Z5
Y51.924
Z-3.848 F50
Z-4.524
G2 X53.868 Z-5 I0.476 K0 F150
G1 X54.344
G17 G3 X54.82 Y52.4 I0 J0.476
X51.58 Y52.4 I-1.62 J0
X54.82 Y52.4 I1.62 J0
X54.344 Y52.876 I-0.476 J0
G1 X53.868
G18 G3 X53.392 Z-4.524 I0 K0.476
G1 Z5
Y251.924
Z0.952 F50
Z0.176
G2 X53.868 Z-0.3 I0.476 K0 F150
G1 X54.344
G17 G3 X54.82 Y252.4 I0 J0.476
X51.58 Y252.4 I-1.62 J0
X54.82 Y252.4 I1.62 J0
X54.344 Y252.876 I-0.476 J0
G1 X53.868
G18 G3 X53.392 Z0.176 I0 K0.476
G1 Z5
Y251.924
Z0.652 F50
Z-0.124
G2 X53.868 Z-0.6 I0.476 K0 F150
G1 X54.344
G17 G3 X54.82 Y252.4 I0 J0.476
X51.58 Y252.4 I-1.62 J0
X54.82 Y252.4 I1.62 J0
X54.344 Y252.876 I-0.476 J0
G1 X53.868
G18 G3 X53.392 Z-0.124 I0 K0.476
G1 Z5
Y251.924
Z0.352 F50
Z-0.424
G2 X53.868 Z-0.9 I0.476 K0 F150
G1 X54.344
G17 G3 X54.82 Y252.4 I0 J0.476
X51.58 Y252.4 I-1.62 J0
X54.82 Y252.4 I1.62 J0
X54.344 Y252.876 I-0.476 J0
G1 X53.868
G18 G3 X53.392 Z-0.424 I0 K0.476
G1 Z5
Y251.924
Z0.052 F50
Z-0.724
G2 X53.868 Z-1.2 I0.476 K0 F150
G1 X54.344
G17 G3 X54.82 Y252.4 I0 J0.476
X51.58 Y252.4 I-1.62 J0
X54.82 Y252.4 I1.62 J0
X54.344 Y252.876 I-0.476 J0
G1 X53.868
G18 G3 X53.392 Z-0.724 I0 K0.476
G1 Z5
Y251.924
Z-0.248 F50
Z-1.024
G2 X53.868 Z-1.5 I0.476 K0 F150
G1 X54.344
G17 G3 X54.82 Y252.4 I0 J0.476
X51.58 Y252.4 I-1.62 J0
X54.82 Y252.4 I1.62 J0
X54.344 Y252.876 I-0.476 J0
G1 X53.868
G18 G3 X53.392 Z-1.024 I0 K0.476
G1 Z5
Y251.924
Z-0.548 F50
Z-1.324
G2 X53.868 Z-1.8 I0.476 K0 F150
G1 X54.344
G17 G3 X54.82 Y252.4 I0 J0.476
X51.58 Y252.4 I-1.62 J0
X54.82 Y252.4 I1.62 J0
X54.344 Y252.876 I-0.476 J0
G1 X53.868
G18 G3 X53.392 Z-1.324 I0 K0.476
G1 Z5
Y251.924
Z-0.848 F50
Z-1.624
G2 X53.868 Z-2.1 I0.476 K0 F150
G1 X54.344
G17 G3 X54.82 Y252.4 I0 J0.476
X51.58 Y252.4 I-1.62 J0
X54.82 Y252.4 I1.62 J0
X54.344 Y252.876 I-0.476 J0
G1 X53.868
G18 G3 X53.392 Z-1.624 I0 K0.476
G1 Z5
Y251.924
Z-1.148 F50
Z-1.924
G2 X53.868 Z-2.4 I0.476 K0 F150
G1 X54.344
G17 G3 X54.82 Y252.4 I0 J0.476
X51.58 Y252.4 I-1.62 J0
X54.82 Y252.4 I1.62 J0
X54.344 Y252.876 I-0.476 J0
G1 X53.868
G18 G3 X53.392 Z-1.924 I0 K0.476
G1 Z5
Y251.924
Z-1.448 F50
Z-2.224
G2 X53.868 Z-2.7 I0.476 K0 F150
G1 X54.344
G17 G3 X54.82 Y252.4 I0 J0.476
X51.58 Y252.4 I-1.62 J0
X54.82 Y252.4 I1.62 J0
X54.344 Y252.876 I-0.476 J0
G1 X53.868
G18 G3 X53.392 Z-2.224 I0 K0.476
G1 Z5
Y251.924
Z-1.748 F50
Z-2.524
G2 X53.868 Z-3 I0.476 K0 F150
G1 X54.344
G17 G3 X54.82 Y252.4 I0 J0.476
X51.58 Y252.4 I-1.62 J0
X54.82 Y252.4 I1.62 J0
X54.344 Y252.876 I-0.476 J0
G1 X53.868
G18 G3 X53.392 Z-2.524 I0 K0.476
G1 Z5
Y251.924
Z-2.048 F50
Z-2.824
G2 X53.868 Z-3.3 I0.476 K0 F150
G1 X54.344
G17 G3 X54.82 Y252.4 I0 J0.476
X51.58 Y252.4 I-1.62 J0
X54.82 Y252.4 I1.62 J0
X54.344 Y252.876 I-0.476 J0
G1 X53.868
G18 G3 X53.392 Z-2.824 I0 K0.476
G1 Z5
Y251.924
Z-2.348 F50
Z-3.124
G2 X53.868 Z-3.6 I0.476 K0 F150
G1 X54.344
G17 G3 X54.82 Y252.4 I0 J0.476
X51.58 Y252.4 I-1.62 J0
X54.82 Y252.4 I1.62 J0
X54.344 Y252.876 I-0.476 J0
G1 X53.868
G18 G3 X53.392 Z-3.124 I0 K0.476
G1 Z5
Y251.924
Z-2.648 F50
Z-3.424
G2 X53.868 Z-3.9 I0.476 K0 F150
G1 X54.344
G17 G3 X54.82 Y252.4 I0 J0.476
X51.58 Y252.4 I-1.62 J0
X54.82 Y252.4 I1.62 J0
X54.344 Y252.876 I-0.476 J0
G1 X53.868
G18 G3 X53.392 Z-3.424 I0 K0.476
G1 Z5
Y251.924
Z-2.948 F50
Z-3.724
G2 X53.868 Z-4.2 I0.476 K0 F150
G1 X54.344
G17 G3 X54.82 Y252.4 I0 J0.476
X51.58 Y252.4 I-1.62 J0
X54.82 Y252.4 I1.62 J0
X54.344 Y252.876 I-0.476 J0
G1 X53.868
G18 G3 X53.392 Z-3.724 I0 K0.476
G1 Z5
Y251.924
Z-3.248 F50
Z-4.024
G2 X53.868 Z-4.5 I0.476 K0 F150
G1 X54.344
G17 G3 X54.82 Y252.4 I0 J0.476
X51.58 Y252.4 I-1.62 J0
X54.82 Y252.4 I1.62 J0
X54.344 Y252.876 I-0.476 J0
G1 X53.868
G18 G3 X53.392 Z-4.024 I0 K0.476
G1 Z5
Y251.924
Z-3.548 F50
Z-4.324
G2 X53.868 Z-4.8 I0.476 K0 F150
G1 X54.344
G17 G3 X54.82 Y252.4 I0 J0.476
X51.58 Y252.4 I-1.62 J0
X54.82 Y252.4 I1.62 J0
X54.344 Y252.876 I-0.476 J0
G1 X53.868
G18 G3 X53.392 Z-4.324 I0 K0.476
G1 Z5
Y251.924
Z-3.848 F50
Z-4.524
G2 X53.868 Z-5 I0.476 K0 F150
G1 X54.344
G17 G3 X54.82 Y252.4 I0 J0.476
X51.58 Y252.4 I-1.62 J0
X54.82 Y252.4 I1.62 J0
X54.344 Y252.876 I-0.476 J0
G1 X53.868
G18 G3 X53.392 Z-4.524 I0 K0.476
G1 Z5
X103.392 Y251.924
Z0.952 F50
Z0.176
G2 X103.868 Z-0.3 I0.476 K0 F150
G1 X104.344
G17 G3 X104.82 Y252.4 I0 J0.476
X101.58 Y252.4 I-1.62 J0
X104.82 Y252.4 I1.62 J0
X104.344 Y252.876 I-0.476 J0
G1 X103.868
G18 G3 X103.392 Z0.176 I0 K0.476
G1 Z5
Y251.924
Z0.652 F50
Z-0.124
G2 X103.868 Z-0.6 I0.476 K0 F150
G1 X104.344
G17 G3 X104.82 Y252.4 I0 J0.476
X101.58 Y252.4 I-1.62 J0
X104.82 Y252.4 I1.62 J0
X104.344 Y252.876 I-0.476 J0
G1 X103.868
G18 G3 X103.392 Z-0.124 I0 K0.476
G1 Z5
Y251.924
Z0.352 F50
Z-0.424
G2 X103.868 Z-0.9 I0.476 K0 F150
G1 X104.344
G17 G3 X104.82 Y252.4 I0 J0.476
X101.58 Y252.4 I-1.62 J0
X104.82 Y252.4 I1.62 J0
X104.344 Y252.876 I-0.476 J0
G1 X103.868
G18 G3 X103.392 Z-0.424 I0 K0.476
G1 Z5
Y251.924
Z0.052 F50
Z-0.724
G2 X103.868 Z-1.2 I0.476 K0 F150
G1 X104.344
G17 G3 X104.82 Y252.4 I0 J0.476
X101.58 Y252.4 I-1.62 J0
X104.82 Y252.4 I1.62 J0
X104.344 Y252.876 I-0.476 J0
G1 X103.868
G18 G3 X103.392 Z-0.724 I0 K0.476
G1 Z5
Y251.924
Z-0.248 F50
Z-1.024
G2 X103.868 Z-1.5 I0.476 K0 F150
G1 X104.344
G17 G3 X104.82 Y252.4 I0 J0.476
X101.58 Y252.4 I-1.62 J0
X104.82 Y252.4 I1.62 J0
X104.344 Y252.876 I-0.476 J0
G1 X103.868
G18 G3 X103.392 Z-1.024 I0 K0.476
G1 Z5
Y251.924
Z-0.548 F50
Z-1.324
G2 X103.868 Z-1.8 I0.476 K0 F150
G1 X104.344
G17 G3 X104.82 Y252.4 I0 J0.476
X101.58 Y252.4 I-1.62 J0
X104.82 Y252.4 I1.62 J0
X104.344 Y252.876 I-0.476 J0
G1 X103.868
G18 G3 X103.392 Z-1.324 I0 K0.476
G1 Z5
Y251.924
Z-0.848 F50
Z-1.624
G2 X103.868 Z-2.1 I0.476 K0 F150
G1 X104.344
G17 G3 X104.82 Y252.4 I0 J0.476
X101.58 Y252.4 I-1.62 J0
X104.82 Y252.4 I1.62 J0
X104.344 Y252.876 I-0.476 J0
G1 X103.868
G18 G3 X103.392 Z-1.624 I0 K0.476
G1 Z5
Y251.924
Z-1.148 F50
Z-1.924
G2 X103.868 Z-2.4 I0.476 K0 F150
G1 X104.344
G17 G3 X104.82 Y252.4 I0 J0.476
X101.58 Y252.4 I-1.62 J0
X104.82 Y252.4 I1.62 J0
X104.344 Y252.876 I-0.476 J0
G1 X103.868
G18 G3 X103.392 Z-1.924 I0 K0.476
G1 Z5
Y251.924
Z-1.448 F50
Z-2.224
G2 X103.868 Z-2.7 I0.476 K0 F150
G1 X104.344
G17 G3 X104.82 Y252.4 I0 J0.476
X101.58 Y252.4 I-1.62 J0
X104.82 Y252.4 I1.62 J0
X104.344 Y252.876 I-0.476 J0
G1 X103.868
G18 G3 X103.392 Z-2.224 I0 K0.476
G1 Z5
Y251.924
Z-1.748 F50
Z-2.524
G2 X103.868 Z-3 I0.476 K0 F150
G1 X104.344
G17 G3 X104.82 Y252.4 I0 J0.476
X101.58 Y252.4 I-1.62 J0
X104.82 Y252.4 I1.62 J0
X104.344 Y252.876 I-0.476 J0
G1 X103.868
G18 G3 X103.392 Z-2.524 I0 K0.476
G1 Z5
Y251.924
Z-2.048 F50
Z-2.824
G2 X103.868 Z-3.3 I0.476 K0 F150
G1 X104.344
G17 G3 X104.82 Y252.4 I0 J0.476
X101.58 Y252.4 I-1.62 J0
X104.82 Y252.4 I1.62 J0
X104.344 Y252.876 I-0.476 J0
G1 X103.868
G18 G3 X103.392 Z-2.824 I0 K0.476
G1 Z5
Y251.924
Z-2.348 F50
Z-3.124
G2 X103.868 Z-3.6 I0.476 K0 F150
G1 X104.344
G17 G3 X104.82 Y252.4 I0 J0.476
X101.58 Y252.4 I-1.62 J0
X104.82 Y252.4 I1.62 J0
X104.344 Y252.876 I-0.476 J0
G1 X103.868
G18 G3 X103.392 Z-3.124 I0 K0.476
G1 Z5
Y251.924
Z-2.648 F50
Z-3.424
G2 X103.868 Z-3.9 I0.476 K0 F150
G1 X104.344
G17 G3 X104.82 Y252.4 I0 J0.476
X101.58 Y252.4 I-1.62 J0
X104.82 Y252.4 I1.62 J0
X104.344 Y252.876 I-0.476 J0
G1 X103.868
G18 G3 X103.392 Z-3.424 I0 K0.476
G1 Z5
Y251.924
Z-2.948 F50
Z-3.724
G2 X103.868 Z-4.2 I0.476 K0 F150
G1 X104.344
G17 G3 X104.82 Y252.4 I0 J0.476
X101.58 Y252.4 I-1.62 J0
X104.82 Y252.4 I1.62 J0
X104.344 Y252.876 I-0.476 J0
G1 X103.868
G18 G3 X103.392 Z-3.724 I0 K0.476
G1 Z5
Y251.924
Z-3.248 F50
Z-4.024
G2 X103.868 Z-4.5 I0.476 K0 F150
G1 X104.344
G17 G3 X104.82 Y252.4 I0 J0.476
X101.58 Y252.4 I-1.62 J0
X104.82 Y252.4 I1.62 J0
X104.344 Y252.876 I-0.476 J0
G1 X103.868
G18 G3 X103.392 Z-4.024 I0 K0.476
G1 Z5
Y251.924
Z-3.548 F50
Z-4.324
G2 X103.868 Z-4.8 I0.476 K0 F150
G1 X104.344
G17 G3 X104.82 Y252.4 I0 J0.476
X101.58 Y252.4 I-1.62 J0
X104.82 Y252.4 I1.62 J0
X104.344 Y252.876 I-0.476 J0
G1 X103.868
G18 G3 X103.392 Z-4.324 I0 K0.476
G1 Z5
Y251.924
Z-3.848 F50
Z-4.524
G2 X103.868 Z-5 I0.476 K0 F150
G1 X104.344
G17 G3 X104.82 Y252.4 I0 J0.476
X101.58 Y252.4 I-1.62 J0
X104.82 Y252.4 I1.62 J0
X104.344 Y252.876 I-0.476 J0
G1 X103.868
G18 G3 X103.392 Z-4.524 I0 K0.476
G1 Z5
X153.392 Y251.924
Z0.952 F50
Z0.176
G2 X153.868 Z-0.3 I0.476 K0 F150
G1 X154.344
G17 G3 X154.82 Y252.4 I0 J0.476
X151.58 Y252.4 I-1.62 J0
X154.82 Y252.4 I1.62 J0
X154.344 Y252.876 I-0.476 J0
G1 X153.868
G18 G3 X153.392 Z0.176 I0 K0.476
G1 Z5
Y251.924
Z0.652 F50
Z-0.124
G2 X153.868 Z-0.6 I0.476 K0 F150
G1 X154.344
G17 G3 X154.82 Y252.4 I0 J0.476
X151.58 Y252.4 I-1.62 J0
X154.82 Y252.4 I1.62 J0
X154.344 Y252.876 I-0.476 J0
G1 X153.868
G18 G3 X153.392 Z-0.124 I0 K0.476
G1 Z5
Y251.924
Z0.352 F50
Z-0.424
G2 X153.868 Z-0.9 I0.476 K0 F150
G1 X154.344
G17 G3 X154.82 Y252.4 I0 J0.476
X151.58 Y252.4 I-1.62 J0
X154.82 Y252.4 I1.62 J0
X154.344 Y252.876 I-0.476 J0
G1 X153.868
G18 G3 X153.392 Z-0.424 I0 K0.476
G1 Z5
Y251.924
Z0.052 F50
Z-0.724
G2 X153.868 Z-1.2 I0.476 K0 F150
G1 X154.344
G17 G3 X154.82 Y252.4 I0 J0.476
X151.58 Y252.4 I-1.62 J0
X154.82 Y252.4 I1.62 J0
X154.344 Y252.876 I-0.476 J0
G1 X153.868
G18 G3 X153.392 Z-0.724 I0 K0.476
G1 Z5
Y251.924
Z-0.248 F50
Z-1.024
G2 X153.868 Z-1.5 I0.476 K0 F150
G1 X154.344
G17 G3 X154.82 Y252.4 I0 J0.476
X151.58 Y252.4 I-1.62 J0
X154.82 Y252.4 I1.62 J0
X154.344 Y252.876 I-0.476 J0
G1 X153.868
G18 G3 X153.392 Z-1.024 I0 K0.476
G1 Z5
Y251.924
Z-0.548 F50
Z-1.324
G2 X153.868 Z-1.8 I0.476 K0 F150
G1 X154.344
G17 G3 X154.82 Y252.4 I0 J0.476
X151.58 Y252.4 I-1.62 J0
X154.82 Y252.4 I1.62 J0
X154.344 Y252.876 I-0.476 J0
G1 X153.868
G18 G3 X153.392 Z-1.324 I0 K0.476
G1 Z5
Y251.924
Z-0.848 F50
Z-1.624
G2 X153.868 Z-2.1 I0.476 K0 F150
G1 X154.344
G17 G3 X154.82 Y252.4 I0 J0.476
X151.58 Y252.4 I-1.62 J0
X154.82 Y252.4 I1.62 J0
X154.344 Y252.876 I-0.476 J0
G1 X153.868
G18 G3 X153.392 Z-1.624 I0 K0.476
G1 Z5
Y251.924
Z-1.148 F50
Z-1.924
G2 X153.868 Z-2.4 I0.476 K0 F150
G1 X154.344
G17 G3 X154.82 Y252.4 I0 J0.476
X151.58 Y252.4 I-1.62 J0
X154.82 Y252.4 I1.62 J0
X154.344 Y252.876 I-0.476 J0
G1 X153.868
G18 G3 X153.392 Z-1.924 I0 K0.476
G1 Z5
Y251.924
Z-1.448 F50
Z-2.224
G2 X153.868 Z-2.7 I0.476 K0 F150
G1 X154.344
G17 G3 X154.82 Y252.4 I0 J0.476
X151.58 Y252.4 I-1.62 J0
X154.82 Y252.4 I1.62 J0
X154.344 Y252.876 I-0.476 J0
G1 X153.868
G18 G3 X153.392 Z-2.224 I0 K0.476
G1 Z5
Y251.924
Z-1.748 F50
Z-2.524
G2 X153.868 Z-3 I0.476 K0 F150
G1 X154.344
G17 G3 X154.82 Y252.4 I0 J0.476
X151.58 Y252.4 I-1.62 J0
X154.82 Y252.4 I1.62 J0
X154.344 Y252.876 I-0.476 J0
G1 X153.868
G18 G3 X153.392 Z-2.524 I0 K0.476
G1 Z5
Y251.924
Z-2.048 F50
Z-2.824
G2 X153.868 Z-3.3 I0.476 K0 F150
G1 X154.344
G17 G3 X154.82 Y252.4 I0 J0.476
X151.58 Y252.4 I-1.62 J0
X154.82 Y252.4 I1.62 J0
X154.344 Y252.876 I-0.476 J0
G1 X153.868
G18 G3 X153.392 Z-2.824 I0 K0.476
G1 Z5
Y251.924
Z-2.348 F50
Z-3.124
G2 X153.868 Z-3.6 I0.476 K0 F150
G1 X154.344
G17 G3 X154.82 Y252.4 I0 J0.476
X151.58 Y252.4 I-1.62 J0
X154.82 Y252.4 I1.62 J0
X154.344 Y252.876 I-0.476 J0
G1 X153.868
G18 G3 X153.392 Z-3.124 I0 K0.476
G1 Z5
Y251.924
Z-2.648 F50
Z-3.424
G2 X153.868 Z-3.9 I0.476 K0 F150
G1 X154.344
G17 G3 X154.82 Y252.4 I0 J0.476
X151.58 Y252.4 I-1.62 J0
X154.82 Y252.4 I1.62 J0
X154.344 Y252.876 I-0.476 J0
G1 X153.868
G18 G3 X153.392 Z-3.424 I0 K0.476
G1 Z5
Y251.924
Z-2.948 F50
Z-3.724
G2 X153.868 Z-4.2 I0.476 K0 F150
G1 X154.344
G17 G3 X154.82 Y252.4 I0 J0.476
X151.58 Y252.4 I-1.62 J0
X154.82 Y252.4 I1.62 J0
X154.344 Y252.876 I-0.476 J0
G1 X153.868
G18 G3 X153.392 Z-3.724 I0 K0.476
G1 Z5
Y251.924
Z-3.248 F50
Z-4.024
G2 X153.868 Z-4.5 I0.476 K0 F150
G1 X154.344
G17 G3 X154.82 Y252.4 I0 J0.476
X151.58 Y252.4 I-1.62 J0
X154.82 Y252.4 I1.62 J0
X154.344 Y252.876 I-0.476 J0
G1 X153.868
G18 G3 X153.392 Z-4.024 I0 K0.476
G1 Z5
Y251.924
Z-3.548 F50
Z-4.324
G2 X153.868 Z-4.8 I0.476 K0 F150
G1 X154.344
G17 G3 X154.82 Y252.4 I0 J0.476
X151.58 Y252.4 I-1.62 J0
X154.82 Y252.4 I1.62 J0
X154.344 Y252.876 I-0.476 J0
G1 X153.868
G18 G3 X153.392 Z-4.324 I0 K0.476
G1 Z5
Y251.924
Z-3.848 F50
Z-4.524
G2 X153.868 Z-5 I0.476 K0 F150
G1 X154.344
G17 G3 X154.82 Y252.4 I0 J0.476
X151.58 Y252.4 I-1.62 J0
X154.82 Y252.4 I1.62 J0
X154.344 Y252.876 I-0.476 J0
G1 X153.868
G18 G3 X153.392 Z-4.524 I0 K0.476
G1 Z5
X203.509 Y251.99
Z0.952 F50
Z0.176
X203.516 Y251.992 Z0.093 F150
X203.536 Y251.997 Z0.013
X203.57 Y252.006 Z-0.062
X203.616 Y252.019 Z-0.13
X203.673 Y252.034 Z-0.189
X203.739 Y252.052 Z-0.236
X203.811 Y252.071 Z-0.271
X203.889 Y252.092 Z-0.293
X203.968 Y252.113 Z-0.3
X204.428 Y252.236
G17 G3 X204.765 Y252.819 I-0.123 J0.46
X201.635 Y251.981 I-1.565 J-0.419
X204.765 Y252.819 I1.565 J0.419
X204.182 Y253.156 I-0.46 J-0.123
G1 X203.722 Y253.033
X203.642 Y253.011 Z-0.293
X203.565 Y252.991 Z-0.271
X203.492 Y252.971 Z-0.236
X203.427 Y252.953 Z-0.189
X203.37 Y252.938 Z-0.13
X203.324 Y252.926 Z-0.062
X203.29 Y252.917 Z0.013
X203.269 Y252.911 Z0.093
X203.262 Y252.909 Z0.176
Z5
X203.509 Y251.99
Z0.652 F50
Z-0.124
X203.516 Y251.992 Z-0.207 F150
X203.536 Y251.997 Z-0.287
X203.57 Y252.006 Z-0.362
X203.616 Y252.019 Z-0.43
X203.673 Y252.034 Z-0.489
X203.739 Y252.052 Z-0.536
X203.811 Y252.071 Z-0.571
X203.889 Y252.092 Z-0.593
X203.968 Y252.113 Z-0.6
X204.428 Y252.236
G3 X204.765 Y252.819 I-0.123 J0.46
X201.635 Y251.981 I-1.565 J-0.419
X204.765 Y252.819 I1.565 J0.419
X204.182 Y253.156 I-0.46 J-0.123
G1 X203.722 Y253.033
X203.642 Y253.011 Z-0.593
X203.565 Y252.991 Z-0.571
X203.492 Y252.971 Z-0.536
X203.427 Y252.953 Z-0.489
X203.37 Y252.938 Z-0.43
X203.324 Y252.926 Z-0.362
X203.29 Y252.917 Z-0.287
X203.269 Y252.911 Z-0.207
X203.262 Y252.909 Z-0.124
Z5
X203.509 Y251.99
Z0.352 F50
Z-0.424
X203.516 Y251.992 Z-0.507 F150
X203.536 Y251.997 Z-0.587
X203.57 Y252.006 Z-0.662
X203.616 Y252.019 Z-0.73
X203.673 Y252.034 Z-0.789
X203.739 Y252.052 Z-0.836
X203.811 Y252.071 Z-0.871
X203.889 Y252.092 Z-0.893
X203.968 Y252.113 Z-0.9
X204.428 Y252.236
G3 X204.765 Y252.819 I-0.123 J0.46
X201.635 Y251.981 I-1.565 J-0.419
X204.765 Y252.819 I1.565 J0.419
X204.182 Y253.156 I-0.46 J-0.123
G1 X203.722 Y253.033
X203.642 Y253.011 Z-0.893
X203.565 Y252.991 Z-0.871
X203.492 Y252.971 Z-0.836
X203.427 Y252.953 Z-0.789
X203.37 Y252.938 Z-0.73
X203.324 Y252.926 Z-0.662
X203.29 Y252.917 Z-0.587
X203.269 Y252.911 Z-0.507
X203.262 Y252.909 Z-0.424
Z5
X203.509 Y251.99
Z0.052 F50
Z-0.724
X203.516 Y251.992 Z-0.807 F150
X203.536 Y251.997 Z-0.887
X203.57 Y252.006 Z-0.962
X203.616 Y252.019 Z-1.03
X203.673 Y252.034 Z-1.089
X203.739 Y252.052 Z-1.136
X203.811 Y252.071 Z-1.171
X203.889 Y252.092 Z-1.193
X203.968 Y252.113 Z-1.2
X204.428 Y252.236
G3 X204.765 Y252.819 I-0.123 J0.46
X201.635 Y251.981 I-1.565 J-0.419
X204.765 Y252.819 I1.565 J0.419
X204.182 Y253.156 I-0.46 J-0.123
G1 X203.722 Y253.033
X203.642 Y253.011 Z-1.193
X203.565 Y252.991 Z-1.171
X203.492 Y252.971 Z-1.136
X203.427 Y252.953 Z-1.089
X203.37 Y252.938 Z-1.03
X203.324 Y252.926 Z-0.962
X203.29 Y252.917 Z-0.887
X203.269 Y252.911 Z-0.807
X203.262 Y252.909 Z-0.724
Z5
X203.509 Y251.99
Z-0.248 F50
Z-1.024
X203.516 Y251.992 Z-1.107 F150
X203.536 Y251.997 Z-1.187
X203.57 Y252.006 Z-1.262
X203.616 Y252.019 Z-1.33
X203.673 Y252.034 Z-1.389
X203.739 Y252.052 Z-1.436
X203.811 Y252.071 Z-1.471
X203.889 Y252.092 Z-1.493
X203.968 Y252.113 Z-1.5
X204.428 Y252.236
G3 X204.765 Y252.819 I-0.123 J0.46
X201.635 Y251.981 I-1.565 J-0.419
X204.765 Y252.819 I1.565 J0.419
X204.182 Y253.156 I-0.46 J-0.123
G1 X203.722 Y253.033
X203.642 Y253.011 Z-1.493
X203.565 Y252.991 Z-1.471
X203.492 Y252.971 Z-1.436
X203.427 Y252.953 Z-1.389
X203.37 Y252.938 Z-1.33
X203.324 Y252.926 Z-1.262
X203.29 Y252.917 Z-1.187
X203.269 Y252.911 Z-1.107
X203.262 Y252.909 Z-1.024
Z5
X203.509 Y251.99
Z-0.548 F50
Z-1.324
X203.516 Y251.992 Z-1.407 F150
X203.536 Y251.997 Z-1.487
X203.57 Y252.006 Z-1.562
X203.616 Y252.019 Z-1.63
X203.673 Y252.034 Z-1.689
X203.739 Y252.052 Z-1.736
X203.811 Y252.071 Z-1.771
X203.889 Y252.092 Z-1.793
X203.968 Y252.113 Z-1.8
X204.428 Y252.236
G3 X204.765 Y252.819 I-0.123 J0.46
X201.635 Y251.981 I-1.565 J-0.419
X204.765 Y252.819 I1.565 J0.419
X204.182 Y253.156 I-0.46 J-0.123
G1 X203.722 Y253.033
X203.642 Y253.011 Z-1.793
X203.565 Y252.991 Z-1.771
X203.492 Y252.971 Z-1.736
X203.427 Y252.953 Z-1.689
X203.37 Y252.938 Z-1.63
X203.324 Y252.926 Z-1.562
X203.29 Y252.917 Z-1.487
X203.269 Y252.911 Z-1.407
X203.262 Y252.909 Z-1.324
Z5
X203.509 Y251.99
Z-0.848 F50
Z-1.624
X203.516 Y251.992 Z-1.707 F150
X203.536 Y251.997 Z-1.787
X203.57 Y252.006 Z-1.862
X203.616 Y252.019 Z-1.93
X203.673 Y252.034 Z-1.989
X203.739 Y252.052 Z-2.036
X203.811 Y252.071 Z-2.071
X203.889 Y252.092 Z-2.093
X203.968 Y252.113 Z-2.1
X204.428 Y252.236
G3 X204.765 Y252.819 I-0.123 J0.46
X201.635 Y251.981 I-1.565 J-0.419
X204.765 Y252.819 I1.565 J0.419
X204.182 Y253.156 I-0.46 J-0.123
G1 X203.722 Y253.033
X203.642 Y253.011 Z-2.093
X203.565 Y252.991 Z-2.071
X203.492 Y252.971 Z-2.036
X203.427 Y252.953 Z-1.989
X203.37 Y252.938 Z-1.93
X203.324 Y252.926 Z-1.862
X203.29 Y252.917 Z-1.787
X203.269 Y252.911 Z-1.707
X203.262 Y252.909 Z-1.624
Z5
X203.509 Y251.99
Z-1.148 F50
Z-1.924
X203.516 Y251.992 Z-2.007 F150
X203.536 Y251.997 Z-2.087
X203.57 Y252.006 Z-2.162
X203.616 Y252.019 Z-2.23
X203.673 Y252.034 Z-2.289
X203.739 Y252.052 Z-2.336
X203.811 Y252.071 Z-2.371
X203.889 Y252.092 Z-2.393
X203.968 Y252.113 Z-2.4
X204.428 Y252.236
G3 X204.765 Y252.819 I-0.123 J0.46
X201.635 Y251.981 I-1.565 J-0.419
X204.765 Y252.819 I1.565 J0.419
X204.182 Y253.156 I-0.46 J-0.123
G1 X203.722 Y253.033
X203.642 Y253.011 Z-2.393
X203.565 Y252.991 Z-2.371
X203.492 Y252.971 Z-2.336
X203.427 Y252.953 Z-2.289
X203.37 Y252.938 Z-2.23
X203.324 Y252.926 Z-2.162
X203.29 Y252.917 Z-2.087
X203.269 Y252.911 Z-2.007
X203.262 Y252.909 Z-1.924
Z5
X203.509 Y251.99
Z-1.448 F50
Z-2.224
X203.516 Y251.992 Z-2.307 F150
X203.536 Y251.997 Z-2.387
X203.57 Y252.006 Z-2.462
X203.616 Y252.019 Z-2.53
X203.673 Y252.034 Z-2.589
X203.739 Y252.052 Z-2.636
X203.811 Y252.071 Z-2.671
X203.889 Y252.092 Z-2.693
X203.968 Y252.113 Z-2.7
X204.428 Y252.236
G3 X204.765 Y252.819 I-0.123 J0.46
X201.635 Y251.981 I-1.565 J-0.419
X204.765 Y252.819 I1.565 J0.419
X204.182 Y253.156 I-0.46 J-0.123
G1 X203.722 Y253.033
X203.642 Y253.011 Z-2.693
X203.565 Y252.991 Z-2.671
X203.492 Y252.971 Z-2.636
X203.427 Y252.953 Z-2.589
X203.37 Y252.938 Z-2.53
X203.324 Y252.926 Z-2.462
X203.29 Y252.917 Z-2.387
X203.269 Y252.911 Z-2.307
X203.262 Y252.909 Z-2.224
Z5
X203.509 Y251.99
Z-1.748 F50
Z-2.524
X203.516 Y251.992 Z-2.607 F150
X203.536 Y251.997 Z-2.687
X203.57 Y252.006 Z-2.762
X203.616 Y252.019 Z-2.83
X203.673 Y252.034 Z-2.889
X203.739 Y252.052 Z-2.936
X203.811 Y252.071 Z-2.971
X203.889 Y252.092 Z-2.993
X203.968 Y252.113 Z-3
X204.428 Y252.236
G3 X204.765 Y252.819 I-0.123 J0.46
X201.635 Y251.981 I-1.565 J-0.419
X204.765 Y252.819 I1.565 J0.419
X204.182 Y253.156 I-0.46 J-0.123
G1 X203.722 Y253.033
X203.642 Y253.011 Z-2.993
X203.565 Y252.991 Z-2.971
X203.492 Y252.971 Z-2.936
X203.427 Y252.953 Z-2.889
X203.37 Y252.938 Z-2.83
X203.324 Y252.926 Z-2.762
X203.29 Y252.917 Z-2.687
X203.269 Y252.911 Z-2.607
X203.262 Y252.909 Z-2.524
Z5
X203.509 Y251.99
Z-2.048 F50
Z-2.824
X203.516 Y251.992 Z-2.907 F150
X203.536 Y251.997 Z-2.987
X203.57 Y252.006 Z-3.062
X203.616 Y252.019 Z-3.13
X203.673 Y252.034 Z-3.189
X203.739 Y252.052 Z-3.236
X203.811 Y252.071 Z-3.271
X203.889 Y252.092 Z-3.293
X203.968 Y252.113 Z-3.3
X204.428 Y252.236
G3 X204.765 Y252.819 I-0.123 J0.46
X201.635 Y251.981 I-1.565 J-0.419
X204.765 Y252.819 I1.565 J0.419
X204.182 Y253.156 I-0.46 J-0.123
G1 X203.722 Y253.033
X203.642 Y253.011 Z-3.293
X203.565 Y252.991 Z-3.271
X203.492 Y252.971 Z-3.236
X203.427 Y252.953 Z-3.189
X203.37 Y252.938 Z-3.13
X203.324 Y252.926 Z-3.062
X203.29 Y252.917 Z-2.987
X203.269 Y252.911 Z-2.907
X203.262 Y252.909 Z-2.824
Z5
X203.509 Y251.99
Z-2.348 F50
Z-3.124
X203.516 Y251.992 Z-3.207 F150
X203.536 Y251.997 Z-3.287
X203.57 Y252.006 Z-3.362
X203.616 Y252.019 Z-3.43
X203.673 Y252.034 Z-3.489
X203.739 Y252.052 Z-3.536
X203.811 Y252.071 Z-3.571
X203.889 Y252.092 Z-3.593
X203.968 Y252.113 Z-3.6
X204.428 Y252.236
G3 X204.765 Y252.819 I-0.123 J0.46
X201.635 Y251.981 I-1.565 J-0.419
X204.765 Y252.819 I1.565 J0.419
X204.182 Y253.156 I-0.46 J-0.123
G1 X203.722 Y253.033
X203.642 Y253.011 Z-3.593
X203.565 Y252.991 Z-3.571
X203.492 Y252.971 Z-3.536
X203.427 Y252.953 Z-3.489
X203.37 Y252.938 Z-3.43
X203.324 Y252.926 Z-3.362
X203.29 Y252.917 Z-3.287
X203.269 Y252.911 Z-3.207
X203.262 Y252.909 Z-3.124
Z5
X203.509 Y251.99
Z-2.648 F50
Z-3.424
X203.516 Y251.992 Z-3.507 F150
X203.536 Y251.997 Z-3.587
X203.57 Y252.006 Z-3.662
X203.616 Y252.019 Z-3.73
X203.673 Y252.034 Z-3.789
X203.739 Y252.052 Z-3.836
X203.811 Y252.071 Z-3.871
X203.889 Y252.092 Z-3.893
X203.968 Y252.113 Z-3.9
X204.428 Y252.236
G3 X204.765 Y252.819 I-0.123 J0.46
X201.635 Y251.981 I-1.565 J-0.419
X204.765 Y252.819 I1.565 J0.419
X204.182 Y253.156 I-0.46 J-0.123
G1 X203.722 Y253.033
X203.642 Y253.011 Z-3.893
X203.565 Y252.991 Z-3.871
X203.492 Y252.971 Z-3.836
X203.427 Y252.953 Z-3.789
X203.37 Y252.938 Z-3.73
X203.324 Y252.926 Z-3.662
X203.29 Y252.917 Z-3.587
X203.269 Y252.911 Z-3.507
X203.262 Y252.909 Z-3.424
Z5
X203.509 Y251.99
Z-2.948 F50
Z-3.724
X203.516 Y251.992 Z-3.807 F150
X203.536 Y251.997 Z-3.887
X203.57 Y252.006 Z-3.962
X203.616 Y252.019 Z-4.03
X203.673 Y252.034 Z-4.089
X203.739 Y252.052 Z-4.136
X203.811 Y252.071 Z-4.171
X203.889 Y252.092 Z-4.193
X203.968 Y252.113 Z-4.2
X204.428 Y252.236
G3 X204.765 Y252.819 I-0.123 J0.46
X201.635 Y251.981 I-1.565 J-0.419
X204.765 Y252.819 I1.565 J0.419
X204.182 Y253.156 I-0.46 J-0.123
G1 X203.722 Y253.033
X203.642 Y253.011 Z-4.193
X203.565 Y252.991 Z-4.171
X203.492 Y252.971 Z-4.136
X203.427 Y252.953 Z-4.089
X203.37 Y252.938 Z-4.03
X203.324 Y252.926 Z-3.962
X203.29 Y252.917 Z-3.887
X203.269 Y252.911 Z-3.807
X203.262 Y252.909 Z-3.724
Z5
X203.509 Y251.99
Z-3.248 F50
Z-4.024
X203.516 Y251.992 Z-4.107 F150
X203.536 Y251.997 Z-4.187
X203.57 Y252.006 Z-4.262
X203.616 Y252.019 Z-4.33
X203.673 Y252.034 Z-4.389
X203.739 Y252.052 Z-4.436
X203.811 Y252.071 Z-4.471
X203.889 Y252.092 Z-4.493
X203.968 Y252.113 Z-4.5
X204.428 Y252.236
G3 X204.765 Y252.819 I-0.123 J0.46
X201.635 Y251.981 I-1.565 J-0.419
X204.765 Y252.819 I1.565 J0.419
X204.182 Y253.156 I-0.46 J-0.123
G1 X203.722 Y253.033
X203.642 Y253.011 Z-4.493
X203.565 Y252.991 Z-4.471
X203.492 Y252.971 Z-4.436
X203.427 Y252.953 Z-4.389
X203.37 Y252.938 Z-4.33
X203.324 Y252.926 Z-4.262
X203.29 Y252.917 Z-4.187
X203.269 Y252.911 Z-4.107
X203.262 Y252.909 Z-4.024
Z5
X203.509 Y251.99
Z-3.548 F50
Z-4.324
X203.516 Y251.992 Z-4.407 F150
X203.536 Y251.997 Z-4.487
X203.57 Y252.006 Z-4.562
X203.616 Y252.019 Z-4.63
X203.673 Y252.034 Z-4.689
X203.739 Y252.052 Z-4.736
X203.811 Y252.071 Z-4.771
X203.889 Y252.092 Z-4.793
X203.968 Y252.113 Z-4.8
X204.428 Y252.236
G3 X204.765 Y252.819 I-0.123 J0.46
X201.635 Y251.981 I-1.565 J-0.419
X204.765 Y252.819 I1.565 J0.419
X204.182 Y253.156 I-0.46 J-0.123
G1 X203.722 Y253.033
X203.642 Y253.011 Z-4.793
X203.565 Y252.991 Z-4.771
X203.492 Y252.971 Z-4.736
X203.427 Y252.953 Z-4.689
X203.37 Y252.938 Z-4.63
X203.324 Y252.926 Z-4.562
X203.29 Y252.917 Z-4.487
X203.269 Y252.911 Z-4.407
X203.262 Y252.909 Z-4.324
Z5
X203.509 Y251.99
Z-3.848 F50
Z-4.524
X203.516 Y251.992 Z-4.607 F150
X203.536 Y251.997 Z-4.687
X203.57 Y252.006 Z-4.762
X203.616 Y252.019 Z-4.83
X203.673 Y252.034 Z-4.889
X203.739 Y252.052 Z-4.936
X203.811 Y252.071 Z-4.971
X203.889 Y252.092 Z-4.993
X203.968 Y252.113 Z-5
X204.428 Y252.236
G3 X204.765 Y252.819 I-0.123 J0.46
X201.635 Y251.981 I-1.565 J-0.419
X204.765 Y252.819 I1.565 J0.419
X204.182 Y253.156 I-0.46 J-0.123
G1 X203.722 Y253.033
X203.642 Y253.011 Z-4.993
X203.565 Y252.991 Z-4.971
X203.492 Y252.971 Z-4.936
X203.427 Y252.953 Z-4.889
X203.37 Y252.938 Z-4.83
X203.324 Y252.926 Z-4.762
X203.29 Y252.917 Z-4.687
X203.269 Y252.911 Z-4.607
X203.262 Y252.909 Z-4.524
Z5
X253.392 Y251.924
Z0.952 F50
Z0.176
G18 G2 X253.868 Z-0.3 I0.476 K0 F150
G1 X254.344
G17 G3 X254.82 Y252.4 I0 J0.476
X251.58 Y252.4 I-1.62 J0
X254.82 Y252.4 I1.62 J0
X254.344 Y252.876 I-0.476 J0
G1 X253.868
G18 G3 X253.392 Z0.176 I0 K0.476
G1 Z5
Y251.924
Z0.652 F50
Z-0.124
G2 X253.868 Z-0.6 I0.476 K0 F150
G1 X254.344
G17 G3 X254.82 Y252.4 I0 J0.476
X251.58 Y252.4 I-1.62 J0
X254.82 Y252.4 I1.62 J0
X254.344 Y252.876 I-0.476 J0
G1 X253.868
G18 G3 X253.392 Z-0.124 I0 K0.476
G1 Z5
Y251.924
Z0.352 F50
Z-0.424
G2 X253.868 Z-0.9 I0.476 K0 F150
G1 X254.344
G17 G3 X254.82 Y252.4 I0 J0.476
X251.58 Y252.4 I-1.62 J0
X254.82 Y252.4 I1.62 J0
X254.344 Y252.876 I-0.476 J0
G1 X253.868
G18 G3 X253.392 Z-0.424 I0 K0.476
G1 Z5
Y251.924
Z0.052 F50
Z-0.724
G2 X253.868 Z-1.2 I0.476 K0 F150
G1 X254.344
G17 G3 X254.82 Y252.4 I0 J0.476
X251.58 Y252.4 I-1.62 J0
X254.82 Y252.4 I1.62 J0
X254.344 Y252.876 I-0.476 J0
G1 X253.868
G18 G3 X253.392 Z-0.724 I0 K0.476
G1 Z5
Y251.924
Z-0.248 F50
Z-1.024
G2 X253.868 Z-1.5 I0.476 K0 F150
G1 X254.344
G17 G3 X254.82 Y252.4 I0 J0.476
X251.58 Y252.4 I-1.62 J0
X254.82 Y252.4 I1.62 J0
X254.344 Y252.876 I-0.476 J0
G1 X253.868
G18 G3 X253.392 Z-1.024 I0 K0.476
G1 Z5
Y251.924
Z-0.548 F50
Z-1.324
G2 X253.868 Z-1.8 I0.476 K0 F150
G1 X254.344
G17 G3 X254.82 Y252.4 I0 J0.476
X251.58 Y252.4 I-1.62 J0
X254.82 Y252.4 I1.62 J0
X254.344 Y252.876 I-0.476 J0
G1 X253.868
G18 G3 X253.392 Z-1.324 I0 K0.476
G1 Z5
Y251.924
Z-0.848 F50
Z-1.624
G2 X253.868 Z-2.1 I0.476 K0 F150
G1 X254.344
G17 G3 X254.82 Y252.4 I0 J0.476
X251.58 Y252.4 I-1.62 J0
X254.82 Y252.4 I1.62 J0
X254.344 Y252.876 I-0.476 J0
G1 X253.868
G18 G3 X253.392 Z-1.624 I0 K0.476
G1 Z5
Y251.924
Z-1.148 F50
Z-1.924
G2 X253.868 Z-2.4 I0.476 K0 F150
G1 X254.344
G17 G3 X254.82 Y252.4 I0 J0.476
X251.58 Y252.4 I-1.62 J0
X254.82 Y252.4 I1.62 J0
X254.344 Y252.876 I-0.476 J0
G1 X253.868
G18 G3 X253.392 Z-1.924 I0 K0.476
G1 Z5
Y251.924
Z-1.448 F50
Z-2.224
G2 X253.868 Z-2.7 I0.476 K0 F150
G1 X254.344
G17 G3 X254.82 Y252.4 I0 J0.476
X251.58 Y252.4 I-1.62 J0
X254.82 Y252.4 I1.62 J0
X254.344 Y252.876 I-0.476 J0
G1 X253.868
G18 G3 X253.392 Z-2.224 I0 K0.476
G1 Z5
Y251.924
Z-1.748 F50
Z-2.524
G2 X253.868 Z-3 I0.476 K0 F150
G1 X254.344
G17 G3 X254.82 Y252.4 I0 J0.476
X251.58 Y252.4 I-1.62 J0
X254.82 Y252.4 I1.62 J0
X254.344 Y252.876 I-0.476 J0
G1 X253.868
G18 G3 X253.392 Z-2.524 I0 K0.476
G1 Z5
Y251.924
Z-2.048 F50
Z-2.824
G2 X253.868 Z-3.3 I0.476 K0 F150
G1 X254.344
G17 G3 X254.82 Y252.4 I0 J0.476
X251.58 Y252.4 I-1.62 J0
X254.82 Y252.4 I1.62 J0
X254.344 Y252.876 I-0.476 J0
G1 X253.868
G18 G3 X253.392 Z-2.824 I0 K0.476
G1 Z5
Y251.924
Z-2.348 F50
Z-3.124
G2 X253.868 Z-3.6 I0.476 K0 F150
G1 X254.344
G17 G3 X254.82 Y252.4 I0 J0.476
X251.58 Y252.4 I-1.62 J0
X254.82 Y252.4 I1.62 J0
X254.344 Y252.876 I-0.476 J0
G1 X253.868
G18 G3 X253.392 Z-3.124 I0 K0.476
G1 Z5
Y251.924
Z-2.648 F50
Z-3.424
G2 X253.868 Z-3.9 I0.476 K0 F150
G1 X254.344
G17 G3 X254.82 Y252.4 I0 J0.476
X251.58 Y252.4 I-1.62 J0
X254.82 Y252.4 I1.62 J0
X254.344 Y252.876 I-0.476 J0
G1 X253.868
G18 G3 X253.392 Z-3.424 I0 K0.476
G1 Z5
Y251.924
Z-2.948 F50
Z-3.724
G2 X253.868 Z-4.2 I0.476 K0 F150
G1 X254.344
G17 G3 X254.82 Y252.4 I0 J0.476
X251.58 Y252.4 I-1.62 J0
X254.82 Y252.4 I1.62 J0
X254.344 Y252.876 I-0.476 J0
G1 X253.868
G18 G3 X253.392 Z-3.724 I0 K0.476
G1 Z5
Y251.924
Z-3.248 F50
Z-4.024
G2 X253.868 Z-4.5 I0.476 K0 F150
G1 X254.344
G17 G3 X254.82 Y252.4 I0 J0.476
X251.58 Y252.4 I-1.62 J0
X254.82 Y252.4 I1.62 J0
X254.344 Y252.876 I-0.476 J0
G1 X253.868
G18 G3 X253.392 Z-4.024 I0 K0.476
G1 Z5
Y251.924
Z-3.548 F50
Z-4.324
G2 X253.868 Z-4.8 I0.476 K0 F150
G1 X254.344
G17 G3 X254.82 Y252.4 I0 J0.476
X251.58 Y252.4 I-1.62 J0
X254.82 Y252.4 I1.62 J0
X254.344 Y252.876 I-0.476 J0
G1 X253.868
G18 G3 X253.392 Z-4.324 I0 K0.476
G1 Z5
Y251.924
Z-3.848 F50
Z-4.524
G2 X253.868 Z-5 I0.476 K0 F150
G1 X254.344
G17 G3 X254.82 Y252.4 I0 J0.476
X251.58 Y252.4 I-1.62 J0
X254.82 Y252.4 I1.62 J0
X254.344 Y252.876 I-0.476 J0
G1 X253.868
G18 G3 X253.392 Z-4.524 I0 K0.476
G1 Z15
G17
(When using Fusion for Personal Use, the feedrate of rapid)
(moves is reduced to match the feedrate of cutting moves,)
(which can increase machining time. Unrestricted rapid moves)
(are available with a Fusion Subscription.)

(2D Contour3)
G0 X118.392 Y151.924
G1 Z15 F150
Z5
Z0.952 F50
Z0.176
G18 G2 X118.868 Z-0.3 I0.476 K0 F150
G1 X119.344
G17 G3 X119.82 Y152.4 I0 J0.476
X116.58 Y152.4 I-1.62 J0
X119.82 Y152.4 I1.62 J0
X119.344 Y152.876 I-0.476 J0
G1 X118.868
G18 G3 X118.392 Z0.176 I0 K0.476
G1 Z5
Y151.924
Z0.652 F50
Z-0.124
G2 X118.868 Z-0.6 I0.476 K0 F150
G1 X119.344
G17 G3 X119.82 Y152.4 I0 J0.476
X116.58 Y152.4 I-1.62 J0
X119.82 Y152.4 I1.62 J0
X119.344 Y152.876 I-0.476 J0
G1 X118.868
G18 G3 X118.392 Z-0.124 I0 K0.476
G1 Z5
Y151.924
Z0.352 F50
Z-0.424
G2 X118.868 Z-0.9 I0.476 K0 F150
G1 X119.344
G17 G3 X119.82 Y152.4 I0 J0.476
X116.58 Y152.4 I-1.62 J0
X119.82 Y152.4 I1.62 J0
X119.344 Y152.876 I-0.476 J0
G1 X118.868
G18 G3 X118.392 Z-0.424 I0 K0.476
G1 Z5
Y151.924
Z0.052 F50
Z-0.724
G2 X118.868 Z-1.2 I0.476 K0 F150
G1 X119.344
G17 G3 X119.82 Y152.4 I0 J0.476
X116.58 Y152.4 I-1.62 J0
X119.82 Y152.4 I1.62 J0
X119.344 Y152.876 I-0.476 J0
G1 X118.868
G18 G3 X118.392 Z-0.724 I0 K0.476
G1 Z5
Y151.924
Z-0.248 F50
Z-1.024
G2 X118.868 Z-1.5 I0.476 K0 F150
G1 X119.344
G17 G3 X119.82 Y152.4 I0 J0.476
X116.58 Y152.4 I-1.62 J0
X119.82 Y152.4 I1.62 J0
X119.344 Y152.876 I-0.476 J0
G1 X118.868
G18 G3 X118.392 Z-1.024 I0 K0.476
G1 Z5
Y151.924
Z-0.548 F50
Z-1.324
G2 X118.868 Z-1.8 I0.476 K0 F150
G1 X119.344
G17 G3 X119.82 Y152.4 I0 J0.476
X116.58 Y152.4 I-1.62 J0
X119.82 Y152.4 I1.62 J0
X119.344 Y152.876 I-0.476 J0
G1 X118.868
G18 G3 X118.392 Z-1.324 I0 K0.476
G1 Z5
Y151.924
Z-0.848 F50
Z-1.624
G2 X118.868 Z-2.1 I0.476 K0 F150
G1 X119.344
G17 G3 X119.82 Y152.4 I0 J0.476
X116.58 Y152.4 I-1.62 J0
X119.82 Y152.4 I1.62 J0
X119.344 Y152.876 I-0.476 J0
G1 X118.868
G18 G3 X118.392 Z-1.624 I0 K0.476
G1 Z5
Y151.924
Z-1.148 F50
Z-1.924
G2 X118.868 Z-2.4 I0.476 K0 F150
G1 X119.344
G17 G3 X119.82 Y152.4 I0 J0.476
X116.58 Y152.4 I-1.62 J0
X119.82 Y152.4 I1.62 J0
X119.344 Y152.876 I-0.476 J0
G1 X118.868
G18 G3 X118.392 Z-1.924 I0 K0.476
G1 Z5
Y151.924
Z-1.448 F50
Z-2.224
G2 X118.868 Z-2.7 I0.476 K0 F150
G1 X119.344
G17 G3 X119.82 Y152.4 I0 J0.476
X116.58 Y152.4 I-1.62 J0
X119.82 Y152.4 I1.62 J0
X119.344 Y152.876 I-0.476 J0
G1 X118.868
G18 G3 X118.392 Z-2.224 I0 K0.476
G1 Z5
Y151.924
Z-1.748 F50
Z-2.524
G2 X118.868 Z-3 I0.476 K0 F150
G1 X119.344
G17 G3 X119.82 Y152.4 I0 J0.476
X116.58 Y152.4 I-1.62 J0
X119.82 Y152.4 I1.62 J0
X119.344 Y152.876 I-0.476 J0
G1 X118.868
G18 G3 X118.392 Z-2.524 I0 K0.476
G1 Z5
Y151.924
Z-2.048 F50
Z-2.824
G2 X118.868 Z-3.3 I0.476 K0 F150
G1 X119.344
G17 G3 X119.82 Y152.4 I0 J0.476
X116.58 Y152.4 I-1.62 J0
X119.82 Y152.4 I1.62 J0
X119.344 Y152.876 I-0.476 J0
G1 X118.868
G18 G3 X118.392 Z-2.824 I0 K0.476
G1 Z5
Y151.924
Z-2.348 F50
Z-3.124
G2 X118.868 Z-3.6 I0.476 K0 F150
G1 X119.344
G17 G3 X119.82 Y152.4 I0 J0.476
X116.58 Y152.4 I-1.62 J0
X119.82 Y152.4 I1.62 J0
X119.344 Y152.876 I-0.476 J0
G1 X118.868
G18 G3 X118.392 Z-3.124 I0 K0.476
G1 Z5
Y151.924
Z-2.648 F50
Z-3.424
G2 X118.868 Z-3.9 I0.476 K0 F150
G1 X119.344
G17 G3 X119.82 Y152.4 I0 J0.476
X116.58 Y152.4 I-1.62 J0
X119.82 Y152.4 I1.62 J0
X119.344 Y152.876 I-0.476 J0
G1 X118.868
G18 G3 X118.392 Z-3.424 I0 K0.476
G1 Z5
Y151.924
Z-2.948 F50
Z-3.724
G2 X118.868 Z-4.2 I0.476 K0 F150
G1 X119.344
G17 G3 X119.82 Y152.4 I0 J0.476
X116.58 Y152.4 I-1.62 J0
X119.82 Y152.4 I1.62 J0
X119.344 Y152.876 I-0.476 J0
G1 X118.868
G18 G3 X118.392 Z-3.724 I0 K0.476
G1 Z5
Y151.924
Z-3.248 F50
Z-4.024
G2 X118.868 Z-4.5 I0.476 K0 F150
G1 X119.344
G17 G3 X119.82 Y152.4 I0 J0.476
X116.58 Y152.4 I-1.62 J0
X119.82 Y152.4 I1.62 J0
X119.344 Y152.876 I-0.476 J0
G1 X118.868
G18 G3 X118.392 Z-4.024 I0 K0.476
G1 Z5
Y151.924
Z-3.548 F50
Z-4.324
G2 X118.868 Z-4.8 I0.476 K0 F150
G1 X119.344
G17 G3 X119.82 Y152.4 I0 J0.476
X116.58 Y152.4 I-1.62 J0
X119.82 Y152.4 I1.62 J0
X119.344 Y152.876 I-0.476 J0
G1 X118.868
G18 G3 X118.392 Z-4.324 I0 K0.476
G1 Z5
Y151.924
Z-3.848 F50
Z-4.624
G2 X118.868 Z-5.1 I0.476 K0 F150
G1 X119.344
G17 G3 X119.82 Y152.4 I0 J0.476
X116.58 Y152.4 I-1.62 J0
X119.82 Y152.4 I1.62 J0
X119.344 Y152.876 I-0.476 J0
G1 X118.868
G18 G3 X118.392 Z-4.624 I0 K0.476
G1 Z5
Y151.924
Z-4.148 F50
Z-4.924
G2 X118.868 Z-5.4 I0.476 K0 F150
G1 X119.344
G17 G3 X119.82 Y152.4 I0 J0.476
X116.58 Y152.4 I-1.62 J0
X119.82 Y152.4 I1.62 J0
X119.344 Y152.876 I-0.476 J0
G1 X118.868
G18 G3 X118.392 Z-4.924 I0 K0.476
G1 Z5
Y151.924
Z-4.448 F50
Z-5.224
G2 X118.868 Z-5.7 I0.476 K0 F150
G1 X119.344
G17 G3 X119.82 Y152.4 I0 J0.476
X116.58 Y152.4 I-1.62 J0
X119.82 Y152.4 I1.62 J0
X119.344 Y152.876 I-0.476 J0
G1 X118.868
G18 G3 X118.392 Z-5.224 I0 K0.476
G1 Z5
Y151.924
Z-4.748 F50
Z-5.524
G2 X118.868 Z-6 I0.476 K0 F150
G1 X119.344
G17 G3 X119.82 Y152.4 I0 J0.476
X116.58 Y152.4 I-1.62 J0
X119.82 Y152.4 I1.62 J0
X119.344 Y152.876 I-0.476 J0
G1 X118.868
G18 G3 X118.392 Z-5.524 I0 K0.476
G1 Z5
Y151.924
Z-5.048 F50
Z-5.824
G2 X118.868 Z-6.3 I0.476 K0 F150
G1 X119.344
G17 G3 X119.82 Y152.4 I0 J0.476
X116.58 Y152.4 I-1.62 J0
X119.82 Y152.4 I1.62 J0
X119.344 Y152.876 I-0.476 J0
G1 X118.868
G18 G3 X118.392 Z-5.824 I0 K0.476
G1 Z5
Y151.924
Z-5.348 F50
Z-6.124
G2 X118.868 Z-6.6 I0.476 K0 F150
G1 X119.344
G17 G3 X119.82 Y152.4 I0 J0.476
X116.58 Y152.4 I-1.62 J0
X119.82 Y152.4 I1.62 J0
X119.344 Y152.876 I-0.476 J0
G1 X118.868
G18 G3 X118.392 Z-6.124 I0 K0.476
G1 Z5
Y151.924
Z-5.648 F50
Z-6.424
G2 X118.868 Z-6.9 I0.476 K0 F150
G1 X119.344
G17 G3 X119.82 Y152.4 I0 J0.476
X116.58 Y152.4 I-1.62 J0
X119.82 Y152.4 I1.62 J0
X119.344 Y152.876 I-0.476 J0
G1 X118.868
G18 G3 X118.392 Z-6.424 I0 K0.476
G1 Z5
Y151.924
Z-5.948 F50
Z-6.724
G2 X118.868 Z-7.2 I0.476 K0 F150
G1 X119.344
G17 G3 X119.82 Y152.4 I0 J0.476
X116.58 Y152.4 I-1.62 J0
X119.82 Y152.4 I1.62 J0
X119.344 Y152.876 I-0.476 J0
G1 X118.868
G18 G3 X118.392 Z-6.724 I0 K0.476
G1 Z5
Y151.924
Z-6.248 F50
Z-6.899
G2 X118.868 Z-7.375 I0.476 K0 F150
G1 X119.344
G17 G3 X119.82 Y152.4 I0 J0.476
X116.58 Y152.4 I-1.62 J0
X119.82 Y152.4 I1.62 J0
X119.344 Y152.876 I-0.476 J0
G1 X118.868
G18 G3 X118.392 Z-6.899 I0 K0.476
G1 Z5
Y151.924
Z-6.423 F50
Z-7.074
G2 X118.868 Z-7.55 I0.476 K0 F150
G1 X119.344
G17 G3 X119.82 Y152.4 I0 J0.476
X116.58 Y152.4 I-1.62 J0
X119.82 Y152.4 I1.62 J0
X119.344 Y152.876 I-0.476 J0
G1 X118.868
G18 G3 X118.392 Z-7.074 I0 K0.476
G1 Z5
X204.454 Y152.127
Z0.952 F50
Z0.176
X204.461 Y152.128 Z0.093 F150
X204.482 Y152.131 Z0.013
X204.517 Y152.137 Z-0.062
X204.564 Y152.145 Z-0.13
X204.622 Y152.155 Z-0.189
X204.689 Y152.166 Z-0.236
X204.763 Y152.178 Z-0.271
X204.842 Y152.191 Z-0.293
X204.924 Y152.205 Z-0.3
X205.393 Y152.283
G17 G3 X205.784 Y152.831 I-0.078 J0.469
X200.616 Y151.969 I-2.584 J-0.431
X205.784 Y152.831 I2.584 J0.431
X205.236 Y153.222 I-0.47 J-0.078
G1 X204.767 Y153.144
X204.685 Y153.13 Z-0.293
X204.606 Y153.117 Z-0.271
X204.532 Y153.105 Z-0.236
X204.465 Y153.094 Z-0.189
X204.407 Y153.084 Z-0.13
X204.36 Y153.076 Z-0.062
X204.326 Y153.07 Z0.013
X204.305 Y153.067 Z0.093
X204.297 Y153.066 Z0.176
Z5
X204.454 Y152.127
Z0.652 F50
Z-0.124
X204.461 Y152.128 Z-0.207 F150
X204.482 Y152.131 Z-0.287
X204.517 Y152.137 Z-0.362
X204.564 Y152.145 Z-0.43
X204.622 Y152.155 Z-0.489
X204.689 Y152.166 Z-0.536
X204.763 Y152.178 Z-0.571
X204.842 Y152.191 Z-0.593
X204.924 Y152.205 Z-0.6
X205.393 Y152.283
G3 X205.784 Y152.831 I-0.078 J0.469
X200.616 Y151.969 I-2.584 J-0.431
X205.784 Y152.831 I2.584 J0.431
X205.236 Y153.222 I-0.47 J-0.078
G1 X204.767 Y153.144
X204.685 Y153.13 Z-0.593
X204.606 Y153.117 Z-0.571
X204.532 Y153.105 Z-0.536
X204.465 Y153.094 Z-0.489
X204.407 Y153.084 Z-0.43
X204.36 Y153.076 Z-0.362
X204.326 Y153.07 Z-0.287
X204.305 Y153.067 Z-0.207
X204.297 Y153.066 Z-0.124
Z5
X204.454 Y152.127
Z0.352 F50
Z-0.424
X204.461 Y152.128 Z-0.507 F150
X204.482 Y152.131 Z-0.587
X204.517 Y152.137 Z-0.662
X204.564 Y152.145 Z-0.73
X204.622 Y152.155 Z-0.789
X204.689 Y152.166 Z-0.836
X204.763 Y152.178 Z-0.871
X204.842 Y152.191 Z-0.893
X204.924 Y152.205 Z-0.9
X205.393 Y152.283
G3 X205.784 Y152.831 I-0.078 J0.469
X200.616 Y151.969 I-2.584 J-0.431
X205.784 Y152.831 I2.584 J0.431
X205.236 Y153.222 I-0.47 J-0.078
G1 X204.767 Y153.144
X204.685 Y153.13 Z-0.893
X204.606 Y153.117 Z-0.871
X204.532 Y153.105 Z-0.836
X204.465 Y153.094 Z-0.789
X204.407 Y153.084 Z-0.73
X204.36 Y153.076 Z-0.662
X204.326 Y153.07 Z-0.587
X204.305 Y153.067 Z-0.507
X204.297 Y153.066 Z-0.424
Z5
X204.454 Y152.127
Z0.052 F50
Z-0.724
X204.461 Y152.128 Z-0.807 F150
X204.482 Y152.131 Z-0.887
X204.517 Y152.137 Z-0.962
X204.564 Y152.145 Z-1.03
X204.622 Y152.155 Z-1.089
X204.689 Y152.166 Z-1.136
X204.763 Y152.178 Z-1.171
X204.842 Y152.191 Z-1.193
X204.924 Y152.205 Z-1.2
X205.393 Y152.283
G3 X205.784 Y152.831 I-0.078 J0.469
X200.616 Y151.969 I-2.584 J-0.431
X205.784 Y152.831 I2.584 J0.431
X205.236 Y153.222 I-0.47 J-0.078
G1 X204.767 Y153.144
X204.685 Y153.13 Z-1.193
X204.606 Y153.117 Z-1.171
X204.532 Y153.105 Z-1.136
X204.465 Y153.094 Z-1.089
X204.407 Y153.084 Z-1.03
X204.36 Y153.076 Z-0.962
X204.326 Y153.07 Z-0.887
X204.305 Y153.067 Z-0.807
X204.297 Y153.066 Z-0.724
Z5
X204.454 Y152.127
Z-0.248 F50
Z-1.024
X204.461 Y152.128 Z-1.107 F150
X204.482 Y152.131 Z-1.187
X204.517 Y152.137 Z-1.262
X204.564 Y152.145 Z-1.33
X204.622 Y152.155 Z-1.389
X204.689 Y152.166 Z-1.436
X204.763 Y152.178 Z-1.471
X204.842 Y152.191 Z-1.493
X204.924 Y152.205 Z-1.5
X205.393 Y152.283
G3 X205.784 Y152.831 I-0.078 J0.469
X200.616 Y151.969 I-2.584 J-0.431
X205.784 Y152.831 I2.584 J0.431
X205.236 Y153.222 I-0.47 J-0.078
G1 X204.767 Y153.144
X204.685 Y153.13 Z-1.493
X204.606 Y153.117 Z-1.471
X204.532 Y153.105 Z-1.436
X204.465 Y153.094 Z-1.389
X204.407 Y153.084 Z-1.33
X204.36 Y153.076 Z-1.262
X204.326 Y153.07 Z-1.187
X204.305 Y153.067 Z-1.107
X204.297 Y153.066 Z-1.024
Z5
X204.454 Y152.127
Z-0.548 F50
Z-1.324
X204.461 Y152.128 Z-1.407 F150
X204.482 Y152.131 Z-1.487
X204.517 Y152.137 Z-1.562
X204.564 Y152.145 Z-1.63
X204.622 Y152.155 Z-1.689
X204.689 Y152.166 Z-1.736
X204.763 Y152.178 Z-1.771
X204.842 Y152.191 Z-1.793
X204.924 Y152.205 Z-1.8
X205.393 Y152.283
G3 X205.784 Y152.831 I-0.078 J0.469
X200.616 Y151.969 I-2.584 J-0.431
X205.784 Y152.831 I2.584 J0.431
X205.236 Y153.222 I-0.47 J-0.078
G1 X204.767 Y153.144
X204.685 Y153.13 Z-1.793
X204.606 Y153.117 Z-1.771
X204.532 Y153.105 Z-1.736
X204.465 Y153.094 Z-1.689
X204.407 Y153.084 Z-1.63
X204.36 Y153.076 Z-1.562
X204.326 Y153.07 Z-1.487
X204.305 Y153.067 Z-1.407
X204.297 Y153.066 Z-1.324
Z5
X204.454 Y152.127
Z-0.848 F50
Z-1.624
X204.461 Y152.128 Z-1.707 F150
X204.482 Y152.131 Z-1.787
X204.517 Y152.137 Z-1.862
X204.564 Y152.145 Z-1.93
X204.622 Y152.155 Z-1.989
X204.689 Y152.166 Z-2.036
X204.763 Y152.178 Z-2.071
X204.842 Y152.191 Z-2.093
X204.924 Y152.205 Z-2.1
X205.393 Y152.283
G3 X205.784 Y152.831 I-0.078 J0.469
X200.616 Y151.969 I-2.584 J-0.431
X205.784 Y152.831 I2.584 J0.431
X205.236 Y153.222 I-0.47 J-0.078
G1 X204.767 Y153.144
X204.685 Y153.13 Z-2.093
X204.606 Y153.117 Z-2.071
X204.532 Y153.105 Z-2.036
X204.465 Y153.094 Z-1.989
X204.407 Y153.084 Z-1.93
X204.36 Y153.076 Z-1.862
X204.326 Y153.07 Z-1.787
X204.305 Y153.067 Z-1.707
X204.297 Y153.066 Z-1.624
Z5
X204.454 Y152.127
Z-1.148 F50
Z-1.924
X204.461 Y152.128 Z-2.007 F150
X204.482 Y152.131 Z-2.087
X204.517 Y152.137 Z-2.162
X204.564 Y152.145 Z-2.23
X204.622 Y152.155 Z-2.289
X204.689 Y152.166 Z-2.336
X204.763 Y152.178 Z-2.371
X204.842 Y152.191 Z-2.393
X204.924 Y152.205 Z-2.4
X205.393 Y152.283
G3 X205.784 Y152.831 I-0.078 J0.469
X200.616 Y151.969 I-2.584 J-0.431
X205.784 Y152.831 I2.584 J0.431
X205.236 Y153.222 I-0.47 J-0.078
G1 X204.767 Y153.144
X204.685 Y153.13 Z-2.393
X204.606 Y153.117 Z-2.371
X204.532 Y153.105 Z-2.336
X204.465 Y153.094 Z-2.289
X204.407 Y153.084 Z-2.23
X204.36 Y153.076 Z-2.162
X204.326 Y153.07 Z-2.087
X204.305 Y153.067 Z-2.007
X204.297 Y153.066 Z-1.924
Z5
X204.454 Y152.127
Z-1.448 F50
Z-2.224
X204.461 Y152.128 Z-2.307 F150
X204.482 Y152.131 Z-2.387
X204.517 Y152.137 Z-2.462
X204.564 Y152.145 Z-2.53
X204.622 Y152.155 Z-2.589
X204.689 Y152.166 Z-2.636
X204.763 Y152.178 Z-2.671
X204.842 Y152.191 Z-2.693
X204.924 Y152.205 Z-2.7
X205.393 Y152.283
G3 X205.784 Y152.831 I-0.078 J0.469
X200.616 Y151.969 I-2.584 J-0.431
X205.784 Y152.831 I2.584 J0.431
X205.236 Y153.222 I-0.47 J-0.078
G1 X204.767 Y153.144
X204.685 Y153.13 Z-2.693
X204.606 Y153.117 Z-2.671
X204.532 Y153.105 Z-2.636
X204.465 Y153.094 Z-2.589
X204.407 Y153.084 Z-2.53
X204.36 Y153.076 Z-2.462
X204.326 Y153.07 Z-2.387
X204.305 Y153.067 Z-2.307
X204.297 Y153.066 Z-2.224
Z5
X204.454 Y152.127
Z-1.748 F50
Z-2.524
X204.461 Y152.128 Z-2.607 F150
X204.482 Y152.131 Z-2.687
X204.517 Y152.137 Z-2.762
X204.564 Y152.145 Z-2.83
X204.622 Y152.155 Z-2.889
X204.689 Y152.166 Z-2.936
X204.763 Y152.178 Z-2.971
X204.842 Y152.191 Z-2.993
X204.924 Y152.205 Z-3
X205.393 Y152.283
G3 X205.784 Y152.831 I-0.078 J0.469
X200.616 Y151.969 I-2.584 J-0.431
X205.784 Y152.831 I2.584 J0.431
X205.236 Y153.222 I-0.47 J-0.078
G1 X204.767 Y153.144
X204.685 Y153.13 Z-2.993
X204.606 Y153.117 Z-2.971
X204.532 Y153.105 Z-2.936
X204.465 Y153.094 Z-2.889
X204.407 Y153.084 Z-2.83
X204.36 Y153.076 Z-2.762
X204.326 Y153.07 Z-2.687
X204.305 Y153.067 Z-2.607
X204.297 Y153.066 Z-2.524
Z5
X204.454 Y152.127
Z-2.048 F50
Z-2.824
X204.461 Y152.128 Z-2.907 F150
X204.482 Y152.131 Z-2.987
X204.517 Y152.137 Z-3.062
X204.564 Y152.145 Z-3.13
X204.622 Y152.155 Z-3.189
X204.689 Y152.166 Z-3.236
X204.763 Y152.178 Z-3.271
X204.842 Y152.191 Z-3.293
X204.924 Y152.205 Z-3.3
X205.393 Y152.283
G3 X205.784 Y152.831 I-0.078 J0.469
X200.616 Y151.969 I-2.584 J-0.431
X205.784 Y152.831 I2.584 J0.431
X205.236 Y153.222 I-0.47 J-0.078
G1 X204.767 Y153.144
X204.685 Y153.13 Z-3.293
X204.606 Y153.117 Z-3.271
X204.532 Y153.105 Z-3.236
X204.465 Y153.094 Z-3.189
X204.407 Y153.084 Z-3.13
X204.36 Y153.076 Z-3.062
X204.326 Y153.07 Z-2.987
X204.305 Y153.067 Z-2.907
X204.297 Y153.066 Z-2.824
Z5
X204.454 Y152.127
Z-2.348 F50
Z-3.124
X204.461 Y152.128 Z-3.207 F150
X204.482 Y152.131 Z-3.287
X204.517 Y152.137 Z-3.362
X204.564 Y152.145 Z-3.43
X204.622 Y152.155 Z-3.489
X204.689 Y152.166 Z-3.536
X204.763 Y152.178 Z-3.571
X204.842 Y152.191 Z-3.593
X204.924 Y152.205 Z-3.6
X205.393 Y152.283
G3 X205.784 Y152.831 I-0.078 J0.469
X200.616 Y151.969 I-2.584 J-0.431
X205.784 Y152.831 I2.584 J0.431
X205.236 Y153.222 I-0.47 J-0.078
G1 X204.767 Y153.144
X204.685 Y153.13 Z-3.593
X204.606 Y153.117 Z-3.571
X204.532 Y153.105 Z-3.536
X204.465 Y153.094 Z-3.489
X204.407 Y153.084 Z-3.43
X204.36 Y153.076 Z-3.362
X204.326 Y153.07 Z-3.287
X204.305 Y153.067 Z-3.207
X204.297 Y153.066 Z-3.124
Z5
X204.454 Y152.127
Z-2.648 F50
Z-3.424
X204.461 Y152.128 Z-3.507 F150
X204.482 Y152.131 Z-3.587
X204.517 Y152.137 Z-3.662
X204.564 Y152.145 Z-3.73
X204.622 Y152.155 Z-3.789
X204.689 Y152.166 Z-3.836
X204.763 Y152.178 Z-3.871
X204.842 Y152.191 Z-3.893
X204.924 Y152.205 Z-3.9
X205.393 Y152.283
G3 X205.784 Y152.831 I-0.078 J0.469
X200.616 Y151.969 I-2.584 J-0.431
X205.784 Y152.831 I2.584 J0.431
X205.236 Y153.222 I-0.47 J-0.078
G1 X204.767 Y153.144
X204.685 Y153.13 Z-3.893
X204.606 Y153.117 Z-3.871
X204.532 Y153.105 Z-3.836
X204.465 Y153.094 Z-3.789
X204.407 Y153.084 Z-3.73
X204.36 Y153.076 Z-3.662
X204.326 Y153.07 Z-3.587
X204.305 Y153.067 Z-3.507
X204.297 Y153.066 Z-3.424
Z5
X204.454 Y152.127
Z-2.948 F50
Z-3.724
X204.461 Y152.128 Z-3.807 F150
X204.482 Y152.131 Z-3.887
X204.517 Y152.137 Z-3.962
X204.564 Y152.145 Z-4.03
X204.622 Y152.155 Z-4.089
X204.689 Y152.166 Z-4.136
X204.763 Y152.178 Z-4.171
X204.842 Y152.191 Z-4.193
X204.924 Y152.205 Z-4.2
X205.393 Y152.283
G3 X205.784 Y152.831 I-0.078 J0.469
X200.616 Y151.969 I-2.584 J-0.431
X205.784 Y152.831 I2.584 J0.431
X205.236 Y153.222 I-0.47 J-0.078
G1 X204.767 Y153.144
X204.685 Y153.13 Z-4.193
X204.606 Y153.117 Z-4.171
X204.532 Y153.105 Z-4.136
X204.465 Y153.094 Z-4.089
X204.407 Y153.084 Z-4.03
X204.36 Y153.076 Z-3.962
X204.326 Y153.07 Z-3.887
X204.305 Y153.067 Z-3.807
X204.297 Y153.066 Z-3.724
Z5
X204.454 Y152.127
Z-3.248 F50
Z-4.024
X204.461 Y152.128 Z-4.107 F150
X204.482 Y152.131 Z-4.187
X204.517 Y152.137 Z-4.262
X204.564 Y152.145 Z-4.33
X204.622 Y152.155 Z-4.389
X204.689 Y152.166 Z-4.436
X204.763 Y152.178 Z-4.471
X204.842 Y152.191 Z-4.493
X204.924 Y152.205 Z-4.5
X205.393 Y152.283
G3 X205.784 Y152.831 I-0.078 J0.469
X200.616 Y151.969 I-2.584 J-0.431
X205.784 Y152.831 I2.584 J0.431
X205.236 Y153.222 I-0.47 J-0.078
G1 X204.767 Y153.144
X204.685 Y153.13 Z-4.493
X204.606 Y153.117 Z-4.471
X204.532 Y153.105 Z-4.436
X204.465 Y153.094 Z-4.389
X204.407 Y153.084 Z-4.33
X204.36 Y153.076 Z-4.262
X204.326 Y153.07 Z-4.187
X204.305 Y153.067 Z-4.107
X204.297 Y153.066 Z-4.024
Z5
X204.454 Y152.127
Z-3.548 F50
Z-4.324
X204.461 Y152.128 Z-4.407 F150
X204.482 Y152.131 Z-4.487
X204.517 Y152.137 Z-4.562
X204.564 Y152.145 Z-4.63
X204.622 Y152.155 Z-4.689
X204.689 Y152.166 Z-4.736
X204.763 Y152.178 Z-4.771
X204.842 Y152.191 Z-4.793
X204.924 Y152.205 Z-4.8
X205.393 Y152.283
G3 X205.784 Y152.831 I-0.078 J0.469
X200.616 Y151.969 I-2.584 J-0.431
X205.784 Y152.831 I2.584 J0.431
X205.236 Y153.222 I-0.47 J-0.078
G1 X204.767 Y153.144
X204.685 Y153.13 Z-4.793
X204.606 Y153.117 Z-4.771
X204.532 Y153.105 Z-4.736
X204.465 Y153.094 Z-4.689
X204.407 Y153.084 Z-4.63
X204.36 Y153.076 Z-4.562
X204.326 Y153.07 Z-4.487
X204.305 Y153.067 Z-4.407
X204.297 Y153.066 Z-4.324
Z5
X204.454 Y152.127
Z-3.848 F50
Z-4.624
X204.461 Y152.128 Z-4.707 F150
X204.482 Y152.131 Z-4.787
X204.517 Y152.137 Z-4.862
X204.564 Y152.145 Z-4.93
X204.622 Y152.155 Z-4.989
X204.689 Y152.166 Z-5.036
X204.763 Y152.178 Z-5.071
X204.842 Y152.191 Z-5.093
X204.924 Y152.205 Z-5.1
X205.393 Y152.283
G3 X205.784 Y152.831 I-0.078 J0.469
X200.616 Y151.969 I-2.584 J-0.431
X205.784 Y152.831 I2.584 J0.431
X205.236 Y153.222 I-0.47 J-0.078
G1 X204.767 Y153.144
X204.685 Y153.13 Z-5.093
X204.606 Y153.117 Z-5.071
X204.532 Y153.105 Z-5.036
X204.465 Y153.094 Z-4.989
X204.407 Y153.084 Z-4.93
X204.36 Y153.076 Z-4.862
X204.326 Y153.07 Z-4.787
X204.305 Y153.067 Z-4.707
X204.297 Y153.066 Z-4.624
Z5
X204.454 Y152.127
Z-4.148 F50
Z-4.924
X204.461 Y152.128 Z-5.007 F150
X204.482 Y152.131 Z-5.087
X204.517 Y152.137 Z-5.162
X204.564 Y152.145 Z-5.23
X204.622 Y152.155 Z-5.289
X204.689 Y152.166 Z-5.336
X204.763 Y152.178 Z-5.371
X204.842 Y152.191 Z-5.393
X204.924 Y152.205 Z-5.4
X205.393 Y152.283
G3 X205.784 Y152.831 I-0.078 J0.469
X200.616 Y151.969 I-2.584 J-0.431
X205.784 Y152.831 I2.584 J0.431
X205.236 Y153.222 I-0.47 J-0.078
G1 X204.767 Y153.144
X204.685 Y153.13 Z-5.393
X204.606 Y153.117 Z-5.371
X204.532 Y153.105 Z-5.336
X204.465 Y153.094 Z-5.289
X204.407 Y153.084 Z-5.23
X204.36 Y153.076 Z-5.162
X204.326 Y153.07 Z-5.087
X204.305 Y153.067 Z-5.007
X204.297 Y153.066 Z-4.924
Z5
X204.454 Y152.127
Z-4.448 F50
Z-5.224
X204.461 Y152.128 Z-5.307 F150
X204.482 Y152.131 Z-5.387
X204.517 Y152.137 Z-5.462
X204.564 Y152.145 Z-5.53
X204.622 Y152.155 Z-5.589
X204.689 Y152.166 Z-5.636
X204.763 Y152.178 Z-5.671
X204.842 Y152.191 Z-5.693
X204.924 Y152.205 Z-5.7
X205.393 Y152.283
G3 X205.784 Y152.831 I-0.078 J0.469
X200.616 Y151.969 I-2.584 J-0.431
X205.784 Y152.831 I2.584 J0.431
X205.236 Y153.222 I-0.47 J-0.078
G1 X204.767 Y153.144
X204.685 Y153.13 Z-5.693
X204.606 Y153.117 Z-5.671
X204.532 Y153.105 Z-5.636
X204.465 Y153.094 Z-5.589
X204.407 Y153.084 Z-5.53
X204.36 Y153.076 Z-5.462
X204.326 Y153.07 Z-5.387
X204.305 Y153.067 Z-5.307
X204.297 Y153.066 Z-5.224
Z5
X204.454 Y152.127
Z-4.748 F50
Z-5.524
X204.461 Y152.128 Z-5.607 F150
X204.482 Y152.131 Z-5.687
X204.517 Y152.137 Z-5.762
X204.564 Y152.145 Z-5.83
X204.622 Y152.155 Z-5.889
X204.689 Y152.166 Z-5.936
X204.763 Y152.178 Z-5.971
X204.842 Y152.191 Z-5.993
X204.924 Y152.205 Z-6
X205.393 Y152.283
G3 X205.784 Y152.831 I-0.078 J0.469
X200.616 Y151.969 I-2.584 J-0.431
X205.784 Y152.831 I2.584 J0.431
X205.236 Y153.222 I-0.47 J-0.078
G1 X204.767 Y153.144
X204.685 Y153.13 Z-5.993
X204.606 Y153.117 Z-5.971
X204.532 Y153.105 Z-5.936
X204.465 Y153.094 Z-5.889
X204.407 Y153.084 Z-5.83
X204.36 Y153.076 Z-5.762
X204.326 Y153.07 Z-5.687
X204.305 Y153.067 Z-5.607
X204.297 Y153.066 Z-5.524
Z5
X204.454 Y152.127
Z-5.048 F50
Z-5.824
X204.461 Y152.128 Z-5.907 F150
X204.482 Y152.131 Z-5.987
X204.517 Y152.137 Z-6.062
X204.564 Y152.145 Z-6.13
X204.622 Y152.155 Z-6.189
X204.689 Y152.166 Z-6.236
X204.763 Y152.178 Z-6.271
X204.842 Y152.191 Z-6.293
X204.924 Y152.205 Z-6.3
X205.393 Y152.283
G3 X205.784 Y152.831 I-0.078 J0.469
X200.616 Y151.969 I-2.584 J-0.431
X205.784 Y152.831 I2.584 J0.431
X205.236 Y153.222 I-0.47 J-0.078
G1 X204.767 Y153.144
X204.685 Y153.13 Z-6.293
X204.606 Y153.117 Z-6.271
X204.532 Y153.105 Z-6.236
X204.465 Y153.094 Z-6.189
X204.407 Y153.084 Z-6.13
X204.36 Y153.076 Z-6.062
X204.326 Y153.07 Z-5.987
X204.305 Y153.067 Z-5.907
X204.297 Y153.066 Z-5.824
Z5
X204.454 Y152.127
Z-5.348 F50
Z-6.124
X204.461 Y152.128 Z-6.207 F150
X204.482 Y152.131 Z-6.287
X204.517 Y152.137 Z-6.362
X204.564 Y152.145 Z-6.43
X204.622 Y152.155 Z-6.489
X204.689 Y152.166 Z-6.536
X204.763 Y152.178 Z-6.571
X204.842 Y152.191 Z-6.593
X204.924 Y152.205 Z-6.6
X205.393 Y152.283
G3 X205.784 Y152.831 I-0.078 J0.469
X200.616 Y151.969 I-2.584 J-0.431
X205.784 Y152.831 I2.584 J0.431
X205.236 Y153.222 I-0.47 J-0.078
G1 X204.767 Y153.144
X204.685 Y153.13 Z-6.593
X204.606 Y153.117 Z-6.571
X204.532 Y153.105 Z-6.536
X204.465 Y153.094 Z-6.489
X204.407 Y153.084 Z-6.43
X204.36 Y153.076 Z-6.362
X204.326 Y153.07 Z-6.287
X204.305 Y153.067 Z-6.207
X204.297 Y153.066 Z-6.124
Z5
X204.454 Y152.127
Z-5.648 F50
Z-6.424
X204.461 Y152.128 Z-6.507 F150
X204.482 Y152.131 Z-6.587
X204.517 Y152.137 Z-6.662
X204.564 Y152.145 Z-6.73
X204.622 Y152.155 Z-6.789
X204.689 Y152.166 Z-6.836
X204.763 Y152.178 Z-6.871
X204.842 Y152.191 Z-6.893
X204.924 Y152.205 Z-6.9
X205.393 Y152.283
G3 X205.784 Y152.831 I-0.078 J0.469
X200.616 Y151.969 I-2.584 J-0.431
X205.784 Y152.831 I2.584 J0.431
X205.236 Y153.222 I-0.47 J-0.078
G1 X204.767 Y153.144
X204.685 Y153.13 Z-6.893
X204.606 Y153.117 Z-6.871
X204.532 Y153.105 Z-6.836
X204.465 Y153.094 Z-6.789
X204.407 Y153.084 Z-6.73
X204.36 Y153.076 Z-6.662
X204.326 Y153.07 Z-6.587
X204.305 Y153.067 Z-6.507
X204.297 Y153.066 Z-6.424
Z5
X204.454 Y152.127
Z-5.948 F50
Z-6.724
X204.461 Y152.128 Z-6.807 F150
X204.482 Y152.131 Z-6.887
X204.517 Y152.137 Z-6.962
X204.564 Y152.145 Z-7.03
X204.622 Y152.155 Z-7.089
X204.689 Y152.166 Z-7.136
X204.763 Y152.178 Z-7.171
X204.842 Y152.191 Z-7.193
X204.924 Y152.205 Z-7.2
X205.393 Y152.283
G3 X205.784 Y152.831 I-0.078 J0.469
X200.616 Y151.969 I-2.584 J-0.431
X205.784 Y152.831 I2.584 J0.431
X205.236 Y153.222 I-0.47 J-0.078
G1 X204.767 Y153.144
X204.685 Y153.13 Z-7.193
X204.606 Y153.117 Z-7.171
X204.532 Y153.105 Z-7.136
X204.465 Y153.094 Z-7.089
X204.407 Y153.084 Z-7.03
X204.36 Y153.076 Z-6.962
X204.326 Y153.07 Z-6.887
X204.305 Y153.067 Z-6.807
X204.297 Y153.066 Z-6.724
Z5
X204.454 Y152.127
Z-6.248 F50
Z-6.899
X204.461 Y152.128 Z-6.982 F150
X204.482 Y152.131 Z-7.062
X204.517 Y152.137 Z-7.137
X204.564 Y152.145 Z-7.205
X204.622 Y152.155 Z-7.264
X204.689 Y152.166 Z-7.311
X204.763 Y152.178 Z-7.346
X204.842 Y152.191 Z-7.368
X204.924 Y152.205 Z-7.375
X205.393 Y152.283
G3 X205.784 Y152.831 I-0.078 J0.469
X200.616 Y151.969 I-2.584 J-0.431
X205.784 Y152.831 I2.584 J0.431
X205.236 Y153.222 I-0.47 J-0.078
G1 X204.767 Y153.144
X204.685 Y153.13 Z-7.368
X204.606 Y153.117 Z-7.346
X204.532 Y153.105 Z-7.311
X204.465 Y153.094 Z-7.264
X204.407 Y153.084 Z-7.205
X204.36 Y153.076 Z-7.137
X204.326 Y153.07 Z-7.062
X204.305 Y153.067 Z-6.982
X204.297 Y153.066 Z-6.899
Z5
X204.454 Y152.127
Z-6.423 F50
Z-7.074
X204.461 Y152.128 Z-7.157 F150
X204.482 Y152.131 Z-7.237
X204.517 Y152.137 Z-7.312
X204.564 Y152.145 Z-7.38
X204.622 Y152.155 Z-7.439
X204.689 Y152.166 Z-7.486
X204.763 Y152.178 Z-7.521
X204.842 Y152.191 Z-7.543
X204.924 Y152.205 Z-7.55
X205.393 Y152.283
G3 X205.784 Y152.831 I-0.078 J0.469
X200.616 Y151.969 I-2.584 J-0.431
X205.784 Y152.831 I2.584 J0.431
X205.236 Y153.222 I-0.47 J-0.078
G1 X204.767 Y153.144
X204.685 Y153.13 Z-7.543
X204.606 Y153.117 Z-7.521
X204.532 Y153.105 Z-7.486
X204.465 Y153.094 Z-7.439
X204.407 Y153.084 Z-7.38
X204.36 Y153.076 Z-7.312
X204.326 Y153.07 Z-7.237
X204.305 Y153.067 Z-7.157
X204.297 Y153.066 Z-7.074
Z5
X278.509 Y151.99
Z0.952 F50
Z0.176
X278.516 Y151.992 Z0.093 F150
X278.536 Y151.997 Z0.013
X278.57 Y152.006 Z-0.062
X278.616 Y152.019 Z-0.13
X278.673 Y152.034 Z-0.189
X278.739 Y152.052 Z-0.236
X278.811 Y152.071 Z-0.271
X278.889 Y152.092 Z-0.293
X278.968 Y152.113 Z-0.3
X279.428 Y152.236
G3 X279.765 Y152.819 I-0.123 J0.46
X276.635 Y151.981 I-1.565 J-0.419
X279.765 Y152.819 I1.565 J0.419
X279.182 Y153.156 I-0.46 J-0.123
G1 X278.722 Y153.033
X278.642 Y153.011 Z-0.293
X278.565 Y152.991 Z-0.271
X278.492 Y152.971 Z-0.236
X278.427 Y152.953 Z-0.189
X278.37 Y152.938 Z-0.13
X278.324 Y152.926 Z-0.062
X278.29 Y152.917 Z0.013
X278.269 Y152.911 Z0.093
X278.262 Y152.909 Z0.176
Z5
X278.509 Y151.99
Z0.652 F50
Z-0.124
X278.516 Y151.992 Z-0.207 F150
X278.536 Y151.997 Z-0.287
X278.57 Y152.006 Z-0.362
X278.616 Y152.019 Z-0.43
X278.673 Y152.034 Z-0.489
X278.739 Y152.052 Z-0.536
X278.811 Y152.071 Z-0.571
X278.889 Y152.092 Z-0.593
X278.968 Y152.113 Z-0.6
X279.428 Y152.236
G3 X279.765 Y152.819 I-0.123 J0.46
X276.635 Y151.981 I-1.565 J-0.419
X279.765 Y152.819 I1.565 J0.419
X279.182 Y153.156 I-0.46 J-0.123
G1 X278.722 Y153.033
X278.642 Y153.011 Z-0.593
X278.565 Y152.991 Z-0.571
X278.492 Y152.971 Z-0.536
X278.427 Y152.953 Z-0.489
X278.37 Y152.938 Z-0.43
X278.324 Y152.926 Z-0.362
X278.29 Y152.917 Z-0.287
X278.269 Y152.911 Z-0.207
X278.262 Y152.909 Z-0.124
Z5
X278.509 Y151.99
Z0.352 F50
Z-0.424
X278.516 Y151.992 Z-0.507 F150
X278.536 Y151.997 Z-0.587
X278.57 Y152.006 Z-0.662
X278.616 Y152.019 Z-0.73
X278.673 Y152.034 Z-0.789
X278.739 Y152.052 Z-0.836
X278.811 Y152.071 Z-0.871
X278.889 Y152.092 Z-0.893
X278.968 Y152.113 Z-0.9
X279.428 Y152.236
G3 X279.765 Y152.819 I-0.123 J0.46
X276.635 Y151.981 I-1.565 J-0.419
X279.765 Y152.819 I1.565 J0.419
X279.182 Y153.156 I-0.46 J-0.123
G1 X278.722 Y153.033
X278.642 Y153.011 Z-0.893
X278.565 Y152.991 Z-0.871
X278.492 Y152.971 Z-0.836
X278.427 Y152.953 Z-0.789
X278.37 Y152.938 Z-0.73
X278.324 Y152.926 Z-0.662
X278.29 Y152.917 Z-0.587
X278.269 Y152.911 Z-0.507
X278.262 Y152.909 Z-0.424
Z5
X278.509 Y151.99
Z0.052 F50
Z-0.724
X278.516 Y151.992 Z-0.807 F150
X278.536 Y151.997 Z-0.887
X278.57 Y152.006 Z-0.962
X278.616 Y152.019 Z-1.03
X278.673 Y152.034 Z-1.089
X278.739 Y152.052 Z-1.136
X278.811 Y152.071 Z-1.171
X278.889 Y152.092 Z-1.193
X278.968 Y152.113 Z-1.2
X279.428 Y152.236
G3 X279.765 Y152.819 I-0.123 J0.46
X276.635 Y151.981 I-1.565 J-0.419
X279.765 Y152.819 I1.565 J0.419
X279.182 Y153.156 I-0.46 J-0.123
G1 X278.722 Y153.033
X278.642 Y153.011 Z-1.193
X278.565 Y152.991 Z-1.171
X278.492 Y152.971 Z-1.136
X278.427 Y152.953 Z-1.089
X278.37 Y152.938 Z-1.03
X278.324 Y152.926 Z-0.962
X278.29 Y152.917 Z-0.887
X278.269 Y152.911 Z-0.807
X278.262 Y152.909 Z-0.724
Z5
X278.509 Y151.99
Z-0.248 F50
Z-1.024
X278.516 Y151.992 Z-1.107 F150
X278.536 Y151.997 Z-1.187
X278.57 Y152.006 Z-1.262
X278.616 Y152.019 Z-1.33
X278.673 Y152.034 Z-1.389
X278.739 Y152.052 Z-1.436
X278.811 Y152.071 Z-1.471
X278.889 Y152.092 Z-1.493
X278.968 Y152.113 Z-1.5
X279.428 Y152.236
G3 X279.765 Y152.819 I-0.123 J0.46
X276.635 Y151.981 I-1.565 J-0.419
X279.765 Y152.819 I1.565 J0.419
X279.182 Y153.156 I-0.46 J-0.123
G1 X278.722 Y153.033
X278.642 Y153.011 Z-1.493
X278.565 Y152.991 Z-1.471
X278.492 Y152.971 Z-1.436
X278.427 Y152.953 Z-1.389
X278.37 Y152.938 Z-1.33
X278.324 Y152.926 Z-1.262
X278.29 Y152.917 Z-1.187
X278.269 Y152.911 Z-1.107
X278.262 Y152.909 Z-1.024
Z5
X278.509 Y151.99
Z-0.548 F50
Z-1.324
X278.516 Y151.992 Z-1.407 F150
X278.536 Y151.997 Z-1.487
X278.57 Y152.006 Z-1.562
X278.616 Y152.019 Z-1.63
X278.673 Y152.034 Z-1.689
X278.739 Y152.052 Z-1.736
X278.811 Y152.071 Z-1.771
X278.889 Y152.092 Z-1.793
X278.968 Y152.113 Z-1.8
X279.428 Y152.236
G3 X279.765 Y152.819 I-0.123 J0.46
X276.635 Y151.981 I-1.565 J-0.419
X279.765 Y152.819 I1.565 J0.419
X279.182 Y153.156 I-0.46 J-0.123
G1 X278.722 Y153.033
X278.642 Y153.011 Z-1.793
X278.565 Y152.991 Z-1.771
X278.492 Y152.971 Z-1.736
X278.427 Y152.953 Z-1.689
X278.37 Y152.938 Z-1.63
X278.324 Y152.926 Z-1.562
X278.29 Y152.917 Z-1.487
X278.269 Y152.911 Z-1.407
X278.262 Y152.909 Z-1.324
Z5
X278.509 Y151.99
Z-0.848 F50
Z-1.624
X278.516 Y151.992 Z-1.707 F150
X278.536 Y151.997 Z-1.787
X278.57 Y152.006 Z-1.862
X278.616 Y152.019 Z-1.93
X278.673 Y152.034 Z-1.989
X278.739 Y152.052 Z-2.036
X278.811 Y152.071 Z-2.071
X278.889 Y152.092 Z-2.093
X278.968 Y152.113 Z-2.1
X279.428 Y152.236
G3 X279.765 Y152.819 I-0.123 J0.46
X276.635 Y151.981 I-1.565 J-0.419
X279.765 Y152.819 I1.565 J0.419
X279.182 Y153.156 I-0.46 J-0.123
G1 X278.722 Y153.033
X278.642 Y153.011 Z-2.093
X278.565 Y152.991 Z-2.071
X278.492 Y152.971 Z-2.036
X278.427 Y152.953 Z-1.989
X278.37 Y152.938 Z-1.93
X278.324 Y152.926 Z-1.862
X278.29 Y152.917 Z-1.787
X278.269 Y152.911 Z-1.707
X278.262 Y152.909 Z-1.624
Z5
X278.509 Y151.99
Z-1.148 F50
Z-1.924
X278.516 Y151.992 Z-2.007 F150
X278.536 Y151.997 Z-2.087
X278.57 Y152.006 Z-2.162
X278.616 Y152.019 Z-2.23
X278.673 Y152.034 Z-2.289
X278.739 Y152.052 Z-2.336
X278.811 Y152.071 Z-2.371
X278.889 Y152.092 Z-2.393
X278.968 Y152.113 Z-2.4
X279.428 Y152.236
G3 X279.765 Y152.819 I-0.123 J0.46
X276.635 Y151.981 I-1.565 J-0.419
X279.765 Y152.819 I1.565 J0.419
X279.182 Y153.156 I-0.46 J-0.123
G1 X278.722 Y153.033
X278.642 Y153.011 Z-2.393
X278.565 Y152.991 Z-2.371
X278.492 Y152.971 Z-2.336
X278.427 Y152.953 Z-2.289
X278.37 Y152.938 Z-2.23
X278.324 Y152.926 Z-2.162
X278.29 Y152.917 Z-2.087
X278.269 Y152.911 Z-2.007
X278.262 Y152.909 Z-1.924
Z5
X278.509 Y151.99
Z-1.448 F50
Z-2.224
X278.516 Y151.992 Z-2.307 F150
X278.536 Y151.997 Z-2.387
X278.57 Y152.006 Z-2.462
X278.616 Y152.019 Z-2.53
X278.673 Y152.034 Z-2.589
X278.739 Y152.052 Z-2.636
X278.811 Y152.071 Z-2.671
X278.889 Y152.092 Z-2.693
X278.968 Y152.113 Z-2.7
X279.428 Y152.236
G3 X279.765 Y152.819 I-0.123 J0.46
X276.635 Y151.981 I-1.565 J-0.419
X279.765 Y152.819 I1.565 J0.419
X279.182 Y153.156 I-0.46 J-0.123
G1 X278.722 Y153.033
X278.642 Y153.011 Z-2.693
X278.565 Y152.991 Z-2.671
X278.492 Y152.971 Z-2.636
X278.427 Y152.953 Z-2.589
X278.37 Y152.938 Z-2.53
X278.324 Y152.926 Z-2.462
X278.29 Y152.917 Z-2.387
X278.269 Y152.911 Z-2.307
X278.262 Y152.909 Z-2.224
Z5
X278.509 Y151.99
Z-1.748 F50
Z-2.524
X278.516 Y151.992 Z-2.607 F150
X278.536 Y151.997 Z-2.687
X278.57 Y152.006 Z-2.762
X278.616 Y152.019 Z-2.83
X278.673 Y152.034 Z-2.889
X278.739 Y152.052 Z-2.936
X278.811 Y152.071 Z-2.971
X278.889 Y152.092 Z-2.993
X278.968 Y152.113 Z-3
X279.428 Y152.236
G3 X279.765 Y152.819 I-0.123 J0.46
X276.635 Y151.981 I-1.565 J-0.419
X279.765 Y152.819 I1.565 J0.419
X279.182 Y153.156 I-0.46 J-0.123
G1 X278.722 Y153.033
X278.642 Y153.011 Z-2.993
X278.565 Y152.991 Z-2.971
X278.492 Y152.971 Z-2.936
X278.427 Y152.953 Z-2.889
X278.37 Y152.938 Z-2.83
X278.324 Y152.926 Z-2.762
X278.29 Y152.917 Z-2.687
X278.269 Y152.911 Z-2.607
X278.262 Y152.909 Z-2.524
Z5
X278.509 Y151.99
Z-2.048 F50
Z-2.824
X278.516 Y151.992 Z-2.907 F150
X278.536 Y151.997 Z-2.987
X278.57 Y152.006 Z-3.062
X278.616 Y152.019 Z-3.13
X278.673 Y152.034 Z-3.189
X278.739 Y152.052 Z-3.236
X278.811 Y152.071 Z-3.271
X278.889 Y152.092 Z-3.293
X278.968 Y152.113 Z-3.3
X279.428 Y152.236
G3 X279.765 Y152.819 I-0.123 J0.46
X276.635 Y151.981 I-1.565 J-0.419
X279.765 Y152.819 I1.565 J0.419
X279.182 Y153.156 I-0.46 J-0.123
G1 X278.722 Y153.033
X278.642 Y153.011 Z-3.293
X278.565 Y152.991 Z-3.271
X278.492 Y152.971 Z-3.236
X278.427 Y152.953 Z-3.189
X278.37 Y152.938 Z-3.13
X278.324 Y152.926 Z-3.062
X278.29 Y152.917 Z-2.987
X278.269 Y152.911 Z-2.907
X278.262 Y152.909 Z-2.824
Z5
X278.509 Y151.99
Z-2.348 F50
Z-3.124
X278.516 Y151.992 Z-3.207 F150
X278.536 Y151.997 Z-3.287
X278.57 Y152.006 Z-3.362
X278.616 Y152.019 Z-3.43
X278.673 Y152.034 Z-3.489
X278.739 Y152.052 Z-3.536
X278.811 Y152.071 Z-3.571
X278.889 Y152.092 Z-3.593
X278.968 Y152.113 Z-3.6
X279.428 Y152.236
G3 X279.765 Y152.819 I-0.123 J0.46
X276.635 Y151.981 I-1.565 J-0.419
X279.765 Y152.819 I1.565 J0.419
X279.182 Y153.156 I-0.46 J-0.123
G1 X278.722 Y153.033
X278.642 Y153.011 Z-3.593
X278.565 Y152.991 Z-3.571
X278.492 Y152.971 Z-3.536
X278.427 Y152.953 Z-3.489
X278.37 Y152.938 Z-3.43
X278.324 Y152.926 Z-3.362
X278.29 Y152.917 Z-3.287
X278.269 Y152.911 Z-3.207
X278.262 Y152.909 Z-3.124
Z5
X278.509 Y151.99
Z-2.648 F50
Z-3.424
X278.516 Y151.992 Z-3.507 F150
X278.536 Y151.997 Z-3.587
X278.57 Y152.006 Z-3.662
X278.616 Y152.019 Z-3.73
X278.673 Y152.034 Z-3.789
X278.739 Y152.052 Z-3.836
X278.811 Y152.071 Z-3.871
X278.889 Y152.092 Z-3.893
X278.968 Y152.113 Z-3.9
X279.428 Y152.236
G3 X279.765 Y152.819 I-0.123 J0.46
X276.635 Y151.981 I-1.565 J-0.419
X279.765 Y152.819 I1.565 J0.419
X279.182 Y153.156 I-0.46 J-0.123
G1 X278.722 Y153.033
X278.642 Y153.011 Z-3.893
X278.565 Y152.991 Z-3.871
X278.492 Y152.971 Z-3.836
X278.427 Y152.953 Z-3.789
X278.37 Y152.938 Z-3.73
X278.324 Y152.926 Z-3.662
X278.29 Y152.917 Z-3.587
X278.269 Y152.911 Z-3.507
X278.262 Y152.909 Z-3.424
Z5
X278.509 Y151.99
Z-2.948 F50
Z-3.724
X278.516 Y151.992 Z-3.807 F150
X278.536 Y151.997 Z-3.887
X278.57 Y152.006 Z-3.962
X278.616 Y152.019 Z-4.03
X278.673 Y152.034 Z-4.089
X278.739 Y152.052 Z-4.136
X278.811 Y152.071 Z-4.171
X278.889 Y152.092 Z-4.193
X278.968 Y152.113 Z-4.2
X279.428 Y152.236
G3 X279.765 Y152.819 I-0.123 J0.46
X276.635 Y151.981 I-1.565 J-0.419
X279.765 Y152.819 I1.565 J0.419
X279.182 Y153.156 I-0.46 J-0.123
G1 X278.722 Y153.033
X278.642 Y153.011 Z-4.193
X278.565 Y152.991 Z-4.171
X278.492 Y152.971 Z-4.136
X278.427 Y152.953 Z-4.089
X278.37 Y152.938 Z-4.03
X278.324 Y152.926 Z-3.962
X278.29 Y152.917 Z-3.887
X278.269 Y152.911 Z-3.807
X278.262 Y152.909 Z-3.724
Z5
X278.509 Y151.99
Z-3.248 F50
Z-4.024
X278.516 Y151.992 Z-4.107 F150
X278.536 Y151.997 Z-4.187
X278.57 Y152.006 Z-4.262
X278.616 Y152.019 Z-4.33
X278.673 Y152.034 Z-4.389
X278.739 Y152.052 Z-4.436
X278.811 Y152.071 Z-4.471
X278.889 Y152.092 Z-4.493
X278.968 Y152.113 Z-4.5
X279.428 Y152.236
G3 X279.765 Y152.819 I-0.123 J0.46
X276.635 Y151.981 I-1.565 J-0.419
X279.765 Y152.819 I1.565 J0.419
X279.182 Y153.156 I-0.46 J-0.123
G1 X278.722 Y153.033
X278.642 Y153.011 Z-4.493
X278.565 Y152.991 Z-4.471
X278.492 Y152.971 Z-4.436
X278.427 Y152.953 Z-4.389
X278.37 Y152.938 Z-4.33
X278.324 Y152.926 Z-4.262
X278.29 Y152.917 Z-4.187
X278.269 Y152.911 Z-4.107
X278.262 Y152.909 Z-4.024
Z5
X278.509 Y151.99
Z-3.548 F50
Z-4.324
X278.516 Y151.992 Z-4.407 F150
X278.536 Y151.997 Z-4.487
X278.57 Y152.006 Z-4.562
X278.616 Y152.019 Z-4.63
X278.673 Y152.034 Z-4.689
X278.739 Y152.052 Z-4.736
X278.811 Y152.071 Z-4.771
X278.889 Y152.092 Z-4.793
X278.968 Y152.113 Z-4.8
X279.428 Y152.236
G3 X279.765 Y152.819 I-0.123 J0.46
X276.635 Y151.981 I-1.565 J-0.419
X279.765 Y152.819 I1.565 J0.419
X279.182 Y153.156 I-0.46 J-0.123
G1 X278.722 Y153.033
X278.642 Y153.011 Z-4.793
X278.565 Y152.991 Z-4.771
X278.492 Y152.971 Z-4.736
X278.427 Y152.953 Z-4.689
X278.37 Y152.938 Z-4.63
X278.324 Y152.926 Z-4.562
