(cartarm_2030_harmonic)
(Machine)
(  vendor: Autodesk)
(  model: Generic 3-axis)
(  description: This machine has XY axis on the Table and Z axis on the Head)
(T1 D=4.78 CR=2.39 - ZMIN=-21.5 - ball end mill)
G90 G94
G17
G21
(-Attention- Property Safe Retracts is set to Clearance Height.)
(Ensure the clearance height will clear the part and or fixtures.)
(Raise the Z-axis to a safe height before starting the program.)

(Drill2)
T1
S24000 M3
G17 G90 G94
G54
M8
G0 X35.922 Y40.284
Z15
G0 Z5
Z4
Z1
G1 Z-1.3 F50
G0 Z4
Z0.7
G1 Z-1.6 F50
G0 Z4
Z0.4
G1 Z-1.9 F50
G0 Z4
Z0.1
G1 Z-2.2 F50
G0 Z4
Z-0.2
G1 Z-2.5 F50
G0 Z4
Z-0.5
G1 Z-2.8 F50
G0 Z4
Z-0.8
G1 Z-3.1 F50
G0 Z4
Z-1.1
G1 Z-3.4 F50
G0 Z4
Z-1.4
G1 Z-3.7 F50
G0 Z4
Z-1.7
G1 Z-4 F50
G0 Z4
Z-2
G1 Z-4.3 F50
G0 Z4
Z-2.3
G1 Z-4.6 F50
G0 Z4
Z-2.6
G1 Z-4.9 F50
G0 Z4
Z-2.9
G1 Z-5.2 F50
G0 Z4
Z-3.2
G1 Z-5.5 F50
G0 Z4
Z-3.5
G1 Z-5.8 F50
G0 Z4
Z-3.8
G1 Z-6.1 F50
G0 Z4
Z-4.1
G1 Z-6.4 F50
G0 Z4
Z-4.4
G1 Z-6.7 F50
G0 Z4
Z-4.7
G1 Z-7 F50
G0 Z4
Z-5
G1 Z-7.3 F50
G0 Z4
Z-5.3
G1 Z-7.6 F50
G0 Z4
Z-5.6
G1 Z-7.9 F50
G0 Z4
Z-5.9
G1 Z-8.2 F50
G0 Z4
Z-6.2
G1 Z-8.5 F50
G0 Z4
Z-6.5
G1 Z-8.8 F50
G0 Z4
Z-6.8
G1 Z-9.1 F50
G0 Z4
Z-7.1
G1 Z-9.4 F50
G0 Z4
Z-7.4
G1 Z-9.7 F50
G0 Z4
Z-7.7
G1 Z-10 F50
G0 Z4
Z-8
G1 Z-10.3 F50
G0 Z4
Z-8.3
G1 Z-10.6 F50
G0 Z4
Z-8.6
G1 Z-10.9 F50
G0 Z4
Z-8.9
G1 Z-11.2 F50
G0 Z4
Z-9.2
G1 Z-11.5 F50
G0 Z4
Z-9.5
G1 Z-11.8 F50
G0 Z4
Z-9.8
G1 Z-12.1 F50
G0 Z4
Z-10.1
G1 Z-12.4 F50
G0 Z4
Z-10.4
G1 Z-12.7 F50
G0 Z4
Z-10.7
G1 Z-13 F50
G0 Z4
Z-11
G1 Z-13.3 F50
G0 Z4
Z-11.3
G1 Z-13.6 F50
G0 Z4
Z-11.6
G1 Z-13.9 F50
G0 Z4
Z-11.9
G1 Z-14.2 F50
G0 Z4
Z-12.2
G1 Z-14.5 F50
G0 Z4
Z-12.5
G1 Z-14.8 F50
G0 Z4
Z-12.8
G1 Z-15.1 F50
G0 Z4
Z-13.1
G1 Z-15.4 F50
G0 Z4
Z-13.4
G1 Z-15.7 F50
G0 Z4
Z-13.7
G1 Z-16 F50
G0 Z4
Z-14
G1 Z-16.3 F50
G0 Z4
Z-14.3
G1 Z-16.6 F50
G0 Z4
Z-14.6
G1 Z-16.9 F50
G0 Z4
Z-14.9
G1 Z-17.2 F50
G0 Z4
Z-15.2
G1 Z-17.5 F50
G0 Z4
Z-15.5
G1 Z-17.8 F50
G0 Z4
Z-15.8
G1 Z-18.1 F50
G0 Z4
Z-16.1
G1 Z-18.4 F50
G0 Z4
Z-16.4
G1 Z-18.7 F50
G0 Z4
Z-16.7
G1 Z-19 F50
G0 Z4
Z-17
G1 Z-19.3 F50
G0 Z4
Z-17.3
G1 Z-19.6 F50
G0 Z4
Z-17.6
G1 Z-19.9 F50
G0 Z4
Z-17.9
G1 Z-20.2 F50
G0 Z4
Z-18.2
G1 Z-20.5 F50
G0 Z4
Z-18.5
G1 Z-20.8 F50
G0 Z4
Z-18.8
G1 Z-21.1 F50
G0 Z4
Z-19.1
G1 Z-21.4 F50
G0 Z4
Z-19.4
G1 Z-21.5 F50
G4 P1.
G0 Z5
X24.047
Z4
Z1
G1 Z-1.3 F50
G0 Z4
Z0.7
G1 Z-1.6 F50
G0 Z4
Z0.4
G1 Z-1.9 F50
G0 Z4
Z0.1
G1 Z-2.2 F50
G0 Z4
Z-0.2
G1 Z-2.5 F50
G0 Z4
Z-0.5
G1 Z-2.8 F50
G0 Z4
Z-0.8
G1 Z-3.1 F50
G0 Z4
Z-1.1
G1 Z-3.4 F50
G0 Z4
Z-1.4
G1 Z-3.7 F50
G0 Z4
Z-1.7
G1 Z-4 F50
G0 Z4
Z-2
G1 Z-4.3 F50
G0 Z4
Z-2.3
G1 Z-4.6 F50
G0 Z4
Z-2.6
G1 Z-4.9 F50
G0 Z4
Z-2.9
G1 Z-5.2 F50
G0 Z4
Z-3.2
G1 Z-5.5 F50
G0 Z4
Z-3.5
G1 Z-5.8 F50
G0 Z4
Z-3.8
G1 Z-6.1 F50
G0 Z4
Z-4.1
G1 Z-6.4 F50
G0 Z4
Z-4.4
G1 Z-6.7 F50
G0 Z4
Z-4.7
G1 Z-7 F50
G0 Z4
Z-5
G1 Z-7.3 F50
G0 Z4
Z-5.3
G1 Z-7.6 F50
G0 Z4
Z-5.6
G1 Z-7.9 F50
G0 Z4
Z-5.9
G1 Z-8.2 F50
G0 Z4
Z-6.2
G1 Z-8.5 F50
G0 Z4
Z-6.5
G1 Z-8.8 F50
G0 Z4
Z-6.8
G1 Z-9.1 F50
G0 Z4
Z-7.1
G1 Z-9.4 F50
G0 Z4
Z-7.4
G1 Z-9.7 F50
G0 Z4
Z-7.7
G1 Z-10 F50
G0 Z4
Z-8
G1 Z-10.3 F50
G0 Z4
Z-8.3
G1 Z-10.6 F50
G0 Z4
Z-8.6
G1 Z-10.9 F50
G0 Z4
Z-8.9
G1 Z-11.2 F50
G0 Z4
Z-9.2
G1 Z-11.5 F50
G0 Z4
Z-9.5
G1 Z-11.8 F50
G0 Z4
Z-9.8
G1 Z-12.1 F50
G0 Z4
Z-10.1
G1 Z-12.4 F50
G0 Z4
Z-10.4
G1 Z-12.7 F50
G0 Z4
Z-10.7
G1 Z-13 F50
G0 Z4
Z-11
G1 Z-13.3 F50
G0 Z4
Z-11.3
G1 Z-13.6 F50
G0 Z4
Z-11.6
G1 Z-13.9 F50
G0 Z4
Z-11.9
G1 Z-14.2 F50
G0 Z4
Z-12.2
G1 Z-14.5 F50
G0 Z4
Z-12.5
G1 Z-14.8 F50
G0 Z4
Z-12.8
G1 Z-15.1 F50
G0 Z4
Z-13.1
G1 Z-15.4 F50
G0 Z4
Z-13.4
G1 Z-15.7 F50
G0 Z4
Z-13.7
G1 Z-16 F50
G0 Z4
Z-14
G1 Z-16.3 F50
G0 Z4
Z-14.3
G1 Z-16.6 F50
G0 Z4
Z-14.6
G1 Z-16.9 F50
G0 Z4
Z-14.9
G1 Z-17.2 F50
G0 Z4
Z-15.2
G1 Z-17.5 F50
G0 Z4
Z-15.5
G1 Z-17.8 F50
G0 Z4
Z-15.8
G1 Z-18.1 F50
G0 Z4
Z-16.1
G1 Z-18.4 F50
G0 Z4
Z-16.4
G1 Z-18.7 F50
G0 Z4
Z-16.7
G1 Z-19 F50
G0 Z4
Z-17
G1 Z-19.3 F50
G0 Z4
Z-17.3
G1 Z-19.6 F50
G0 Z4
Z-17.6
G1 Z-19.9 F50
G0 Z4
Z-17.9
G1 Z-20.2 F50
G0 Z4
Z-18.2
G1 Z-20.5 F50
G0 Z4
Z-18.5
G1 Z-20.8 F50
G0 Z4
Z-18.8
G1 Z-21.1 F50
G0 Z4
Z-19.1
G1 Z-21.4 F50
G0 Z4
Z-19.4
G1 Z-21.5 F50
G4 P1.
G0 Z5
X18.111 Y29.999
Z-2
Z-5
G1 Z-7.3 F50
G0 Z-2
Z-5.3
G1 Z-7.6 F50
G0 Z-2
Z-5.6
G1 Z-7.9 F50
G0 Z-2
Z-5.9
G1 Z-8.2 F50
G0 Z-2
Z-6.2
G1 Z-8.5 F50
G0 Z-2
Z-6.5
G1 Z-8.8 F50
G0 Z-2
Z-6.8
G1 Z-9.1 F50
G0 Z-2
Z-7.1
G1 Z-9.4 F50
G0 Z-2
Z-7.4
G1 Z-9.7 F50
G0 Z-2
Z-7.7
G1 Z-10 F50
G0 Z-2
Z-8
G1 Z-10.3 F50
G0 Z-2
Z-8.3
G1 Z-10.6 F50
G0 Z-2
Z-8.6
G1 Z-10.9 F50
G0 Z-2
Z-8.9
G1 Z-11.2 F50
G0 Z-2
Z-9.2
G1 Z-11.5 F50
G0 Z-2
Z-9.5
G1 Z-11.8 F50
G0 Z-2
Z-9.8
G1 Z-12.1 F50
G0 Z-2
Z-10.1
G1 Z-12.4 F50
G0 Z-2
Z-10.4
G1 Z-12.7 F50
G0 Z-2
Z-10.7
G1 Z-13 F50
G0 Z-2
Z-11
G1 Z-13.3 F50
G0 Z-2
Z-11.3
G1 Z-13.6 F50
G0 Z-2
Z-11.6
G1 Z-13.9 F50
G0 Z-2
Z-11.9
G1 Z-14.2 F50
G0 Z-2
Z-12.2
G1 Z-14.5 F50
G0 Z-2
Z-12.5
G1 Z-14.8 F50
G0 Z-2
Z-12.8
G1 Z-15.1 F50
G0 Z-2
Z-13.1
G1 Z-15.4 F50
G0 Z-2
Z-13.4
G1 Z-15.5 F50
G4 P1.
G0 Z5
X24.047 Y19.717
Z4
Z1
G1 Z-1.3 F50
G0 Z4
Z0.7
G1 Z-1.6 F50
G0 Z4
Z0.4
G1 Z-1.9 F50
G0 Z4
Z0.1
G1 Z-2.2 F50
G0 Z4
Z-0.2
G1 Z-2.5 F50
G0 Z4
Z-0.5
G1 Z-2.8 F50
G0 Z4
Z-0.8
G1 Z-3.1 F50
G0 Z4
Z-1.1
G1 Z-3.4 F50
G0 Z4
Z-1.4
G1 Z-3.7 F50
G0 Z4
Z-1.7
G1 Z-4 F50
G0 Z4
Z-2
G1 Z-4.3 F50
G0 Z4
Z-2.3
G1 Z-4.6 F50
G0 Z4
Z-2.6
G1 Z-4.9 F50
G0 Z4
Z-2.9
G1 Z-5.2 F50
G0 Z4
Z-3.2
G1 Z-5.5 F50
G0 Z4
Z-3.5
G1 Z-5.8 F50
G0 Z4
Z-3.8
G1 Z-6.1 F50
G0 Z4
Z-4.1
G1 Z-6.4 F50
G0 Z4
Z-4.4
G1 Z-6.7 F50
G0 Z4
Z-4.7
G1 Z-7 F50
G0 Z4
Z-5
G1 Z-7.3 F50
G0 Z4
Z-5.3
G1 Z-7.6 F50
G0 Z4
Z-5.6
G1 Z-7.9 F50
G0 Z4
Z-5.9
G1 Z-8.2 F50
G0 Z4
Z-6.2
G1 Z-8.5 F50
G0 Z4
Z-6.5
G1 Z-8.8 F50
G0 Z4
Z-6.8
G1 Z-9.1 F50
G0 Z4
Z-7.1
G1 Z-9.4 F50
G0 Z4
Z-7.4
G1 Z-9.7 F50
G0 Z4
Z-7.7
G1 Z-10 F50
G0 Z4
Z-8
G1 Z-10.3 F50
G0 Z4
Z-8.3
G1 Z-10.6 F50
G0 Z4
Z-8.6
G1 Z-10.9 F50
G0 Z4
Z-8.9
G1 Z-11.2 F50
G0 Z4
Z-9.2
G1 Z-11.5 F50
G0 Z4
Z-9.5
G1 Z-11.8 F50
G0 Z4
Z-9.8
G1 Z-12.1 F50
G0 Z4
Z-10.1
G1 Z-12.4 F50
G0 Z4
Z-10.4
G1 Z-12.7 F50
G0 Z4
Z-10.7
G1 Z-13 F50
G0 Z4
Z-11
G1 Z-13.3 F50
G0 Z4
Z-11.3
G1 Z-13.6 F50
G0 Z4
Z-11.6
G1 Z-13.9 F50
G0 Z4
Z-11.9
G1 Z-14.2 F50
G0 Z4
Z-12.2
G1 Z-14.5 F50
G0 Z4
Z-12.5
G1 Z-14.8 F50
G0 Z4
Z-12.8
G1 Z-15.1 F50
G0 Z4
Z-13.1
G1 Z-15.4 F50
G0 Z4
Z-13.4
G1 Z-15.7 F50
G0 Z4
Z-13.7
G1 Z-16 F50
G0 Z4
Z-14
G1 Z-16.3 F50
G0 Z4
Z-14.3
G1 Z-16.6 F50
G0 Z4
Z-14.6
G1 Z-16.9 F50
G0 Z4
Z-14.9
G1 Z-17.2 F50
G0 Z4
Z-15.2
G1 Z-17.5 F50
G0 Z4
Z-15.5
G1 Z-17.8 F50
G0 Z4
Z-15.8
G1 Z-18.1 F50
G0 Z4
Z-16.1
G1 Z-18.4 F50
G0 Z4
Z-16.4
G1 Z-18.7 F50
G0 Z4
Z-16.7
G1 Z-19 F50
G0 Z4
Z-17
G1 Z-19.3 F50
G0 Z4
Z-17.3
G1 Z-19.6 F50
G0 Z4
Z-17.6
G1 Z-19.9 F50
G0 Z4
Z-17.9
G1 Z-20.2 F50
G0 Z4
Z-18.2
G1 Z-20.5 F50
G0 Z4
Z-18.5
G1 Z-20.8 F50
G0 Z4
Z-18.8
G1 Z-21.1 F50
G0 Z4
Z-19.1
G1 Z-21.4 F50
G0 Z4
Z-19.4
G1 Z-21.5 F50
G4 P1.
G0 Z5
X35.922
Z4
Z1
G1 Z-1.3 F50
G0 Z4
Z0.7
G1 Z-1.6 F50
G0 Z4
Z0.4
G1 Z-1.9 F50
G0 Z4
Z0.1
G1 Z-2.2 F50
G0 Z4
Z-0.2
G1 Z-2.5 F50
G0 Z4
Z-0.5
G1 Z-2.8 F50
G0 Z4
Z-0.8
G1 Z-3.1 F50
G0 Z4
Z-1.1
G1 Z-3.4 F50
G0 Z4
Z-1.4
G1 Z-3.7 F50
G0 Z4
Z-1.7
G1 Z-4 F50
G0 Z4
Z-2
G1 Z-4.3 F50
G0 Z4
Z-2.3
G1 Z-4.6 F50
G0 Z4
Z-2.6
G1 Z-4.9 F50
G0 Z4
Z-2.9
G1 Z-5.2 F50
G0 Z4
Z-3.2
G1 Z-5.5 F50
G0 Z4
Z-3.5
G1 Z-5.8 F50
G0 Z4
Z-3.8
G1 Z-6.1 F50
G0 Z4
Z-4.1
G1 Z-6.4 F50
G0 Z4
Z-4.4
G1 Z-6.7 F50
G0 Z4
Z-4.7
G1 Z-7 F50
G0 Z4
Z-5
G1 Z-7.3 F50
G0 Z4
Z-5.3
G1 Z-7.6 F50
G0 Z4
Z-5.6
G1 Z-7.9 F50
G0 Z4
Z-5.9
G1 Z-8.2 F50
G0 Z4
Z-6.2
G1 Z-8.5 F50
G0 Z4
Z-6.5
G1 Z-8.8 F50
G0 Z4
Z-6.8
G1 Z-9.1 F50
G0 Z4
Z-7.1
G1 Z-9.4 F50
G0 Z4
Z-7.4
G1 Z-9.7 F50
G0 Z4
Z-7.7
G1 Z-10 F50
G0 Z4
Z-8
G1 Z-10.3 F50
G0 Z4
Z-8.3
G1 Z-10.6 F50
G0 Z4
Z-8.6
G1 Z-10.9 F50
G0 Z4
Z-8.9
G1 Z-11.2 F50
G0 Z4
Z-9.2
G1 Z-11.5 F50
G0 Z4
Z-9.5
G1 Z-11.8 F50
G0 Z4
Z-9.8
G1 Z-12.1 F50
G0 Z4
Z-10.1
G1 Z-12.4 F50
G0 Z4
Z-10.4
G1 Z-12.7 F50
G0 Z4
Z-10.7
G1 Z-13 F50
G0 Z4
Z-11
G1 Z-13.3 F50
G0 Z4
Z-11.3
G1 Z-13.6 F50
G0 Z4
Z-11.6
G1 Z-13.9 F50
G0 Z4
Z-11.9
G1 Z-14.2 F50
G0 Z4
Z-12.2
G1 Z-14.5 F50
G0 Z4
Z-12.5
G1 Z-14.8 F50
G0 Z4
Z-12.8
G1 Z-15.1 F50
G0 Z4
Z-13.1
G1 Z-15.4 F50
G0 Z4
Z-13.4
G1 Z-15.7 F50
G0 Z4
Z-13.7
G1 Z-16 F50
G0 Z4
Z-14
G1 Z-16.3 F50
G0 Z4
Z-14.3
G1 Z-16.6 F50
G0 Z4
Z-14.6
G1 Z-16.9 F50
G0 Z4
Z-14.9
G1 Z-17.2 F50
G0 Z4
Z-15.2
G1 Z-17.5 F50
G0 Z4
Z-15.5
G1 Z-17.8 F50
G0 Z4
Z-15.8
G1 Z-18.1 F50
G0 Z4
Z-16.1
G1 Z-18.4 F50
G0 Z4
Z-16.4
G1 Z-18.7 F50
G0 Z4
Z-16.7
G1 Z-19 F50
G0 Z4
Z-17
G1 Z-19.3 F50
G0 Z4
Z-17.3
G1 Z-19.6 F50
G0 Z4
Z-17.6
G1 Z-19.9 F50
G0 Z4
Z-17.9
G1 Z-20.2 F50
G0 Z4
Z-18.2
G1 Z-20.5 F50
G0 Z4
Z-18.5
G1 Z-20.8 F50
G0 Z4
Z-18.8
G1 Z-21.1 F50
G0 Z4
Z-19.1
G1 Z-21.4 F50
G0 Z4
Z-19.4
G1 Z-21.5 F50
G4 P1.
G0 Z5
X41.859 Y30
Z-2
Z-5
G1 Z-7.3 F50
G0 Z-2
Z-5.3
G1 Z-7.6 F50
G0 Z-2
Z-5.6
G1 Z-7.9 F50
G0 Z-2
Z-5.9
G1 Z-8.2 F50
G0 Z-2
Z-6.2
G1 Z-8.5 F50
G0 Z-2
Z-6.5
G1 Z-8.8 F50
G0 Z-2
Z-6.8
G1 Z-9.1 F50
G0 Z-2
Z-7.1
G1 Z-9.4 F50
G0 Z-2
Z-7.4
G1 Z-9.7 F50
G0 Z-2
Z-7.7
G1 Z-10 F50
G0 Z-2
Z-8
G1 Z-10.3 F50
G0 Z-2
Z-8.3
G1 Z-10.6 F50
G0 Z-2
Z-8.6
G1 Z-10.9 F50
G0 Z-2
Z-8.9
G1 Z-11.2 F50
G0 Z-2
Z-9.2
G1 Z-11.5 F50
G0 Z-2
Z-9.5
G1 Z-11.8 F50
G0 Z-2
Z-9.8
G1 Z-12.1 F50
G0 Z-2
Z-10.1
G1 Z-12.4 F50
G0 Z-2
Z-10.4
G1 Z-12.7 F50
G0 Z-2
Z-10.7
G1 Z-13 F50
G0 Z-2
Z-11
G1 Z-13.3 F50
G0 Z-2
Z-11.3
G1 Z-13.6 F50
G0 Z-2
Z-11.6
G1 Z-13.9 F50
G0 Z-2
Z-11.9
G1 Z-14.2 F50
G0 Z-2
Z-12.2
G1 Z-14.5 F50
G0 Z-2
Z-12.5
G1 Z-14.8 F50
G0 Z-2
Z-12.8
G1 Z-15.1 F50
G0 Z-2
Z-13.1
G1 Z-15.4 F50
G0 Z-2
Z-13.4
G1 Z-15.5 F50
G4 P1.
G0 Z5
Z15
(When using Fusion for Personal Use, the feedrate of rapid)
(moves is reduced to match the feedrate of cutting moves,)
(which can increase machining time. Unrestricted rapid moves)
(are available with a Fusion Subscription.)

(2D Contour3)
G0 X30.119 Y30
G1 Z15 F100
Z5
Z0.956 F33.3
Z-0.3
G3 X29.849 Y30 I-0.135 J0 F100
X30.119 Y30 I0.135 J0
G1 Z-0.6 F33.3
G3 X29.849 Y30 I-0.135 J0 F100
X30.119 Y30 I0.135 J0
G1 Z-0.9 F33.3
G3 X29.849 Y30 I-0.135 J0 F100
X30.119 Y30 I0.135 J0
G1 Z-1.2 F33.3
G3 X29.849 Y30 I-0.135 J0 F100
X30.119 Y30 I0.135 J0
G1 Z-1.5 F33.3
G3 X29.849 Y30 I-0.135 J0 F100
X30.119 Y30 I0.135 J0
G1 Z-1.8 F33.3
G3 X29.849 Y30 I-0.135 J0 F100
X30.119 Y30 I0.135 J0
G1 Z-2.1 F33.3
G3 X29.849 Y30 I-0.135 J0 F100
X30.119 Y30 I0.135 J0
G1 Z-2.4 F33.3
G3 X29.849 Y30 I-0.135 J0 F100
X30.119 Y30 I0.135 J0
G1 Z-2.7 F33.3
G3 X29.849 Y30 I-0.135 J0 F100
X30.119 Y30 I0.135 J0
G1 Z-3 F33.3
G3 X29.849 Y30 I-0.135 J0 F100
X30.119 Y30 I0.135 J0
G1 Z-3.3 F33.3
G3 X29.849 Y30 I-0.135 J0 F100
X30.119 Y30 I0.135 J0
G1 Z-3.6 F33.3
G3 X29.849 Y30 I-0.135 J0 F100
X30.119 Y30 I0.135 J0
G1 Z-3.9 F33.3
G3 X29.849 Y30 I-0.135 J0 F100
X30.119 Y30 I0.135 J0
G1 Z-4.2 F33.3
G3 X29.849 Y30 I-0.135 J0 F100
X30.119 Y30 I0.135 J0
G1 Z-4.5 F33.3
G3 X29.849 Y30 I-0.135 J0 F100
X30.119 Y30 I0.135 J0
G1 Z-4.8 F33.3
G3 X29.849 Y30 I-0.135 J0 F100
X30.119 Y30 I0.135 J0
G1 Z-5.1 F33.3
G3 X29.849 Y30 I-0.135 J0 F100
X30.119 Y30 I0.135 J0
G1 Z-5.4 F33.3
G3 X29.849 Y30 I-0.135 J0 F100
X30.119 Y30 I0.135 J0
G1 Z-5.7 F33.3
G3 X29.849 Y30 I-0.135 J0 F100
X30.119 Y30 I0.135 J0
G1 Z-6 F33.3
G3 X29.849 Y30 I-0.135 J0 F100
X30.119 Y30 I0.135 J0
G1 Z-6.3 F33.3
G3 X29.849 Y30 I-0.135 J0 F100
X30.119 Y30 I0.135 J0
G1 Z-6.6 F33.3
G3 X29.849 Y30 I-0.135 J0 F100
X30.119 Y30 I0.135 J0
G1 Z-6.9 F33.3
G3 X29.849 Y30 I-0.135 J0 F100
X30.119 Y30 I0.135 J0
G1 Z-7.2 F33.3
G3 X29.849 Y30 I-0.135 J0 F100
X30.119 Y30 I0.135 J0
G1 Z-7.5 F33.3
G3 X29.849 Y30 I-0.135 J0 F100
X30.119 Y30 I0.135 J0
G1 Z-7.8 F33.3
G3 X29.849 Y30 I-0.135 J0 F100
X30.119 Y30 I0.135 J0
G1 Z-8.1 F33.3
G3 X29.849 Y30 I-0.135 J0 F100
X30.119 Y30 I0.135 J0
G1 Z-8.4 F33.3
G3 X29.849 Y30 I-0.135 J0 F100
X30.119 Y30 I0.135 J0
G1 Z-8.7 F33.3
G3 X29.849 Y30 I-0.135 J0 F100
X30.119 Y30 I0.135 J0
G1 Z-9 F33.3
G3 X29.849 Y30 I-0.135 J0 F100
X30.119 Y30 I0.135 J0
G1 Z-9.3 F33.3
G3 X29.849 Y30 I-0.135 J0 F100
X30.119 Y30 I0.135 J0
G1 Z-9.6 F33.3
G3 X29.849 Y30 I-0.135 J0 F100
X30.119 Y30 I0.135 J0
G1 Z-9.9 F33.3
G3 X29.849 Y30 I-0.135 J0 F100
X30.119 Y30 I0.135 J0
G1 Z-10.2 F33.3
G3 X29.849 Y30 I-0.135 J0 F100
X30.119 Y30 I0.135 J0
G1 Z-10.5 F33.3
G3 X29.849 Y30 I-0.135 J0 F100
X30.119 Y30 I0.135 J0
G1 Z-10.8 F33.3
G3 X29.849 Y30 I-0.135 J0 F100
X30.119 Y30 I0.135 J0
G1 Z-11.1 F33.3
G3 X29.849 Y30 I-0.135 J0 F100
X30.119 Y30 I0.135 J0
G1 Z-11.4 F33.3
G3 X29.849 Y30 I-0.135 J0 F100
X30.119 Y30 I0.135 J0
G1 Z-11.7 F33.3
G3 X29.849 Y30 I-0.135 J0 F100
X30.119 Y30 I0.135 J0
G1 Z-12 F33.3
G3 X29.849 Y30 I-0.135 J0 F100
X30.119 Y30 I0.135 J0
G1 Z-12.3 F33.3
G3 X29.849 Y30 I-0.135 J0 F100
X30.119 Y30 I0.135 J0
G1 Z-12.6 F33.3
G3 X29.849 Y30 I-0.135 J0 F100
X30.119 Y30 I0.135 J0
G1 Z-12.9 F33.3
G3 X29.849 Y30 I-0.135 J0 F100
X30.119 Y30 I0.135 J0
G1 Z-13.2 F33.3
G3 X29.849 Y30 I-0.135 J0 F100
X30.119 Y30 I0.135 J0
G1 Z-13.5 F33.3
G3 X29.849 Y30 I-0.135 J0 F100
X30.119 Y30 I0.135 J0
G1 Z-13.8 F33.3
G3 X29.849 Y30 I-0.135 J0 F100
X30.119 Y30 I0.135 J0
G1 Z-14.1 F33.3
G3 X29.849 Y30 I-0.135 J0 F100
X30.119 Y30 I0.135 J0
G1 Z-14.4 F33.3
G3 X29.849 Y30 I-0.135 J0 F100
X30.119 Y30 I0.135 J0
G1 Z-14.7 F33.3
G3 X29.849 Y30 I-0.135 J0 F100
X30.119 Y30 I0.135 J0
G1 Z-15 F33.3
G3 X29.849 Y30 I-0.135 J0 F100
X30.119 Y30 I0.135 J0
G1 Z-15.3 F33.3
G3 X29.849 Y30 I-0.135 J0 F100
X30.119 Y30 I0.135 J0
G1 Z-15.5 F33.3
G3 X29.849 Y30 I-0.135 J0 F100
X30.119 Y30 I0.135 J0
G1 Z15

M9
M5
M30
