(cartarm_base_joint1_mount)
(Machine)
(  vendor: Autodesk)
(  model: Generic 3-axis)
(  description: This machine has XYZ axis on the Head)
(T2 D=6.35 CR=0 - ZMIN=-14 - flat end mill)
G90 G94
G17
G21
(-Attention- Property Safe Retracts is set to Clearance Height.)
(Ensure the clearance height will clear the part and or fixtures.)
(Raise the Z-axis to a safe height before starting the program.)

(Drill3)
T2
S19000 M3
G17 G90 G94
G54
M8
G0 X67.385 Y13.991
Z15
G0 Z5
Z4
Z1
G1 Z-1.2 F25
G0 Z4
Z0.8
G1 Z-1.4 F25
G0 Z4
Z0.6
G1 Z-1.6 F25
G0 Z4
Z0.4
G1 Z-1.8 F25
G0 Z4
Z0.2
G1 Z-2 F25
G0 Z4
Z0
G1 Z-2.2 F25
G0 Z4
Z-0.2
G1 Z-2.4 F25
G0 Z4
Z-0.4
G1 Z-2.6 F25
G0 Z4
Z-0.6
G1 Z-2.8 F25
G0 Z4
Z-0.8
G1 Z-3 F25
G0 Z4
Z-1
G1 Z-3.2 F25
G0 Z4
Z-1.2
G1 Z-3.4 F25
G0 Z4
Z-1.4
G1 Z-3.6 F25
G0 Z4
Z-1.6
G1 Z-3.8 F25
G0 Z4
Z-1.8
G1 Z-4 F25
G0 Z4
Z-2
G1 Z-4.2 F25
G0 Z4
Z-2.2
G1 Z-4.4 F25
G0 Z4
Z-2.4
G1 Z-4.6 F25
G0 Z4
Z-2.6
G1 Z-4.8 F25
G0 Z4
Z-2.8
G1 Z-5 F25
G0 Z4
Z-3
G1 Z-5.2 F25
G0 Z4
Z-3.2
G1 Z-5.4 F25
G0 Z4
Z-3.4
G1 Z-5.6 F25
G0 Z4
Z-3.6
G1 Z-5.8 F25
G0 Z4
Z-3.8
G1 Z-6 F25
G0 Z4
Z-4
G1 Z-6.2 F25
G0 Z4
Z-4.2
G1 Z-6.4 F25
G0 Z4
Z-4.4
G1 Z-6.6 F25
G0 Z4
Z-4.6
G1 Z-6.8 F25
G0 Z4
Z-4.8
G1 Z-7 F25
G0 Z4
Z-5
G1 Z-7.2 F25
G0 Z4
Z-5.2
G1 Z-7.4 F25
G0 Z4
Z-5.4
G1 Z-7.6 F25
G0 Z4
Z-5.6
G1 Z-7.8 F25
G0 Z4
Z-5.8
G1 Z-8 F25
G0 Z4
Z-6
G1 Z-8.2 F25
G0 Z4
Z-6.2
G1 Z-8.4 F25
G0 Z4
Z-6.4
G1 Z-8.6 F25
G0 Z4
Z-6.6
G1 Z-8.8 F25
G0 Z4
Z-6.8
G1 Z-9 F25
G0 Z4
Z-7
G1 Z-9.2 F25
G0 Z4
Z-7.2
G1 Z-9.4 F25
G0 Z4
Z-7.4
G1 Z-9.6 F25
G0 Z4
Z-7.6
G1 Z-9.8 F25
G0 Z4
Z-7.8
G1 Z-10 F25
G0 Z4
Z-8
G1 Z-10.2 F25
G0 Z4
Z-8.2
G1 Z-10.4 F25
G0 Z4
Z-8.4
G1 Z-10.6 F25
G0 Z4
Z-8.6
G1 Z-10.8 F25
G0 Z4
Z-8.8
G1 Z-11 F25
G0 Z4
Z-9
G1 Z-11.2 F25
G0 Z4
Z-9.2
G1 Z-11.4 F25
G0 Z4
Z-9.4
G1 Z-11.6 F25
G0 Z4
Z-9.6
G1 Z-11.8 F25
G0 Z4
Z-9.8
G1 Z-12 F25
G0 Z4
Z-10
G1 Z-12.2 F25
G0 Z4
Z-10.2
G1 Z-12.4 F25
G0 Z4
Z-10.4
G1 Z-12.6 F25
G0 Z4
Z-10.6
G1 Z-12.8 F25
G0 Z4
Z-10.8
G1 Z-13 F25
G0 Z4
Z-11
G1 Z-13.2 F25
G0 Z4
Z-11.2
G1 Z-13.4 F25
G0 Z4
Z-11.4
G1 Z-13.6 F25
G0 Z4
Z-11.6
G1 Z-13.8 F25
G0 Z4
Z-11.8
G1 Z-14 F25
G4 P1.
G0 Z5
X52.385
Z4
Z1
G1 Z-1.2 F25
G0 Z4
Z0.8
G1 Z-1.4 F25
G0 Z4
Z0.6
G1 Z-1.6 F25
G0 Z4
Z0.4
G1 Z-1.8 F25
G0 Z4
Z0.2
G1 Z-2 F25
G0 Z4
Z0
G1 Z-2.2 F25
G0 Z4
Z-0.2
G1 Z-2.4 F25
G0 Z4
Z-0.4
G1 Z-2.6 F25
G0 Z4
Z-0.6
G1 Z-2.8 F25
G0 Z4
Z-0.8
G1 Z-3 F25
G0 Z4
Z-1
G1 Z-3.2 F25
G0 Z4
Z-1.2
G1 Z-3.4 F25
G0 Z4
Z-1.4
G1 Z-3.6 F25
G0 Z4
Z-1.6
G1 Z-3.8 F25
G0 Z4
Z-1.8
G1 Z-4 F25
G0 Z4
Z-2
G1 Z-4.2 F25
G0 Z4
Z-2.2
G1 Z-4.4 F25
G0 Z4
Z-2.4
G1 Z-4.6 F25
G0 Z4
Z-2.6
G1 Z-4.8 F25
G0 Z4
Z-2.8
G1 Z-5 F25
G0 Z4
Z-3
G1 Z-5.2 F25
G0 Z4
Z-3.2
G1 Z-5.4 F25
G0 Z4
Z-3.4
G1 Z-5.6 F25
G0 Z4
Z-3.6
G1 Z-5.8 F25
G0 Z4
Z-3.8
G1 Z-6 F25
G0 Z4
Z-4
G1 Z-6.2 F25
G0 Z4
Z-4.2
G1 Z-6.4 F25
G0 Z4
Z-4.4
G1 Z-6.6 F25
G0 Z4
Z-4.6
G1 Z-6.8 F25
G0 Z4
Z-4.8
G1 Z-7 F25
G0 Z4
Z-5
G1 Z-7.2 F25
G0 Z4
Z-5.2
G1 Z-7.4 F25
G0 Z4
Z-5.4
G1 Z-7.6 F25
G0 Z4
Z-5.6
G1 Z-7.8 F25
G0 Z4
Z-5.8
G1 Z-8 F25
G0 Z4
Z-6
G1 Z-8.2 F25
G0 Z4
Z-6.2
G1 Z-8.4 F25
G0 Z4
Z-6.4
G1 Z-8.6 F25
G0 Z4
Z-6.6
G1 Z-8.8 F25
G0 Z4
Z-6.8
G1 Z-9 F25
G0 Z4
Z-7
G1 Z-9.2 F25
G0 Z4
Z-7.2
G1 Z-9.4 F25
G0 Z4
Z-7.4
G1 Z-9.6 F25
G0 Z4
Z-7.6
G1 Z-9.8 F25
G0 Z4
Z-7.8
G1 Z-10 F25
G0 Z4
Z-8
G1 Z-10.2 F25
G0 Z4
Z-8.2
G1 Z-10.4 F25
G0 Z4
Z-8.4
G1 Z-10.6 F25
G0 Z4
Z-8.6
G1 Z-10.8 F25
G0 Z4
Z-8.8
G1 Z-11 F25
G0 Z4
Z-9
G1 Z-11.2 F25
G0 Z4
Z-9.2
G1 Z-11.4 F25
G0 Z4
Z-9.4
G1 Z-11.6 F25
G0 Z4
Z-9.6
G1 Z-11.8 F25
G0 Z4
Z-9.8
G1 Z-12 F25
G0 Z4
Z-10
G1 Z-12.2 F25
G0 Z4
Z-10.2
G1 Z-12.4 F25
G0 Z4
Z-10.4
G1 Z-12.6 F25
G0 Z4
Z-10.6
G1 Z-12.8 F25
G0 Z4
Z-10.8
G1 Z-13 F25
G0 Z4
Z-11
G1 Z-13.2 F25
G0 Z4
Z-11.2
G1 Z-13.4 F25
G0 Z4
Z-11.4
G1 Z-13.6 F25
G0 Z4
Z-11.6
G1 Z-13.8 F25
G0 Z4
Z-11.8
G1 Z-14 F25
G4 P1.
G0 Z5
X37.385
Z4
Z1
G1 Z-1.2 F25
G0 Z4
Z0.8
G1 Z-1.4 F25
G0 Z4
Z0.6
G1 Z-1.6 F25
G0 Z4
Z0.4
G1 Z-1.8 F25
G0 Z4
Z0.2
G1 Z-2 F25
G0 Z4
Z0
G1 Z-2.2 F25
G0 Z4
Z-0.2
G1 Z-2.4 F25
G0 Z4
Z-0.4
G1 Z-2.6 F25
G0 Z4
Z-0.6
G1 Z-2.8 F25
G0 Z4
Z-0.8
G1 Z-3 F25
G0 Z4
Z-1
G1 Z-3.2 F25
G0 Z4
Z-1.2
G1 Z-3.4 F25
G0 Z4
Z-1.4
G1 Z-3.6 F25
G0 Z4
Z-1.6
G1 Z-3.8 F25
G0 Z4
Z-1.8
G1 Z-4 F25
G0 Z4
Z-2
G1 Z-4.2 F25
G0 Z4
Z-2.2
G1 Z-4.4 F25
G0 Z4
Z-2.4
G1 Z-4.6 F25
G0 Z4
Z-2.6
G1 Z-4.8 F25
G0 Z4
Z-2.8
G1 Z-5 F25
G0 Z4
Z-3
G1 Z-5.2 F25
G0 Z4
Z-3.2
G1 Z-5.4 F25
G0 Z4
Z-3.4
G1 Z-5.6 F25
G0 Z4
Z-3.6
G1 Z-5.8 F25
G0 Z4
Z-3.8
G1 Z-6 F25
G0 Z4
Z-4
G1 Z-6.2 F25
G0 Z4
Z-4.2
G1 Z-6.4 F25
G0 Z4
Z-4.4
G1 Z-6.6 F25
G0 Z4
Z-4.6
G1 Z-6.8 F25
G0 Z4
Z-4.8
G1 Z-7 F25
G0 Z4
Z-5
G1 Z-7.2 F25
G0 Z4
Z-5.2
G1 Z-7.4 F25
G0 Z4
Z-5.4
G1 Z-7.6 F25
G0 Z4
Z-5.6
G1 Z-7.8 F25
G0 Z4
Z-5.8
G1 Z-8 F25
G0 Z4
Z-6
G1 Z-8.2 F25
G0 Z4
Z-6.2
G1 Z-8.4 F25
G0 Z4
Z-6.4
G1 Z-8.6 F25
G0 Z4
Z-6.6
G1 Z-8.8 F25
G0 Z4
Z-6.8
G1 Z-9 F25
G0 Z4
Z-7
G1 Z-9.2 F25
G0 Z4
Z-7.2
G1 Z-9.4 F25
G0 Z4
Z-7.4
G1 Z-9.6 F25
G0 Z4
Z-7.6
G1 Z-9.8 F25
G0 Z4
Z-7.8
G1 Z-10 F25
G0 Z4
Z-8
G1 Z-10.2 F25
G0 Z4
Z-8.2
G1 Z-10.4 F25
G0 Z4
Z-8.4
G1 Z-10.6 F25
G0 Z4
Z-8.6
G1 Z-10.8 F25
G0 Z4
Z-8.8
G1 Z-11 F25
G0 Z4
Z-9
G1 Z-11.2 F25
G0 Z4
Z-9.2
G1 Z-11.4 F25
G0 Z4
Z-9.4
G1 Z-11.6 F25
G0 Z4
Z-9.6
G1 Z-11.8 F25
G0 Z4
Z-9.8
G1 Z-12 F25
G0 Z4
Z-10
G1 Z-12.2 F25
G0 Z4
Z-10.2
G1 Z-12.4 F25
G0 Z4
Z-10.4
G1 Z-12.6 F25
G0 Z4
Z-10.6
G1 Z-12.8 F25
G0 Z4
Z-10.8
G1 Z-13 F25
G0 Z4
Z-11
G1 Z-13.2 F25
G0 Z4
Z-11.2
G1 Z-13.4 F25
G0 Z4
Z-11.4
G1 Z-13.6 F25
G0 Z4
Z-11.6
G1 Z-13.8 F25
G0 Z4
Z-11.8
G1 Z-14 F25
G4 P1.
G0 Z5
X22.385
Z4
Z1
G1 Z-1.2 F25
G0 Z4
Z0.8
G1 Z-1.4 F25
G0 Z4
Z0.6
G1 Z-1.6 F25
G0 Z4
Z0.4
G1 Z-1.8 F25
G0 Z4
Z0.2
G1 Z-2 F25
G0 Z4
Z0
G1 Z-2.2 F25
G0 Z4
Z-0.2
G1 Z-2.4 F25
G0 Z4
Z-0.4
G1 Z-2.6 F25
G0 Z4
Z-0.6
G1 Z-2.8 F25
G0 Z4
Z-0.8
G1 Z-3 F25
G0 Z4
Z-1
G1 Z-3.2 F25
G0 Z4
Z-1.2
G1 Z-3.4 F25
G0 Z4
Z-1.4
G1 Z-3.6 F25
G0 Z4
Z-1.6
G1 Z-3.8 F25
G0 Z4
Z-1.8
G1 Z-4 F25
G0 Z4
Z-2
G1 Z-4.2 F25
G0 Z4
Z-2.2
G1 Z-4.4 F25
G0 Z4
Z-2.4
G1 Z-4.6 F25
G0 Z4
Z-2.6
G1 Z-4.8 F25
G0 Z4
Z-2.8
G1 Z-5 F25
G0 Z4
Z-3
G1 Z-5.2 F25
G0 Z4
Z-3.2
G1 Z-5.4 F25
G0 Z4
Z-3.4
G1 Z-5.6 F25
G0 Z4
Z-3.6
G1 Z-5.8 F25
G0 Z4
Z-3.8
G1 Z-6 F25
G0 Z4
Z-4
G1 Z-6.2 F25
G0 Z4
Z-4.2
G1 Z-6.4 F25
G0 Z4
Z-4.4
G1 Z-6.6 F25
G0 Z4
Z-4.6
G1 Z-6.8 F25
G0 Z4
Z-4.8
G1 Z-7 F25
G0 Z4
Z-5
G1 Z-7.2 F25
G0 Z4
Z-5.2
G1 Z-7.4 F25
G0 Z4
Z-5.4
G1 Z-7.6 F25
G0 Z4
Z-5.6
G1 Z-7.8 F25
G0 Z4
Z-5.8
G1 Z-8 F25
G0 Z4
Z-6
G1 Z-8.2 F25
G0 Z4
Z-6.2
G1 Z-8.4 F25
G0 Z4
Z-6.4
G1 Z-8.6 F25
G0 Z4
Z-6.6
G1 Z-8.8 F25
G0 Z4
Z-6.8
G1 Z-9 F25
G0 Z4
Z-7
G1 Z-9.2 F25
G0 Z4
Z-7.2
G1 Z-9.4 F25
G0 Z4
Z-7.4
G1 Z-9.6 F25
G0 Z4
Z-7.6
G1 Z-9.8 F25
G0 Z4
Z-7.8
G1 Z-10 F25
G0 Z4
Z-8
G1 Z-10.2 F25
G0 Z4
Z-8.2
G1 Z-10.4 F25
G0 Z4
Z-8.4
G1 Z-10.6 F25
G0 Z4
Z-8.6
G1 Z-10.8 F25
G0 Z4
Z-8.8
G1 Z-11 F25
G0 Z4
Z-9
G1 Z-11.2 F25
G0 Z4
Z-9.2
G1 Z-11.4 F25
G0 Z4
Z-9.4
G1 Z-11.6 F25
G0 Z4
Z-9.6
G1 Z-11.8 F25
G0 Z4
Z-9.8
G1 Z-12 F25
G0 Z4
Z-10
G1 Z-12.2 F25
G0 Z4
Z-10.2
G1 Z-12.4 F25
G0 Z4
Z-10.4
G1 Z-12.6 F25
G0 Z4
Z-10.6
G1 Z-12.8 F25
G0 Z4
Z-10.8
G1 Z-13 F25
G0 Z4
Z-11
G1 Z-13.2 F25
G0 Z4
Z-11.2
G1 Z-13.4 F25
G0 Z4
Z-11.4
G1 Z-13.6 F25
G0 Z4
Z-11.6
G1 Z-13.8 F25
G0 Z4
Z-11.8
G1 Z-14 F25
G4 P1.
G0 Z5
X7.385
Z4
Z1
G1 Z-1.2 F25
G0 Z4
Z0.8
G1 Z-1.4 F25
G0 Z4
Z0.6
G1 Z-1.6 F25
G0 Z4
Z0.4
G1 Z-1.8 F25
G0 Z4
Z0.2
G1 Z-2 F25
G0 Z4
Z0
G1 Z-2.2 F25
G0 Z4
Z-0.2
G1 Z-2.4 F25
G0 Z4
Z-0.4
G1 Z-2.6 F25
G0 Z4
Z-0.6
G1 Z-2.8 F25
G0 Z4
Z-0.8
G1 Z-3 F25
G0 Z4
Z-1
G1 Z-3.2 F25
G0 Z4
Z-1.2
G1 Z-3.4 F25
G0 Z4
Z-1.4
G1 Z-3.6 F25
G0 Z4
Z-1.6
G1 Z-3.8 F25
G0 Z4
Z-1.8
G1 Z-4 F25
G0 Z4
Z-2
G1 Z-4.2 F25
G0 Z4
Z-2.2
G1 Z-4.4 F25
G0 Z4
Z-2.4
G1 Z-4.6 F25
G0 Z4
Z-2.6
G1 Z-4.8 F25
G0 Z4
Z-2.8
G1 Z-5 F25
G0 Z4
Z-3
G1 Z-5.2 F25
G0 Z4
Z-3.2
G1 Z-5.4 F25
G0 Z4
Z-3.4
G1 Z-5.6 F25
G0 Z4
Z-3.6
G1 Z-5.8 F25
G0 Z4
Z-3.8
G1 Z-6 F25
G0 Z4
Z-4
G1 Z-6.2 F25
G0 Z4
Z-4.2
G1 Z-6.4 F25
G0 Z4
Z-4.4
G1 Z-6.6 F25
G0 Z4
Z-4.6
G1 Z-6.8 F25
G0 Z4
Z-4.8
G1 Z-7 F25
G0 Z4
Z-5
G1 Z-7.2 F25
G0 Z4
Z-5.2
G1 Z-7.4 F25
G0 Z4
Z-5.4
G1 Z-7.6 F25
G0 Z4
Z-5.6
G1 Z-7.8 F25
G0 Z4
Z-5.8
G1 Z-8 F25
G0 Z4
Z-6
G1 Z-8.2 F25
G0 Z4
Z-6.2
G1 Z-8.4 F25
G0 Z4
Z-6.4
G1 Z-8.6 F25
G0 Z4
Z-6.6
G1 Z-8.8 F25
G0 Z4
Z-6.8
G1 Z-9 F25
G0 Z4
Z-7
G1 Z-9.2 F25
G0 Z4
Z-7.2
G1 Z-9.4 F25
G0 Z4
Z-7.4
G1 Z-9.6 F25
G0 Z4
Z-7.6
G1 Z-9.8 F25
G0 Z4
Z-7.8
G1 Z-10 F25
G0 Z4
Z-8
G1 Z-10.2 F25
G0 Z4
Z-8.2
G1 Z-10.4 F25
G0 Z4
Z-8.4
G1 Z-10.6 F25
G0 Z4
Z-8.6
G1 Z-10.8 F25
G0 Z4
Z-8.8
G1 Z-11 F25
G0 Z4
Z-9
G1 Z-11.2 F25
G0 Z4
Z-9.2
G1 Z-11.4 F25
G0 Z4
Z-9.4
G1 Z-11.6 F25
G0 Z4
Z-9.6
G1 Z-11.8 F25
G0 Z4
Z-9.8
G1 Z-12 F25
G0 Z4
Z-10
G1 Z-12.2 F25
G0 Z4
Z-10.2
G1 Z-12.4 F25
G0 Z4
Z-10.4
G1 Z-12.6 F25
G0 Z4
Z-10.6
G1 Z-12.8 F25
G0 Z4
Z-10.8
G1 Z-13 F25
G0 Z4
Z-11
G1 Z-13.2 F25
G0 Z4
Z-11.2
G1 Z-13.4 F25
G0 Z4
Z-11.4
G1 Z-13.6 F25
G0 Z4
Z-11.6
G1 Z-13.8 F25
G0 Z4
Z-11.8
G1 Z-14 F25
G4 P1.
G0 Z5
X14.288 Y42.2
Z4
Z1
G1 Z-1.2 F25
G0 Z4
Z0.8
G1 Z-1.4 F25
G0 Z4
Z0.6
G1 Z-1.6 F25
G0 Z4
Z0.4
G1 Z-1.8 F25
G0 Z4
Z0.2
G1 Z-2 F25
G0 Z4
Z0
G1 Z-2.2 F25
G0 Z4
Z-0.2
G1 Z-2.4 F25
G0 Z4
Z-0.4
G1 Z-2.6 F25
G0 Z4
Z-0.6
G1 Z-2.8 F25
G0 Z4
Z-0.8
G1 Z-3 F25
G0 Z4
Z-1
G1 Z-3.2 F25
G0 Z4
Z-1.2
G1 Z-3.4 F25
G0 Z4
Z-1.4
G1 Z-3.6 F25
G0 Z4
Z-1.6
G1 Z-3.8 F25
G0 Z4
Z-1.8
G1 Z-4 F25
G0 Z4
Z-2
G1 Z-4.2 F25
G0 Z4
Z-2.2
G1 Z-4.4 F25
G0 Z4
Z-2.4
G1 Z-4.6 F25
G0 Z4
Z-2.6
G1 Z-4.8 F25
G0 Z4
Z-2.8
G1 Z-5 F25
G0 Z4
Z-3
G1 Z-5.2 F25
G0 Z4
Z-3.2
G1 Z-5.4 F25
G0 Z4
Z-3.4
G1 Z-5.6 F25
G0 Z4
Z-3.6
G1 Z-5.8 F25
G0 Z4
Z-3.8
G1 Z-6 F25
G0 Z4
Z-4
G1 Z-6.2 F25
G0 Z4
Z-4.2
G1 Z-6.4 F25
G0 Z4
Z-4.4
G1 Z-6.6 F25
G0 Z4
Z-4.6
G1 Z-6.8 F25
G0 Z4
Z-4.8
G1 Z-7 F25
G0 Z4
Z-5
G1 Z-7.2 F25
G0 Z4
Z-5.2
G1 Z-7.4 F25
G0 Z4
Z-5.4
G1 Z-7.6 F25
G0 Z4
Z-5.6
G1 Z-7.8 F25
G0 Z4
Z-5.8
G1 Z-8 F25
G0 Z4
Z-6
G1 Z-8.2 F25
G0 Z4
Z-6.2
G1 Z-8.4 F25
G0 Z4
Z-6.4
G1 Z-8.6 F25
G0 Z4
Z-6.6
G1 Z-8.8 F25
G0 Z4
Z-6.8
G1 Z-9 F25
G0 Z4
Z-7
G1 Z-9.2 F25
G0 Z4
Z-7.2
G1 Z-9.4 F25
G0 Z4
Z-7.4
G1 Z-9.6 F25
G0 Z4
Z-7.6
G1 Z-9.8 F25
G0 Z4
Z-7.8
G1 Z-10 F25
G0 Z4
Z-8
G1 Z-10.2 F25
G0 Z4
Z-8.2
G1 Z-10.4 F25
G0 Z4
Z-8.4
G1 Z-10.6 F25
G0 Z4
Z-8.6
G1 Z-10.8 F25
G0 Z4
Z-8.8
G1 Z-11 F25
G0 Z4
Z-9
G1 Z-11.2 F25
G0 Z4
Z-9.2
G1 Z-11.4 F25
G0 Z4
Z-9.4
G1 Z-11.6 F25
G0 Z4
Z-9.6
G1 Z-11.8 F25
G0 Z4
Z-9.8
G1 Z-12 F25
G0 Z4
Z-10
G1 Z-12.2 F25
G0 Z4
Z-10.2
G1 Z-12.4 F25
G0 Z4
Z-10.4
G1 Z-12.6 F25
G0 Z4
Z-10.6
G1 Z-12.8 F25
G0 Z4
Z-10.8
G1 Z-13 F25
G0 Z4
Z-11
G1 Z-13.2 F25
G0 Z4
Z-11.2
G1 Z-13.4 F25
G0 Z4
Z-11.4
G1 Z-13.6 F25
G0 Z4
Z-11.6
G1 Z-13.8 F25
G0 Z4
Z-11.8
G1 Z-14 F25
G4 P1.
G0 Z5
X7.861 Y53.213
Z4
Z1
G1 Z-1.2 F25
G0 Z4
Z0.8
G1 Z-1.4 F25
G0 Z4
Z0.6
G1 Z-1.6 F25
G0 Z4
Z0.4
G1 Z-1.8 F25
G0 Z4
Z0.2
G1 Z-2 F25
G0 Z4
Z0
G1 Z-2.2 F25
G0 Z4
Z-0.2
G1 Z-2.4 F25
G0 Z4
Z-0.4
G1 Z-2.6 F25
G0 Z4
Z-0.6
G1 Z-2.8 F25
G0 Z4
Z-0.8
G1 Z-3 F25
G0 Z4
Z-1
G1 Z-3.2 F25
G0 Z4
Z-1.2
G1 Z-3.4 F25
G0 Z4
Z-1.4
G1 Z-3.6 F25
G0 Z4
Z-1.6
G1 Z-3.8 F25
G0 Z4
Z-1.8
G1 Z-4 F25
G0 Z4
Z-2
G1 Z-4.2 F25
G0 Z4
Z-2.2
G1 Z-4.4 F25
G0 Z4
Z-2.4
G1 Z-4.6 F25
G0 Z4
Z-2.6
G1 Z-4.8 F25
G0 Z4
Z-2.8
G1 Z-5 F25
G0 Z4
Z-3
G1 Z-5.2 F25
G0 Z4
Z-3.2
G1 Z-5.4 F25
G0 Z4
Z-3.4
G1 Z-5.6 F25
G0 Z4
Z-3.6
G1 Z-5.8 F25
G0 Z4
Z-3.8
G1 Z-6 F25
G0 Z4
Z-4
G1 Z-6.2 F25
G0 Z4
Z-4.2
G1 Z-6.4 F25
G0 Z4
Z-4.4
G1 Z-6.6 F25
G0 Z4
Z-4.6
G1 Z-6.8 F25
G0 Z4
Z-4.8
G1 Z-7 F25
G0 Z4
Z-5
G1 Z-7.2 F25
G0 Z4
Z-5.2
G1 Z-7.4 F25
G0 Z4
Z-5.4
G1 Z-7.6 F25
G0 Z4
Z-5.6
G1 Z-7.8 F25
G0 Z4
Z-5.8
G1 Z-8 F25
G0 Z4
Z-6
G1 Z-8.2 F25
G0 Z4
Z-6.2
G1 Z-8.4 F25
G0 Z4
Z-6.4
G1 Z-8.6 F25
G0 Z4
Z-6.6
G1 Z-8.8 F25
G0 Z4
Z-6.8
G1 Z-9 F25
G0 Z4
Z-7
G1 Z-9.2 F25
G0 Z4
Z-7.2
G1 Z-9.4 F25
G0 Z4
Z-7.4
G1 Z-9.6 F25
G0 Z4
Z-7.6
G1 Z-9.8 F25
G0 Z4
Z-7.8
G1 Z-10 F25
G0 Z4
Z-8
G1 Z-10.2 F25
G0 Z4
Z-8.2
G1 Z-10.4 F25
G0 Z4
Z-8.4
G1 Z-10.6 F25
G0 Z4
Z-8.6
G1 Z-10.8 F25
G0 Z4
Z-8.8
G1 Z-11 F25
G0 Z4
Z-9
G1 Z-11.2 F25
G0 Z4
Z-9.2
G1 Z-11.4 F25
G0 Z4
Z-9.4
G1 Z-11.6 F25
G0 Z4
Z-9.6
G1 Z-11.8 F25
G0 Z4
Z-9.8
G1 Z-12 F25
G0 Z4
Z-10
G1 Z-12.2 F25
G0 Z4
Z-10.2
G1 Z-12.4 F25
G0 Z4
Z-10.4
G1 Z-12.6 F25
G0 Z4
Z-10.6
G1 Z-12.8 F25
G0 Z4
Z-10.8
G1 Z-13 F25
G0 Z4
Z-11
G1 Z-13.2 F25
G0 Z4
Z-11.2
G1 Z-13.4 F25
G0 Z4
Z-11.4
G1 Z-13.6 F25
G0 Z4
Z-11.6
G1 Z-13.8 F25
G0 Z4
Z-11.8
G1 Z-14 F25
G4 P1.
G0 Z5
X5.387 Y65.65
Z4
Z1
G1 Z-1.2 F25
G0 Z4
Z0.8
G1 Z-1.4 F25
G0 Z4
Z0.6
G1 Z-1.6 F25
G0 Z4
Z0.4
G1 Z-1.8 F25
G0 Z4
Z0.2
G1 Z-2 F25
G0 Z4
Z0
G1 Z-2.2 F25
G0 Z4
Z-0.2
G1 Z-2.4 F25
G0 Z4
Z-0.4
G1 Z-2.6 F25
G0 Z4
Z-0.6
G1 Z-2.8 F25
G0 Z4
Z-0.8
G1 Z-3 F25
G0 Z4
Z-1
G1 Z-3.2 F25
G0 Z4
Z-1.2
G1 Z-3.4 F25
G0 Z4
Z-1.4
G1 Z-3.6 F25
G0 Z4
Z-1.6
G1 Z-3.8 F25
G0 Z4
Z-1.8
G1 Z-4 F25
G0 Z4
Z-2
G1 Z-4.2 F25
G0 Z4
Z-2.2
G1 Z-4.4 F25
G0 Z4
Z-2.4
G1 Z-4.6 F25
G0 Z4
Z-2.6
G1 Z-4.8 F25
G0 Z4
Z-2.8
G1 Z-5 F25
G0 Z4
Z-3
G1 Z-5.2 F25
G0 Z4
Z-3.2
G1 Z-5.4 F25
G0 Z4
Z-3.4
G1 Z-5.6 F25
G0 Z4
Z-3.6
G1 Z-5.8 F25
G0 Z4
Z-3.8
G1 Z-6 F25
G0 Z4
Z-4
G1 Z-6.2 F25
G0 Z4
Z-4.2
G1 Z-6.4 F25
G0 Z4
Z-4.4
G1 Z-6.6 F25
G0 Z4
Z-4.6
G1 Z-6.8 F25
G0 Z4
Z-4.8
G1 Z-7 F25
G0 Z4
Z-5
G1 Z-7.2 F25
G0 Z4
Z-5.2
G1 Z-7.4 F25
G0 Z4
Z-5.4
G1 Z-7.6 F25
G0 Z4
Z-5.6
G1 Z-7.8 F25
G0 Z4
Z-5.8
G1 Z-8 F25
G0 Z4
Z-6
G1 Z-8.2 F25
G0 Z4
Z-6.2
G1 Z-8.4 F25
G0 Z4
Z-6.4
G1 Z-8.6 F25
G0 Z4
Z-6.6
G1 Z-8.8 F25
G0 Z4
Z-6.8
G1 Z-9 F25
G0 Z4
Z-7
G1 Z-9.2 F25
G0 Z4
Z-7.2
G1 Z-9.4 F25
G0 Z4
Z-7.4
G1 Z-9.6 F25
G0 Z4
Z-7.6
G1 Z-9.8 F25
G0 Z4
Z-7.8
G1 Z-10 F25
G0 Z4
Z-8
G1 Z-10.2 F25
G0 Z4
Z-8.2
G1 Z-10.4 F25
G0 Z4
Z-8.4
G1 Z-10.6 F25
G0 Z4
Z-8.6
G1 Z-10.8 F25
G0 Z4
Z-8.8
G1 Z-11 F25
G0 Z4
Z-9
G1 Z-11.2 F25
G0 Z4
Z-9.2
G1 Z-11.4 F25
G0 Z4
Z-9.4
G1 Z-11.6 F25
G0 Z4
Z-9.6
G1 Z-11.8 F25
G0 Z4
Z-9.8
G1 Z-12 F25
G0 Z4
Z-10
G1 Z-12.2 F25
G0 Z4
Z-10.2
G1 Z-12.4 F25
G0 Z4
Z-10.4
G1 Z-12.6 F25
G0 Z4
Z-10.6
G1 Z-12.8 F25
G0 Z4
Z-10.8
G1 Z-13 F25
G0 Z4
Z-11
G1 Z-13.2 F25
G0 Z4
Z-11.2
G1 Z-13.4 F25
G0 Z4
Z-11.4
G1 Z-13.6 F25
G0 Z4
Z-11.6
G1 Z-13.8 F25
G0 Z4
Z-11.8
G1 Z-14 F25
G4 P1.
G0 Z5
X7.861 Y78.087
Z4
Z1
G1 Z-1.2 F25
G0 Z4
Z0.8
G1 Z-1.4 F25
G0 Z4
Z0.6
G1 Z-1.6 F25
G0 Z4
Z0.4
G1 Z-1.8 F25
G0 Z4
Z0.2
G1 Z-2 F25
G0 Z4
Z0
G1 Z-2.2 F25
G0 Z4
Z-0.2
G1 Z-2.4 F25
G0 Z4
Z-0.4
G1 Z-2.6 F25
G0 Z4
Z-0.6
G1 Z-2.8 F25
G0 Z4
Z-0.8
G1 Z-3 F25
G0 Z4
Z-1
G1 Z-3.2 F25
G0 Z4
Z-1.2
G1 Z-3.4 F25
G0 Z4
Z-1.4
G1 Z-3.6 F25
G0 Z4
Z-1.6
G1 Z-3.8 F25
G0 Z4
Z-1.8
G1 Z-4 F25
G0 Z4
Z-2
G1 Z-4.2 F25
G0 Z4
Z-2.2
G1 Z-4.4 F25
G0 Z4
Z-2.4
G1 Z-4.6 F25
G0 Z4
Z-2.6
G1 Z-4.8 F25
G0 Z4
Z-2.8
G1 Z-5 F25
G0 Z4
Z-3
G1 Z-5.2 F25
G0 Z4
Z-3.2
G1 Z-5.4 F25
G0 Z4
Z-3.4
G1 Z-5.6 F25
G0 Z4
Z-3.6
G1 Z-5.8 F25
G0 Z4
Z-3.8
G1 Z-6 F25
G0 Z4
Z-4
G1 Z-6.2 F25
G0 Z4
Z-4.2
G1 Z-6.4 F25
G0 Z4
Z-4.4
G1 Z-6.6 F25
G0 Z4
Z-4.6
G1 Z-6.8 F25
G0 Z4
Z-4.8
G1 Z-7 F25
G0 Z4
Z-5
G1 Z-7.2 F25
G0 Z4
Z-5.2
G1 Z-7.4 F25
G0 Z4
Z-5.4
G1 Z-7.6 F25
G0 Z4
Z-5.6
G1 Z-7.8 F25
G0 Z4
Z-5.8
G1 Z-8 F25
G0 Z4
Z-6
G1 Z-8.2 F25
G0 Z4
Z-6.2
G1 Z-8.4 F25
G0 Z4
Z-6.4
G1 Z-8.6 F25
G0 Z4
Z-6.6
G1 Z-8.8 F25
G0 Z4
Z-6.8
G1 Z-9 F25
G0 Z4
Z-7
G1 Z-9.2 F25
G0 Z4
Z-7.2
G1 Z-9.4 F25
G0 Z4
Z-7.4
G1 Z-9.6 F25
G0 Z4
Z-7.6
G1 Z-9.8 F25
G0 Z4
Z-7.8
G1 Z-10 F25
G0 Z4
Z-8
G1 Z-10.2 F25
G0 Z4
Z-8.2
G1 Z-10.4 F25
G0 Z4
Z-8.4
G1 Z-10.6 F25
G0 Z4
Z-8.6
G1 Z-10.8 F25
G0 Z4
Z-8.8
G1 Z-11 F25
G0 Z4
Z-9
G1 Z-11.2 F25
G0 Z4
Z-9.2
G1 Z-11.4 F25
G0 Z4
Z-9.4
G1 Z-11.6 F25
G0 Z4
Z-9.6
G1 Z-11.8 F25
G0 Z4
Z-9.8
G1 Z-12 F25
G0 Z4
Z-10
G1 Z-12.2 F25
G0 Z4
Z-10.2
G1 Z-12.4 F25
G0 Z4
Z-10.4
G1 Z-12.6 F25
G0 Z4
Z-10.6
G1 Z-12.8 F25
G0 Z4
Z-10.8
G1 Z-13 F25
G0 Z4
Z-11
G1 Z-13.2 F25
G0 Z4
Z-11.2
G1 Z-13.4 F25
G0 Z4
Z-11.4
G1 Z-13.6 F25
G0 Z4
Z-11.6
G1 Z-13.8 F25
G0 Z4
Z-11.8
G1 Z-14 F25
G4 P1.
G0 Z5
X14.288 Y89.2
Z4
Z1
G1 Z-1.2 F25
G0 Z4
Z0.8
G1 Z-1.4 F25
G0 Z4
Z0.6
G1 Z-1.6 F25
G0 Z4
Z0.4
G1 Z-1.8 F25
G0 Z4
Z0.2
G1 Z-2 F25
G0 Z4
Z0
G1 Z-2.2 F25
G0 Z4
Z-0.2
G1 Z-2.4 F25
G0 Z4
Z-0.4
G1 Z-2.6 F25
G0 Z4
Z-0.6
G1 Z-2.8 F25
G0 Z4
Z-0.8
G1 Z-3 F25
G0 Z4
Z-1
G1 Z-3.2 F25
G0 Z4
Z-1.2
G1 Z-3.4 F25
G0 Z4
Z-1.4
G1 Z-3.6 F25
G0 Z4
Z-1.6
G1 Z-3.8 F25
G0 Z4
Z-1.8
G1 Z-4 F25
G0 Z4
Z-2
G1 Z-4.2 F25
G0 Z4
Z-2.2
G1 Z-4.4 F25
G0 Z4
Z-2.4
G1 Z-4.6 F25
G0 Z4
Z-2.6
G1 Z-4.8 F25
G0 Z4
Z-2.8
G1 Z-5 F25
G0 Z4
Z-3
G1 Z-5.2 F25
G0 Z4
Z-3.2
G1 Z-5.4 F25
G0 Z4
Z-3.4
G1 Z-5.6 F25
G0 Z4
Z-3.6
G1 Z-5.8 F25
G0 Z4
Z-3.8
G1 Z-6 F25
G0 Z4
Z-4
G1 Z-6.2 F25
G0 Z4
Z-4.2
G1 Z-6.4 F25
G0 Z4
Z-4.4
G1 Z-6.6 F25
G0 Z4
Z-4.6
G1 Z-6.8 F25
G0 Z4
Z-4.8
G1 Z-7 F25
G0 Z4
Z-5
G1 Z-7.2 F25
G0 Z4
Z-5.2
G1 Z-7.4 F25
G0 Z4
Z-5.4
G1 Z-7.6 F25
G0 Z4
Z-5.6
G1 Z-7.8 F25
G0 Z4
Z-5.8
G1 Z-8 F25
G0 Z4
Z-6
G1 Z-8.2 F25
G0 Z4
Z-6.2
G1 Z-8.4 F25
G0 Z4
Z-6.4
G1 Z-8.6 F25
G0 Z4
Z-6.6
G1 Z-8.8 F25
G0 Z4
Z-6.8
G1 Z-9 F25
G0 Z4
Z-7
G1 Z-9.2 F25
G0 Z4
Z-7.2
G1 Z-9.4 F25
G0 Z4
Z-7.4
G1 Z-9.6 F25
G0 Z4
Z-7.6
G1 Z-9.8 F25
G0 Z4
Z-7.8
G1 Z-10 F25
G0 Z4
Z-8
G1 Z-10.2 F25
G0 Z4
Z-8.2
G1 Z-10.4 F25
G0 Z4
Z-8.4
G1 Z-10.6 F25
G0 Z4
Z-8.6
G1 Z-10.8 F25
G0 Z4
Z-8.8
G1 Z-11 F25
G0 Z4
Z-9
G1 Z-11.2 F25
G0 Z4
Z-9.2
G1 Z-11.4 F25
G0 Z4
Z-9.4
G1 Z-11.6 F25
G0 Z4
Z-9.6
G1 Z-11.8 F25
G0 Z4
Z-9.8
G1 Z-12 F25
G0 Z4
Z-10
G1 Z-12.2 F25
G0 Z4
Z-10.2
G1 Z-12.4 F25
G0 Z4
Z-10.4
G1 Z-12.6 F25
G0 Z4
Z-10.6
G1 Z-12.8 F25
G0 Z4
Z-10.8
G1 Z-13 F25
G0 Z4
Z-11
G1 Z-13.2 F25
G0 Z4
Z-11.2
G1 Z-13.4 F25
G0 Z4
Z-11.4
G1 Z-13.6 F25
G0 Z4
Z-11.6
G1 Z-13.8 F25
G0 Z4
Z-11.8
G1 Z-14 F25
G4 P1.
G0 Z5
X25.45 Y95.676
Z4
Z1
G1 Z-1.2 F25
G0 Z4
Z0.8
G1 Z-1.4 F25
G0 Z4
Z0.6
G1 Z-1.6 F25
G0 Z4
Z0.4
G1 Z-1.8 F25
G0 Z4
Z0.2
G1 Z-2 F25
G0 Z4
Z0
G1 Z-2.2 F25
G0 Z4
Z-0.2
G1 Z-2.4 F25
G0 Z4
Z-0.4
G1 Z-2.6 F25
G0 Z4
Z-0.6
G1 Z-2.8 F25
G0 Z4
Z-0.8
G1 Z-3 F25
G0 Z4
Z-1
G1 Z-3.2 F25
G0 Z4
Z-1.2
G1 Z-3.4 F25
G0 Z4
Z-1.4
G1 Z-3.6 F25
G0 Z4
Z-1.6
G1 Z-3.8 F25
G0 Z4
Z-1.8
G1 Z-4 F25
G0 Z4
Z-2
G1 Z-4.2 F25
G0 Z4
Z-2.2
G1 Z-4.4 F25
G0 Z4
Z-2.4
G1 Z-4.6 F25
G0 Z4
Z-2.6
G1 Z-4.8 F25
G0 Z4
Z-2.8
G1 Z-5 F25
G0 Z4
Z-3
G1 Z-5.2 F25
G0 Z4
Z-3.2
G1 Z-5.4 F25
G0 Z4
Z-3.4
G1 Z-5.6 F25
G0 Z4
Z-3.6
G1 Z-5.8 F25
G0 Z4
Z-3.8
G1 Z-6 F25
G0 Z4
Z-4
G1 Z-6.2 F25
G0 Z4
Z-4.2
G1 Z-6.4 F25
G0 Z4
Z-4.4
G1 Z-6.6 F25
G0 Z4
Z-4.6
G1 Z-6.8 F25
G0 Z4
Z-4.8
G1 Z-7 F25
G0 Z4
Z-5
G1 Z-7.2 F25
G0 Z4
Z-5.2
G1 Z-7.4 F25
G0 Z4
Z-5.4
G1 Z-7.6 F25
G0 Z4
Z-5.6
G1 Z-7.8 F25
G0 Z4
Z-5.8
G1 Z-8 F25
G0 Z4
Z-6
G1 Z-8.2 F25
G0 Z4
Z-6.2
G1 Z-8.4 F25
G0 Z4
Z-6.4
G1 Z-8.6 F25
G0 Z4
Z-6.6
G1 Z-8.8 F25
G0 Z4
Z-6.8
G1 Z-9 F25
G0 Z4
Z-7
G1 Z-9.2 F25
G0 Z4
Z-7.2
G1 Z-9.4 F25
G0 Z4
Z-7.4
G1 Z-9.6 F25
G0 Z4
Z-7.6
G1 Z-9.8 F25
G0 Z4
Z-7.8
G1 Z-10 F25
G0 Z4
Z-8
G1 Z-10.2 F25
G0 Z4
Z-8.2
G1 Z-10.4 F25
G0 Z4
Z-8.4
G1 Z-10.6 F25
G0 Z4
Z-8.6
G1 Z-10.8 F25
G0 Z4
Z-8.8
G1 Z-11 F25
G0 Z4
Z-9
G1 Z-11.2 F25
G0 Z4
Z-9.2
G1 Z-11.4 F25
G0 Z4
Z-9.4
G1 Z-11.6 F25
G0 Z4
Z-9.6
G1 Z-11.8 F25
G0 Z4
Z-9.8
G1 Z-12 F25
G0 Z4
Z-10
G1 Z-12.2 F25
G0 Z4
Z-10.2
G1 Z-12.4 F25
G0 Z4
Z-10.4
G1 Z-12.6 F25
G0 Z4
Z-10.6
G1 Z-12.8 F25
G0 Z4
Z-10.8
G1 Z-13 F25
G0 Z4
Z-11
G1 Z-13.2 F25
G0 Z4
Z-11.2
G1 Z-13.4 F25
G0 Z4
Z-11.4
G1 Z-13.6 F25
G0 Z4
Z-11.6
G1 Z-13.8 F25
G0 Z4
Z-11.8
G1 Z-14 F25
G4 P1.
G0 Z5
X37.887 Y98.15
Z4
Z1
G1 Z-1.2 F25
G0 Z4
Z0.8
G1 Z-1.4 F25
G0 Z4
Z0.6
G1 Z-1.6 F25
G0 Z4
Z0.4
G1 Z-1.8 F25
G0 Z4
Z0.2
G1 Z-2 F25
G0 Z4
Z0
G1 Z-2.2 F25
G0 Z4
Z-0.2
G1 Z-2.4 F25
G0 Z4
Z-0.4
G1 Z-2.6 F25
G0 Z4
Z-0.6
G1 Z-2.8 F25
G0 Z4
Z-0.8
G1 Z-3 F25
G0 Z4
Z-1
G1 Z-3.2 F25
G0 Z4
Z-1.2
G1 Z-3.4 F25
G0 Z4
Z-1.4
G1 Z-3.6 F25
G0 Z4
Z-1.6
G1 Z-3.8 F25
G0 Z4
Z-1.8
G1 Z-4 F25
G0 Z4
Z-2
G1 Z-4.2 F25
G0 Z4
Z-2.2
G1 Z-4.4 F25
G0 Z4
Z-2.4
G1 Z-4.6 F25
G0 Z4
Z-2.6
G1 Z-4.8 F25
G0 Z4
Z-2.8
G1 Z-5 F25
G0 Z4
Z-3
G1 Z-5.2 F25
G0 Z4
Z-3.2
G1 Z-5.4 F25
G0 Z4
Z-3.4
G1 Z-5.6 F25
G0 Z4
Z-3.6
G1 Z-5.8 F25
G0 Z4
Z-3.8
G1 Z-6 F25
G0 Z4
Z-4
G1 Z-6.2 F25
G0 Z4
Z-4.2
G1 Z-6.4 F25
G0 Z4
Z-4.4
G1 Z-6.6 F25
G0 Z4
Z-4.6
G1 Z-6.8 F25
G0 Z4
Z-4.8
G1 Z-7 F25
G0 Z4
Z-5
G1 Z-7.2 F25
G0 Z4
Z-5.2
G1 Z-7.4 F25
G0 Z4
Z-5.4
G1 Z-7.6 F25
G0 Z4
Z-5.6
G1 Z-7.8 F25
G0 Z4
Z-5.8
G1 Z-8 F25
G0 Z4
Z-6
G1 Z-8.2 F25
G0 Z4
Z-6.2
G1 Z-8.4 F25
G0 Z4
Z-6.4
G1 Z-8.6 F25
G0 Z4
Z-6.6
G1 Z-8.8 F25
G0 Z4
Z-6.8
G1 Z-9 F25
G0 Z4
Z-7
G1 Z-9.2 F25
G0 Z4
Z-7.2
G1 Z-9.4 F25
G0 Z4
Z-7.4
G1 Z-9.6 F25
G0 Z4
Z-7.6
G1 Z-9.8 F25
G0 Z4
Z-7.8
G1 Z-10 F25
G0 Z4
Z-8
G1 Z-10.2 F25
G0 Z4
Z-8.2
G1 Z-10.4 F25
G0 Z4
Z-8.4
G1 Z-10.6 F25
G0 Z4
Z-8.6
G1 Z-10.8 F25
G0 Z4
Z-8.8
G1 Z-11 F25
G0 Z4
Z-9
G1 Z-11.2 F25
G0 Z4
Z-9.2
G1 Z-11.4 F25
G0 Z4
Z-9.4
G1 Z-11.6 F25
G0 Z4
Z-9.6
G1 Z-11.8 F25
G0 Z4
Z-9.8
G1 Z-12 F25
G0 Z4
Z-10
G1 Z-12.2 F25
G0 Z4
Z-10.2
G1 Z-12.4 F25
G0 Z4
Z-10.4
G1 Z-12.6 F25
G0 Z4
Z-10.6
G1 Z-12.8 F25
G0 Z4
Z-10.8
G1 Z-13 F25
G0 Z4
Z-11
G1 Z-13.2 F25
G0 Z4
Z-11.2
G1 Z-13.4 F25
G0 Z4
Z-11.4
G1 Z-13.6 F25
G0 Z4
Z-11.6
G1 Z-13.8 F25
G0 Z4
Z-11.8
G1 Z-14 F25
G4 P1.
G0 Z5
X50.325 Y95.676
Z4
Z1
G1 Z-1.2 F25
G0 Z4
Z0.8
G1 Z-1.4 F25
G0 Z4
Z0.6
G1 Z-1.6 F25
G0 Z4
Z0.4
G1 Z-1.8 F25
G0 Z4
Z0.2
G1 Z-2 F25
G0 Z4
Z0
G1 Z-2.2 F25
G0 Z4
Z-0.2
G1 Z-2.4 F25
G0 Z4
Z-0.4
G1 Z-2.6 F25
G0 Z4
Z-0.6
G1 Z-2.8 F25
G0 Z4
Z-0.8
G1 Z-3 F25
G0 Z4
Z-1
G1 Z-3.2 F25
G0 Z4
Z-1.2
G1 Z-3.4 F25
G0 Z4
Z-1.4
G1 Z-3.6 F25
G0 Z4
Z-1.6
G1 Z-3.8 F25
G0 Z4
Z-1.8
G1 Z-4 F25
G0 Z4
Z-2
G1 Z-4.2 F25
G0 Z4
Z-2.2
G1 Z-4.4 F25
G0 Z4
Z-2.4
G1 Z-4.6 F25
G0 Z4
Z-2.6
G1 Z-4.8 F25
G0 Z4
Z-2.8
G1 Z-5 F25
G0 Z4
Z-3
G1 Z-5.2 F25
G0 Z4
Z-3.2
G1 Z-5.4 F25
G0 Z4
Z-3.4
G1 Z-5.6 F25
G0 Z4
Z-3.6
G1 Z-5.8 F25
G0 Z4
Z-3.8
G1 Z-6 F25
G0 Z4
Z-4
G1 Z-6.2 F25
G0 Z4
Z-4.2
G1 Z-6.4 F25
G0 Z4
Z-4.4
G1 Z-6.6 F25
G0 Z4
Z-4.6
G1 Z-6.8 F25
G0 Z4
Z-4.8
G1 Z-7 F25
G0 Z4
Z-5
G1 Z-7.2 F25
G0 Z4
Z-5.2
G1 Z-7.4 F25
G0 Z4
Z-5.4
G1 Z-7.6 F25
G0 Z4
Z-5.6
G1 Z-7.8 F25
G0 Z4
Z-5.8
G1 Z-8 F25
G0 Z4
Z-6
G1 Z-8.2 F25
G0 Z4
Z-6.2
G1 Z-8.4 F25
G0 Z4
Z-6.4
G1 Z-8.6 F25
G0 Z4
Z-6.6
G1 Z-8.8 F25
G0 Z4
Z-6.8
G1 Z-9 F25
G0 Z4
Z-7
G1 Z-9.2 F25
G0 Z4
Z-7.2
G1 Z-9.4 F25
G0 Z4
Z-7.4
G1 Z-9.6 F25
G0 Z4
Z-7.6
G1 Z-9.8 F25
G0 Z4
Z-7.8
G1 Z-10 F25
G0 Z4
Z-8
G1 Z-10.2 F25
G0 Z4
Z-8.2
G1 Z-10.4 F25
G0 Z4
Z-8.4
G1 Z-10.6 F25
G0 Z4
Z-8.6
G1 Z-10.8 F25
G0 Z4
Z-8.8
G1 Z-11 F25
G0 Z4
Z-9
G1 Z-11.2 F25
G0 Z4
Z-9.2
G1 Z-11.4 F25
G0 Z4
Z-9.4
G1 Z-11.6 F25
G0 Z4
Z-9.6
G1 Z-11.8 F25
G0 Z4
Z-9.8
G1 Z-12 F25
G0 Z4
Z-10
G1 Z-12.2 F25
G0 Z4
Z-10.2
G1 Z-12.4 F25
G0 Z4
Z-10.4
G1 Z-12.6 F25
G0 Z4
Z-10.6
G1 Z-12.8 F25
G0 Z4
Z-10.8
G1 Z-13 F25
G0 Z4
Z-11
G1 Z-13.2 F25
G0 Z4
Z-11.2
G1 Z-13.4 F25
G0 Z4
Z-11.4
G1 Z-13.6 F25
G0 Z4
Z-11.6
G1 Z-13.8 F25
G0 Z4
Z-11.8
G1 Z-14 F25
G4 P1.
G0 Z5
X61.288 Y89.2
Z4
Z1
G1 Z-1.2 F25
G0 Z4
Z0.8
G1 Z-1.4 F25
G0 Z4
Z0.6
G1 Z-1.6 F25
G0 Z4
Z0.4
G1 Z-1.8 F25
G0 Z4
Z0.2
G1 Z-2 F25
G0 Z4
Z0
G1 Z-2.2 F25
G0 Z4
Z-0.2
G1 Z-2.4 F25
G0 Z4
Z-0.4
G1 Z-2.6 F25
G0 Z4
Z-0.6
G1 Z-2.8 F25
G0 Z4
Z-0.8
G1 Z-3 F25
G0 Z4
Z-1
G1 Z-3.2 F25
G0 Z4
Z-1.2
G1 Z-3.4 F25
G0 Z4
Z-1.4
G1 Z-3.6 F25
G0 Z4
Z-1.6
G1 Z-3.8 F25
G0 Z4
Z-1.8
G1 Z-4 F25
G0 Z4
Z-2
G1 Z-4.2 F25
G0 Z4
Z-2.2
G1 Z-4.4 F25
G0 Z4
Z-2.4
G1 Z-4.6 F25
G0 Z4
Z-2.6
G1 Z-4.8 F25
G0 Z4
Z-2.8
G1 Z-5 F25
G0 Z4
Z-3
G1 Z-5.2 F25
G0 Z4
Z-3.2
G1 Z-5.4 F25
G0 Z4
Z-3.4
G1 Z-5.6 F25
G0 Z4
Z-3.6
G1 Z-5.8 F25
G0 Z4
Z-3.8
G1 Z-6 F25
G0 Z4
Z-4
G1 Z-6.2 F25
G0 Z4
Z-4.2
G1 Z-6.4 F25
G0 Z4
Z-4.4
G1 Z-6.6 F25
G0 Z4
Z-4.6
G1 Z-6.8 F25
G0 Z4
Z-4.8
G1 Z-7 F25
G0 Z4
Z-5
G1 Z-7.2 F25
G0 Z4
Z-5.2
G1 Z-7.4 F25
G0 Z4
Z-5.4
G1 Z-7.6 F25
G0 Z4
Z-5.6
G1 Z-7.8 F25
G0 Z4
Z-5.8
G1 Z-8 F25
G0 Z4
Z-6
G1 Z-8.2 F25
G0 Z4
Z-6.2
G1 Z-8.4 F25
G0 Z4
Z-6.4
G1 Z-8.6 F25
G0 Z4
Z-6.6
G1 Z-8.8 F25
G0 Z4
Z-6.8
G1 Z-9 F25
G0 Z4
Z-7
G1 Z-9.2 F25
G0 Z4
Z-7.2
G1 Z-9.4 F25
G0 Z4
Z-7.4
G1 Z-9.6 F25
G0 Z4
Z-7.6
G1 Z-9.8 F25
G0 Z4
Z-7.8
G1 Z-10 F25
G0 Z4
Z-8
G1 Z-10.2 F25
G0 Z4
Z-8.2
G1 Z-10.4 F25
G0 Z4
Z-8.4
G1 Z-10.6 F25
G0 Z4
Z-8.6
G1 Z-10.8 F25
G0 Z4
Z-8.8
G1 Z-11 F25
G0 Z4
Z-9
G1 Z-11.2 F25
G0 Z4
Z-9.2
G1 Z-11.4 F25
G0 Z4
Z-9.4
G1 Z-11.6 F25
G0 Z4
Z-9.6
G1 Z-11.8 F25
G0 Z4
Z-9.8
G1 Z-12 F25
G0 Z4
Z-10
G1 Z-12.2 F25
G0 Z4
Z-10.2
G1 Z-12.4 F25
G0 Z4
Z-10.4
G1 Z-12.6 F25
G0 Z4
Z-10.6
G1 Z-12.8 F25
G0 Z4
Z-10.8
G1 Z-13 F25
G0 Z4
Z-11
G1 Z-13.2 F25
G0 Z4
Z-11.2
G1 Z-13.4 F25
G0 Z4
Z-11.4
G1 Z-13.6 F25
G0 Z4
Z-11.6
G1 Z-13.8 F25
G0 Z4
Z-11.8
G1 Z-14 F25
G4 P1.
G0 Z5
X67.913 Y78.087
Z4
Z1
G1 Z-1.2 F25
G0 Z4
Z0.8
G1 Z-1.4 F25
G0 Z4
Z0.6
G1 Z-1.6 F25
G0 Z4
Z0.4
G1 Z-1.8 F25
G0 Z4
Z0.2
G1 Z-2 F25
G0 Z4
Z0
G1 Z-2.2 F25
G0 Z4
Z-0.2
G1 Z-2.4 F25
G0 Z4
Z-0.4
G1 Z-2.6 F25
G0 Z4
Z-0.6
G1 Z-2.8 F25
G0 Z4
Z-0.8
G1 Z-3 F25
G0 Z4
Z-1
G1 Z-3.2 F25
G0 Z4
Z-1.2
G1 Z-3.4 F25
G0 Z4
Z-1.4
G1 Z-3.6 F25
G0 Z4
Z-1.6
G1 Z-3.8 F25
G0 Z4
Z-1.8
G1 Z-4 F25
G0 Z4
Z-2
G1 Z-4.2 F25
G0 Z4
Z-2.2
G1 Z-4.4 F25
G0 Z4
Z-2.4
G1 Z-4.6 F25
G0 Z4
Z-2.6
G1 Z-4.8 F25
G0 Z4
Z-2.8
G1 Z-5 F25
G0 Z4
Z-3
G1 Z-5.2 F25
G0 Z4
Z-3.2
G1 Z-5.4 F25
G0 Z4
Z-3.4
G1 Z-5.6 F25
G0 Z4
Z-3.6
G1 Z-5.8 F25
G0 Z4
Z-3.8
G1 Z-6 F25
G0 Z4
Z-4
G1 Z-6.2 F25
G0 Z4
Z-4.2
G1 Z-6.4 F25
G0 Z4
Z-4.4
G1 Z-6.6 F25
G0 Z4
Z-4.6
G1 Z-6.8 F25
G0 Z4
Z-4.8
G1 Z-7 F25
G0 Z4
Z-5
G1 Z-7.2 F25
G0 Z4
Z-5.2
G1 Z-7.4 F25
G0 Z4
Z-5.4
G1 Z-7.6 F25
G0 Z4
Z-5.6
G1 Z-7.8 F25
G0 Z4
Z-5.8
G1 Z-8 F25
G0 Z4
Z-6
G1 Z-8.2 F25
G0 Z4
Z-6.2
G1 Z-8.4 F25
G0 Z4
Z-6.4
G1 Z-8.6 F25
G0 Z4
Z-6.6
G1 Z-8.8 F25
G0 Z4
Z-6.8
G1 Z-9 F25
G0 Z4
Z-7
G1 Z-9.2 F25
G0 Z4
Z-7.2
G1 Z-9.4 F25
G0 Z4
Z-7.4
G1 Z-9.6 F25
G0 Z4
Z-7.6
G1 Z-9.8 F25
G0 Z4
Z-7.8
G1 Z-10 F25
G0 Z4
Z-8
G1 Z-10.2 F25
G0 Z4
Z-8.2
G1 Z-10.4 F25
G0 Z4
Z-8.4
G1 Z-10.6 F25
G0 Z4
Z-8.6
G1 Z-10.8 F25
G0 Z4
Z-8.8
G1 Z-11 F25
G0 Z4
Z-9
G1 Z-11.2 F25
G0 Z4
Z-9.2
G1 Z-11.4 F25
G0 Z4
Z-9.4
G1 Z-11.6 F25
G0 Z4
Z-9.6
G1 Z-11.8 F25
G0 Z4
Z-9.8
G1 Z-12 F25
G0 Z4
Z-10
G1 Z-12.2 F25
G0 Z4
Z-10.2
G1 Z-12.4 F25
G0 Z4
Z-10.4
G1 Z-12.6 F25
G0 Z4
Z-10.6
G1 Z-12.8 F25
G0 Z4
Z-10.8
G1 Z-13 F25
G0 Z4
Z-11
G1 Z-13.2 F25
G0 Z4
Z-11.2
G1 Z-13.4 F25
G0 Z4
Z-11.4
G1 Z-13.6 F25
G0 Z4
Z-11.6
G1 Z-13.8 F25
G0 Z4
Z-11.8
G1 Z-14 F25
G4 P1.
G0 Z5
X70.387 Y65.65
Z4
Z1
G1 Z-1.2 F25
G0 Z4
Z0.8
G1 Z-1.4 F25
G0 Z4
Z0.6
G1 Z-1.6 F25
G0 Z4
Z0.4
G1 Z-1.8 F25
G0 Z4
Z0.2
G1 Z-2 F25
G0 Z4
Z0
G1 Z-2.2 F25
G0 Z4
Z-0.2
G1 Z-2.4 F25
G0 Z4
Z-0.4
G1 Z-2.6 F25
G0 Z4
Z-0.6
G1 Z-2.8 F25
G0 Z4
Z-0.8
G1 Z-3 F25
G0 Z4
Z-1
G1 Z-3.2 F25
G0 Z4
Z-1.2
G1 Z-3.4 F25
G0 Z4
Z-1.4
G1 Z-3.6 F25
G0 Z4
Z-1.6
G1 Z-3.8 F25
G0 Z4
Z-1.8
G1 Z-4 F25
G0 Z4
Z-2
G1 Z-4.2 F25
G0 Z4
Z-2.2
G1 Z-4.4 F25
G0 Z4
Z-2.4
G1 Z-4.6 F25
G0 Z4
Z-2.6
G1 Z-4.8 F25
G0 Z4
Z-2.8
G1 Z-5 F25
G0 Z4
Z-3
G1 Z-5.2 F25
G0 Z4
Z-3.2
G1 Z-5.4 F25
G0 Z4
Z-3.4
G1 Z-5.6 F25
G0 Z4
Z-3.6
G1 Z-5.8 F25
G0 Z4
Z-3.8
G1 Z-6 F25
G0 Z4
Z-4
G1 Z-6.2 F25
G0 Z4
Z-4.2
G1 Z-6.4 F25
G0 Z4
Z-4.4
G1 Z-6.6 F25
G0 Z4
Z-4.6
G1 Z-6.8 F25
G0 Z4
Z-4.8
G1 Z-7 F25
G0 Z4
Z-5
G1 Z-7.2 F25
G0 Z4
Z-5.2
G1 Z-7.4 F25
G0 Z4
Z-5.4
G1 Z-7.6 F25
G0 Z4
Z-5.6
G1 Z-7.8 F25
G0 Z4
Z-5.8
G1 Z-8 F25
G0 Z4
Z-6
G1 Z-8.2 F25
G0 Z4
Z-6.2
G1 Z-8.4 F25
G0 Z4
Z-6.4
G1 Z-8.6 F25
G0 Z4
Z-6.6
G1 Z-8.8 F25
G0 Z4
Z-6.8
G1 Z-9 F25
G0 Z4
Z-7
G1 Z-9.2 F25
G0 Z4
Z-7.2
G1 Z-9.4 F25
G0 Z4
Z-7.4
G1 Z-9.6 F25
G0 Z4
Z-7.6
G1 Z-9.8 F25
G0 Z4
Z-7.8
G1 Z-10 F25
G0 Z4
Z-8
G1 Z-10.2 F25
G0 Z4
Z-8.2
G1 Z-10.4 F25
G0 Z4
Z-8.4
G1 Z-10.6 F25
G0 Z4
Z-8.6
G1 Z-10.8 F25
G0 Z4
Z-8.8
G1 Z-11 F25
G0 Z4
Z-9
G1 Z-11.2 F25
G0 Z4
Z-9.2
G1 Z-11.4 F25
G0 Z4
Z-9.4
G1 Z-11.6 F25
G0 Z4
Z-9.6
G1 Z-11.8 F25
G0 Z4
Z-9.8
G1 Z-12 F25
G0 Z4
Z-10
G1 Z-12.2 F25
G0 Z4
Z-10.2
G1 Z-12.4 F25
G0 Z4
Z-10.4
G1 Z-12.6 F25
G0 Z4
Z-10.6
G1 Z-12.8 F25
G0 Z4
Z-10.8
G1 Z-13 F25
G0 Z4
Z-11
G1 Z-13.2 F25
G0 Z4
Z-11.2
G1 Z-13.4 F25
G0 Z4
Z-11.4
G1 Z-13.6 F25
G0 Z4
Z-11.6
G1 Z-13.8 F25
G0 Z4
Z-11.8
G1 Z-14 F25
G4 P1.
G0 Z5
X67.913 Y53.213
Z4
Z1
G1 Z-1.2 F25
G0 Z4
Z0.8
G1 Z-1.4 F25
G0 Z4
Z0.6
G1 Z-1.6 F25
G0 Z4
Z0.4
G1 Z-1.8 F25
G0 Z4
Z0.2
G1 Z-2 F25
G0 Z4
Z0
G1 Z-2.2 F25
G0 Z4
Z-0.2
G1 Z-2.4 F25
G0 Z4
Z-0.4
G1 Z-2.6 F25
G0 Z4
Z-0.6
G1 Z-2.8 F25
G0 Z4
Z-0.8
G1 Z-3 F25
G0 Z4
Z-1
G1 Z-3.2 F25
G0 Z4
Z-1.2
G1 Z-3.4 F25
G0 Z4
Z-1.4
G1 Z-3.6 F25
G0 Z4
Z-1.6
G1 Z-3.8 F25
G0 Z4
Z-1.8
G1 Z-4 F25
G0 Z4
Z-2
G1 Z-4.2 F25
G0 Z4
Z-2.2
G1 Z-4.4 F25
G0 Z4
Z-2.4
G1 Z-4.6 F25
G0 Z4
Z-2.6
G1 Z-4.8 F25
G0 Z4
Z-2.8
G1 Z-5 F25
G0 Z4
Z-3
G1 Z-5.2 F25
G0 Z4
Z-3.2
G1 Z-5.4 F25
G0 Z4
Z-3.4
G1 Z-5.6 F25
G0 Z4
Z-3.6
G1 Z-5.8 F25
G0 Z4
Z-3.8
G1 Z-6 F25
G0 Z4
Z-4
G1 Z-6.2 F25
G0 Z4
Z-4.2
G1 Z-6.4 F25
G0 Z4
Z-4.4
G1 Z-6.6 F25
G0 Z4
Z-4.6
G1 Z-6.8 F25
G0 Z4
Z-4.8
G1 Z-7 F25
G0 Z4
Z-5
G1 Z-7.2 F25
G0 Z4
Z-5.2
G1 Z-7.4 F25
G0 Z4
Z-5.4
G1 Z-7.6 F25
G0 Z4
Z-5.6
G1 Z-7.8 F25
G0 Z4
Z-5.8
G1 Z-8 F25
G0 Z4
Z-6
G1 Z-8.2 F25
G0 Z4
Z-6.2
G1 Z-8.4 F25
G0 Z4
Z-6.4
G1 Z-8.6 F25
G0 Z4
Z-6.6
G1 Z-8.8 F25
G0 Z4
Z-6.8
G1 Z-9 F25
G0 Z4
Z-7
G1 Z-9.2 F25
G0 Z4
Z-7.2
G1 Z-9.4 F25
G0 Z4
Z-7.4
G1 Z-9.6 F25
G0 Z4
Z-7.6
G1 Z-9.8 F25
G0 Z4
Z-7.8
G1 Z-10 F25
G0 Z4
Z-8
G1 Z-10.2 F25
G0 Z4
Z-8.2
G1 Z-10.4 F25
G0 Z4
Z-8.4
G1 Z-10.6 F25
G0 Z4
Z-8.6
G1 Z-10.8 F25
G0 Z4
Z-8.8
G1 Z-11 F25
G0 Z4
Z-9
G1 Z-11.2 F25
G0 Z4
Z-9.2
G1 Z-11.4 F25
G0 Z4
Z-9.4
G1 Z-11.6 F25
G0 Z4
Z-9.6
G1 Z-11.8 F25
G0 Z4
Z-9.8
G1 Z-12 F25
G0 Z4
Z-10
G1 Z-12.2 F25
G0 Z4
Z-10.2
G1 Z-12.4 F25
G0 Z4
Z-10.4
G1 Z-12.6 F25
G0 Z4
Z-10.6
G1 Z-12.8 F25
G0 Z4
Z-10.8
G1 Z-13 F25
G0 Z4
Z-11
G1 Z-13.2 F25
G0 Z4
Z-11.2
G1 Z-13.4 F25
G0 Z4
Z-11.4
G1 Z-13.6 F25
G0 Z4
Z-11.6
G1 Z-13.8 F25
G0 Z4
Z-11.8
G1 Z-14 F25
G4 P1.
G0 Z5
X61.288 Y42.2
Z4
Z1
G1 Z-1.2 F25
G0 Z4
Z0.8
G1 Z-1.4 F25
G0 Z4
Z0.6
G1 Z-1.6 F25
G0 Z4
Z0.4
G1 Z-1.8 F25
G0 Z4
Z0.2
G1 Z-2 F25
G0 Z4
Z0
G1 Z-2.2 F25
G0 Z4
Z-0.2
G1 Z-2.4 F25
G0 Z4
Z-0.4
G1 Z-2.6 F25
G0 Z4
Z-0.6
G1 Z-2.8 F25
G0 Z4
Z-0.8
G1 Z-3 F25
G0 Z4
Z-1
G1 Z-3.2 F25
G0 Z4
Z-1.2
G1 Z-3.4 F25
G0 Z4
Z-1.4
G1 Z-3.6 F25
G0 Z4
Z-1.6
G1 Z-3.8 F25
G0 Z4
Z-1.8
G1 Z-4 F25
G0 Z4
Z-2
G1 Z-4.2 F25
G0 Z4
Z-2.2
G1 Z-4.4 F25
G0 Z4
Z-2.4
G1 Z-4.6 F25
G0 Z4
Z-2.6
G1 Z-4.8 F25
G0 Z4
Z-2.8
G1 Z-5 F25
G0 Z4
Z-3
G1 Z-5.2 F25
G0 Z4
Z-3.2
G1 Z-5.4 F25
G0 Z4
Z-3.4
G1 Z-5.6 F25
G0 Z4
Z-3.6
G1 Z-5.8 F25
G0 Z4
Z-3.8
G1 Z-6 F25
G0 Z4
Z-4
G1 Z-6.2 F25
G0 Z4
Z-4.2
G1 Z-6.4 F25
G0 Z4
Z-4.4
G1 Z-6.6 F25
G0 Z4
Z-4.6
G1 Z-6.8 F25
G0 Z4
Z-4.8
G1 Z-7 F25
G0 Z4
Z-5
G1 Z-7.2 F25
G0 Z4
Z-5.2
G1 Z-7.4 F25
G0 Z4
Z-5.4
G1 Z-7.6 F25
G0 Z4
Z-5.6
G1 Z-7.8 F25
G0 Z4
Z-5.8
G1 Z-8 F25
G0 Z4
Z-6
G1 Z-8.2 F25
G0 Z4
Z-6.2
G1 Z-8.4 F25
G0 Z4
Z-6.4
G1 Z-8.6 F25
G0 Z4
Z-6.6
G1 Z-8.8 F25
G0 Z4
Z-6.8
G1 Z-9 F25
G0 Z4
Z-7
G1 Z-9.2 F25
G0 Z4
Z-7.2
G1 Z-9.4 F25
G0 Z4
Z-7.4
G1 Z-9.6 F25
G0 Z4
Z-7.6
G1 Z-9.8 F25
G0 Z4
Z-7.8
G1 Z-10 F25
G0 Z4
Z-8
G1 Z-10.2 F25
G0 Z4
Z-8.2
G1 Z-10.4 F25
G0 Z4
Z-8.4
G1 Z-10.6 F25
G0 Z4
Z-8.6
G1 Z-10.8 F25
G0 Z4
Z-8.8
G1 Z-11 F25
G0 Z4
Z-9
G1 Z-11.2 F25
G0 Z4
Z-9.2
G1 Z-11.4 F25
G0 Z4
Z-9.4
G1 Z-11.6 F25
G0 Z4
Z-9.6
G1 Z-11.8 F25
G0 Z4
Z-9.8
G1 Z-12 F25
G0 Z4
Z-10
G1 Z-12.2 F25
G0 Z4
Z-10.2
G1 Z-12.4 F25
G0 Z4
Z-10.4
G1 Z-12.6 F25
G0 Z4
Z-10.6
G1 Z-12.8 F25
G0 Z4
Z-10.8
G1 Z-13 F25
G0 Z4
Z-11
G1 Z-13.2 F25
G0 Z4
Z-11.2
G1 Z-13.4 F25
G0 Z4
Z-11.4
G1 Z-13.6 F25
G0 Z4
Z-11.6
G1 Z-13.8 F25
G0 Z4
Z-11.8
G1 Z-14 F25
G4 P1.
G0 Z5
X37.887 Y33.15
Z4
Z1
G1 Z-1.2 F25
G0 Z4
Z0.8
G1 Z-1.4 F25
G0 Z4
Z0.6
G1 Z-1.6 F25
G0 Z4
Z0.4
G1 Z-1.8 F25
G0 Z4
Z0.2
G1 Z-2 F25
G0 Z4
Z0
G1 Z-2.2 F25
G0 Z4
Z-0.2
G1 Z-2.4 F25
G0 Z4
Z-0.4
G1 Z-2.6 F25
G0 Z4
Z-0.6
G1 Z-2.8 F25
G0 Z4
Z-0.8
G1 Z-3 F25
G0 Z4
Z-1
G1 Z-3.2 F25
G0 Z4
Z-1.2
G1 Z-3.4 F25
G0 Z4
Z-1.4
G1 Z-3.6 F25
G0 Z4
Z-1.6
G1 Z-3.8 F25
G0 Z4
Z-1.8
G1 Z-4 F25
G0 Z4
Z-2
G1 Z-4.2 F25
G0 Z4
Z-2.2
G1 Z-4.4 F25
G0 Z4
Z-2.4
G1 Z-4.6 F25
G0 Z4
Z-2.6
G1 Z-4.8 F25
G0 Z4
Z-2.8
G1 Z-5 F25
G0 Z4
Z-3
G1 Z-5.2 F25
G0 Z4
Z-3.2
G1 Z-5.4 F25
G0 Z4
Z-3.4
G1 Z-5.6 F25
G0 Z4
Z-3.6
G1 Z-5.8 F25
G0 Z4
Z-3.8
G1 Z-6 F25
G0 Z4
Z-4
G1 Z-6.2 F25
G0 Z4
Z-4.2
G1 Z-6.4 F25
G0 Z4
Z-4.4
G1 Z-6.6 F25
G0 Z4
Z-4.6
G1 Z-6.8 F25
G0 Z4
Z-4.8
G1 Z-7 F25
G0 Z4
Z-5
G1 Z-7.2 F25
G0 Z4
Z-5.2
G1 Z-7.4 F25
G0 Z4
Z-5.4
G1 Z-7.6 F25
G0 Z4
Z-5.6
G1 Z-7.8 F25
G0 Z4
Z-5.8
G1 Z-8 F25
G0 Z4
Z-6
G1 Z-8.2 F25
G0 Z4
Z-6.2
G1 Z-8.4 F25
G0 Z4
Z-6.4
G1 Z-8.6 F25
G0 Z4
Z-6.6
G1 Z-8.8 F25
G0 Z4
Z-6.8
G1 Z-9 F25
G0 Z4
Z-7
G1 Z-9.2 F25
G0 Z4
Z-7.2
G1 Z-9.4 F25
G0 Z4
Z-7.4
G1 Z-9.6 F25
G0 Z4
Z-7.6
G1 Z-9.8 F25
G0 Z4
Z-7.8
G1 Z-10 F25
G0 Z4
Z-8
G1 Z-10.2 F25
G0 Z4
Z-8.2
G1 Z-10.4 F25
G0 Z4
Z-8.4
G1 Z-10.6 F25
G0 Z4
Z-8.6
G1 Z-10.8 F25
G0 Z4
Z-8.8
G1 Z-11 F25
G0 Z4
Z-9
G1 Z-11.2 F25
G0 Z4
Z-9.2
G1 Z-11.4 F25
G0 Z4
Z-9.4
G1 Z-11.6 F25
G0 Z4
Z-9.6
G1 Z-11.8 F25
G0 Z4
Z-9.8
G1 Z-12 F25
G0 Z4
Z-10
G1 Z-12.2 F25
G0 Z4
Z-10.2
G1 Z-12.4 F25
G0 Z4
Z-10.4
G1 Z-12.6 F25
G0 Z4
Z-10.6
G1 Z-12.8 F25
G0 Z4
Z-10.8
G1 Z-13 F25
G0 Z4
Z-11
G1 Z-13.2 F25
G0 Z4
Z-11.2
G1 Z-13.4 F25
G0 Z4
Z-11.4
G1 Z-13.6 F25
G0 Z4
Z-11.6
G1 Z-13.8 F25
G0 Z4
Z-11.8
G1 Z-14 F25
G4 P1.
G0 Z5
Z15
(When using Fusion for Personal Use, the feedrate of rapid)
(moves is reduced to match the feedrate of cutting moves,)
(which can increase machining time. Unrestricted rapid moves)
(are available with a Fusion Subscription.)

(2D Contour7)
G0 X54.97 Y65.65
G1 Z15 F50
Z5
Z1 F25
Z-0.2
G3 X20.804 Y65.65 I-17.083 J0 F50
X54.97 Y65.65 I17.083 J0
G1 Z-0.4 F25
G3 X20.804 Y65.65 I-17.083 J0 F50
X54.97 Y65.65 I17.083 J0
G1 Z-0.6 F25
G3 X20.804 Y65.65 I-17.083 J0 F50
X54.97 Y65.65 I17.083 J0
G1 Z-0.8 F25
G3 X20.804 Y65.65 I-17.083 J0 F50
X54.97 Y65.65 I17.083 J0
G1 Z-1 F25
G3 X20.804 Y65.65 I-17.083 J0 F50
X54.97 Y65.65 I17.083 J0
G1 Z-1.2 F25
G3 X20.804 Y65.65 I-17.083 J0 F50
X54.97 Y65.65 I17.083 J0
G1 Z-1.4 F25
G3 X20.804 Y65.65 I-17.083 J0 F50
X54.97 Y65.65 I17.083 J0
G1 Z-1.6 F25
G3 X20.804 Y65.65 I-17.083 J0 F50
X54.97 Y65.65 I17.083 J0
G1 Z-1.8 F25
G3 X20.804 Y65.65 I-17.083 J0 F50
X54.97 Y65.65 I17.083 J0
G1 Z-2 F25
G3 X20.804 Y65.65 I-17.083 J0 F50
X54.97 Y65.65 I17.083 J0
G1 Z-2.2 F25
G3 X20.804 Y65.65 I-17.083 J0 F50
X54.97 Y65.65 I17.083 J0
G1 Z-2.4 F25
G3 X20.804 Y65.65 I-17.083 J0 F50
X54.97 Y65.65 I17.083 J0
G1 Z-2.6 F25
G3 X20.804 Y65.65 I-17.083 J0 F50
X54.97 Y65.65 I17.083 J0
G1 Z-2.8 F25
G3 X20.804 Y65.65 I-17.083 J0 F50
X54.97 Y65.65 I17.083 J0
G1 Z-3 F25
G3 X20.804 Y65.65 I-17.083 J0 F50
X54.97 Y65.65 I17.083 J0
G1 Z-3.2 F25
G3 X20.804 Y65.65 I-17.083 J0 F50
X54.97 Y65.65 I17.083 J0
G1 Z-3.4 F25
G3 X20.804 Y65.65 I-17.083 J0 F50
X54.97 Y65.65 I17.083 J0
G1 Z-3.6 F25
G3 X20.804 Y65.65 I-17.083 J0 F50
X54.97 Y65.65 I17.083 J0
G1 Z-3.8 F25
G3 X20.804 Y65.65 I-17.083 J0 F50
X54.97 Y65.65 I17.083 J0
G1 Z-4 F25
G3 X20.804 Y65.65 I-17.083 J0 F50
X54.97 Y65.65 I17.083 J0
G1 Z-4.2 F25
G3 X20.804 Y65.65 I-17.083 J0 F50
X54.97 Y65.65 I17.083 J0
G1 Z-4.4 F25
G3 X20.804 Y65.65 I-17.083 J0 F50
X54.97 Y65.65 I17.083 J0
G1 Z-4.6 F25
G3 X20.804 Y65.65 I-17.083 J0 F50
X54.97 Y65.65 I17.083 J0
G1 Z-4.8 F25
G3 X20.804 Y65.65 I-17.083 J0 F50
X54.97 Y65.65 I17.083 J0
G1 Z-5 F25
G3 X20.804 Y65.65 I-17.083 J0 F50
X54.97 Y65.65 I17.083 J0
G1 Z-5.2 F25
G3 X20.804 Y65.65 I-17.083 J0 F50
X54.97 Y65.65 I17.083 J0
G1 Z-5.4 F25
G3 X20.804 Y65.65 I-17.083 J0 F50
X54.97 Y65.65 I17.083 J0
G1 Z-5.6 F25
G3 X20.804 Y65.65 I-17.083 J0 F50
X54.97 Y65.65 I17.083 J0
G1 Z-5.8 F25
G3 X20.804 Y65.65 I-17.083 J0 F50
X54.97 Y65.65 I17.083 J0
G1 Z-6 F25
G3 X20.804 Y65.65 I-17.083 J0 F50
X54.97 Y65.65 I17.083 J0
G1 Z-6.2 F25
G3 X20.804 Y65.65 I-17.083 J0 F50
X54.97 Y65.65 I17.083 J0
G1 Z-6.4 F25
G3 X20.804 Y65.65 I-17.083 J0 F50
X54.97 Y65.65 I17.083 J0
G1 Z-6.6 F25
G3 X20.804 Y65.65 I-17.083 J0 F50
X54.97 Y65.65 I17.083 J0
G1 Z-6.8 F25
G3 X20.804 Y65.65 I-17.083 J0 F50
X54.97 Y65.65 I17.083 J0
G1 Z-7 F25
G3 X20.804 Y65.65 I-17.083 J0 F50
X54.97 Y65.65 I17.083 J0
G1 Z-7.2 F25
G3 X20.804 Y65.65 I-17.083 J0 F50
X54.97 Y65.65 I17.083 J0
G1 Z-7.4 F25
G3 X20.804 Y65.65 I-17.083 J0 F50
X54.97 Y65.65 I17.083 J0
G1 Z-7.6 F25
G3 X20.804 Y65.65 I-17.083 J0 F50
X54.97 Y65.65 I17.083 J0
G1 Z-7.8 F25
G3 X20.804 Y65.65 I-17.083 J0 F50
X54.97 Y65.65 I17.083 J0
G1 Z-8 F25
G3 X20.804 Y65.65 I-17.083 J0 F50
X54.97 Y65.65 I17.083 J0
G1 Z-8.2 F25
G3 X20.804 Y65.65 I-17.083 J0 F50
X54.97 Y65.65 I17.083 J0
G1 Z-8.4 F25
G3 X20.804 Y65.65 I-17.083 J0 F50
X54.97 Y65.65 I17.083 J0
G1 Z-8.6 F25
G3 X20.804 Y65.65 I-17.083 J0 F50
X54.97 Y65.65 I17.083 J0
G1 Z-8.8 F25
G3 X20.804 Y65.65 I-17.083 J0 F50
X54.97 Y65.65 I17.083 J0
G1 Z-9 F25
G3 X20.804 Y65.65 I-17.083 J0 F50
X54.97 Y65.65 I17.083 J0
G1 Z-9.2 F25
G3 X20.804 Y65.65 I-17.083 J0 F50
X54.97 Y65.65 I17.083 J0
G1 Z-9.4 F25
G3 X20.804 Y65.65 I-17.083 J0 F50
X54.97 Y65.65 I17.083 J0
G1 Z-9.6 F25
G3 X20.804 Y65.65 I-17.083 J0 F50
X54.97 Y65.65 I17.083 J0
G1 Z-9.8 F25
G3 X20.804 Y65.65 I-17.083 J0 F50
X54.97 Y65.65 I17.083 J0
G1 Z-10 F25
G3 X20.804 Y65.65 I-17.083 J0 F50
X54.97 Y65.65 I17.083 J0
G1 Z-10.2 F25
G3 X20.804 Y65.65 I-17.083 J0 F50
X54.97 Y65.65 I17.083 J0
G1 Z-10.4 F25
G3 X20.804 Y65.65 I-17.083 J0 F50
X54.97 Y65.65 I17.083 J0
G1 Z-10.6 F25
G3 X20.804 Y65.65 I-17.083 J0 F50
X54.97 Y65.65 I17.083 J0
G1 Z-10.8 F25
G3 X20.804 Y65.65 I-17.083 J0 F50
X54.97 Y65.65 I17.083 J0
G1 Z-11 F25
G3 X20.804 Y65.65 I-17.083 J0 F50
X54.97 Y65.65 I17.083 J0
G1 Z-11.2 F25
G3 X20.804 Y65.65 I-17.083 J0 F50
X54.97 Y65.65 I17.083 J0
G1 Z-11.4 F25
G3 X20.804 Y65.65 I-17.083 J0 F50
X54.97 Y65.65 I17.083 J0
G1 Z-11.6 F25
G3 X20.804 Y65.65 I-17.083 J0 F50
X54.97 Y65.65 I17.083 J0
G1 Z-11.8 F25
G3 X20.804 Y65.65 I-17.083 J0 F50
X54.97 Y65.65 I17.083 J0
G1 Z-12 F25
G3 X20.804 Y65.65 I-17.083 J0 F50
X54.97 Y65.65 I17.083 J0
G1 Z-12.2 F25
G3 X20.804 Y65.65 I-17.083 J0 F50
X54.97 Y65.65 I17.083 J0
G1 Z-12.4 F25
G3 X20.804 Y65.65 I-17.083 J0 F50
X54.97 Y65.65 I17.083 J0
G1 Z-12.6 F25
G3 X20.804 Y65.65 I-17.083 J0 F50
X54.97 Y65.65 I17.083 J0
G1 Z-12.8 F25
G3 X20.804 Y65.65 I-17.083 J0 F50
X54.97 Y65.65 I17.083 J0
G1 Z-13 F25
G3 X20.804 Y65.65 I-17.083 J0 F50
X54.97 Y65.65 I17.083 J0
G1 Z-13.2 F25
G3 X20.804 Y65.65 I-17.083 J0 F50
X54.97 Y65.65 I17.083 J0
G1 Z-13.4 F25
G3 X20.804 Y65.65 I-17.083 J0 F50
X54.97 Y65.65 I17.083 J0
G1 Z-13.6 F25
G3 X20.804 Y65.65 I-17.083 J0 F50
X54.97 Y65.65 I17.083 J0
G1 Z-13.8 F25
G3 X20.804 Y65.65 I-17.083 J0 F50
X54.97 Y65.65 I17.083 J0
G1 Z-14 F25
G3 X20.804 Y65.65 I-17.083 J0 F50
X54.97 Y65.65 I17.083 J0
G1 Z15
(When using Fusion for Personal Use, the feedrate of rapid)
(moves is reduced to match the feedrate of cutting moves,)
(which can increase machining time. Unrestricted rapid moves)
(are available with a Fusion Subscription.)

(2D Contour8)
G0 X38.522 Y-5.08
G1 Z15 F150
Z5
Z1 F25
Z0.035
G19 G3 Y-4.445 Z-0.6 J0.635 K0
G1 Y-3.81
G17 G3 X37.887 Y-3.175 I-0.635 J0
G1 X0 F150
G2 X-3.175 Y0 I0 J3.175
G1 Y65.65
G2 X78.95 Y65.65 I41.062 J0
G1 Y0
G2 X75.775 Y-3.175 I-3.175 J0
G1 X37.887
G3 X37.252 Y-3.81 I0 J-0.635 F25
G1 Y-4.445
G19 G2 Y-5.08 Z0.035 J0 K0.635
G1 Z5 F150
X38.522
Z0.4 F25
Z-0.565
G3 Y-4.445 Z-1.2 J0.635 K0
G1 Y-3.81
G17 G3 X37.887 Y-3.175 I-0.635 J0
G1 X0 F150
G2 X-3.175 Y0 I0 J3.175
G1 Y65.65
G2 X78.95 Y65.65 I41.062 J0
G1 Y0
G2 X75.775 Y-3.175 I-3.175 J0
G1 X37.887
G3 X37.252 Y-3.81 I0 J-0.635 F25
G1 Y-4.445
G19 G2 Y-5.08 Z-0.565 J0 K0.635
G1 Z5 F150
X38.522
Z-0.2 F25
Z-1.165
G3 Y-4.445 Z-1.8 J0.635 K0
G1 Y-3.81
G17 G3 X37.887 Y-3.175 I-0.635 J0
G1 X0 F150
G2 X-3.175 Y0 I0 J3.175
G1 Y65.65
G2 X78.95 Y65.65 I41.062 J0
G1 Y0
G2 X75.775 Y-3.175 I-3.175 J0
G1 X37.887
G3 X37.252 Y-3.81 I0 J-0.635 F25
G1 Y-4.445
G19 G2 Y-5.08 Z-1.165 J0 K0.635
G1 Z5 F150
X38.522
Z-0.8 F25
Z-1.765
G3 Y-4.445 Z-2.4 J0.635 K0
G1 Y-3.81
G17 G3 X37.887 Y-3.175 I-0.635 J0
G1 X0 F150
G2 X-3.175 Y0 I0 J3.175
G1 Y65.65
G2 X78.95 Y65.65 I41.062 J0
G1 Y0
G2 X75.775 Y-3.175 I-3.175 J0
G1 X37.887
G3 X37.252 Y-3.81 I0 J-0.635 F25
G1 Y-4.445
G19 G2 Y-5.08 Z-1.765 J0 K0.635
G1 Z5 F150
X38.522
Z-1.4 F25
Z-2.365
G3 Y-4.445 Z-3 J0.635 K0
G1 Y-3.81
G17 G3 X37.887 Y-3.175 I-0.635 J0
G1 X0 F150
G2 X-3.175 Y0 I0 J3.175
G1 Y65.65
G2 X78.95 Y65.65 I41.062 J0
G1 Y0
G2 X75.775 Y-3.175 I-3.175 J0
G1 X37.887
G3 X37.252 Y-3.81 I0 J-0.635 F25
G1 Y-4.445
G19 G2 Y-5.08 Z-2.365 J0 K0.635
G1 Z5 F150
X38.522
Z-2 F25
Z-2.965
G3 Y-4.445 Z-3.6 J0.635 K0
G1 Y-3.81
G17 G3 X37.887 Y-3.175 I-0.635 J0
G1 X0 F150
G2 X-3.175 Y0 I0 J3.175
G1 Y65.65
G2 X78.95 Y65.65 I41.062 J0
G1 Y0
G2 X75.775 Y-3.175 I-3.175 J0
G1 X37.887
G3 X37.252 Y-3.81 I0 J-0.635 F25
G1 Y-4.445
G19 G2 Y-5.08 Z-2.965 J0 K0.635
G1 Z5 F150
X38.522
Z-2.6 F25
Z-3.565
G3 Y-4.445 Z-4.2 J0.635 K0
G1 Y-3.81
G17 G3 X37.887 Y-3.175 I-0.635 J0
G1 X0 F150
G2 X-3.175 Y0 I0 J3.175
G1 Y65.65
G2 X78.95 Y65.65 I41.062 J0
G1 Y0
G2 X75.775 Y-3.175 I-3.175 J0
G1 X37.887
G3 X37.252 Y-3.81 I0 J-0.635 F25
G1 Y-4.445
G19 G2 Y-5.08 Z-3.565 J0 K0.635
G1 Z5 F150
X38.522
Z-3.2 F25
Z-4.165
G3 Y-4.445 Z-4.8 J0.635 K0
G1 Y-3.81
G17 G3 X37.887 Y-3.175 I-0.635 J0
G1 X0 F150
G2 X-3.175 Y0 I0 J3.175
G1 Y65.65
G2 X78.95 Y65.65 I41.062 J0
G1 Y0
G2 X75.775 Y-3.175 I-3.175 J0
G1 X37.887
G3 X37.252 Y-3.81 I0 J-0.635 F25
G1 Y-4.445
G19 G2 Y-5.08 Z-4.165 J0 K0.635
G1 Z5 F150
X38.522
Z-3.8 F25
Z-4.765
G3 Y-4.445 Z-5.4 J0.635 K0
G1 Y-3.81
G17 G3 X37.887 Y-3.175 I-0.635 J0
G1 X0 F150
G2 X-3.175 Y0 I0 J3.175
G1 Y65.65
G2 X78.95 Y65.65 I41.062 J0
G1 Y0
G2 X75.775 Y-3.175 I-3.175 J0
G1 X37.887
G3 X37.252 Y-3.81 I0 J-0.635 F25
G1 Y-4.445
G19 G2 Y-5.08 Z-4.765 J0 K0.635
G1 Z5 F150
X38.522
Z-4.4 F25
Z-5.365
G3 Y-4.445 Z-6 J0.635 K0
G1 Y-3.81
G17 G3 X37.887 Y-3.175 I-0.635 J0
G1 X0 F150
G2 X-3.175 Y0 I0 J3.175
G1 Y65.65
G2 X78.95 Y65.65 I41.062 J0
G1 Y0
G2 X75.775 Y-3.175 I-3.175 J0
G1 X37.887
G3 X37.252 Y-3.81 I0 J-0.635 F25
G1 Y-4.445
G19 G2 Y-5.08 Z-5.365 J0 K0.635
G1 Z5 F150
X38.522
Z-5 F25
Z-5.965
G3 Y-4.445 Z-6.6 J0.635 K0
G1 Y-3.81
G17 G3 X37.887 Y-3.175 I-0.635 J0
G1 X0 F150
G2 X-3.175 Y0 I0 J3.175
G1 Y65.65
G2 X78.95 Y65.65 I41.062 J0
G1 Y0
G2 X75.775 Y-3.175 I-3.175 J0
G1 X37.887
G3 X37.252 Y-3.81 I0 J-0.635 F25
G1 Y-4.445
G19 G2 Y-5.08 Z-5.965 J0 K0.635
G1 Z5 F150
X38.522
Z-5.6 F25
Z-6.565
G3 Y-4.445 Z-7.2 J0.635 K0
G1 Y-3.81
G17 G3 X37.887 Y-3.175 I-0.635 J0
G1 X0 F150
G2 X-3.175 Y0 I0 J3.175
G1 Y65.65
G2 X78.95 Y65.65 I41.062 J0
G1 Y0
G2 X75.775 Y-3.175 I-3.175 J0
G1 X37.887
G3 X37.252 Y-3.81 I0 J-0.635 F25
G1 Y-4.445
G19 G2 Y-5.08 Z-6.565 J0 K0.635
G1 Z5 F150
X38.522
Z-6.2 F25
Z-7.165
G3 Y-4.445 Z-7.8 J0.635 K0
G1 Y-3.81
G17 G3 X37.887 Y-3.175 I-0.635 J0
G1 X0 F150
G2 X-3.175 Y0 I0 J3.175
G1 Y65.65
G2 X78.95 Y65.65 I41.062 J0
G1 Y0
G2 X75.775 Y-3.175 I-3.175 J0
G1 X37.887
G3 X37.252 Y-3.81 I0 J-0.635 F25
G1 Y-4.445
G19 G2 Y-5.08 Z-7.165 J0 K0.635
G1 Z5 F150
X38.522
Z-6.8 F25
Z-7.765
G3 Y-4.445 Z-8.4 J0.635 K0
G1 Y-3.81
G17 G3 X37.887 Y-3.175 I-0.635 J0
G1 X0 F150
G2 X-3.175 Y0 I0 J3.175
G1 Y65.65
G2 X78.95 Y65.65 I41.062 J0
G1 Y0
G2 X75.775 Y-3.175 I-3.175 J0
G1 X37.887
G3 X37.252 Y-3.81 I0 J-0.635 F25
G1 Y-4.445
G19 G2 Y-5.08 Z-7.765 J0 K0.635
G1 Z5 F150
X38.522
Z-7.4 F25
Z-8.365
G3 Y-4.445 Z-9 J0.635 K0
G1 Y-3.81
G17 G3 X37.887 Y-3.175 I-0.635 J0
G1 X0 F150
G2 X-3.175 Y0 I0 J3.175
G1 Y65.65
G2 X78.95 Y65.65 I41.062 J0
G1 Y0
G2 X75.775 Y-3.175 I-3.175 J0
G1 X37.887
G3 X37.252 Y-3.81 I0 J-0.635 F25
G1 Y-4.445
G19 G2 Y-5.08 Z-8.365 J0 K0.635
G1 Z5 F150
X38.522
Z-8 F25
Z-8.965
G3 Y-4.445 Z-9.6 J0.635 K0
G1 Y-3.81
G17 G3 X37.887 Y-3.175 I-0.635 J0
G1 X0 F150
G2 X-3.175 Y0 I0 J3.175
G1 Y65.65
G2 X78.95 Y65.65 I41.062 J0
G1 Y0
G2 X75.775 Y-3.175 I-3.175 J0
G1 X37.887
G3 X37.252 Y-3.81 I0 J-0.635 F25
G1 Y-4.445
G19 G2 Y-5.08 Z-8.965 J0 K0.635
G1 Z5 F150
X38.522
Z-8.6 F25
Z-9.565
G3 Y-4.445 Z-10.2 J0.635 K0
G1 Y-3.81
G17 G3 X37.887 Y-3.175 I-0.635 J0
G1 X0 F150
G2 X-3.175 Y0 I0 J3.175
G1 Y65.65
G2 X78.95 Y65.65 I41.062 J0
G1 Y0
G2 X75.775 Y-3.175 I-3.175 J0
G1 X37.887
G3 X37.252 Y-3.81 I0 J-0.635 F25
G1 Y-4.445
G19 G2 Y-5.08 Z-9.565 J0 K0.635
G1 Z5 F150
X38.522
Z-9.2 F25
Z-10.165
G3 Y-4.445 Z-10.8 J0.635 K0
G1 Y-3.81
G17 G3 X37.887 Y-3.175 I-0.635 J0
G1 X0 F150
G2 X-3.175 Y0 I0 J3.175
G1 Y65.65
G2 X78.95 Y65.65 I41.062 J0
G1 Y0
G2 X75.775 Y-3.175 I-3.175 J0
G1 X37.887
G3 X37.252 Y-3.81 I0 J-0.635 F25
G1 Y-4.445
G19 G2 Y-5.08 Z-10.165 J0 K0.635
G1 Z5 F150
X38.522
Z-9.8 F25
Z-10.765
G3 Y-4.445 Z-11.4 J0.635 K0
G1 Y-3.81
G17 G3 X37.887 Y-3.175 I-0.635 J0
G1 X0 F150
G2 X-3.175 Y0 I0 J3.175
G1 Y65.65
G2 X78.95 Y65.65 I41.062 J0
G1 Y0
G2 X75.775 Y-3.175 I-3.175 J0
G1 X37.887
G3 X37.252 Y-3.81 I0 J-0.635 F25
G1 Y-4.445
G19 G2 Y-5.08 Z-10.765 J0 K0.635
G1 Z5 F150
X38.522
Z-10.4 F25
Z-11.365
G3 Y-4.445 Z-12 J0.635 K0
G1 Y-3.81
G17 G3 X37.887 Y-3.175 I-0.635 J0
G1 X0 F150
G2 X-3.175 Y0 I0 J3.175
G1 Y65.65
G2 X78.95 Y65.65 I41.062 J0
G1 Y0
G2 X75.775 Y-3.175 I-3.175 J0
G1 X37.887
G3 X37.252 Y-3.81 I0 J-0.635 F25
G1 Y-4.445
G19 G2 Y-5.08 Z-11.365 J0 K0.635
G1 Z5 F150
X38.522
Z-11 F25
Z-11.965
G3 Y-4.445 Z-12.6 J0.635 K0
G1 Y-3.81
G17 G3 X37.887 Y-3.175 I-0.635 J0
G1 X0 F150
G2 X-3.175 Y0 I0 J3.175
G1 Y65.65
G2 X78.95 Y65.65 I41.062 J0
G1 Y0
G2 X75.775 Y-3.175 I-3.175 J0
G1 X37.887
G3 X37.252 Y-3.81 I0 J-0.635 F25
G1 Y-4.445
G19 G2 Y-5.08 Z-11.965 J0 K0.635
G1 Z5 F150
X38.522
Z-11.6 F25
Z-12.565
G3 Y-4.445 Z-13.2 J0.635 K0
G1 Y-3.81
G17 G3 X37.887 Y-3.175 I-0.635 J0
G1 X0 F150
G2 X-3.175 Y0 I0 J3.175
G1 Y65.65
G2 X78.95 Y65.65 I41.062 J0
G1 Y0
G2 X75.775 Y-3.175 I-3.175 J0
G1 X37.887
G3 X37.252 Y-3.81 I0 J-0.635 F25
G1 Y-4.445
G19 G2 Y-5.08 Z-12.565 J0 K0.635
G1 Z5 F150
X38.522
Z-12.2 F25
Z-13.165
G3 Y-4.445 Z-13.8 J0.635 K0
G1 Y-3.81
G17 G3 X37.887 Y-3.175 I-0.635 J0
G1 X0 F150
G2 X-3.175 Y0 I0 J3.175
G1 Y65.65
G2 X78.95 Y65.65 I41.062 J0
G1 Y0
G2 X75.775 Y-3.175 I-3.175 J0
G1 X37.887
G3 X37.252 Y-3.81 I0 J-0.635 F25
G1 Y-4.445
G19 G2 Y-5.08 Z-13.165 J0 K0.635
G1 Z5 F150
X38.522
Z-12.8 F25
Z-13.365
G3 Y-4.445 Z-14 J0.635 K0
G1 Y-3.81
G17 G3 X37.887 Y-3.175 I-0.635 J0
G1 X0 F150
G2 X-3.175 Y0 I0 J3.175
G1 Y65.65
G2 X78.95 Y65.65 I41.062 J0
G1 Y0
G2 X75.775 Y-3.175 I-3.175 J0
G1 X37.887
G3 X37.252 Y-3.81 I0 J-0.635 F25
G1 Y-4.445
G19 G2 Y-5.08 Z-13.365 J0 K0.635
G1 Z15 F150
G17

M9
M5
M30
