(cartarm_base_rot)
(Machine)
(  vendor: Autodesk)
(  model: Generic 3-axis)
(  description: This machine has XY axis on the Table and Z axis on the Head)
(T3 D=6.35 CR=0 - ZMIN=-6.85 - flat end mill)
G90 G94
G17
G21
(-Attention- Property Safe Retracts is set to Clearance Height.)
(Ensure the clearance height will clear the part and or fixtures.)
(Raise the Z-axis to a safe height before starting the program.)
(When using Fusion for Personal Use, the feedrate of rapid)
(moves is reduced to match the feedrate of cutting moves,)
(which can increase machining time. Unrestricted rapid moves)
(are available with a Fusion Subscription.)

(2D Adaptive1)
T3
S24000 M3
G17 G90 G94
G54
M8
G0 X57.597 Y9.732
Z16
G1 Z6 F300
Z3.55
G3 X62.064 Y9.276 Z3.368 I2.403 J1.431 F150
X61.213 Y13.679 Z3.186 I-2.061 J1.886
X57.247 Y11.597 Z3.004 I-1.209 J-2.515
X60.382 Y8.404 Z2.822 I2.754 J-0.432
X62.532 Y12.322 Z2.64 I-0.381 J2.758
X58.165 Y13.249 Z2.458 I-2.528 J-1.159
X58.537 Y8.806 Z2.276 I1.837 J-2.084
X62.679 Y10.442 Z2.094 I1.464 J2.357
X59.921 Y13.932 Z1.912 I-2.676 J0.72
X57.377 Y10.288 Z1.73 I0.082 J-2.767
X61.595 Y8.906 Z1.548 I2.623 J0.876
X61.702 Y13.338 Z1.366 I-1.594 J2.256
X57.432 Y12.163 Z1.184 I-1.698 J-2.174
X59.787 Y8.418 Z1.002 I2.569 J-0.998
X62.69 Y11.749 Z0.82 I0.214 J2.744
X58.668 Y13.565 Z0.638 I-2.686 J-0.586
X58.09 Y9.195 Z0.456 I1.335 J-2.4
X62.436 Y9.902 Z0.274 I1.91 J1.968
X60.507 Y13.855 Z0.092 I-2.433 J1.26
X57.283 Y10.871 Z-0.09 I-0.504 J-2.69
X61.065 Y8.647 Z-0.272 I2.718 J0.293
X62.102 Y12.905 Z-0.454 I-1.063 J2.514
X57.731 Y12.67 Z-0.636 I-2.098 J-1.742
X59.215 Y8.557 Z-0.818 I2.27 J-1.505
X62.721 Y11.162 Z-1 I0.785 J2.605
X57.28 Y11.162 I-2.721 J0
X62.721 Y11.162 I2.721 J0
G1 X62.727 Y11.39 F300
X62.889 Y12.288
X62.922 Y12.396
X62.954 Y12.543
X62.97 Y12.692
X62.972 Y12.842
X62.961 Y12.995
X62.936 Y13.156
X62.896 Y13.325
X62.888 Y13.352
X62.762 Y13.636
X62.58 Y13.887
X62.35 Y14.095
X62.081 Y14.25
X61.786 Y14.346
X61.478 Y14.378
X58.551
X58.374 Y14.37
X58.194 Y14.346
X58.007 Y14.306
X57.813 Y14.248
X57.616 Y14.171
X57.416 Y14.074
X57.216 Y13.956
X57.019 Y13.818
X56.826 Y13.658
X56.641 Y13.477
X56.466 Y13.276
X56.302 Y13.055
X56.153 Y12.815
X56.02 Y12.558
X55.906 Y12.285
X55.812 Y11.998
X55.74 Y11.699
X55.692 Y11.39
X55.669 Y11.073
X55.67 Y10.751
X55.698 Y10.426
X55.753 Y10.101
X55.834 Y9.778
X55.942 Y9.46
X56.076 Y9.149
X56.236 Y8.847
X56.314 Y8.726
X56.489 Y8.502
X56.703 Y8.316
X56.949 Y8.174
X57.217 Y8.082
X57.498 Y8.043
X59.586 Y7.951
X59.793 Y7.949
X60.207
X60.414 Y7.951
X61.562 Y8.002
X61.759 Y8.02
X61.939 Y8.052
X62.125 Y8.1
X62.316 Y8.167
X62.511 Y8.252
X62.707 Y8.358
X62.902 Y8.485
X63.094 Y8.632
X63.28 Y8.801
X63.457 Y8.99
X63.713 Y9.311
X64.027 Y9.776
X64.265 Y10.198
X64.452 Y10.602
X64.594 Y10.991
X64.701 Y11.372
X64.768 Y11.72
X64.809 Y12.083
X64.819 Y12.406
X64.802 Y12.74
X64.763 Y13.044
X64.699 Y13.342
X64.672 Y13.435
X64.561 Y13.705
X64.399 Y13.948
X64.193 Y14.155
X63.95 Y14.317
X63.681 Y14.429
X63.394 Y14.485
X63.102 Y14.484
X62.483 Y14.422
X62.276 Y14.405
X61.862 Y14.386
X61.656 Y14.378
X61.478
G3 X60.865 Y13.737 Z-0.803 I0.022 J-0.635
G1 Y13.722 Z-0.8
X60.922 Y8.631
Y8.629
X60.927 Y8.554 Z-0.815
X60.941 Y8.481 Z-0.83
X60.964 Y8.409 Z-0.846
G3 X61.562 Y8.002 Z-1 I0.593 J0.228 F150
G1 X63.311 Y8.078 F300
X63.49 Y8.095
X63.666 Y8.126
X63.861 Y8.176
X64.07 Y8.249
X64.294 Y8.348
X64.523 Y8.471
X64.766 Y8.629
X65.003 Y8.812
X65.244 Y9.03
X65.481 Y9.282
X65.704 Y9.562
X65.911 Y9.869
X66.099 Y10.203
X66.266 Y10.565
X66.407 Y10.946
X66.518 Y11.344
X66.591 Y11.72
X66.634 Y12.105
X66.644 Y12.445
X66.627 Y12.795
X66.586 Y13.104
X66.519 Y13.423
X66.435 Y13.704
X66.425 Y13.729
X66.277 Y14.014
X66.071 Y14.26
X65.817 Y14.456
X65.527 Y14.593
X65.214 Y14.664
X64.894 Y14.667
X63.102 Y14.484
G3 X62.553 Y13.841 Z-0.814 I0.086 J-0.629
G1 X62.555 Y13.769 Z-0.8
X62.671 Y8.707
Y8.698 Z-0.802
X62.677 Y8.626 Z-0.816
X62.691 Y8.554 Z-0.831
X62.713 Y8.485 Z-0.846
G3 X63.311 Y8.078 Z-1 I0.593 J0.228 F150
G1 X63.725 Y8.096 F300
X63.932 Y8.11
X64.553 Y8.172
X65.381 Y8.281
X65.623 Y8.325
X65.813 Y8.376
X66.007 Y8.445
X66.218 Y8.54
X66.436 Y8.659
X66.657 Y8.805
X66.89 Y8.987
X67.114 Y9.192
X67.336 Y9.432
X67.554 Y9.71
X67.756 Y10.013
X67.937 Y10.34
X68.098 Y10.695
X68.234 Y11.072
X68.341 Y11.469
X68.418 Y11.878
X68.456 Y12.245
X68.465 Y12.625
X68.447 Y12.954
X68.4 Y13.296
X68.333 Y13.599
X68.241 Y13.898
X68.213 Y13.969
X68.079 Y14.229
X67.895 Y14.459
X67.67 Y14.647
X67.412 Y14.787
X67.131 Y14.874
X66.839 Y14.904
X66.547 Y14.875
X66.415 Y14.849
X65.794 Y14.759
X64.894 Y14.667
G3 X64.346 Y13.995 Z-0.809 I0.086 J-0.629
G1 X64.349 Y13.952 Z-0.8
X64.686 Y8.871
X64.688 Y8.851
X64.699 Y8.777 Z-0.815
X64.72 Y8.704 Z-0.83
X64.749 Y8.634 Z-0.846
G3 X65.381 Y8.281 Z-1 I0.571 J0.279 F150
G1 X67.357 Y8.541 F300
X67.523 Y8.571
X67.7 Y8.619
X67.89 Y8.686
X68.088 Y8.775
X68.3 Y8.892
X68.51 Y9.03
X68.734 Y9.205
X68.952 Y9.405
X69.168 Y9.638
X69.379 Y9.907
X69.577 Y10.204
X69.756 Y10.527
X69.914 Y10.876
X70.049 Y11.251
X70.156 Y11.645
X70.232 Y12.053
X70.272 Y12.433
X70.281 Y12.819
X70.262 Y13.157
X70.214 Y13.504
X70.147 Y13.808
X70.052 Y14.119
X69.944 Y14.392
X69.921 Y14.438
X69.747 Y14.711
X69.517 Y14.94
X69.244 Y15.113
X68.939 Y15.223
X68.617 Y15.264
X68.294 Y15.234
X66.547 Y14.875
G3 X66.062 Y14.182 Z-0.814 I0.146 J-0.618
G1 X66.07 Y14.112 Z-0.8
X66.664 Y9.112
X66.665 Y9.098 Z-0.803
X66.678 Y9.028 Z-0.817
X66.698 Y8.96 Z-0.831
X66.725 Y8.894 Z-0.846
G3 X67.357 Y8.541 Z-1 I0.571 J0.279 F150
G1 X67.864 Y8.608 F300
X68.071 Y8.637
X68.278 Y8.671
X69.438 Y8.929
X69.609 Y8.976
X69.793 Y9.042
X69.98 Y9.128
X70.18 Y9.24
X70.387 Y9.378
X70.594 Y9.542
X70.809 Y9.743
X71.014 Y9.967
X71.214 Y10.225
X71.407 Y10.52
X71.581 Y10.838
X71.733 Y11.179
X71.862 Y11.546
X71.964 Y11.933
X72.036 Y12.337
X72.077 Y12.75
X72.083 Y13.122
X72.059 Y13.504
X72.011 Y13.834
X71.935 Y14.171
X71.84 Y14.471
X71.724 Y14.759
X71.693 Y14.821
X71.51 Y15.101
X71.269 Y15.333
X70.982 Y15.505
X70.664 Y15.609
X70.331 Y15.638
X70 Y15.592
X69.933 Y15.575
X69.763 Y15.536
X68.294 Y15.234
G3 X67.818 Y14.508 Z-0.808 I0.149 J-0.617
G1 X67.825 Y14.468 Z-0.8
X68.697 Y9.445
X68.698 Y9.437
X68.716 Y9.364 Z-0.815
X68.743 Y9.293 Z-0.83
X68.778 Y9.226 Z-0.846
G3 X69.438 Y8.929 Z-1 I0.544 J0.327 F150
G1 X71.304 Y9.342 F300
X71.478 Y9.39
X71.65 Y9.453
X71.833 Y9.537
X72.021 Y9.641
X72.223 Y9.776
X72.419 Y9.932
X72.626 Y10.125
X72.825 Y10.343
X73.019 Y10.593
X73.206 Y10.879
X73.377 Y11.192
X73.527 Y11.529
X73.654 Y11.89
X73.756 Y12.276
X73.828 Y12.678
X73.869 Y13.092
X73.875 Y13.471
X73.851 Y13.857
X73.802 Y14.197
X73.726 Y14.529
X73.629 Y14.84
X73.516 Y15.119
X73.373 Y15.404
X73.355 Y15.434
X73.155 Y15.693
X72.903 Y15.903
X72.611 Y16.052
X72.293 Y16.133
X71.966 Y16.142
X71.644 Y16.079
X70.554 Y15.737
X70.347 Y15.681
X70 Y15.592
G3 X69.557 Y14.858 Z-0.811 I0.179 J-0.609
G1 X69.567 Y14.804 Z-0.8
X70.563 Y9.85
X70.565 Y9.841 Z-0.802
X70.584 Y9.771 Z-0.816
X70.61 Y9.704 Z-0.831
X70.644 Y9.639 Z-0.846
G3 X71.304 Y9.342 Z-1 I0.544 J0.327 F150
G1 X71.796 Y9.453 F300
X72.21 Y9.547
X72.417 Y9.611
X73.358 Y9.908
X73.514 Y9.966
X73.692 Y10.048
X73.871 Y10.15
X74.062 Y10.279
X74.255 Y10.435
X74.447 Y10.617
X74.645 Y10.836
X74.83 Y11.077
X75.007 Y11.352
X75.173 Y11.662
X75.319 Y11.996
X75.44 Y12.349
X75.537 Y12.725
X75.605 Y13.121
X75.642 Y13.528
X75.646 Y13.945
X75.62 Y14.315
X75.563 Y14.693
X75.487 Y15.017
X75.382 Y15.345
X75.261 Y15.636
X75.121 Y15.91
X75.076 Y15.984
X74.875 Y16.241
X74.623 Y16.448
X74.332 Y16.595
X74.016 Y16.675
X73.69 Y16.684
X73.371 Y16.621
X71.644 Y16.079
G3 X71.242 Y15.315 Z-0.81 I0.211 J-0.599
G1 X71.255 Y15.269 Z-0.8
X72.575 Y10.355
X72.577 Y10.35
X72.601 Y10.278 Z-0.815
X72.634 Y10.21 Z-0.83
X72.675 Y10.146 Z-0.846
G3 X73.358 Y9.908 Z-1 I0.514 J0.373 F150
G1 X75.107 Y10.459 F300
X75.344 Y10.547
X75.509 Y10.624
X75.684 Y10.724
X75.862 Y10.844
X76.051 Y10.996
X76.233 Y11.168
X76.422 Y11.378
X76.602 Y11.613
X76.773 Y11.878
X76.934 Y12.179
X77.077 Y12.506
X77.197 Y12.855
X77.292 Y13.225
X77.36 Y13.618
X77.397 Y14.025
X77.401 Y14.44
X77.374 Y14.821
X77.316 Y15.205
X77.238 Y15.539
X77.132 Y15.868
X77.009 Y16.167
X76.869 Y16.44
X76.701 Y16.713
X76.476 Y16.957
X76.203 Y17.144
X75.896 Y17.267
X75.569 Y17.318
X75.238 Y17.295
X74.921 Y17.199
X74.693 Y17.101
X74.486 Y17.015
X74.072 Y16.853
X73.874 Y16.779
X73.371 Y16.621
G3 X72.969 Y15.854 Z-0.809 I0.211 J-0.599
G1 X72.981 Y15.811 Z-0.8
X74.325 Y10.903
Y10.901
X74.35 Y10.829 Z-0.815
X74.383 Y10.761 Z-0.83
X74.424 Y10.698 Z-0.846
G3 X75.107 Y10.459 Z-1 I0.514 J0.373 F150
G1 X75.935 Y10.72 F300
X76.085 Y10.771
X76.349 Y10.876
X76.597 Y10.978
X77.097 Y11.185
X77.319 Y11.291
X77.489 Y11.389
X77.659 Y11.506
X77.838 Y11.651
X78.017 Y11.823
X78.193 Y12.022
X78.371 Y12.257
X78.534 Y12.514
X78.687 Y12.804
X78.826 Y13.128
X78.942 Y13.473
X79.033 Y13.836
X79.096 Y14.221
X79.13 Y14.622
X79.131 Y15.032
X79.099 Y15.449
X79.042 Y15.81
X78.952 Y16.179
X78.849 Y16.492
X78.717 Y16.807
X78.572 Y17.086
X78.411 Y17.344
X78.346 Y17.43
X78.122 Y17.671
X77.849 Y17.856
X77.543 Y17.977
X77.217 Y18.027
X76.888 Y18.003
X76.573 Y17.908
X74.921 Y17.199
G3 X74.592 Y16.416 Z-0.813 I0.271 J-0.574
G1 X74.614 Y16.353 Z-0.8
X76.275 Y11.572
X76.28 Y11.557
X76.311 Y11.488 Z-0.815
X76.35 Y11.423 Z-0.83
X76.396 Y11.364 Z-0.846
G3 X77.097 Y11.185 Z-1 I0.479 J0.417 F150
G1 X78.946 Y11.951 F300
X79.09 Y12.019
X79.249 Y12.111
X79.415 Y12.226
X79.583 Y12.363
X79.759 Y12.531
X79.926 Y12.719
X80.097 Y12.945
X80.255 Y13.195
X80.403 Y13.476
X80.538 Y13.791
X80.652 Y14.13
X80.741 Y14.487
X80.804 Y14.865
X80.837 Y15.262
X80.839 Y15.67
X80.807 Y16.083
X80.746 Y16.463
X80.654 Y16.842
X80.546 Y17.171
X80.413 Y17.488
X80.262 Y17.779
X80.1 Y18.037
X80 Y18.172
X79.795 Y18.395
X79.549 Y18.573
X79.272 Y18.696
X78.976 Y18.76
X78.672 Y18.763
X78.375 Y18.704
X78.096 Y18.585
X78.004 Y18.535
X77.788 Y18.436
X77.322 Y18.229
X76.573 Y17.908
G3 X76.253 Y17.101 Z-0.808 I0.271 J-0.574
G1 X76.268 Y17.063 Z-0.8
X78.129 Y12.323
X78.132 Y12.314 Z-0.802
X78.162 Y12.248 Z-0.816
X78.2 Y12.186 Z-0.831
X78.244 Y12.129 Z-0.846
G3 X78.946 Y11.951 Z-1 I0.479 J0.417 F150
G1 X79.66 Y12.248 F300
X79.867 Y12.334
X80.074 Y12.437
X80.852 Y12.843
X80.997 Y12.928
X81.159 Y13.041
X81.318 Y13.172
X81.485 Y13.334
X81.648 Y13.521
X81.807 Y13.735
X81.964 Y13.985
X82.104 Y14.256
X82.232 Y14.559
X82.342 Y14.895
X82.428 Y15.25
X82.487 Y15.621
X82.517 Y16.012
X82.515 Y16.416
X82.481 Y16.826
X82.417 Y17.212
X82.321 Y17.595
X82.211 Y17.922
X82.071 Y18.249
X81.923 Y18.529
X81.747 Y18.805
X81.566 Y19.046
X81.483 Y19.139
X81.235 Y19.361
X80.944 Y19.523
X80.624 Y19.615
X80.292 Y19.634
X79.964 Y19.578
X79.656 Y19.45
X78.418 Y18.763
X78.096 Y18.585
G3 X77.846 Y17.772 Z-0.813 I0.326 J-0.545
G1 X77.873 Y17.714 Z-0.8
X80.003 Y13.147
X80.006 Y13.142
X80.043 Y13.076 Z-0.815
X80.087 Y13.015 Z-0.83
X80.138 Y12.959 Z-0.846
G3 X80.852 Y12.843 Z-1 I0.441 J0.457 F150
G1 X82.557 Y13.73 F300
X82.702 Y13.815
X82.853 Y13.921
X83.008 Y14.049
X83.164 Y14.2
X83.324 Y14.383
X83.474 Y14.585
X83.625 Y14.826
X83.761 Y15.089
X83.883 Y15.38
X83.991 Y15.706
X84.074 Y16.052
X84.132 Y16.414
X84.161 Y16.796
X84.16 Y17.191
X84.125 Y17.596
X84.058 Y18.004
X83.964 Y18.379
X83.839 Y18.749
X83.702 Y19.07
X83.542 Y19.373
X83.364 Y19.652
X83.182 Y19.895
X83.07 Y20.02
X82.822 Y20.242
X82.531 Y20.404
X82.211 Y20.496
X81.879 Y20.515
X81.551 Y20.459
X81.243 Y20.331
X79.656 Y19.45
G3 X79.416 Y18.622 Z-0.81 I0.327 J-0.544
G1 X79.438 Y18.578 Z-0.8
X81.711 Y14.029
X81.715 Y14.019 Z-0.802
X81.751 Y13.957 Z-0.817
X81.794 Y13.899 Z-0.831
X81.843 Y13.846 Z-0.846
G3 X82.557 Y13.73 Z-1 I0.441 J0.457 F150
G1 X83.385 Y14.161 F300
X83.592 Y14.275
X84.419 Y14.803
X84.542 Y14.889
X84.693 Y15.019
X84.842 Y15.169
X84.992 Y15.346
X85.14 Y15.553
X85.277 Y15.782
X85.41 Y16.05
X85.525 Y16.337
X85.623 Y16.652
X85.7 Y16.999
X85.752 Y17.366
X85.774 Y17.745
X85.766 Y18.137
X85.724 Y18.54
X85.65 Y18.945
X85.55 Y19.319
X85.417 Y19.692
X85.276 Y20.005
X85.106 Y20.313
X84.927 Y20.583
X84.736 Y20.827
X84.521 Y21.061
X84.462 Y21.115
X84.193 Y21.313
X83.887 Y21.445
X83.559 Y21.505
X83.225 Y21.491
X82.904 Y21.402
X82.61 Y21.243
X82.143 Y20.918
X81.936 Y20.776
X81.522 Y20.501
X81.315 Y20.371
X81.243 Y20.331
G3 X81.019 Y19.473 Z-0.803 I0.327 J-0.544
G1 X81.026 Y19.46 Z-0.8
X83.545 Y15.036
X83.55 Y15.027
X83.592 Y14.964 Z-0.815
X83.642 Y14.907 Z-0.83
X83.698 Y14.856 Z-0.846
G3 X84.419 Y14.803 Z-1 I0.399 J0.494 F150
G1 X85.994 Y15.806 F300
X86.143 Y15.912
X86.287 Y16.032
X86.428 Y16.171
X86.572 Y16.338
X86.713 Y16.53
X86.847 Y16.748
X86.976 Y17.001
X87.088 Y17.272
X87.185 Y17.575
X87.264 Y17.909
X87.316 Y18.258
X87.342 Y18.624
X87.338 Y19.009
X87.302 Y19.405
X87.232 Y19.806
X87.129 Y20.207
X87.004 Y20.572
X86.849 Y20.924
X86.683 Y21.234
X86.501 Y21.517
X86.298 Y21.782
X86.097 Y22.005
X85.957 Y22.137
X85.688 Y22.339
X85.38 Y22.474
X85.05 Y22.537
X84.714 Y22.524
X84.389 Y22.435
X84.093 Y22.276
X82.61 Y21.243
G3 X82.449 Y20.404 Z-0.812 I0.381 J-0.508
G1 X82.48 Y20.353 Z-0.8
X85.125 Y16.03
X85.13 Y16.022 Z-0.802
X85.171 Y15.962 Z-0.817
X85.219 Y15.908 Z-0.831
X85.272 Y15.859 Z-0.846
G3 X85.994 Y15.806 Z-1 I0.399 J0.494 F150
G1 X86.871 Y16.365 F300
X86.903 Y16.386
X87.524 Y16.85
X87.703 Y16.986
X87.865 Y17.124
X88.005 Y17.264
X88.139 Y17.421
X88.276 Y17.61
X88.404 Y17.823
X88.524 Y18.062
X88.635 Y18.336
X88.726 Y18.627
X88.799 Y18.949
X88.85 Y19.299
X88.873 Y19.664
X88.866 Y20.04
X88.828 Y20.43
X88.756 Y20.828
X88.651 Y21.226
X88.52 Y21.598
X88.358 Y21.961
X88.188 Y22.273
X87.998 Y22.563
X87.793 Y22.827
X87.587 Y23.052
X87.35 Y23.274
X87.297 Y23.315
X87.053 Y23.472
X86.782 Y23.579
X86.497 Y23.63
X86.206 Y23.625
X85.922 Y23.563
X85.656 Y23.447
X85.417 Y23.282
X85.04 Y22.961
X84.824 Y22.786
X84.626 Y22.647
X84.093 Y22.276
G3 X83.947 Y21.414 Z-0.806 I0.381 J-0.508
G1 X83.965 Y21.387 Z-0.8
X86.81 Y17.151
X86.818 Y17.139
X86.865 Y17.08 Z-0.815
X86.919 Y17.027 Z-0.83
X86.979 Y16.98 Z-0.846
G3 X87.703 Y16.986 Z-1 I0.358 J0.525 F150
G1 X89.258 Y18.179 F300
X89.392 Y18.293
X89.523 Y18.424
X89.653 Y18.577
X89.781 Y18.754
X89.907 Y18.962
X90.02 Y19.187
X90.127 Y19.451
X90.215 Y19.734
X90.285 Y20.042
X90.334 Y20.383
X90.357 Y20.739
X90.35 Y21.107
X90.313 Y21.49
X90.242 Y21.882
X90.138 Y22.275
X90 Y22.668
X89.844 Y23.017
X89.66 Y23.355
X89.474 Y23.638
X89.26 Y23.914
X89.05 Y24.143
X88.812 Y24.365
X88.583 Y24.546
X88.567 Y24.557
X88.283 Y24.706
X87.974 Y24.789
X87.654 Y24.805
X87.339 Y24.751
X87.042 Y24.631
X86.778 Y24.45
X85.417 Y23.282
G3 X85.335 Y22.435 Z-0.813 I0.428 J-0.469
G1 X85.374 Y22.383 Z-0.8
X88.373 Y18.327
X88.379 Y18.319 Z-0.802
X88.425 Y18.263 Z-0.817
X88.477 Y18.213 Z-0.831
X88.534 Y18.17 Z-0.846
G3 X89.258 Y18.179 Z-1 I0.355 J0.527 F150
G1 X89.593 Y18.436 F300
X89.856 Y18.643
X90.377 Y19.058
X90.421 Y19.096
X90.831 Y19.472
X91.003 Y19.646
X91.131 Y19.799
X91.251 Y19.967
X91.371 Y20.169
X91.481 Y20.392
X91.58 Y20.641
X91.667 Y20.925
X91.733 Y21.224
X91.778 Y21.551
X91.798 Y21.906
X91.789 Y22.271
X91.749 Y22.644
X91.677 Y23.03
X91.572 Y23.418
X91.432 Y23.806
X91.259 Y24.186
X91.081 Y24.508
X90.871 Y24.824
X90.666 Y25.083
X90.432 Y25.336
X90.204 Y25.545
X89.957 Y25.738
X89.926 Y25.758
X89.633 Y25.908
X89.313 Y25.989
X88.984 Y25.997
X88.661 Y25.932
X88.36 Y25.798
X88.096 Y25.6
X87.968 Y25.48
X87.495 Y25.065
X86.778 Y24.45
G3 X86.712 Y23.587 Z-0.809 I0.43 J-0.467
G1 X86.74 Y23.552 Z-0.8
X89.922 Y19.559
X89.936 Y19.542
X89.989 Y19.488 Z-0.815
X90.047 Y19.44 Z-0.83
X90.111 Y19.399 Z-0.846
G3 X90.831 Y19.472 Z-1 I0.308 J0.555 F150
G1 X92.283 Y20.803 F300
X92.426 Y20.947
X92.544 Y21.088
X92.661 Y21.253
X92.773 Y21.44
X92.881 Y21.658
X92.974 Y21.893
X93.057 Y22.165
X93.121 Y22.454
X93.164 Y22.771
X93.183 Y23.114
X93.174 Y23.471
X93.136 Y23.839
X93.065 Y24.217
X92.96 Y24.603
X92.822 Y24.987
X92.649 Y25.366
X92.468 Y25.692
X92.256 Y26.011
X92.048 Y26.276
X91.816 Y26.526
X91.58 Y26.743
X91.341 Y26.929
X91.079 Y27.102
X91.061 Y27.112
X90.762 Y27.236
X90.443 Y27.292
X90.12 Y27.277
X89.808 Y27.193
X89.521 Y27.043
X89.274 Y26.834
X88.144 Y25.645
X88.096 Y25.6
G3 X88.066 Y24.739 Z-0.81 I0.451 J-0.447
G1 X88.098 Y24.701 Z-0.8
X91.388 Y20.873
X91.389 Y20.872
X91.442 Y20.818 Z-0.815
X91.5 Y20.77 Z-0.83
X91.563 Y20.73 Z-0.846
G3 X92.283 Y20.803 Z-1 I0.308 J0.555 F150
G1 X93.111 Y21.561 F300
X93.318 Y21.766
X93.502 Y21.958
X93.815 Y22.298
X93.917 Y22.422
X94.032 Y22.586
X94.137 Y22.765
X94.24 Y22.978
X94.33 Y23.21
X94.408 Y23.469
X94.47 Y23.761
X94.509 Y24.065
X94.525 Y24.396
X94.514 Y24.751
X94.474 Y25.114
X94.402 Y25.483
X94.297 Y25.86
X94.157 Y26.238
X93.985 Y26.61
X93.78 Y26.974
X93.574 Y27.28
X93.336 Y27.577
X93.11 Y27.818
X92.854 Y28.049
X92.607 Y28.24
X92.346 Y28.409
X92.302 Y28.432
X92.004 Y28.554
X91.687 Y28.608
X91.365 Y28.592
X91.055 Y28.507
X90.77 Y28.357
X90.524 Y28.149
X89.274 Y26.834
G3 X89.297 Y25.967 Z-0.809 I0.475 J-0.421
G1 X89.327 Y25.937 Z-0.8
X92.909 Y22.298
X92.917 Y22.29
X92.974 Y22.241 Z-0.815
X93.036 Y22.198 Z-0.83
X93.104 Y22.163 Z-0.846
G3 X93.815 Y22.298 Z-1 I0.258 J0.58 F150
G1 X95.109 Y23.711 F300
X95.224 Y23.85
X95.33 Y24.001
X95.432 Y24.175
X95.527 Y24.371
X95.615 Y24.598
X95.687 Y24.84
X95.747 Y25.119
X95.785 Y25.412
X95.8 Y25.731
X95.79 Y26.074
X95.75 Y26.43
X95.679 Y26.793
X95.576 Y27.163
X95.438 Y27.539
X95.266 Y27.91
X95.061 Y28.273
X94.851 Y28.585
X94.611 Y28.885
X94.38 Y29.131
X94.124 Y29.362
X93.872 Y29.556
X93.612 Y29.725
X93.445 Y29.815
X93.171 Y29.929
X92.879 Y29.986
X92.582 Y29.984
X92.291 Y29.922
X92.018 Y29.804
X91.774 Y29.634
X91.57 Y29.418
X91.247 Y29.001
X90.923 Y28.587
X90.835 Y28.482
X90.628 Y28.258
X90.524 Y28.149
G3 X90.556 Y27.274 Z-0.806 I0.475 J-0.421
G1 X90.578 Y27.253 Z-0.8
X94.211 Y23.703
X94.212 Y23.702
X94.269 Y23.652 Z-0.815
X94.331 Y23.61 Z-0.83
X94.398 Y23.576 Z-0.846
G3 X95.109 Y23.711 Z-1 I0.258 J0.58 F150
G1 X95.97 Y24.651 F300
X96.008 Y24.694
X96.422 Y25.224
X96.571 Y25.436
X96.672 Y25.607
X96.761 Y25.792
X96.847 Y26.012
X96.917 Y26.246
X96.974 Y26.511
X97.012 Y26.803
X97.027 Y27.108
X97.017 Y27.44
X96.978 Y27.79
X96.909 Y28.146
X96.808 Y28.508
X96.673 Y28.876
X96.504 Y29.242
X96.302 Y29.601
X96.079 Y29.931
X95.831 Y30.241
X95.591 Y30.498
X95.326 Y30.738
X95.072 Y30.934
X94.796 Y31.113
X94.529 Y31.257
X94.445 Y31.295
X94.132 Y31.393
X93.806 Y31.42
X93.482 Y31.375
X93.176 Y31.26
X92.903 Y31.081
X92.675 Y30.846
X91.57 Y29.418
G3 X91.664 Y28.572 Z-0.813 I0.515 J-0.371
G1 X91.712 Y28.529 Z-0.8
X95.514 Y25.157
X95.528 Y25.144
X95.589 Y25.099 Z-0.815
X95.654 Y25.062 Z-0.83
X95.724 Y25.033 Z-0.846
G3 X96.422 Y25.224 Z-1 I0.211 J0.599 F150
G1 X96.629 Y25.491 F300
X97.664 Y26.84
X97.761 Y26.98
X97.852 Y27.138
X97.941 Y27.324
X98.017 Y27.526
X98.086 Y27.761
X98.137 Y28.009
X98.171 Y28.291
X98.184 Y28.591
X98.172 Y28.906
X98.131 Y29.248
X98.06 Y29.6
X97.958 Y29.956
X97.823 Y30.316
X97.654 Y30.675
X97.451 Y31.029
X97.216 Y31.372
X96.977 Y31.667
X96.709 Y31.948
X96.456 Y32.174
X96.179 Y32.384
X95.909 Y32.556
X95.636 Y32.702
X95.494 Y32.763
X95.208 Y32.853
X94.909 Y32.884
X94.61 Y32.854
X94.324 Y32.765
X94.061 Y32.619
X93.833 Y32.424
X93.649 Y32.186
X93.601 Y32.109
X93.525 Y31.992
X93.318 Y31.68
X93.171 Y31.487
X92.675 Y30.846
G3 X92.79 Y29.982 Z-0.807 I0.515 J-0.371
G1 X92.818 Y29.959 Z-0.8
X96.77 Y26.753
X96.774 Y26.75 Z-0.801
X96.834 Y26.707 Z-0.816
X96.899 Y26.671 Z-0.831
X96.967 Y26.643 Z-0.846
G3 X97.664 Y26.84 Z-1 I0.207 J0.6 F150
G1 X98.078 Y27.379 F300
X98.207 Y27.551
X98.664 Y28.173
X98.797 Y28.38
X98.905 Y28.55
X98.98 Y28.68
X99.065 Y28.863
X99.138 Y29.058
X99.202 Y29.287
X99.251 Y29.531
X99.282 Y29.802
X99.293 Y30.1
X99.279 Y30.407
X99.237 Y30.738
X99.164 Y31.088
X99.06 Y31.44
X98.924 Y31.793
X98.754 Y32.149
X98.55 Y32.499
X98.314 Y32.839
X98.065 Y33.141
X97.791 Y33.425
X97.532 Y33.653
X97.247 Y33.865
X96.98 Y34.033
X96.689 Y34.185
X96.414 Y34.302
X96.323 Y34.332
X96.001 Y34.4
X95.673 Y34.396
X95.353 Y34.319
X95.058 Y34.174
X94.803 Y33.967
X94.599 Y33.709
X93.649 Y32.186
G3 X93.833 Y31.351 Z-0.812 I0.55 J-0.317
G1 X93.881 Y31.317 Z-0.8
X98.015 Y28.391
X98.023 Y28.386
X98.088 Y28.347 Z-0.815
X98.157 Y28.316 Z-0.83
X98.229 Y28.294 Z-0.846
G3 X98.905 Y28.55 Z-1 I0.154 J0.616 F150
G1 X99.94 Y30.174 F300
X100.021 Y30.317
X100.1 Y30.485
X100.171 Y30.674
X100.23 Y30.885
X100.278 Y31.124
X100.307 Y31.376
X100.317 Y31.662
X100.304 Y31.958
X100.264 Y32.274
X100.193 Y32.612
X100.093 Y32.954
X99.961 Y33.297
X99.795 Y33.645
X99.595 Y33.988
X99.362 Y34.323
X99.099 Y34.643
X98.833 Y34.918
X98.542 Y35.175
X98.266 Y35.381
X97.975 Y35.564
X97.687 Y35.715
X97.406 Y35.834
X97.281 Y35.875
X96.952 Y35.944
X96.615 Y35.938
X96.289 Y35.856
X95.99 Y35.702
X95.732 Y35.485
X95.53 Y35.216
X95.409 Y35.009
X94.599 Y33.709
G3 X94.796 Y32.865 Z-0.809 I0.55 J-0.317
G1 X94.831 Y32.841 Z-0.8
X99.058 Y30.01
X99.064 Y30.006 Z-0.801
X99.127 Y29.969 Z-0.816
X99.194 Y29.939 Z-0.831
X99.263 Y29.917 Z-0.846
G3 X99.94 Y30.174 Z-1 I0.154 J0.616 F150
G1 X100.381 Y30.866 F300
X100.509 Y31.073
X100.768 Y31.5
X100.883 Y31.694
X100.975 Y31.871
X101.088 Y32.119
X101.157 Y32.308
X101.213 Y32.509
X101.257 Y32.742
X101.284 Y32.989
X101.292 Y33.261
X101.276 Y33.559
X101.236 Y33.864
X101.165 Y34.19
X101.062 Y34.532
X100.928 Y34.873
X100.762 Y35.214
X100.561 Y35.553
X100.327 Y35.886
X100.062 Y36.203
X99.792 Y36.478
X99.496 Y36.736
X99.217 Y36.941
X98.924 Y37.123
X98.632 Y37.273
X98.351 Y37.39
X98.045 Y37.489
X97.955 Y37.51
X97.625 Y37.55
X97.295 Y37.516
X96.981 Y37.408
X96.698 Y37.234
X96.461 Y37.001
X96.282 Y36.721
X95.645 Y35.423
X95.594 Y35.327
X95.53 Y35.216
G3 X95.752 Y34.381 Z-0.809 I0.561 J-0.298
G1 X95.792 Y34.356 Z-0.8
X100.083 Y31.647
X100.11 Y31.631
X100.178 Y31.598 Z-0.815
X100.249 Y31.573 Z-0.83
X100.323 Y31.557 Z-0.846
G3 X100.975 Y31.871 Z-1 I0.099 J0.627 F150
G1 X101.913 Y33.673 F300
X101.986 Y33.834
X102.05 Y34.009
X102.104 Y34.203
X102.145 Y34.42
X102.172 Y34.662
X102.179 Y34.917
X102.164 Y35.203
X102.125 Y35.497
X102.058 Y35.808
X101.958 Y36.138
X101.828 Y36.47
X101.666 Y36.801
X101.471 Y37.131
X101.242 Y37.455
X100.983 Y37.766
X100.693 Y38.063
X100.404 Y38.313
X100.092 Y38.543
X99.798 Y38.725
X99.494 Y38.881
X99.192 Y39.007
X98.904 Y39.1
X98.752 Y39.136
X98.42 Y39.176
X98.088 Y39.141
X97.772 Y39.032
X97.488 Y38.854
X97.252 Y38.618
X97.074 Y38.335
X96.282 Y36.721
G3 X96.556 Y35.905 Z-0.81 I0.58 J-0.26
G1 X96.601 Y35.88 Z-0.8
X101.048 Y33.432
X101.054 Y33.429 Z-0.801
X101.12 Y33.398 Z-0.816
X101.189 Y33.374 Z-0.831
X101.261 Y33.358 Z-0.846
G3 X101.913 Y33.673 Z-1 I0.099 J0.627 F150
G1 X102.285 Y34.387 F300
X102.63 Y35.057
X102.705 Y35.216
X102.837 Y35.536
X102.9 Y35.711
X102.952 Y35.906
X102.99 Y36.112
X103.014 Y36.349
X103.02 Y36.598
X103.004 Y36.871
X102.962 Y37.166
X102.895 Y37.467
X102.796 Y37.787
X102.664 Y38.118
X102.5 Y38.448
X102.305 Y38.773
X102.075 Y39.094
X101.812 Y39.405
X101.52 Y39.699
X101.224 Y39.953
X100.904 Y40.185
X100.604 Y40.368
X100.295 Y40.524
X99.989 Y40.649
X99.697 Y40.741
X99.384 Y40.813
X99.323 Y40.822
X98.988 Y40.833
X98.659 Y40.768
X98.352 Y40.631
X98.085 Y40.428
X97.87 Y40.17
X97.718 Y39.871
X97.452 Y39.152
X97.361 Y38.945
X97.168 Y38.531
X97.074 Y38.335
G3 X97.374 Y37.512 Z-0.806 I0.582 J-0.254
G1 X97.401 Y37.498 Z-0.8
X101.978 Y35.23
X101.997 Y35.221
X102.067 Y35.194 Z-0.815
X102.141 Y35.176 Z-0.83
X102.215 Y35.166 Z-0.846
G3 X102.837 Y35.536 Z-1 I0.044 J0.633 F150
G1 X103.563 Y37.288 F300
X103.642 Y37.508
X103.69 Y37.688
X103.727 Y37.887
X103.749 Y38.105
X103.754 Y38.349
X103.739 Y38.603
X103.7 Y38.887
X103.635 Y39.176
X103.541 Y39.48
X103.413 Y39.801
X103.254 Y40.121
X103.064 Y40.437
X102.84 Y40.75
X102.582 Y41.055
X102.296 Y41.343
X101.98 Y41.614
X101.674 Y41.836
X101.345 Y42.037
X101.04 Y42.191
X100.726 Y42.319
X100.415 Y42.417
X100.123 Y42.485
X99.949 Y42.51
X99.613 Y42.521
X99.284 Y42.456
X98.978 Y42.319
X98.71 Y42.116
X98.495 Y41.858
X98.344 Y41.559
X97.718 Y39.871
G3 X98.058 Y39.093 Z-0.814 I0.603 J-0.2
G1 X98.12 Y39.065 Z-0.8
X102.723 Y36.973
X102.793 Y36.946 Z-0.815
X102.866 Y36.927 Z-0.83
X102.941 Y36.918 Z-0.846
G3 X103.563 Y37.288 Z-1 I0.044 J0.633 F150
G1 X104.079 Y38.533 F300
X104.157 Y38.738
X104.305 Y39.152
X104.375 Y39.393
X104.414 Y39.58
X104.439 Y39.785
X104.449 Y40.016
X104.441 Y40.257
X104.409 Y40.527
X104.353 Y40.803
X104.269 Y41.1
X104.153 Y41.411
X104.007 Y41.72
X103.828 Y42.034
X103.615 Y42.346
X103.367 Y42.653
X103.089 Y42.946
X102.783 Y43.219
X102.463 Y43.463
X102.137 Y43.672
X101.805 Y43.849
X101.496 Y43.983
X101.165 Y44.096
X100.867 Y44.171
X100.547 Y44.226
X100.455 Y44.234
X100.165 Y44.231
X99.881 Y44.172
X99.614 Y44.058
X99.375 Y43.895
X99.171 Y43.688
X99.012 Y43.445
X98.904 Y43.176
X98.878 Y43.088
X98.699 Y42.522
X98.68 Y42.467
X98.344 Y41.559
G3 X98.704 Y40.772 Z-0.809 I0.603 J-0.2
G1 X98.746 Y40.755 Z-0.8
X103.471 Y38.799
X103.481 Y38.795
X103.553 Y38.772 Z-0.815
X103.627 Y38.757 Z-0.83
X103.702 Y38.751 Z-0.846
G3 X104.305 Y39.152 Z-1 I0.012 J0.635 F150
G1 X104.377 Y39.359 F300
X104.938 Y41.142
X104.982 Y41.307
X105.013 Y41.485
X105.033 Y41.692
X105.036 Y41.909
X105.02 Y42.152
X104.982 Y42.411
X104.919 Y42.681
X104.826 Y42.975
X104.706 Y43.269
X104.554 Y43.571
X104.365 Y43.88
X104.144 Y44.184
X103.892 Y44.478
X103.61 Y44.758
X103.301 Y45.019
X102.966 Y45.259
X102.639 Y45.455
X102.305 Y45.621
X101.986 Y45.748
X101.664 Y45.848
X101.356 Y45.916
X101.042 Y45.96
X100.744 Y45.977
X100.427 Y45.936
X100.127 Y45.828
X99.856 Y45.658
X99.629 Y45.434
X99.455 Y45.166
X99.342 Y44.867
X98.904 Y43.176
G3 X99.311 Y42.418 Z-0.81 I0.615 J-0.158
G1 X99.36 Y42.402 Z-0.8
X104.128 Y40.755
X104.133 Y40.753 Z-0.801
X104.204 Y40.733 Z-0.816
X104.277 Y40.722 Z-0.831
X104.351 Y40.719 Z-0.846
G3 X104.938 Y41.142 Z-1 I-0.011 J0.635 F150
G1 X105.422 Y42.674 F300
X105.48 Y42.881
X105.526 Y43.088
X105.563 Y43.302
X105.581 Y43.504
X105.583 Y43.715
X105.566 Y43.955
X105.529 Y44.201
X105.465 Y44.469
X105.374 Y44.753
X105.256 Y45.039
X105.102 Y45.339
X104.915 Y45.642
X104.698 Y45.938
X104.45 Y46.224
X104.169 Y46.5
X103.859 Y46.76
X103.521 Y46.999
X103.162 Y47.212
X102.832 Y47.374
X102.48 Y47.512
X102.165 Y47.608
X101.829 Y47.681
X101.522 Y47.723
X101.21 Y47.739
X101.189
X100.869 Y47.695
X100.567 Y47.584
X100.296 Y47.409
X100.069 Y47.18
X99.897 Y46.908
X99.788 Y46.604
X99.733 Y46.38
X99.342 Y44.867
G3 X99.78 Y44.121 Z-0.809 I0.62 J-0.138
G1 X99.823 Y44.108 Z-0.8
X104.73 Y42.64
X104.752 Y42.634
X104.826 Y42.619 Z-0.815
X104.902 Y42.614 Z-0.83
X104.977 Y42.617 Z-0.846
G3 X105.526 Y43.088 Z-1 I-0.065 J0.632 F150
G1 X105.757 Y44.124 F300
X105.941 Y44.953
X105.985 Y45.213
X106.001 Y45.398
X106.003 Y45.601
X105.987 Y45.82
X105.949 Y46.062
X105.891 Y46.309
X105.802 Y46.582
X105.688 Y46.856
X105.541 Y47.142
X105.359 Y47.436
X105.146 Y47.725
X104.903 Y48.005
X104.627 Y48.274
X104.319 Y48.531
X103.985 Y48.767
X103.626 Y48.979
X103.293 Y49.141
X102.938 Y49.28
X102.62 Y49.376
X102.284 Y49.449
X101.973 Y49.49
X101.664 Y49.506
X101.487 Y49.501
X101.196 Y49.463
X100.918 Y49.369
X100.663 Y49.222
X100.443 Y49.027
X100.266 Y48.793
X100.138 Y48.529
X100.065 Y48.244
X99.91 Y47.231
X99.87 Y47.024
X99.788 Y46.604
G3 X100.24 Y45.865 Z-0.809 I0.622 J-0.127
G1 X100.282 Y45.854 Z-0.8
X105.156 Y44.5
X105.167 Y44.497
X105.242 Y44.482 Z-0.815
X105.317 Y44.477 Z-0.83
X105.392 Y44.48 Z-0.846
G3 X105.941 Y44.953 Z-1 I-0.067 J0.632 F150
G1 X106.216 Y46.196 F300
X106.26 Y46.403
X106.355 Y46.878
X106.39 Y47.134
X106.4 Y47.316
X106.394 Y47.525
X106.37 Y47.744
X106.325 Y47.983
X106.255 Y48.238
X106.16 Y48.499
X106.031 Y48.781
X105.875 Y49.062
X105.687 Y49.342
X105.462 Y49.626
X105.205 Y49.902
X104.918 Y50.164
X104.605 Y50.407
X104.266 Y50.629
X103.905 Y50.826
X103.549 Y50.985
X103.186 Y51.112
X102.85 Y51.201
X102.509 Y51.262
X102.193 Y51.293
X101.87 Y51.299
X101.71 Y51.289
X101.382 Y51.23
X101.074 Y51.1
X100.804 Y50.903
X100.584 Y50.652
X100.427 Y50.357
X100.339 Y50.034
X100.065 Y48.244
G3 X100.555 Y47.551 Z-0.813 I0.631 J-0.074
G1 X100.62 Y47.536 Z-0.8
X105.591 Y46.407
X105.597 Y46.406 Z-0.801
X105.67 Y46.394 Z-0.816
X105.743 Y46.39 Z-0.831
X105.816 Y46.395 Z-0.846
G3 X106.355 Y46.878 Z-1 I-0.079 J0.63 F150
G1 X106.383 Y47.024 F300
X106.643 Y49.003
X106.658 Y49.183
Y49.372
X106.642 Y49.572
X106.606 Y49.796
X106.549 Y50.024
X106.465 Y50.277
X106.357 Y50.533
X106.218 Y50.8
X106.043 Y51.077
X105.841 Y51.347
X105.605 Y51.614
X105.335 Y51.875
X105.032 Y52.124
X104.703 Y52.352
X104.351 Y52.557
X103.987 Y52.732
X103.628 Y52.869
X103.264 Y52.976
X102.936 Y53.045
X102.588 Y53.088
X102.281 Y53.102
X101.958 Y53.091
X101.819 Y53.074
X101.529 Y53.011
X101.258 Y52.891
X101.016 Y52.719
X100.813 Y52.502
X100.657 Y52.25
X100.555 Y51.971
X100.51 Y51.678
X100.495 Y51.375
X100.48 Y51.168
X100.441 Y50.753
X100.418 Y50.546
X100.339 Y50.034
G3 X100.864 Y49.334 Z-0.806 I0.631 J-0.074
G1 X100.895 Y49.329 Z-0.8
X105.911 Y48.481
X105.912
X105.988 Y48.473 Z-0.815
X106.063 Y48.474 Z-0.83
X106.138 Y48.484 Z-0.846
G3 X106.643 Y49.003 Z-1 I-0.121 J0.623 F150
G1 X106.819 Y50.339 F300
X106.843 Y50.546
X106.884 Y50.96
X106.892 Y51.136
X106.886 Y51.318
X106.863 Y51.526
X106.82 Y51.741
X106.754 Y51.976
X106.663 Y52.223
X106.546 Y52.475
X106.394 Y52.744
X106.214 Y53.01
X106.003 Y53.273
X105.754 Y53.537
X105.474 Y53.79
X105.165 Y54.026
X104.831 Y54.242
X104.474 Y54.434
X104.096 Y54.6
X103.73 Y54.726
X103.361 Y54.822
X103.021 Y54.881
X102.678 Y54.912
X102.363 Y54.916
X102.04 Y54.894
X101.751 Y54.85
X101.744 Y54.848
X101.444 Y54.743
X101.173 Y54.576
X100.944 Y54.356
X100.768 Y54.091
X100.652 Y53.795
X100.602 Y53.481
X100.51 Y51.678
G3 X101.068 Y51.037 Z-0.813 I0.635 J-0.01
G1 X101.134 Y51.029 Z-0.8
X106.171 Y50.415
X106.178 Y50.414 Z-0.801
X106.251 Y50.409 Z-0.816
X106.324 Y50.413 Z-0.831
X106.396 Y50.425 Z-0.846
G3 X106.884 Y50.96 Z-1 I-0.142 J0.619 F150
G1 X106.904 Y51.168 F300
X106.986 Y53.032
X106.985 Y53.2
X106.968 Y53.388
X106.935 Y53.586
X106.879 Y53.807
X106.803 Y54.03
X106.697 Y54.275
X106.567 Y54.521
X106.404 Y54.775
X106.206 Y55.036
X105.981 Y55.288
X105.723 Y55.534
X105.432 Y55.769
X105.109 Y55.99
X104.762 Y56.189
X104.393 Y56.363
X104.005 Y56.508
X103.635 Y56.614
X103.266 Y56.688
X102.922 Y56.729
X102.587 Y56.742
X102.261 Y56.728
X101.961 Y56.691
X101.845 Y56.667
X101.525 Y56.562
X101.237 Y56.388
X100.996 Y56.153
X100.814 Y55.869
X100.701 Y55.552
X100.663 Y55.217
X100.662 Y54.689
X100.642 Y54.275
X100.602 Y53.481
G3 X101.189 Y52.838 Z-0.808 I0.635 J-0.01
G1 X101.226 Y52.835 Z-0.8
X106.304 Y52.449
X106.305
X106.38 Y52.447 Z-0.815
X106.455 Y52.455 Z-0.83
X106.528 Y52.471 Z-0.846
G3 X106.986 Y53.032 Z-1 I-0.175 J0.61 F150
G1 X107.049 Y54.482 F300
X107.056 Y54.689
Y55.01
X107.048 Y55.188
X107.024 Y55.371
X106.98 Y55.577
X106.916 Y55.791
X106.827 Y56.019
X106.71 Y56.261
X106.569 Y56.501
X106.39 Y56.756
X106.182 Y57.007
X105.945 Y57.251
X105.671 Y57.49
X105.364 Y57.717
X105.031 Y57.925
X104.675 Y58.109
X104.298 Y58.267
X103.912 Y58.393
X103.545 Y58.481
X103.17 Y58.54
X102.84 Y58.565
X102.49 Y58.563
X102.182 Y58.537
X101.869 Y58.484
X101.7 Y58.442
X101.427 Y58.344
X101.178 Y58.194
X100.962 Y57.999
X100.789 Y57.765
X100.666 Y57.502
X100.595 Y57.22
X100.581 Y56.93
X100.658 Y55.404
X100.663 Y55.311
Y55.217
G3 X101.272 Y54.604 Z-0.809 I0.635 J0.022
G1 X101.318 Y54.602 Z-0.8
X106.396 Y54.398
X106.4
X106.475 Y54.4 Z-0.815
X106.55 Y54.411 Z-0.83
X106.623 Y54.431 Z-0.846
G3 X107.056 Y55.01 Z-1 I-0.201 J0.602 F150
G1 X107.057 Y55.311 F300
X107.05 Y55.518
X106.986 Y56.968
X106.961 Y57.235
X106.929 Y57.417
X106.878 Y57.615
X106.804 Y57.827
X106.708 Y58.046
X106.58 Y58.282
X106.43 Y58.513
X106.244 Y58.756
X106.025 Y58.997
X105.781 Y59.226
X105.501 Y59.45
X105.19 Y59.659
X104.85 Y59.851
X104.489 Y60.018
X104.109 Y60.157
X103.719 Y60.266
X103.335 Y60.341
X102.964 Y60.382
X102.613 Y60.393
X102.277 Y60.377
X101.958 Y60.335
X101.649 Y60.269
X101.543 Y60.237
X101.237 Y60.107
X100.967 Y59.911
X100.749 Y59.66
X100.591 Y59.367
X100.503 Y59.046
X100.489 Y58.713
X100.495 Y58.625
X100.581 Y56.93
G3 X101.211 Y56.349 Z-0.811 I0.633 J0.054
G1 X101.268 Z-0.8
X106.349 Y56.328
X106.357
X106.433 Y56.333 Z-0.815
X106.507 Y56.347 Z-0.83
X106.579 Y56.37 Z-0.846
G3 X106.986 Y56.968 Z-1 I-0.228 J0.593 F150
G1 X106.905 Y58.832 F300
X106.885 Y59.04
X106.856 Y59.237
X106.813 Y59.421
X106.749 Y59.622
X106.663 Y59.834
X106.552 Y60.053
X106.41 Y60.286
X106.244 Y60.514
X106.042 Y60.749
X105.807 Y60.983
X105.545 Y61.204
X105.25 Y61.415
X104.922 Y61.612
X104.568 Y61.787
X104.193 Y61.937
X103.8 Y62.059
X103.408 Y62.146
X103.03 Y62.199
X102.659 Y62.22
X102.326 Y62.213
X101.981 Y62.178
X101.682 Y62.123
X101.37 Y62.039
X101.244 Y61.994
X100.981 Y61.869
X100.747 Y61.695
X100.551 Y61.479
X100.402 Y61.229
X100.305 Y60.954
X100.263 Y60.665
X100.278 Y60.374
X100.419 Y59.454
X100.442 Y59.247
X100.481 Y58.832
X100.489 Y58.713
G3 X101.148 Y58.146 Z-0.808 I0.631 J0.067
G1 X101.187 Y58.148 Z-0.8
X106.278 Y58.366
X106.29 Y58.367
X106.365 Y58.376 Z-0.815
X106.439 Y58.394 Z-0.83
X106.509 Y58.421 Z-0.846
G3 X106.885 Y59.04 Z-1 I-0.259 J0.58 F150
G1 X106.845 Y59.454 F300
X106.82 Y59.661
X106.629 Y61.111
X106.602 Y61.259
X106.554 Y61.437
X106.482 Y61.634
X106.389 Y61.837
X106.27 Y62.051
X106.12 Y62.274
X105.947 Y62.493
X105.735 Y62.72
X105.495 Y62.94
X105.228 Y63.147
X104.925 Y63.346
X104.593 Y63.527
X104.236 Y63.686
X103.86 Y63.818
X103.468 Y63.922
X103.068 Y63.994
X102.682 Y64.031
X102.312 Y64.038
X101.965 Y64.016
X101.633 Y63.968
X101.321 Y63.897
X101.021 Y63.803
X100.913 Y63.759
X100.623 Y63.602
X100.375 Y63.385
X100.181 Y63.118
X100.051 Y62.815
X99.991 Y62.491
X100.005 Y62.161
X100.278 Y60.374
G3 X100.971 Y59.861 Z-0.81 I0.624 J0.118
G1 X101.02 Y59.866 Z-0.8
X106.059 Y60.418
X106.067 Y60.419 Z-0.802
X106.138 Y60.431 Z-0.816
X106.209 Y60.452 Z-0.831
X106.276 Y60.48 Z-0.846
G3 X106.629 Y61.111 Z-1 I-0.279 J0.571 F150
G1 X106.384 Y62.976 F300
X106.322 Y63.235
X106.265 Y63.413
X106.182 Y63.611
X106.079 Y63.811
X105.949 Y64.022
X105.787 Y64.24
X105.602 Y64.453
X105.378 Y64.673
X105.125 Y64.883
X104.846 Y65.081
X104.531 Y65.266
X104.187 Y65.434
X103.82 Y65.578
X103.434 Y65.694
X103.033 Y65.781
X102.63 Y65.834
X102.25 Y65.854
X101.872 Y65.843
X101.54 Y65.807
X101.197 Y65.741
X100.902 Y65.66
X100.598 Y65.549
X100.508 Y65.508
X100.254 Y65.359
X100.035 Y65.163
X99.858 Y64.927
X99.732 Y64.661
X99.66 Y64.375
X99.647 Y64.081
X99.692 Y63.79
X99.742 Y63.597
X99.792 Y63.39
X99.872 Y62.976
X99.912 Y62.769
X100.005 Y62.161
G3 X100.707 Y61.649 Z-0.808 I0.624 J0.118
G1 X100.746 Y61.654 Z-0.8
X105.813 Y62.283
X105.83 Y62.285 Z-0.803
X105.899 Y62.297 Z-0.817
X105.966 Y62.317 Z-0.831
X106.03 Y62.344 Z-0.846
G3 X106.384 Y62.976 Z-1 I-0.279 J0.571 F150
G1 X106.355 Y63.13 F300
X106.262 Y63.597
X106.219 Y63.804
X105.943 Y65.047
X105.897 Y65.215
X105.835 Y65.386
X105.747 Y65.577
X105.64 Y65.769
X105.504 Y65.972
X105.34 Y66.18
X105.15 Y66.384
X104.921 Y66.593
X104.667 Y66.79
X104.384 Y66.975
X104.065 Y67.149
X103.719 Y67.303
X103.352 Y67.432
X102.967 Y67.534
X102.568 Y67.606
X102.161 Y67.645
X101.779 Y67.652
X101.408 Y67.628
X101.068 Y67.579
X100.74 Y67.504
X100.44 Y67.41
X100.145 Y67.291
X100.012 Y67.224
X99.731 Y67.041
X99.499 Y66.8
X99.327 Y66.512
X99.224 Y66.194
X99.195 Y65.86
X99.242 Y65.528
X99.692 Y63.79
G3 X100.42 Y63.346 Z-0.813 I0.609 J0.181
G1 X100.482 Y63.358 Z-0.8
X105.435 Y64.307
X105.438 Y64.308 Z-0.801
X105.51 Y64.326 Z-0.816
X105.58 Y64.353 Z-0.831
X105.646 Y64.387 Z-0.846
G3 X105.943 Y65.047 Z-1 I-0.327 J0.544 F150
G1 X105.529 Y66.912 F300
X105.489 Y67.058
X105.427 Y67.228
X105.343 Y67.411
X105.239 Y67.598
X105.105 Y67.798
X104.949 Y67.994
X104.758 Y68.199
X104.54 Y68.398
X104.293 Y68.59
X104.008 Y68.776
X103.695 Y68.946
X103.361 Y69.095
X103.001 Y69.221
X102.617 Y69.322
X102.217 Y69.394
X101.804 Y69.434
X101.41 Y69.44
X101.017 Y69.415
X100.665 Y69.364
X100.33 Y69.288
X100.01 Y69.187
X99.728 Y69.072
X99.438 Y68.927
X99.43 Y68.922
X99.171 Y68.722
X98.962 Y68.47
X98.813 Y68.178
X98.732 Y67.86
X98.723 Y67.533
X98.786 Y67.211
X98.881 Y66.912
X98.905 Y66.828
X99.242 Y65.528
G3 X99.984 Y65.088 Z-0.81 I0.609 J0.181
G1 X100.031 Y65.098 Z-0.8
X105.022 Y66.171
X105.039 Y66.175 Z-0.803
X105.106 Y66.193 Z-0.817
X105.171 Y66.219 Z-0.831
X105.233 Y66.252 Z-0.846
G3 X105.529 Y66.912 Z-1 I-0.328 J0.544 F150
G1 X105.483 Y67.119 F300
X105.425 Y67.326
X104.907 Y68.969
X104.855 Y69.11
X104.775 Y69.281
X104.672 Y69.46
X104.547 Y69.644
X104.391 Y69.837
X104.214 Y70.024
X103.998 Y70.217
X103.758 Y70.4
X103.487 Y70.574
X103.179 Y70.738
X102.846 Y70.883
X102.493 Y71.003
X102.118 Y71.099
X101.722 Y71.166
X101.314 Y71.202
X100.896 Y71.206
X100.529 Y71.179
X100.154 Y71.121
X99.834 Y71.045
X99.507 Y70.939
X99.218 Y70.82
X98.944 Y70.679
X98.815 Y70.599
X98.55 Y70.39
X98.339 Y70.126
X98.194 Y69.821
X98.121 Y69.491
X98.125 Y69.153
X98.206 Y68.825
X98.684 Y67.533
X98.699 Y67.49
X98.786 Y67.211
G3 X99.556 Y66.812 Z-0.808 I0.599 J0.212
G1 X99.596 Y66.823 Z-0.8
X104.465 Y68.188
X104.466
X104.537 Y68.213 Z-0.815
X104.605 Y68.245 Z-0.83
X104.668 Y68.286 Z-0.846
G3 X104.907 Y68.969 Z-1 I-0.373 J0.514 F150
G1 X104.38 Y70.641 F300
X104.309 Y70.848
X104.251 Y70.986
X104.168 Y71.15
X104.056 Y71.331
X103.926 Y71.509
X103.764 Y71.696
X103.575 Y71.881
X103.36 Y72.062
X103.104 Y72.243
X102.827 Y72.407
X102.522 Y72.557
X102.182 Y72.691
X101.819 Y72.801
X101.439 Y72.884
X101.044 Y72.938
X100.638 Y72.96
X100.227 Y72.949
X99.849 Y72.908
X99.465 Y72.836
X99.141 Y72.747
X98.809 Y72.627
X98.521 Y72.495
X98.247 Y72.343
X98.142 Y72.273
X97.89 Y72.06
X97.691 Y71.798
X97.555 Y71.497
X97.489 Y71.175
X97.496 Y70.845
X97.576 Y70.525
X98.206 Y68.825
G3 X98.989 Y68.462 Z-0.809 I0.587 J0.241
G1 X99.034 Y68.477 Z-0.8
X103.888 Y70.055
X103.898 Y70.058 Z-0.802
X103.965 Y70.084 Z-0.817
X104.029 Y70.118 Z-0.831
X104.088 Y70.158 Z-0.846
G3 X104.309 Y70.848 Z-1 I-0.387 J0.503 F150
G1 X104.161 Y71.262 F300
X104.079 Y71.478
X103.568 Y72.712
X103.481 Y72.896
X103.387 Y73.058
X103.271 Y73.227
X103.127 Y73.403
X102.962 Y73.576
X102.76 Y73.755
X102.538 Y73.922
X102.28 Y74.086
X101.989 Y74.239
X101.679 Y74.372
X101.337 Y74.487
X100.971 Y74.579
X100.583 Y74.643
X100.183 Y74.676
X99.774 Y74.678
X99.374 Y74.647
X98.997 Y74.587
X98.635 Y74.499
X98.318 Y74.395
X97.998 Y74.26
X97.728 Y74.12
X97.453 Y73.948
X97.347 Y73.869
X97.131 Y73.672
X96.957 Y73.436
X96.833 Y73.17
X96.764 Y72.885
X96.753 Y72.592
X96.799 Y72.302
X96.901 Y72.028
X97.074 Y71.676
X97.173 Y71.469
X97.365 Y71.055
X97.457 Y70.846
X97.576 Y70.525
G3 X98.377 Y70.169 Z-0.806 I0.587 J0.241
G1 X98.404 Y70.179 Z-0.8
X103.187 Y71.892
X103.196 Y71.895
X103.265 Y71.926 Z-0.815
X103.33 Y71.965 Z-0.83
X103.39 Y72.011 Z-0.846
G3 X103.568 Y72.712 Z-1 I-0.417 J0.479 F150
G1 X102.837 Y74.475 F300
X102.757 Y74.644
X102.667 Y74.8
X102.553 Y74.966
X102.418 Y75.132
X102.25 Y75.306
X102.063 Y75.472
X101.839 Y75.642
X101.59 Y75.8
X101.313 Y75.946
X101 Y76.08
X100.663 Y76.193
X100.307 Y76.282
X99.932 Y76.344
X99.536 Y76.377
X99.131 Y76.378
X98.717 Y76.346
X98.331 Y76.285
X97.948 Y76.192
X97.62 Y76.084
X97.292 Y75.946
X97.012 Y75.801
X96.733 Y75.626
X96.495 Y75.449
X96.459 Y75.417
X96.241 Y75.18
X96.08 Y74.901
X95.983 Y74.594
X95.954 Y74.273
X95.996 Y73.954
X96.105 Y73.651
X96.901 Y72.028
G3 X97.699 Y71.738 Z-0.814 I0.56 J0.299
G1 X97.762 Y71.764 Z-0.8
X102.466 Y73.658
X102.48 Y73.663 Z-0.803
X102.544 Y73.693 Z-0.817
X102.604 Y73.73 Z-0.831
X102.659 Y73.773 Z-0.846
G3 X102.837 Y74.475 Z-1 I-0.417 J0.479 F150
G1 X102.709 Y74.784 F300
X102.63 Y74.951
X102.29 Y75.613
X101.859 Y76.441
X101.783 Y76.571
X101.672 Y76.726
X101.536 Y76.887
X101.378 Y77.046
X101.187 Y77.21
X100.976 Y77.363
X100.726 Y77.515
X100.451 Y77.654
X100.153 Y77.776
X99.819 Y77.882
X99.461 Y77.964
X99.088 Y78.019
X98.7 Y78.045
X98.301 Y78.039
X97.891 Y78
X97.482 Y77.928
X97.124 Y77.834
X96.765 Y77.709
X96.463 Y77.576
X96.158 Y77.41
X95.899 Y77.242
X95.649 Y77.049
X95.596 Y77.001
X95.399 Y76.783
X95.249 Y76.53
X95.152 Y76.253
X95.112 Y75.961
X95.129 Y75.668
X95.205 Y75.384
X95.335 Y75.12
X95.416 Y74.991
X95.537 Y74.784
X95.594 Y74.684
X95.651 Y74.577
X96.105 Y73.651
G3 X96.94 Y73.378 Z-0.805 I0.56 J0.299
G1 X96.965 Y73.389 Z-0.8
X101.56 Y75.595
X101.561
X101.626 Y75.632 Z-0.815
X101.687 Y75.676 Z-0.83
X101.743 Y75.727 Z-0.846
G3 X101.859 Y76.441 Z-1 I-0.457 J0.441 F150
G1 X100.996 Y78.098 F300
X100.918 Y78.232
X100.812 Y78.383
X100.687 Y78.535
X100.535 Y78.691
X100.356 Y78.848
X100.154 Y78.998
X99.915 Y79.148
X99.657 Y79.282
X99.363 Y79.405
X99.038 Y79.512
X98.697 Y79.595
X98.333 Y79.652
X97.95 Y79.682
X97.55 Y79.68
X97.143 Y79.646
X96.733 Y79.578
X96.358 Y79.485
X95.991 Y79.361
X95.676 Y79.226
X95.366 Y79.062
X95.1 Y78.893
X94.841 Y78.697
X94.618 Y78.499
X94.573 Y78.452
X94.375 Y78.194
X94.238 Y77.898
X94.169 Y77.58
X94.171 Y77.255
X94.245 Y76.937
X94.385 Y76.644
X95.335 Y75.12
G3 X96.152 Y74.911 Z-0.815 I0.527 J0.355
G1 X96.218 Y74.944 Z-0.8
X100.697 Y77.252
X100.714 Y77.261 Z-0.804
X100.774 Y77.296 Z-0.818
X100.829 Y77.337 Z-0.832
X100.88 Y77.384 Z-0.846
G3 X100.996 Y78.098 Z-1 I-0.457 J0.441 F150
G1 X100.888 Y78.306 F300
X100.766 Y78.513
X100.516 Y78.927
X100.388 Y79.134
X99.94 Y79.837
X99.789 Y80.049
X99.667 Y80.195
X99.523 Y80.342
X99.353 Y80.488
X99.153 Y80.635
X98.932 Y80.771
X98.672 Y80.903
X98.393 Y81.018
X98.086 Y81.117
X97.746 Y81.197
X97.388 Y81.251
X97.017 Y81.277
X96.63 Y81.273
X96.234 Y81.236
X95.83 Y81.167
X95.429 Y81.063
X95.075 Y80.941
X94.722 Y80.787
X94.427 Y80.629
X94.137 Y80.441
X93.886 Y80.249
X93.656 Y80.041
X93.599 Y79.981
X93.4 Y79.717
X93.265 Y79.416
X93.2 Y79.092
X93.209 Y78.761
X93.29 Y78.441
X93.441 Y78.147
X93.525 Y78.019
X93.608 Y77.891
X94.385 Y76.644
G3 X95.223 Y76.445 Z-0.81 I0.527 J0.354
G1 X95.267 Y76.469 Z-0.8
X99.704 Y78.961
X99.716 Y78.968
X99.779 Y79.01 Z-0.815
X99.836 Y79.059 Z-0.83
X99.887 Y79.115 Z-0.846
G3 X99.94 Y79.837 Z-1 I-0.494 J0.399 F150
G1 X98.905 Y81.461 F300
X98.77 Y81.651
X98.654 Y81.789
X98.513 Y81.933
X98.351 Y82.073
X98.156 Y82.215
X97.943 Y82.346
X97.693 Y82.474
X97.42 Y82.586
X97.121 Y82.682
X96.79 Y82.76
X96.437 Y82.813
X96.07 Y82.839
X95.688 Y82.835
X95.291 Y82.799
X94.889 Y82.729
X94.486 Y82.625
X94.126 Y82.501
X93.77 Y82.346
X93.467 Y82.183
X93.179 Y81.997
X92.921 Y81.799
X92.695 Y81.596
X92.477 Y81.365
X92.442 Y81.321
X92.266 Y81.043
X92.155 Y80.733
X92.116 Y80.407
X92.15 Y80.079
X92.255 Y79.768
X92.426 Y79.487
X93.179 Y78.513
X93.318 Y78.332
X93.441 Y78.147
G3 X94.283 Y77.97 Z-0.81 I0.517 J0.369
G1 X94.327 Y77.996 Z-0.8
X98.681 Y80.591
X98.683 Y80.593 Z-0.801
X98.745 Y80.635 Z-0.816
X98.802 Y80.684 Z-0.831
X98.852 Y80.739 Z-0.846
G3 X98.905 Y81.461 Z-1 I-0.494 J0.399 F150
G1 X98.699 Y81.785 F300
X98.671 Y81.827
X98.215 Y82.449
X98.059 Y82.656
X97.664 Y83.171
X97.502 Y83.361
X97.367 Y83.497
X97.211 Y83.63
X97.027 Y83.762
X96.815 Y83.891
X96.582 Y84.007
X96.311 Y84.117
X96.023 Y84.207
X95.708 Y84.279
X95.362 Y84.329
X95.001 Y84.352
X94.629 Y84.345
X94.245 Y84.308
X93.852 Y84.237
X93.458 Y84.133
X93.066 Y83.995
X92.725 Y83.843
X92.388 Y83.659
X92.107 Y83.475
X91.835 Y83.264
X91.601 Y83.049
X91.392 Y82.825
X91.328 Y82.745
X91.154 Y82.467
X91.046 Y82.158
X91.008 Y81.833
X91.042 Y81.507
X91.148 Y81.197
X91.318 Y80.918
X92.426 Y79.487
G3 X93.274 Y79.369 Z-0.812 I0.488 J0.406
G1 X93.321 Y79.402 Z-0.8
X97.507 Y82.279
X97.516 Y82.286
X97.575 Y82.333 Z-0.815
X97.627 Y82.387 Z-0.83
X97.673 Y82.447 Z-0.846
G3 X97.664 Y83.171 Z-1 I-0.527 J0.355 F150
G1 X96.629 Y84.52 F300
X96.468 Y84.728
X96.336 Y84.881
X96.208 Y85.008
X96.051 Y85.14
X95.877 Y85.264
X95.668 Y85.389
X95.442 Y85.5
X95.181 Y85.604
X94.895 Y85.692
X94.588 Y85.76
X94.25 Y85.806
X93.891 Y85.827
X93.521 Y85.818
X93.141 Y85.778
X92.75 Y85.705
X92.355 Y85.599
X91.964 Y85.458
X91.616 Y85.3
X91.274 Y85.111
X90.989 Y84.922
X90.716 Y84.707
X90.48 Y84.488
X90.271 Y84.261
X90.077 Y84.013
X90.071 Y84.004
X89.92 Y83.709
X89.839 Y83.388
X89.832 Y83.057
X89.898 Y82.733
X90.034 Y82.431
X90.234 Y82.167
X90.628 Y81.753
X90.835 Y81.529
X90.931 Y81.413
X91.29 Y80.954
X91.318 Y80.918
G3 X92.181 Y80.811 Z-0.808 I0.488 J0.406
G1 X92.213 Y80.834 Z-0.8
X96.324 Y83.842
X96.328 Y83.844 Z-0.801
X96.385 Y83.891 Z-0.816
X96.436 Y83.945 Z-0.831
X96.481 Y84.004 Z-0.846
G3 X96.468 Y84.728 Z-1 I-0.528 J0.353 F150
G1 X96.146 Y85.142 F300
X96.008 Y85.318
X95.031 Y86.385
X94.924 Y86.49
X94.772 Y86.614
X94.599 Y86.733
X94.399 Y86.848
X94.17 Y86.957
X93.923 Y87.051
X93.637 Y87.133
X93.335 Y87.195
X93.011 Y87.234
X92.657 Y87.249
X92.289 Y87.234
X91.914 Y87.189
X91.532 Y87.111
X91.146 Y87
X90.762 Y86.855
X90.386 Y86.677
X90.069 Y86.495
X89.758 Y86.281
X89.504 Y86.075
X89.255 Y85.837
X89.049 Y85.606
X88.863 Y85.359
X88.818 Y85.288
X88.674 Y84.995
X88.597 Y84.677
X88.593 Y84.35
X88.66 Y84.03
X88.796 Y83.732
X88.994 Y83.472
X90.234 Y82.167
G3 X91.094 Y82.141 Z-0.81 I0.445 J0.453
G1 X91.133 Y82.174 Z-0.8
X94.961 Y85.49
X94.964 Y85.492 Z-0.801
X95.017 Y85.544 Z-0.816
X95.064 Y85.602 Z-0.831
X95.103 Y85.665 Z-0.846
G3 X95.031 Y86.385 Z-1 I-0.555 J0.308 F150
G1 X93.804 Y87.724 F300
X93.654 Y87.872
X93.511 Y87.992
X93.352 Y88.105
X93.163 Y88.218
X92.951 Y88.322
X92.715 Y88.416
X92.446 Y88.498
X92.162 Y88.56
X91.843 Y88.604
X91.503 Y88.623
X91.153 Y88.615
X90.785 Y88.576
X90.407 Y88.505
X90.021 Y88.4
X89.638 Y88.262
X89.261 Y88.091
X88.92 Y87.902
X88.6 Y87.689
X88.321 Y87.469
X88.073 Y87.239
X87.847 Y86.994
X87.661 Y86.755
X87.555 Y86.593
X87.415 Y86.325
X87.332 Y86.034
X87.311 Y85.732
X87.352 Y85.432
X87.452 Y85.146
X87.609 Y84.887
X87.814 Y84.665
X87.979 Y84.52
X88.144 Y84.365
X88.994 Y83.472
G3 X89.856 Y83.447 Z-0.81 I0.445 J0.453
G1 X89.893 Y83.479 Z-0.8
X93.734 Y86.829
X93.738 Y86.833 Z-0.801
X93.791 Y86.884 Z-0.816
X93.837 Y86.942 Z-0.831
X93.876 Y87.004 Z-0.846
G3 X93.804 Y87.724 Z-1 I-0.555 J0.308 F150
G1 X93.512 Y88.042 F300
X93.313 Y88.249
X93.103 Y88.456
X92.283 Y89.208
X92.122 Y89.342
X91.963 Y89.453
X91.786 Y89.557
X91.58 Y89.657
X91.349 Y89.747
X91.098 Y89.822
X90.81 Y89.883
X90.51 Y89.922
X90.185 Y89.938
X89.833 Y89.927
X89.472 Y89.886
X89.105 Y89.815
X88.73 Y89.71
X88.352 Y89.571
X87.98 Y89.399
X87.636 Y89.205
X87.307 Y88.983
X87.036 Y88.766
X86.775 Y88.521
X86.562 Y88.286
X86.362 Y88.025
X86.197 Y87.772
X86.133 Y87.652
X86.008 Y87.342
X85.956 Y87.012
X85.98 Y86.679
X86.077 Y86.359
X86.244 Y86.069
X86.471 Y85.824
X87.524 Y84.921
X87.814 Y84.665
G3 X88.664 Y84.706 Z-0.813 I0.402 J0.492
G1 X88.71 Y84.752 Z-0.8
X92.286 Y88.305
X92.291 Y88.31
X92.341 Y88.367 Z-0.815
X92.384 Y88.43 Z-0.83
X92.418 Y88.497 Z-0.846
G3 X92.283 Y89.208 Z-1 I-0.58 J0.258 F150
G1 X90.843 Y90.528 F300
X90.717 Y90.633
X90.567 Y90.737
X90.393 Y90.84
X90.199 Y90.933
X89.973 Y91.021
X89.733 Y91.093
X89.456 Y91.152
X89.163 Y91.19
X88.85 Y91.205
X88.507 Y91.195
X88.154 Y91.155
X87.795 Y91.085
X87.426 Y90.982
X87.055 Y90.846
X86.685 Y90.675
X86.325 Y90.472
X86.002 Y90.254
X85.696 Y90.009
X85.44 Y89.768
X85.21 Y89.514
X85.007 Y89.251
X84.842 Y88.996
X84.754 Y88.833
X84.629 Y88.522
X84.577 Y88.191
X84.601 Y87.856
X84.7 Y87.536
X84.869 Y87.246
X85.098 Y87.001
X85.454 Y86.698
X86.471 Y85.824
G3 X87.331 Y85.885 Z-0.81 I0.397 J0.496
G1 X87.365 Y85.922 Z-0.8
X90.851 Y89.63
X90.86 Y89.64 Z-0.803
X90.906 Y89.695 Z-0.817
X90.945 Y89.754 Z-0.831
X90.978 Y89.817 Z-0.846
G3 X90.843 Y90.528 Z-1 I-0.58 J0.258 F150
G1 X90.39 Y90.942 F300
X89.8 Y91.412
X89.593 Y91.574
X89.179 Y91.892
X89.056 Y91.977
X88.886 Y92.074
X88.697 Y92.162
X88.482 Y92.242
X88.24 Y92.31
X87.981 Y92.361
X87.688 Y92.395
X87.381 Y92.406
X87.056 Y92.391
X86.705 Y92.347
X86.345 Y92.271
X85.983 Y92.165
X85.619 Y92.025
X85.255 Y91.85
X84.9 Y91.643
X84.58 Y91.42
X84.274 Y91.168
X84.024 Y90.926
X83.793 Y90.664
X83.596 Y90.4
X83.433 Y90.14
X83.284 Y89.856
X83.243 Y89.759
X83.149 Y89.437
X83.129 Y89.102
X83.185 Y88.771
X83.314 Y88.461
X83.509 Y88.188
X83.762 Y87.966
X84.626 Y87.364
X84.838 Y87.214
X85.04 Y87.05
X85.098 Y87.001
G3 X85.978 Y87.09 Z-0.804 I0.394 J0.498
G1 X85.99 Y87.104 Z-0.8
X89.261 Y90.993
X89.266 Y90.998
X89.31 Y91.06 Z-0.815
X89.347 Y91.125 Z-0.83
X89.376 Y91.195 Z-0.846
G3 X89.179 Y91.892 Z-1 I-0.6 J0.207 F150
G1 X87.731 Y93.003 F300
X87.549 Y93.129
X87.388 Y93.222
X87.209 Y93.307
X87.005 Y93.384
X86.775 Y93.451
X86.528 Y93.502
X86.247 Y93.537
X85.955 Y93.549
X85.639 Y93.537
X85.299 Y93.496
X84.952 Y93.427
X84.601 Y93.326
X84.242 Y93.191
X83.883 Y93.022
X83.531 Y92.82
X83.189 Y92.586
X82.888 Y92.342
X82.607 Y92.074
X82.371 Y91.81
X82.167 Y91.541
X81.987 Y91.258
X81.846 Y90.993
X81.717 Y90.694
X81.647 Y90.384
X81.646 Y90.066
X81.712 Y89.755
X81.843 Y89.465
X82.033 Y89.21
X82.273 Y89.002
X83.762 Y87.966
G3 X84.601 Y88.102 Z-0.813 I0.344 J0.534
G1 X84.642 Y88.152 Z-0.8
X87.817 Y92.11
X87.822 Y92.116 Z-0.802
X87.864 Y92.175 Z-0.816
X87.899 Y92.239 Z-0.831
X87.927 Y92.307 Z-0.846
G3 X87.731 Y93.003 Z-1 I-0.6 J0.207 F150
G1 X87.524 Y93.161 F300
X86.903 Y93.625
X86.887 Y93.635
X85.912 Y94.257
X85.782 Y94.331
X85.603 Y94.412
X85.405 Y94.484
X85.183 Y94.544
X84.934 Y94.591
X84.671 Y94.618
X84.374 Y94.626
X84.066 Y94.609
X83.742 Y94.564
X83.396 Y94.488
X83.043 Y94.38
X82.691 Y94.241
X82.341 Y94.068
X81.995 Y93.862
X81.66 Y93.624
X81.34 Y93.355
X81.079 Y93.097
X80.834 Y92.814
X80.641 Y92.549
X80.461 Y92.256
X80.323 Y91.984
X80.202 Y91.69
X80.183 Y91.631
X80.122 Y91.348
X80.118 Y91.057
X80.17 Y90.772
X80.277 Y90.502
X80.434 Y90.258
X80.636 Y90.049
X80.875 Y89.884
X81.315 Y89.64
X81.522 Y89.509
X81.936 Y89.234
X82.164 Y89.078
X82.273 Y89.002
G3 X83.138 Y89.171 Z-0.805 I0.344 J0.534
G1 X83.151 Y89.19 Z-0.8
X86.073 Y93.37
X86.076 Y93.374
X86.115 Y93.439 Z-0.815
X86.146 Y93.508 Z-0.83
X86.169 Y93.58 Z-0.846
G3 X85.912 Y94.257 Z-1 I-0.616 J0.153 F150
G1 X84.286 Y95.293 F300
X84.156 Y95.367
X83.985 Y95.443
X83.791 Y95.512
X83.578 Y95.568
X83.335 Y95.612
X83.08 Y95.637
X82.792 Y95.642
X82.492 Y95.623
X82.173 Y95.577
X81.836 Y95.5
X81.49 Y95.391
X81.145 Y95.252
X80.801 Y95.079
X80.458 Y94.871
X80.127 Y94.632
X79.81 Y94.362
X79.542 Y94.093
X79.294 Y93.802
X79.097 Y93.528
X78.918 Y93.231
X78.779 Y92.953
X78.658 Y92.653
X78.608 Y92.494
X78.545 Y92.163
X78.558 Y91.826
X78.647 Y91.501
X78.807 Y91.205
X79.029 Y90.952
X79.303 Y90.757
X80.875 Y89.884
G3 X81.699 Y90.108 Z-0.812 I0.289 J0.566
G1 X81.732 Y90.159 Z-0.8
X84.451 Y94.41
X84.462 Y94.427 Z-0.804
X84.496 Y94.487 Z-0.818
X84.523 Y94.55 Z-0.832
X84.543 Y94.616 Z-0.846
G3 X84.286 Y95.293 Z-1 I-0.616 J0.153 F150
G1 X83.592 Y95.735 F300
X83.385 Y95.85
X82.557 Y96.28
X82.336 Y96.382
X82.152 Y96.449
X81.954 Y96.503
X81.725 Y96.547
X81.484 Y96.574
X81.213 Y96.581
X80.925 Y96.566
X80.622 Y96.526
X80.297 Y96.455
X79.964 Y96.355
X79.629 Y96.224
X79.29 Y96.058
X78.952 Y95.858
X78.623 Y95.626
X78.306 Y95.362
X78.021 Y95.083
X77.765 Y94.788
X77.548 Y94.493
X77.37 Y94.206
X77.212 Y93.899
X77.096 Y93.618
X76.995 Y93.308
X76.984 Y93.26
X76.945 Y92.971
X76.962 Y92.68
X77.037 Y92.398
X77.165 Y92.136
X77.341 Y91.904
X77.56 Y91.711
X77.812 Y91.564
X78.004 Y91.476
X78.625 Y91.133
X79.303 Y90.757
G3 X80.136 Y90.995 Z-0.809 I0.289 J0.566
G1 X80.159 Y91.032 Z-0.8
X82.788 Y95.4
X82.797 Y95.416
X82.83 Y95.483 Z-0.815
X82.855 Y95.555 Z-0.83
X82.871 Y95.629 Z-0.846
G3 X82.557 Y96.28 Z-1 I-0.627 J0.099 F150
G1 X80.872 Y97.157 F300
X80.636 Y97.266
X80.464 Y97.328
X80.27 Y97.382
X80.058 Y97.423
X79.816 Y97.449
X79.565 Y97.456
X79.282 Y97.441
X78.989 Y97.402
X78.681 Y97.335
X78.353 Y97.236
X78.02 Y97.106
X77.69 Y96.945
X77.36 Y96.75
X77.034 Y96.52
X76.722 Y96.259
X76.424 Y95.967
X76.176 Y95.682
X75.949 Y95.373
X75.771 Y95.087
X75.612 Y94.777
X75.493 Y94.491
X75.393 Y94.182
X75.326 Y93.899
X75.319 Y93.851
X75.305 Y93.526
X75.362 Y93.206
X75.487 Y92.907
X75.675 Y92.642
X75.916 Y92.424
X76.199 Y92.264
X77.346 Y91.771
X77.812 Y91.564
G3 X78.602 Y91.841 Z-0.816 I0.237 J0.589
G1 X78.643 Y91.912 Z-0.8
X81.113 Y96.292
Y96.293
X81.146 Y96.36 Z-0.815
X81.171 Y96.432 Z-0.83
X81.187 Y96.505 Z-0.846
G3 X80.872 Y97.157 Z-1 I-0.627 J0.099 F150
G1 X80.074 Y97.573 F300
X79.867 Y97.676
X79.246 Y97.935
X78.832 Y98.107
X78.691 Y98.157
X78.498 Y98.206
X78.288 Y98.241
X78.055 Y98.261
X77.799 Y98.263
X77.532 Y98.243
X77.235 Y98.196
X76.932 Y98.124
X76.619 Y98.022
X76.292 Y97.885
X75.963 Y97.715
X75.64 Y97.515
X75.326 Y97.282
X75.025 Y97.019
X74.738 Y96.725
X74.474 Y96.408
X74.262 Y96.106
X74.071 Y95.781
X73.927 Y95.486
X73.802 Y95.163
X73.714 Y94.869
X73.647 Y94.56
X73.644 Y94.532
X73.637 Y94.21
X73.7 Y93.893
X73.83 Y93.598
X74.021 Y93.338
X74.264 Y93.125
X74.547 Y92.97
X74.693 Y92.91
X76.199 Y92.264
G3 X77.006 Y92.591 Z-0.807 I0.23 J0.592
G1 X77.021 Y92.625 Z-0.8
X79.146 Y97.264
X79.147 Y97.266
X79.174 Y97.336 Z-0.815
X79.192 Y97.41 Z-0.83
X79.202 Y97.485 Z-0.846
G3 X78.832 Y98.107 Z-1 I-0.633 J0.044 F150
G1 X77.176 Y98.792 F300
X76.941 Y98.876
X76.76 Y98.925
X76.567 Y98.961
X76.347 Y98.983
X76.111 Y98.988
X75.856 Y98.973
X75.576 Y98.934
X75.292 Y98.87
X74.984 Y98.775
X74.668 Y98.649
X74.354 Y98.493
X74.035 Y98.302
X73.722 Y98.077
X73.415 Y97.818
X73.125 Y97.53
X72.855 Y97.215
X72.631 Y96.906
X72.433 Y96.58
X72.277 Y96.272
X72.149 Y95.959
X72.051 Y95.649
X71.983 Y95.354
X71.937 Y95.041
X71.936 Y95.026
X71.951 Y94.698
X72.038 Y94.381
X72.192 Y94.092
X72.407 Y93.843
X72.671 Y93.648
X72.971 Y93.515
X73.908 Y93.221
X74.486 Y92.995
X74.547 Y92.97
G3 X75.345 Y93.299 Z-0.809 I0.222 J0.595
G1 X75.365 Y93.342 Z-0.8
X77.49 Y97.949
X77.491 Y97.952
X77.518 Y98.022 Z-0.815
X77.537 Y98.096 Z-0.83
X77.546 Y98.171 Z-0.846
G3 X77.176 Y98.792 Z-1 I-0.633 J0.044 F150
G1 X76.349 Y99.135 F300
X76.119 Y99.229
X75.935 Y99.291
X75.107 Y99.552
X74.962 Y99.589
X74.767 Y99.624
X74.561 Y99.643
X74.327 Y99.647
X74.079 Y99.63
X73.814 Y99.591
X73.525 Y99.524
X73.234 Y99.432
X72.929 Y99.307
X72.613 Y99.147
X72.301 Y98.957
X71.998 Y98.736
X71.702 Y98.482
X71.418 Y98.196
X71.154 Y97.883
X70.911 Y97.543
X70.722 Y97.228
X70.553 Y96.887
X70.43 Y96.58
X70.329 Y96.252
X70.261 Y95.946
X70.219 Y95.642
X70.214 Y95.555
X70.231 Y95.229
X70.319 Y94.915
X70.473 Y94.627
X70.687 Y94.381
X70.95 Y94.187
X71.249 Y94.055
X72.971 Y93.515
G3 X73.737 Y93.91 Z-0.81 I0.169 J0.612
G1 X73.754 Y93.957 Z-0.8
X75.492 Y98.736
X75.494 Y98.742
X75.515 Y98.814 Z-0.815
X75.527 Y98.889 Z-0.83
X75.53 Y98.964 Z-0.846
G3 X75.107 Y99.552 Z-1 I-0.635 J-0.011 F150
G1 X73.244 Y100.139 F300
X73.099 Y100.177
X72.917 Y100.206
X72.71 Y100.223
X72.492 Y100.224
X72.246 Y100.204
X71.993 Y100.163
X71.716 Y100.096
X71.428 Y100
X71.134 Y99.876
X70.829 Y99.717
X70.521 Y99.523
X70.222 Y99.299
X69.934 Y99.046
X69.656 Y98.758
X69.396 Y98.443
X69.158 Y98.101
X68.968 Y97.775
X68.801 Y97.426
X68.68 Y97.112
X68.582 Y96.777
X68.517 Y96.467
X68.478 Y96.158
X68.471 Y96.016
X68.488 Y95.718
X68.564 Y95.429
X68.696 Y95.161
X68.88 Y94.926
X69.107 Y94.731
X69.368 Y94.587
X69.653 Y94.497
X69.815 Y94.464
X69.933 Y94.436
X70.347 Y94.329
X70.554 Y94.274
X71.249 Y94.055
G3 X72.021 Y94.468 Z-0.806 I0.169 J0.612
G1 X72.031 Y94.498 Z-0.8
X73.631 Y99.329
X73.635 Y99.34 Z-0.802
X73.654 Y99.409 Z-0.817
X73.665 Y99.48 Z-0.831
X73.667 Y99.551 Z-0.846
G3 X73.244 Y100.139 Z-1 I-0.635 J-0.011 F150
G1 X72.417 Y100.4 F300
X72.21 Y100.463
X71.589 Y100.605
X71.255 Y100.679
X71.088 Y100.707
X70.891 Y100.725
X70.684 Y100.726
X70.449 Y100.709
X70.208 Y100.672
X69.942 Y100.609
X69.665 Y100.519
X69.382 Y100.401
X69.085 Y100.248
X68.786 Y100.063
X68.495 Y99.848
X68.21 Y99.601
X67.933 Y99.318
X67.674 Y99.007
X67.436 Y98.67
X67.236 Y98.331
X67.064 Y97.978
X66.937 Y97.653
X66.835 Y97.314
X66.767 Y97.001
X66.724 Y96.678
X66.708 Y96.376
X66.712 Y96.268
X66.758 Y95.941
X66.875 Y95.632
X67.058 Y95.358
X67.297 Y95.13
X67.58 Y94.961
X67.894 Y94.859
X69.653 Y94.497
G3 X70.372 Y94.958 Z-0.812 I0.106 J0.626
G1 X70.388 Y95.016 Z-0.8
X71.709 Y99.898
X71.711 Y99.906
X71.726 Y99.98 Z-0.815
X71.731 Y100.055 Z-0.83
X71.728 Y100.131 Z-0.846
G3 X71.255 Y100.679 Z-1 I-0.632 J-0.067 F150
G1 X69.387 Y101.093 F300
X69.207 Y101.124
X69.024 Y101.14
X68.822 Y101.141
X68.605 Y101.126
X68.365 Y101.089
X68.119 Y101.03
X67.848 Y100.942
X67.575 Y100.828
X67.294 Y100.684
X67.001 Y100.503
X66.714 Y100.291
X66.437 Y100.05
X66.169 Y99.776
X65.915 Y99.471
X65.68 Y99.138
X65.469 Y98.782
X65.301 Y98.436
X65.159 Y98.073
X65.059 Y97.741
X64.986 Y97.405
X64.943 Y97.081
X64.927 Y96.776
X64.932 Y96.617
X64.97 Y96.324
X65.065 Y96.044
X65.213 Y95.789
X65.41 Y95.569
X65.646 Y95.391
X65.913 Y95.264
X66.199 Y95.193
X66.415 Y95.162
X66.622 Y95.12
X67.894 Y94.859
G3 X68.617 Y95.333 Z-0.809 I0.106 J0.626
G1 X68.628 Y95.378 Z-0.8
X69.843 Y100.32
X69.845 Y100.327 Z-0.801
X69.858 Y100.399 Z-0.816
X69.863 Y100.472 Z-0.831
X69.859 Y100.545 Z-0.846
G3 X69.387 Y101.093 Z-1 I-0.632 J-0.067 F150
G1 X68.453 Y101.3 F300
X68.278 Y101.338
X68.071 Y101.374
X67.864 Y101.403
X67.336 Y101.473
X67.136 Y101.489
X66.937
X66.731 Y101.472
X66.499 Y101.435
X66.258 Y101.376
X66.004 Y101.291
X65.73 Y101.175
X65.46 Y101.034
X65.18 Y100.858
X64.896 Y100.645
X64.621 Y100.403
X64.36 Y100.132
X64.11 Y99.828
X63.879 Y99.496
X63.672 Y99.139
X63.503 Y98.786
X63.362 Y98.418
X63.264 Y98.087
X63.192 Y97.739
X63.153 Y97.427
X63.138 Y97.098
X63.148 Y96.802
X63.161 Y96.689
X63.237 Y96.364
X63.383 Y96.064
X63.593 Y95.805
X63.856 Y95.599
X64.157 Y95.457
X64.483 Y95.386
X65.587 Y95.274
X65.794 Y95.252
X66.199 Y95.193
G3 X66.893 Y95.705 Z-0.81 I0.069 J0.631
G1 X66.902 Y95.754 Z-0.8
X67.855 Y100.727
X67.858 Y100.742
X67.866 Y100.817 Z-0.815
X67.865 Y100.893 Z-0.83
X67.855 Y100.968 Z-0.846
G3 X67.336 Y101.473 Z-1 I-0.623 J-0.121 F150
G1 X65.381 Y101.73 F300
X65.226 Y101.742
X65.041
X64.84 Y101.726
X64.625 Y101.692
X64.388 Y101.634
X64.148 Y101.554
X63.886 Y101.442
X63.623 Y101.305
X63.355 Y101.137
X63.08 Y100.93
X62.812 Y100.694
X62.557 Y100.431
X62.314 Y100.134
X62.088 Y99.809
X61.883 Y99.457
X61.705 Y99.084
X61.567 Y98.725
X61.457 Y98.351
X61.386 Y98.011
X61.344 Y97.672
X61.329 Y97.343
X61.34 Y97.041
X61.359 Y96.872
X61.435 Y96.547
X61.581 Y96.247
X61.791 Y95.988
X62.053 Y95.782
X62.355 Y95.64
X62.681 Y95.569
X64.483 Y95.386
G3 X65.154 Y95.927 Z-0.81 I0.042 J0.634
G1 X65.161 Y95.977 Z-0.8
X65.902 Y100.999
X65.904 Y101.011 Z-0.802
X65.91 Y101.082 Z-0.817
X65.909 Y101.154 Z-0.831
X65.899 Y101.225 Z-0.846
G3 X65.381 Y101.73 Z-1 I-0.623 J-0.121 F150
G1 X64.553 Y101.839 F300
X63.932 Y101.9
X63.725 Y101.915
X63.311 Y101.933
X63.134 Y101.931
X62.935 Y101.914
X62.73 Y101.88
X62.503 Y101.822
X62.268 Y101.742
X62.02 Y101.635
X61.758 Y101.496
X61.501 Y101.331
X61.237 Y101.131
X60.972 Y100.894
X60.719 Y100.629
X60.482 Y100.336
X60.26 Y100.011
X60.058 Y99.659
X59.883 Y99.286
X59.745 Y98.919
X59.636 Y98.539
X59.567 Y98.194
X59.526 Y97.849
X59.513 Y97.518
X59.526 Y97.212
X59.566 Y96.892
X59.582 Y96.815
X59.687 Y96.495
X59.862 Y96.207
X60.097 Y95.965
X60.381 Y95.784
X60.698 Y95.671
X61.033 Y95.632
X61.656
X61.862 Y95.625
X62.276 Y95.605
X62.483 Y95.589
X62.681 Y95.569
G3 X63.355 Y96.136 Z-0.805 I0.042 J0.634
G1 X63.357 Y96.16 Z-0.8
X63.893 Y101.233
X63.894 Y101.25
X63.896 Y101.326 Z-0.815
X63.888 Y101.401 Z-0.83
X63.872 Y101.475 Z-0.846
G3 X63.311 Y101.933 Z-1 I-0.61 J-0.175 F150
G1 X61.449 Y102.014 F300
X61.202 Y102.012
X61.019 Y101.996
X60.819 Y101.963
X60.608 Y101.909
X60.378 Y101.831
X60.146 Y101.731
X59.894 Y101.597
X59.645 Y101.437
X59.393 Y101.246
X59.136 Y101.017
X58.89 Y100.758
X58.659 Y100.473
X58.442 Y100.156
X58.245 Y99.811
X58.072 Y99.443
X57.926 Y99.054
X57.821 Y98.689
X57.745 Y98.309
X57.704 Y97.967
X57.691 Y97.628
X57.705 Y97.3
X57.742 Y97.002
X57.78 Y96.815
X57.885 Y96.495
X58.06 Y96.207
X58.296 Y95.965
X58.579 Y95.784
X58.897 Y95.671
X59.232 Y95.632
X61.033
G3 X61.644 Y96.219 Z-0.814 I-0.022 J0.635
G1 X61.649 Y96.288 Z-0.8
X62.032 Y101.331
Y101.333
X62.033 Y101.408 Z-0.815
X62.026 Y101.483 Z-0.83
X62.009 Y101.556 Z-0.846
G3 X61.449 Y102.014 Z-1 I-0.61 J-0.175 F150
G1 X60.414 Y102.059 F300
X60.207 Y102.061
X59.793
X59.586 Y102.059
X59.379 Y102.05
X59.107 Y102.024
X58.91 Y101.99
X58.709 Y101.938
X58.486 Y101.86
X58.259 Y101.76
X58.021 Y101.632
X57.772 Y101.47
X57.529 Y101.283
X57.283 Y101.06
X57.04 Y100.801
X56.812 Y100.515
X56.601 Y100.202
X56.408 Y99.86
X56.238 Y99.493
X56.096 Y99.107
X55.99 Y98.726
X55.914 Y98.336
X55.875 Y97.983
X55.864 Y97.637
X55.881 Y97.303
X55.92 Y97
X55.988 Y96.683
X56 Y96.644
X56.131 Y96.336
X56.328 Y96.065
X56.581 Y95.846
X56.877 Y95.689
X57.2 Y95.602
X57.535 Y95.591
X57.724 Y95.605
X58.138 Y95.625
X58.344 Y95.632
X59.232
G3 X59.844 Y96.245 Z-0.809 I-0.022 J0.635
G1 X59.846 Y96.288 Z-0.8
X60.019 Y101.393
X60.02 Y101.421
X60.014 Y101.496 Z-0.815
X60 Y101.571 Z-0.83
X59.977 Y101.643 Z-0.846
G3 X59.379 Y102.05 Z-1 I-0.593 J-0.228 F150
G1 X57.31 Y101.96 F300
X57.16 Y101.946
X56.977 Y101.912
X56.778 Y101.858
X56.572 Y101.784
X56.346 Y101.682
X56.123 Y101.559
X55.883 Y101.4
X55.646 Y101.214
X55.412 Y100.998
X55.177 Y100.743
X54.954 Y100.458
X54.749 Y100.148
X54.563 Y99.811
X54.398 Y99.446
X54.261 Y99.062
X54.153 Y98.659
X54.085 Y98.294
X54.046 Y97.912
X54.039 Y97.579
X54.059 Y97.236
X54.103 Y96.921
X54.169 Y96.625
X54.223 Y96.45
X54.335 Y96.183
X54.497 Y95.942
X54.703 Y95.738
X54.945 Y95.578
X55.214 Y95.468
X55.498 Y95.412
X55.788 Y95.413
X57.535 Y95.591
G3 X58.098 Y96.24 Z-0.811 I-0.072 J0.631
G1 X58.097 Y96.293 Z-0.8
X57.95 Y101.331
Y101.343 Z-0.802
X57.944 Y101.414 Z-0.817
X57.93 Y101.484 Z-0.831
X57.908 Y101.552 Z-0.846
G3 X57.31 Y101.96 Z-1 I-0.593 J-0.228 F150
G1 X56.275 Y101.915 F300
X56.068 Y101.9
X55.447 Y101.839
X55.24 Y101.812
X55.09 Y101.784
X54.897 Y101.732
X54.7 Y101.662
X54.482 Y101.565
X54.266 Y101.446
X54.036 Y101.295
X53.805 Y101.114
X53.577 Y100.904
X53.349 Y100.658
X53.13 Y100.38
X52.928 Y100.077
X52.745 Y99.747
X52.582 Y99.387
X52.445 Y99.006
X52.337 Y98.609
X52.264 Y98.218
X52.223 Y97.823
X52.214 Y97.472
X52.234 Y97.114
X52.278 Y96.797
X52.349 Y96.474
X52.437 Y96.188
X52.453 Y96.148
X52.608 Y95.857
X52.823 Y95.608
X53.088 Y95.412
X53.39 Y95.28
X53.714 Y95.217
X54.043 Y95.228
X54.206 Y95.252
X55.033 Y95.337
X55.788 Y95.413
G3 X56.335 Y96.092 Z-0.807 I-0.086 J0.629
G1 X56.332 Y96.128 Z-0.8
X55.934 Y101.229
X55.933 Y101.241
X55.921 Y101.315 Z-0.815
X55.901 Y101.388 Z-0.83
X55.872 Y101.458 Z-0.846
G3 X55.24 Y101.812 Z-1 I-0.571 J-0.278 F150
G1 X53.378 Y101.566 F300
X53.167 Y101.528
X52.988 Y101.48
X52.798 Y101.412
X52.598 Y101.323
X52.385 Y101.206
X52.173 Y101.066
X51.948 Y100.891
X51.73 Y100.69
X51.515 Y100.457
X51.301 Y100.186
X51.103 Y99.888
X50.924 Y99.566
X50.765 Y99.214
X50.63 Y98.839
X50.522 Y98.443
X50.446 Y98.034
X50.407 Y97.663
X50.398 Y97.279
X50.417 Y96.943
X50.463 Y96.604
X50.532 Y96.291
X50.621 Y96.002
X50.737 Y95.708
X50.912 Y95.435
X51.141 Y95.206
X51.415 Y95.033
X51.72 Y94.923
X52.042 Y94.882
X52.365 Y94.912
X53.378 Y95.12
X53.585 Y95.162
X54.043 Y95.228
G3 X54.562 Y95.914 Z-0.81 I-0.113 J0.625
G1 X54.557 Y95.966 Z-0.8
X54.071 Y100.996
X54.059 Y101.07 Z-0.815
X54.038 Y101.143 Z-0.83
X54.009 Y101.213 Z-0.846
G3 X53.378 Y101.566 Z-1 I-0.571 J-0.279 F150
G1 X52.136 Y101.403 F300
X51.929 Y101.374
X51.722 Y101.338
X51.515 Y101.293
X51.308 Y101.247
X51.105 Y101.192
X50.915 Y101.123
X50.725 Y101.036
X50.518 Y100.92
X50.311 Y100.781
X50.097 Y100.612
X49.878 Y100.408
X49.67 Y100.18
X49.466 Y99.917
X49.27 Y99.619
X49.095 Y99.297
X48.942 Y98.952
X48.811 Y98.582
X48.708 Y98.191
X48.635 Y97.786
X48.595 Y97.37
X48.588 Y97.003
X48.612 Y96.625
X48.659 Y96.3
X48.736 Y95.965
X48.829 Y95.668
X48.945 Y95.381
X48.968 Y95.335
X49.144 Y95.064
X49.373 Y94.837
X49.646 Y94.666
X49.95 Y94.557
X50.27 Y94.517
X50.591 Y94.548
X52.365 Y94.912
G3 X52.843 Y95.627 Z-0.811 I-0.149 J0.617
G1 X52.835 Y95.679 Z-0.8
X52.052 Y100.721
X52.048 Y100.739
X52.03 Y100.813 Z-0.815
X52.003 Y100.883 Z-0.83
X51.968 Y100.95 Z-0.846
G3 X51.308 Y101.247 Z-1 I-0.544 J-0.327 F150
G1 X49.446 Y100.834 F300
X49.208 Y100.769
X49.034 Y100.706
X48.85 Y100.622
X48.659 Y100.515
X48.457 Y100.38
X48.258 Y100.222
X48.049 Y100.028
X47.849 Y99.809
X47.653 Y99.556
X47.464 Y99.267
X47.293 Y98.953
X47.142 Y98.615
X47.015 Y98.252
X46.913 Y97.865
X46.84 Y97.462
X46.8 Y97.048
X46.793 Y96.672
X46.818 Y96.288
X46.866 Y95.954
X46.942 Y95.618
X47.038 Y95.314
X47.154 Y95.028
X47.227 Y94.881
X47.387 Y94.63
X47.594 Y94.415
X47.839 Y94.247
X48.113 Y94.13
X48.405 Y94.071
X48.703 Y94.072
X48.995 Y94.132
X49.446 Y94.274
X49.653 Y94.329
X50.067 Y94.436
X50.185 Y94.464
X50.591 Y94.548
G3 X51.067 Y95.274 Z-0.808 I-0.149 J0.617
G1 X51.06 Y95.314 Z-0.8
X50.187 Y100.319
X50.186 Y100.326
X50.168 Y100.4 Z-0.815
X50.141 Y100.47 Z-0.83
X50.106 Y100.537 Z-0.846
G3 X49.446 Y100.834 Z-1 I-0.544 J-0.327 F150
G1 X48.411 Y100.605 F300
X47.79 Y100.463
X47.583 Y100.4
X47.376 Y100.334
X47.185 Y100.264
X47.002 Y100.178
X46.82 Y100.075
X46.622 Y99.94
X46.428 Y99.784
X46.228 Y99.596
X46.028 Y99.374
X45.84 Y99.128
X45.659 Y98.847
X45.49 Y98.531
X45.343 Y98.195
X45.22 Y97.837
X45.121 Y97.455
X45.052 Y97.055
X45.015 Y96.644
X45.011 Y96.251
X45.039 Y95.856
X45.091 Y95.514
X45.172 Y95.167
X45.269 Y94.866
X45.394 Y94.562
X45.53 Y94.296
X45.571 Y94.229
X45.772 Y93.972
X46.023 Y93.765
X46.314 Y93.618
X46.631 Y93.539
X46.956 Y93.53
X47.276 Y93.593
X48.995 Y94.132
G3 X49.4 Y94.884 Z-0.812 I-0.211 J0.599
G1 X49.386 Y94.942 Z-0.8
X48.162 Y99.875
X48.158 Y99.893
X48.133 Y99.964 Z-0.815
X48.1 Y100.032 Z-0.83
X48.06 Y100.096 Z-0.846
G3 X47.376 Y100.334 Z-1 I-0.514 J-0.373 F150
G1 X45.514 Y99.747 F300
X45.33 Y99.679
X45.161 Y99.6
X44.985 Y99.501
X44.803 Y99.377
X44.613 Y99.224
X44.428 Y99.05
X44.236 Y98.836
X44.056 Y98.601
X43.883 Y98.333
X43.72 Y98.028
X43.577 Y97.7
X43.457 Y97.352
X43.361 Y96.978
X43.293 Y96.586
X43.256 Y96.178
X43.252 Y95.763
X43.278 Y95.385
X43.336 Y95.002
X43.414 Y94.67
X43.52 Y94.342
X43.643 Y94.044
X43.782 Y93.771
X43.855 Y93.654
X44.033 Y93.42
X44.254 Y93.226
X44.509 Y93.079
X44.788 Y92.986
X45.08 Y92.949
X45.374 Y92.972
X45.657 Y93.051
X46.092 Y93.221
X47.276 Y93.593
G3 X47.677 Y94.363 Z-0.808 I-0.211 J0.599
G1 X47.665 Y94.403 Z-0.8
X46.295 Y99.306
X46.271 Y99.377 Z-0.815
X46.238 Y99.445 Z-0.83
X46.197 Y99.509 Z-0.846
G3 X45.514 Y99.747 Z-1 I-0.514 J-0.373 F150
G1 X44.065 Y99.291 F300
X43.881 Y99.229
X43.538 Y99.088
X43.36 Y99.004
X43.185 Y98.904
X43.012 Y98.785
X42.827 Y98.634
X42.647 Y98.463
X42.464 Y98.258
X42.284 Y98.02
X42.118 Y97.759
X41.961 Y97.463
X41.82 Y97.134
X41.702 Y96.787
X41.609 Y96.418
X41.544 Y96.028
X41.509 Y95.622
X41.507 Y95.208
X41.537 Y94.819
X41.597 Y94.431
X41.678 Y94.096
X41.788 Y93.76
X41.91 Y93.469
X42.061 Y93.177
X42.217 Y92.926
X42.274 Y92.849
X42.499 Y92.608
X42.771 Y92.422
X43.078 Y92.301
X43.404 Y92.251
X43.733 Y92.274
X44.049 Y92.37
X45.307 Y92.91
X45.514 Y92.995
X45.657 Y93.051
G3 X46.006 Y93.838 Z-0.81 I-0.252 J0.583
G1 X45.989 Y93.887 Z-0.8
X44.36 Y98.697
X44.354 Y98.715
X44.323 Y98.784 Z-0.815
X44.285 Y98.849 Z-0.83
X44.239 Y98.909 Z-0.846
G3 X43.538 Y99.088 Z-1 I-0.48 J-0.416 F150
G1 X41.789 Y98.364 F300
X41.556 Y98.254
X41.396 Y98.161
X41.229 Y98.046
X41.059 Y97.907
X40.882 Y97.738
X40.713 Y97.548
X40.54 Y97.319
X40.381 Y97.067
X40.233 Y96.786
X40.096 Y96.468
X39.982 Y96.129
X39.893 Y95.772
X39.831 Y95.393
X39.798 Y94.998
X39.796 Y94.59
X39.828 Y94.177
X39.888 Y93.802
X39.979 Y93.425
X40.086 Y93.099
X40.22 Y92.783
X40.369 Y92.495
X40.531 Y92.237
X40.611 Y92.128
X40.838 Y91.886
X41.114 Y91.7
X41.424 Y91.58
X41.753 Y91.532
X42.085 Y91.559
X42.402 Y91.659
X42.654 Y91.771
X44.049 Y92.37
G3 X44.375 Y93.163 Z-0.811 I-0.271 J0.574
G1 X44.355 Y93.215 Z-0.8
X42.608 Y97.987
X42.606 Y97.992
X42.575 Y98.061 Z-0.815
X42.537 Y98.126 Z-0.83
X42.49 Y98.186 Z-0.846
G3 X41.789 Y98.364 Z-1 I-0.479 J-0.417 F150
G1 X40.547 Y97.849 F300
X40.133 Y97.676
X39.924 Y97.572
X39.811 Y97.513
X39.652 Y97.42
X39.486 Y97.304
X39.324 Y97.169
X39.151 Y97.002
X38.987 Y96.814
X38.822 Y96.593
X38.664 Y96.34
X38.521 Y96.065
X38.391 Y95.755
X38.279 Y95.414
X38.192 Y95.056
X38.133 Y94.68
X38.102 Y94.285
X38.104 Y93.877
X38.139 Y93.464
X38.202 Y93.081
X38.297 Y92.7
X38.408 Y92.37
X38.545 Y92.052
X38.698 Y91.762
X38.862 Y91.504
X39.055 Y91.248
X39.101 Y91.196
X39.349 Y90.973
X39.64 Y90.812
X39.96 Y90.72
X40.292 Y90.701
X40.62 Y90.757
X40.928 Y90.885
X41.789 Y91.362
X41.996 Y91.476
X42.203 Y91.57
X42.402 Y91.659
G3 X42.706 Y92.482 Z-0.806 I-0.278 J0.571
G1 X42.695 Y92.507 Z-0.8
X40.667 Y97.192
X40.658 Y97.214
X40.621 Y97.28 Z-0.815
X40.577 Y97.341 Z-0.83
X40.526 Y97.397 Z-0.846
G3 X39.811 Y97.513 Z-1 I-0.441 J-0.457 F150
G1 X38.064 Y96.604 F300
X37.923 Y96.521
X37.769 Y96.414
X37.614 Y96.285
X37.455 Y96.131
X37.294 Y95.948
X37.142 Y95.742
X36.989 Y95.498
X36.853 Y95.235
X36.729 Y94.94
X36.621 Y94.611
X36.536 Y94.263
X36.479 Y93.9
X36.449 Y93.515
X36.451 Y93.117
X36.485 Y92.712
X36.553 Y92.301
X36.645 Y91.934
X36.768 Y91.568
X36.903 Y91.253
X37.062 Y90.952
X37.237 Y90.677
X37.418 Y90.436
X37.522 Y90.319
X37.77 Y90.097
X38.061 Y89.935
X38.381 Y89.843
X38.713 Y89.824
X39.041 Y89.88
X39.348 Y90.008
X40.928 Y90.885
G3 X41.17 Y91.709 Z-0.811 I-0.327 J0.544
G1 X41.147 Y91.757 Z-0.8
X38.91 Y96.304
X38.907 Y96.311 Z-0.801
X38.871 Y96.374 Z-0.816
X38.828 Y96.434 Z-0.831
X38.778 Y96.487 Z-0.846
G3 X38.064 Y96.604 Z-1 I-0.441 J-0.457 F150
G1 X36.615 Y95.85 F300
X36.408 Y95.735
X36.201 Y95.604
X36.079 Y95.517
X35.922 Y95.383
X35.772 Y95.232
X35.615 Y95.047
X35.467 Y94.841
X35.324 Y94.604
X35.188 Y94.332
X35.071 Y94.042
X34.971 Y93.719
X34.892 Y93.366
X34.839 Y92.998
X34.816 Y92.616
X34.824 Y92.219
X34.864 Y91.813
X34.939 Y91.405
X35.039 Y91.03
X35.171 Y90.657
X35.312 Y90.342
X35.481 Y90.034
X35.66 Y89.762
X35.85 Y89.518
X36.065 Y89.284
X36.077 Y89.273
X36.344 Y89.076
X36.649 Y88.943
X36.976 Y88.881
X37.308 Y88.894
X37.628 Y88.981
X37.922 Y89.137
X38.064 Y89.234
X38.478 Y89.509
X38.685 Y89.64
X39.348 Y90.008
G3 X39.576 Y90.86 Z-0.804 I-0.327 J0.544
G1 X39.566 Y90.879 Z-0.8
X37.079 Y95.364
X37.071 Y95.379
X37.028 Y95.442 Z-0.815
X36.979 Y95.499 Z-0.83
X36.923 Y95.55 Z-0.846
G3 X36.201 Y95.604 Z-1 I-0.399 J-0.494 F150
G1 X34.546 Y94.549 F300
X34.424 Y94.462
X34.278 Y94.337
X34.135 Y94.191
X33.99 Y94.019
X33.847 Y93.817
X33.714 Y93.594
X33.585 Y93.333
X33.474 Y93.053
X33.379 Y92.744
X33.304 Y92.401
X33.255 Y92.043
X33.234 Y91.671
X33.244 Y91.282
X33.286 Y90.883
X33.361 Y90.48
X33.471 Y90.077
X33.596 Y89.73
X33.754 Y89.383
X33.915 Y89.092
X34.104 Y88.808
X34.301 Y88.558
X34.507 Y88.337
X34.609 Y88.243
X34.878 Y88.047
X35.184 Y87.915
X35.511 Y87.856
X35.844 Y87.871
X36.164 Y87.96
X36.457 Y88.118
X37.893 Y89.117
X37.922 Y89.137
G3 X38.086 Y89.98 Z-0.811 I-0.377 J0.511
G1 X38.058 Y90.025 Z-0.8
X35.415 Y94.325
X35.409 Y94.334 Z-0.802
X35.368 Y94.393 Z-0.817
X35.321 Y94.447 Z-0.831
X35.268 Y94.495 Z-0.846
G3 X34.546 Y94.549 Z-1 I-0.399 J-0.494 F150
G1 X33.113 Y93.635 F300
X33.097 Y93.625
X32.89 Y93.47
X32.731 Y93.338
X32.593 Y93.203
X32.451 Y93.042
X32.313 Y92.854
X32.181 Y92.643
X32.054 Y92.396
X31.943 Y92.132
X31.845 Y91.832
X31.766 Y91.504
X31.712 Y91.163
X31.685 Y90.797
X31.687 Y90.415
X31.721 Y90.019
X31.788 Y89.618
X31.888 Y89.219
X32.016 Y88.841
X32.169 Y88.486
X32.341 Y88.161
X32.522 Y87.878
X32.73 Y87.602
X32.933 Y87.376
X33.168 Y87.151
X33.193 Y87.131
X33.476 Y86.95
X33.792 Y86.838
X34.125 Y86.8
X34.459 Y86.838
X34.775 Y86.949
X35.058 Y87.13
X35.167 Y87.217
X35.374 Y87.364
X36.457 Y88.118
G3 X36.608 Y88.974 Z-0.808 I-0.381 J0.508
G1 X36.586 Y89.007 Z-0.8
X33.784 Y93.296
X33.774 Y93.311
X33.727 Y93.37 Z-0.815
X33.674 Y93.424 Z-0.83
X33.614 Y93.471 Z-0.846
G3 X32.89 Y93.47 Z-1 I-0.362 J-0.522 F150
G1 X32.476 Y93.161 F300
X32.269 Y93.003
X31.328 Y92.281
X31.162 Y92.14
X31.032 Y92.01
X30.897 Y91.852
X30.77 Y91.676
X30.642 Y91.464
X30.527 Y91.236
X30.42 Y90.971
X30.33 Y90.681
X30.259 Y90.372
X30.21 Y90.032
X30.187 Y89.669
X30.194 Y89.297
X30.231 Y88.915
X30.302 Y88.522
X30.406 Y88.128
X30.545 Y87.734
X30.695 Y87.398
X30.877 Y87.063
X31.059 Y86.787
X31.269 Y86.516
X31.482 Y86.282
X31.704 Y86.076
X31.848 Y85.962
X32.093 Y85.804
X32.364 Y85.698
X32.651 Y85.647
X32.943 Y85.652
X33.227 Y85.715
X33.494 Y85.832
X33.733 Y85.999
X34.546 Y86.698
X34.96 Y87.05
X35.058 Y87.13
G3 X35.16 Y87.976 Z-0.812 I-0.416 J0.479
G1 X35.124 Y88.027 Z-0.8
X32.215 Y92.131
X32.213 Y92.133
X32.166 Y92.192 Z-0.815
X32.112 Y92.245 Z-0.83
X32.052 Y92.29 Z-0.846
G3 X31.328 Y92.281 Z-1 I-0.355 J-0.527 F150
G1 X30.393 Y91.564 F300
X30.13 Y91.357
X29.786 Y91.083
X29.638 Y90.952
X29.514 Y90.823
X29.382 Y90.663
X29.26 Y90.487
X29.138 Y90.276
X29.028 Y90.045
X28.928 Y89.786
X28.843 Y89.493
X28.779 Y89.185
X28.737 Y88.85
X28.721 Y88.489
X28.735 Y88.117
X28.779 Y87.738
X28.856 Y87.351
X28.967 Y86.961
X29.112 Y86.575
X29.278 Y86.219
X29.474 Y85.877
X29.669 Y85.591
X29.891 Y85.316
X30.109 Y85.087
X30.353 Y84.868
X30.494 Y84.761
X30.784 Y84.588
X31.106 Y84.486
X31.443 Y84.459
X31.777 Y84.509
X32.091 Y84.634
X32.369 Y84.826
X32.493 Y84.935
X33.733 Y85.999
G3 X33.807 Y86.852 Z-0.812 I-0.43 J0.467
G1 X33.772 Y86.898 Z-0.8
X30.674 Y90.951
X30.668 Y90.958 Z-0.802
X30.621 Y91.013 Z-0.816
X30.568 Y91.062 Z-0.831
X30.51 Y91.105 Z-0.846
G3 X29.786 Y91.083 Z-1 I-0.346 J-0.533 F150
G1 X29.61 Y90.942 F300
X28.253 Y89.699
X28.09 Y89.535
X27.967 Y89.388
X27.852 Y89.226
X27.736 Y89.031
X27.631 Y88.818
X27.534 Y88.575
X27.451 Y88.302
X27.387 Y88.013
X27.343 Y87.691
X27.324 Y87.346
X27.332 Y86.991
X27.371 Y86.621
X27.443 Y86.237
X27.549 Y85.85
X27.688 Y85.463
X27.853 Y85.099
X28.042 Y84.758
X28.247 Y84.451
X28.456 Y84.186
X28.691 Y83.931
X28.916 Y83.725
X29.172 Y83.525
X29.296 Y83.443
X29.557 Y83.307
X29.84 Y83.224
X30.133 Y83.199
X30.426 Y83.233
X30.706 Y83.324
X30.962 Y83.468
X31.185 Y83.66
X31.856 Y84.365
X32.021 Y84.52
X32.369 Y84.826
G3 X32.422 Y85.695 Z-0.808 I-0.435 J0.462
G1 X32.397 Y85.724 Z-0.8
X29.154 Y89.623
X29.148 Y89.629
X29.095 Y89.684 Z-0.815
X29.037 Y89.732 Z-0.83
X28.973 Y89.772 Z-0.846
G3 X28.253 Y89.699 Z-1 I-0.308 J-0.555 F150
G1 X26.889 Y88.45 F300
X26.778 Y88.339
X26.644 Y88.192
X26.531 Y88.047
X26.415 Y87.87
X26.309 Y87.675
X26.209 Y87.451
X26.121 Y87.199
X26.049 Y86.928
X25.995 Y86.622
X25.963 Y86.3
X25.957 Y85.96
X25.98 Y85.598
X26.035 Y85.222
X26.122 Y84.841
X26.242 Y84.461
X26.394 Y84.084
X26.578 Y83.717
X26.78 Y83.385
X27.002 Y83.078
X27.227 Y82.814
X27.469 Y82.573
X27.711 Y82.367
X27.971 Y82.18
X28.1 Y82.102
X28.404 Y81.963
X28.73 Y81.895
X29.064 Y81.902
X29.387 Y81.984
X29.684 Y82.136
X29.94 Y82.35
X31.185 Y83.66
G3 X31.176 Y84.512 Z-0.813 I-0.475 J0.421
G1 X31.134 Y84.558 Z-0.8
X27.675 Y88.304
X27.62 Y88.357 Z-0.815
X27.56 Y88.402 Z-0.83
X27.495 Y88.44 Z-0.846
G3 X26.778 Y88.339 Z-1 I-0.286 J-0.567 F150
G1 X26.682 Y88.244 F300
X26.475 Y88.028
X25.349 Y86.799
X25.25 Y86.679
X25.142 Y86.526
X25.039 Y86.351
X24.941 Y86.147
X24.855 Y85.926
X24.778 Y85.669
X24.72 Y85.398
X24.681 Y85.096
X24.665 Y84.769
X24.676 Y84.432
X24.716 Y84.076
X24.788 Y83.705
X24.893 Y83.328
X25.031 Y82.953
X25.202 Y82.583
X25.401 Y82.23
X25.615 Y81.913
X25.853 Y81.615
X26.082 Y81.371
X26.342 Y81.136
X26.587 Y80.948
X26.857 Y80.772
X26.959 Y80.717
X27.233 Y80.603
X27.523 Y80.546
X27.82 Y80.548
X28.11 Y80.608
X28.382 Y80.725
X28.625 Y80.894
X28.83 Y81.108
X29.069 Y81.413
X29.165 Y81.529
X29.372 Y81.753
X29.94 Y82.35
G3 X29.909 Y83.225 Z-0.806 I-0.475 J0.421
G1 X29.887 Y83.247 Z-0.8
X26.246 Y86.807
Y86.808
X26.189 Y86.857 Z-0.815
X26.127 Y86.9 Z-0.83
X26.06 Y86.934 Z-0.846
G3 X25.349 Y86.799 Z-1 I-0.258 J-0.58 F150
G1 X24.1 Y85.437 F300
X23.976 Y85.286
X23.873 Y85.14
X23.771 Y84.966
X23.678 Y84.774
X23.591 Y84.549
X23.52 Y84.311
X23.461 Y84.037
X23.423 Y83.744
X23.408 Y83.433
X23.419 Y83.094
X23.458 Y82.74
X23.528 Y82.38
X23.631 Y82.013
X23.768 Y81.639
X23.939 Y81.27
X24.143 Y80.907
X24.361 Y80.584
X24.606 Y80.278
X24.842 Y80.027
X25.105 Y79.789
X25.355 Y79.597
X25.629 Y79.419
X25.892 Y79.277
X25.966 Y79.245
X26.278 Y79.147
X26.604 Y79.12
X26.927 Y79.165
X27.233 Y79.28
X27.507 Y79.459
X27.734 Y79.694
X28.814 Y81.088
X28.83 Y81.108
G3 X28.75 Y81.946 Z-0.815 I-0.514 J0.373
G1 X28.693 Y81.999 Z-0.8
X24.998 Y85.445
X24.986 Y85.456 Z-0.803
X24.933 Y85.501 Z-0.817
X24.874 Y85.54 Z-0.831
X24.811 Y85.572 Z-0.846
G3 X24.1 Y85.437 Z-1 I-0.258 J-0.58 F150
G1 X23.992 Y85.318 F300
X23.785 Y85.053
X23.371 Y84.52
X22.75 Y83.711
X22.665 Y83.587
X22.571 Y83.425
X22.483 Y83.239
X22.404 Y83.032
X22.335 Y82.795
X22.283 Y82.544
X22.248 Y82.257
X22.235 Y81.956
X22.247 Y81.636
X22.289 Y81.291
X22.36 Y80.937
X22.462 Y80.581
X22.598 Y80.219
X22.767 Y79.86
X22.971 Y79.505
X23.205 Y79.162
X23.443 Y78.869
X23.71 Y78.589
X23.961 Y78.365
X24.237 Y78.155
X24.506 Y77.984
X24.779 Y77.839
X24.879 Y77.795
X25.157 Y77.707
X25.447 Y77.675
X25.737 Y77.702
X26.016 Y77.785
X26.273 Y77.921
X26.498 Y78.106
X26.682 Y78.332
X26.889 Y78.601
X27.734 Y79.694
G3 X27.62 Y80.557 Z-0.808 I-0.515 J0.371
G1 X27.591 Y80.581 Z-0.8
X23.644 Y83.797
X23.641 Y83.799 Z-0.801
X23.581 Y83.843 Z-0.816
X23.516 Y83.879 Z-0.831
X23.447 Y83.907 Z-0.846
G3 X22.75 Y83.711 Z-1 I-0.207 J-0.6 F150
G1 X21.922 Y82.632 F300
X21.784 Y82.449
X21.632 Y82.242
X21.494 Y82.032
X21.407 Y81.874
X21.322 Y81.684
X21.25 Y81.482
X21.187 Y81.246
X21.141 Y80.993
X21.113 Y80.717
X21.106 Y80.41
X21.125 Y80.096
X21.172 Y79.761
X21.252 Y79.406
X21.363 Y79.048
X21.506 Y78.691
X21.683 Y78.335
X21.893 Y77.986
X22.135 Y77.648
X22.382 Y77.357
X22.652 Y77.086
X22.91 Y76.864
X23.19 Y76.661
X23.456 Y76.499
X23.745 Y76.354
X24.014 Y76.245
X24.048 Y76.234
X24.367 Y76.171
X24.692 Y76.178
X25.007 Y76.257
X25.298 Y76.402
X25.55 Y76.608
X25.751 Y76.863
X26.392 Y77.891
X26.475 Y78.019
X26.682 Y78.332
G3 X26.535 Y79.161 Z-0.815 I-0.541 J0.332
G1 X26.475 Y79.209 Z-0.8
X22.526 Y82.346
X22.524 Y82.347
X22.462 Y82.39 Z-0.815
X22.395 Y82.426 Z-0.83
X22.325 Y82.453 Z-0.846
G3 X21.632 Y82.242 Z-1 I-0.194 J-0.605 F150
G1 X21.329 Y81.827 F300
X21.196 Y81.62
X20.474 Y80.486
X20.36 Y80.286
X20.278 Y80.111
X20.208 Y79.924
X20.146 Y79.703
X20.099 Y79.47
X20.069 Y79.206
X20.059 Y78.921
X20.072 Y78.621
X20.113 Y78.296
X20.184 Y77.959
X20.284 Y77.618
X20.418 Y77.27
X20.586 Y76.919
X20.787 Y76.574
X21.021 Y76.238
X21.283 Y75.918
X21.546 Y75.646
X21.831 Y75.395
X22.106 Y75.19
X22.391 Y75.01
X22.679 Y74.86
X22.956 Y74.742
X23.07 Y74.705
X23.391 Y74.636
X23.72 Y74.641
X24.04 Y74.717
X24.335 Y74.863
X24.59 Y75.069
X24.794 Y75.327
X25.751 Y76.863
G3 X25.566 Y77.7 Z-0.811 I-0.55 J0.317
G1 X25.52 Y77.732 Z-0.8
X21.361 Y80.647
X21.356 Y80.65
X21.291 Y80.689 Z-0.815
X21.223 Y80.72 Z-0.83
X21.15 Y80.743 Z-0.846
G3 X20.474 Y80.486 Z-1 I-0.153 J-0.616 F150
G1 X19.612 Y79.134 F300
X19.484 Y78.927
X19.439 Y78.852
X19.321 Y78.633
X19.249 Y78.468
X19.181 Y78.27
X19.126 Y78.061
X19.084 Y77.819
X19.061 Y77.562
X19.058 Y77.283
X19.079 Y76.976
X19.126 Y76.662
X19.203 Y76.332
X19.314 Y75.985
X19.457 Y75.637
X19.632 Y75.294
X19.84 Y74.955
X20.081 Y74.626
X20.351 Y74.312
X20.621 Y74.046
X20.919 Y73.796
X21.192 Y73.602
X21.494 Y73.422
X21.776 Y73.283
X22.07 Y73.167
X22.243 Y73.114
X22.535 Y73.056
X22.834 Y73.057
X23.125 Y73.119
X23.399 Y73.237
X23.643 Y73.409
X23.849 Y73.625
X24.006 Y73.878
X24.349 Y74.577
X24.406 Y74.684
X24.463 Y74.784
X24.584 Y74.991
X24.794 Y75.327
G3 X24.597 Y76.172 Z-0.808 I-0.55 J0.317
G1 X24.562 Y76.195 Z-0.8
X20.324 Y79.033
X20.317 Y79.037
X20.252 Y79.074 Z-0.815
X20.182 Y79.104 Z-0.83
X20.109 Y79.125 Z-0.846
G3 X19.439 Y78.852 Z-1 I-0.139 J-0.62 F150
G1 X19.232 Y78.51 F300
X19.112 Y78.306
X18.404 Y76.946
X18.339 Y76.805
X18.273 Y76.624
X18.22 Y76.43
X18.176 Y76.203
X18.151 Y75.967
X18.143 Y75.699
X18.158 Y75.415
X18.198 Y75.116
X18.267 Y74.794
X18.367 Y74.465
X18.497 Y74.133
X18.661 Y73.797
X18.86 Y73.46
X19.092 Y73.132
X19.354 Y72.817
X19.634 Y72.531
X19.931 Y72.273
X20.222 Y72.059
X20.523 Y71.872
X20.816 Y71.722
X21.115 Y71.598
X21.41 Y71.502
X21.54 Y71.471
X21.87 Y71.431
X22.2 Y71.466
X22.514 Y71.573
X22.797 Y71.747
X23.034 Y71.98
X23.213 Y72.26
X24.006 Y73.878
G3 X23.736 Y74.692 Z-0.811 I-0.58 J0.26
G1 X23.688 Y74.719 Z-0.8
X19.269 Y77.187
X19.267 Y77.188 Z-0.801
X19.199 Y77.221 Z-0.816
X19.129 Y77.245 Z-0.831
X19.056 Y77.261 Z-0.846
G3 X18.404 Y76.946 Z-1 I-0.099 J-0.627 F150
G1 X17.71 Y75.613 F300
X17.532 Y75.268
X17.46 Y75.109
X17.4 Y74.94
X17.346 Y74.743
X17.307 Y74.533
X17.282 Y74.291
X17.276 Y74.04
X17.292 Y73.76
X17.333 Y73.464
X17.401 Y73.159
X17.501 Y72.833
X17.633 Y72.5
X17.796 Y72.17
X17.993 Y71.842
X18.223 Y71.519
X18.486 Y71.207
X18.778 Y70.912
X19.073 Y70.658
X19.391 Y70.427
X19.688 Y70.244
X19.997 Y70.088
X20.302 Y69.963
X20.593 Y69.87
X20.784 Y69.825
X21.087 Y69.787
X21.391 Y69.812
X21.684 Y69.899
X21.953 Y70.043
X22.186 Y70.24
X22.374 Y70.48
X22.509 Y70.754
X22.544 Y70.848
X22.635 Y71.055
X22.827 Y71.469
X22.926 Y71.676
X23.213 Y72.26
G3 X22.933 Y73.079 Z-0.809 I-0.58 J0.26
G1 X22.894 Y73.101 Z-0.8
X18.396 Y75.513
X18.387 Y75.518 Z-0.802
X18.322 Y75.548 Z-0.817
X18.253 Y75.571 Z-0.831
X18.183 Y75.586 Z-0.846
G3 X17.532 Y75.268 Z-1 I-0.096 J-0.628 F150
G1 X17.37 Y74.951 F300
X17.291 Y74.784
X16.69 Y73.334
X16.626 Y73.155
X16.576 Y72.97
X16.54 Y72.77
X16.517 Y72.545
X16.512 Y72.3
X16.527 Y72.04
X16.567 Y71.752
X16.633 Y71.46
X16.728 Y71.15
X16.858 Y70.825
X17.019 Y70.502
X17.21 Y70.183
X17.437 Y69.867
X17.696 Y69.56
X17.985 Y69.269
X18.286 Y69.011
X18.608 Y68.778
X18.907 Y68.595
X19.225 Y68.435
X19.523 Y68.313
X19.834 Y68.215
X20.132 Y68.146
X20.283 Y68.124
X20.618 Y68.113
X20.947 Y68.178
X21.254 Y68.316
X21.521 Y68.518
X21.736 Y68.776
X21.887 Y69.076
X22.509 Y70.754
G3 X22.17 Y71.531 Z-0.814 I-0.603 J0.2
G1 X22.108 Y71.559 Z-0.8
X17.531 Y73.648
X17.46 Y73.676 Z-0.815
X17.387 Y73.694 Z-0.83
X17.312 Y73.704 Z-0.846
G3 X16.69 Y73.334 Z-1 I-0.044 J-0.633 F150
G1 X15.958 Y71.567 F300
X15.9 Y71.403
X15.853 Y71.229
X15.816 Y71.03
X15.795 Y70.818
X15.789 Y70.576
X15.804 Y70.327
X15.843 Y70.048
X15.908 Y69.76
X16 Y69.461
X16.127 Y69.144
X16.285 Y68.826
X16.473 Y68.513
X16.695 Y68.202
X16.95 Y67.901
X17.237 Y67.612
X17.551 Y67.343
X17.869 Y67.112
X18.204 Y66.908
X18.522 Y66.748
X18.839 Y66.618
X19.159 Y66.517
X19.455 Y66.449
X19.657 Y66.419
X19.955 Y66.406
X20.25 Y66.452
X20.529 Y66.557
X20.782 Y66.715
X20.998 Y66.921
X21.168 Y67.166
X21.286 Y67.441
X21.301 Y67.49
X21.316 Y67.533
X21.887 Y69.076
G3 X21.534 Y69.859 Z-0.811 I-0.603 J0.2
G1 X21.486 Y69.88 Z-0.8
X16.799 Y71.882
X16.785 Y71.887 Z-0.803
X16.719 Y71.911 Z-0.817
X16.65 Y71.928 Z-0.831
X16.58 Y71.937 Z-0.846
G3 X15.958 Y71.567 Z-1 I-0.044 J-0.633 F150
G1 X15.918 Y71.469 F300
X15.839 Y71.262
X15.692 Y70.848
X15.62 Y70.641
X15.3 Y69.625
X15.234 Y69.372
X15.201 Y69.185
X15.182 Y68.98
X15.178 Y68.757
X15.195 Y68.51
X15.232 Y68.254
X15.298 Y67.971
X15.389 Y67.683
X15.51 Y67.385
X15.668 Y67.073
X15.857 Y66.764
X16.076 Y66.462
X16.328 Y66.168
X16.614 Y65.885
X16.926 Y65.621
X17.249 Y65.39
X17.59 Y65.185
X17.902 Y65.03
X18.235 Y64.897
X18.539 Y64.803
X18.861 Y64.731
X19.158 Y64.69
X19.304 Y64.681
X19.595 Y64.693
X19.878 Y64.761
X20.142 Y64.883
X20.377 Y65.054
X20.574 Y65.268
X20.725 Y65.516
X20.826 Y65.789
X21.095 Y66.828
X21.119 Y66.912
X21.286 Y67.441
G3 X20.898 Y68.204 Z-0.812 I-0.612 J0.169
G1 X20.844 Y68.224 Z-0.8
X16.123 Y70.007
X16.11 Y70.011
X16.038 Y70.032 Z-0.815
X15.963 Y70.044 Z-0.83
X15.887 Y70.048 Z-0.846
G3 X15.3 Y69.625 Z-1 I0.011 J-0.635 F150
G1 X14.706 Y67.74 F300
X14.661 Y67.568
X14.629 Y67.389
X14.61 Y67.188
X14.607 Y66.974
X14.623 Y66.733
X14.659 Y66.485
X14.723 Y66.211
X14.812 Y65.93
X14.93 Y65.64
X15.084 Y65.335
X15.269 Y65.031
X15.484 Y64.736
X15.733 Y64.445
X16.013 Y64.167
X16.324 Y63.905
X16.66 Y63.664
X16.996 Y63.463
X17.349 Y63.288
X17.67 Y63.159
X18.01 Y63.054
X18.318 Y62.986
X18.644 Y62.94
X18.94 Y62.923
X18.969
X19.285 Y62.965
X19.586 Y63.073
X19.856 Y63.243
X20.084 Y63.467
X20.258 Y63.734
X20.371 Y64.033
X20.826 Y65.789
G3 X20.403 Y66.53 Z-0.812 I-0.62 J0.138
G1 X20.345 Y66.549 Z-0.8
X15.516 Y68.127
X15.502 Y68.132 Z-0.803
X15.434 Y68.15 Z-0.817
X15.364 Y68.161 Z-0.831
X15.293 Y68.163 Z-0.846
G3 X14.706 Y67.74 Z-1 I0.011 J-0.635 F150
G1 X14.575 Y67.326 F300
X14.517 Y67.119
X14.195 Y65.669
X14.166 Y65.495
X14.149 Y65.304
X14.147 Y65.099
X14.164 Y64.874
X14.201 Y64.629
X14.262 Y64.376
X14.352 Y64.099
X14.468 Y63.82
X14.615 Y63.533
X14.8 Y63.235
X15.015 Y62.943
X15.26 Y62.662
X15.538 Y62.389
X15.846 Y62.133
X16.183 Y61.895
X16.541 Y61.683
X16.874 Y61.521
X17.228 Y61.382
X17.545 Y61.287
X17.883 Y61.214
X18.191 Y61.173
X18.505 Y61.157
X18.612 Y61.16
X18.904 Y61.197
X19.182 Y61.292
X19.436 Y61.439
X19.656 Y61.633
X19.834 Y61.868
X19.961 Y62.132
X20.035 Y62.417
X20.088 Y62.769
X20.128 Y62.976
X20.208 Y63.39
X20.258 Y63.597
X20.371 Y64.033
G3 X19.917 Y64.784 Z-0.806 I-0.62 J0.138
G1 X19.889 Y64.791 Z-0.8
X14.976 Y66.123
X14.968 Y66.125
X14.894 Y66.139 Z-0.815
X14.819 Y66.145 Z-0.83
X14.743 Y66.141 Z-0.846
G3 X14.195 Y65.669 Z-1 I0.067 J-0.632 F150
G1 X13.782 Y63.804 F300
X13.751 Y63.61
X13.738 Y63.429
X13.739 Y63.222
X13.757 Y63.008
X13.797 Y62.766
X13.859 Y62.52
X13.95 Y62.252
X14.07 Y61.974
X14.218 Y61.694
X14.401 Y61.407
X14.62 Y61.118
X14.867 Y60.84
X15.144 Y60.576
X15.453 Y60.325
X15.788 Y60.095
X16.149 Y59.888
X16.496 Y59.724
X16.858 Y59.587
X17.185 Y59.493
X17.528 Y59.424
X17.838 Y59.387
X18.164 Y59.374
X18.456 Y59.386
X18.476 Y59.388
X18.788 Y59.461
X19.076 Y59.599
X19.329 Y59.795
X19.533 Y60.042
X19.679 Y60.326
X19.762 Y60.635
X20.035 Y62.417
G3 X19.547 Y63.11 Z-0.814 I-0.631 J0.074
G1 X19.479 Y63.125 Z-0.8
X14.555 Y64.26
X14.539 Y64.264 Z-0.803
X14.47 Y64.276 Z-0.817
X14.4 Y64.28 Z-0.831
X14.33 Y64.277 Z-0.846
G3 X13.782 Y63.804 Z-1 I0.067 J-0.632 F150
G1 X13.738 Y63.597 F300
X13.645 Y63.128
X13.616 Y62.976
X13.453 Y61.733
X13.437 Y61.535
Y61.339
X13.453 Y61.138
X13.49 Y60.91
X13.547 Y60.675
X13.631 Y60.422
X13.744 Y60.155
X13.884 Y59.888
X14.059 Y59.61
X14.268 Y59.33
X14.506 Y59.061
X14.774 Y58.802
X15.076 Y58.554
X15.406 Y58.325
X15.762 Y58.118
X16.137 Y57.938
X16.485 Y57.804
X16.851 Y57.697
X17.179 Y57.629
X17.518 Y57.586
X17.835 Y57.572
X18.143 Y57.583
X18.224 Y57.592
X18.551 Y57.668
X18.852 Y57.816
X19.112 Y58.028
X19.318 Y58.294
X19.459 Y58.598
X19.528 Y58.927
X19.558 Y59.247
X19.581 Y59.454
X19.762 Y60.635
G3 X19.245 Y61.334 Z-0.808 I-0.631 J0.074
G1 X19.206 Y61.341 Z-0.8
X14.193 Y62.253
X14.183 Y62.254
X14.108 Y62.262 Z-0.815
X14.033 Y62.261 Z-0.83
X13.958 Y62.251 Z-0.846
G3 X13.453 Y61.733 Z-1 I0.121 J-0.623 F150
G1 X13.207 Y59.868 F300
X13.189 Y59.644
Y59.463
X13.205 Y59.262
X13.239 Y59.05
X13.297 Y58.815
X13.376 Y58.578
X13.486 Y58.318
X13.623 Y58.056
X13.791 Y57.789
X13.995 Y57.516
X14.231 Y57.248
X14.496 Y56.992
X14.792 Y56.75
X15.119 Y56.522
X15.472 Y56.317
X15.847 Y56.137
X16.202 Y56.001
X16.574 Y55.892
X16.911 Y55.822
X17.249 Y55.779
X17.577 Y55.764
X17.877 Y55.775
X18.195 Y55.812
X18.241 Y55.821
X18.552 Y55.92
X18.834 Y56.084
X19.074 Y56.306
X19.258 Y56.575
X19.38 Y56.877
X19.432 Y57.199
X19.505 Y58.625
X19.519 Y58.832
X19.528 Y58.927
G3 X18.993 Y59.591 Z-0.813 I-0.634 J0.037
G1 X18.931 Y59.6 Z-0.8
X13.938 Y60.39
X13.933 Y60.391 Z-0.801
X13.859 Y60.398 Z-0.816
X13.785 Y60.397 Z-0.831
X13.712 Y60.387 Z-0.846
G3 X13.207 Y59.868 Z-1 I0.121 J-0.623 F150
G1 X13.18 Y59.661 F300
X13.156 Y59.454
X13.096 Y58.832
X13.05 Y57.797
X13.052 Y57.523
X13.068 Y57.33
X13.103 Y57.127
X13.158 Y56.906
X13.238 Y56.671
X13.342 Y56.431
X13.48 Y56.172
X13.643 Y55.917
X13.839 Y55.659
X14.073 Y55.397
X14.335 Y55.147
X14.625 Y54.913
X14.944 Y54.694
X15.291 Y54.495
X15.66 Y54.322
X16.05 Y54.175
X16.408 Y54.073
X16.784 Y53.997
X17.116 Y53.958
X17.461 Y53.945
X17.776 Y53.958
X18.083 Y53.996
X18.16 Y54.012
X18.47 Y54.112
X18.75 Y54.278
X18.988 Y54.5
X19.171 Y54.77
X19.29 Y55.073
X19.341 Y55.394
X19.432 Y57.199
G3 X18.864 Y57.841 Z-0.811 I-0.635 J0.01
G1 X18.808 Y57.847 Z-0.8
X13.749 Y58.378
X13.732 Y58.38
X13.657 Y58.381 Z-0.815
X13.581 Y58.374 Z-0.83
X13.508 Y58.357 Z-0.846
G3 X13.05 Y57.797 Z-1 I0.175 J-0.61 F150
G1 X12.964 Y55.818 F300
X12.965 Y55.62
X12.981 Y55.438
X13.014 Y55.239
X13.067 Y55.031
X13.145 Y54.802
X13.244 Y54.572
X13.376 Y54.323
X13.535 Y54.074
X13.726 Y53.822
X13.954 Y53.568
X14.212 Y53.322
X14.498 Y53.09
X14.814 Y52.874
X15.161 Y52.676
X15.53 Y52.502
X15.92 Y52.356
X16.286 Y52.251
X16.666 Y52.174
X17.005 Y52.134
X17.35 Y52.121
X17.672 Y52.135
X17.977 Y52.172
X18.286 Y52.236
X18.32 Y52.246
X18.624 Y52.372
X18.893 Y52.563
X19.112 Y52.809
X19.273 Y53.098
X19.365 Y53.414
X19.385 Y53.743
X19.347 Y54.482
X19.338 Y54.689
X19.337 Y55.311
X19.341 Y55.394
G3 X18.752 Y56.035 Z-0.808 I-0.635 J0.007
G1 X18.714 Y56.038 Z-0.8
X13.646 Y56.402
X13.642 Z-0.801
X13.568 Y56.403 Z-0.816
X13.494 Y56.395 Z-0.831
X13.421 Y56.379 Z-0.846
G3 X12.964 Y55.818 Z-1 I0.175 J-0.61 F150
G1 X12.95 Y55.518 F300
X12.943 Y55.311
X12.944 Y54.689
X12.951 Y54.482
X12.987 Y53.653
X13.001 Y53.501
X13.035 Y53.309
X13.087 Y53.11
X13.162 Y52.893
X13.262 Y52.666
X13.388 Y52.434
X13.548 Y52.187
X13.733 Y51.947
X13.952 Y51.706
X14.208 Y51.465
X14.492 Y51.238
X14.801 Y51.029
X15.14 Y50.839
X15.504 Y50.671
X15.887 Y50.53
X16.289 Y50.417
X16.653 Y50.347
X17.033 Y50.304
X17.366 Y50.294
X17.709 Y50.311
X18.022 Y50.352
X18.322 Y50.416
X18.421 Y50.445
X18.723 Y50.574
X18.989 Y50.765
X19.207 Y51.01
X19.365 Y51.298
X19.457 Y51.613
X19.476 Y51.94
X19.385 Y53.743
G3 X18.749 Y54.324 Z-0.81 I-0.633 J-0.054
G1 X18.698 Z-0.8
X13.618 Y54.294
X13.616
X13.541 Y54.289 Z-0.815
X13.466 Y54.275 Z-0.83
X13.394 Y54.252 Z-0.846
G3 X12.987 Y53.653 Z-1 I0.228 J-0.593 F150
G1 X13.068 Y51.789 F300
X13.087 Y51.588
X13.119 Y51.409
X13.17 Y51.213
X13.24 Y51.011
X13.338 Y50.789
X13.457 Y50.569
X13.61 Y50.332
X13.791 Y50.098
X14.003 Y49.864
X14.252 Y49.63
X14.53 Y49.408
X14.836 Y49.202
X15.169 Y49.014
X15.531 Y48.847
X15.914 Y48.706
X16.314 Y48.594
X16.691 Y48.521
X17.079 Y48.478
X17.425 Y48.467
X17.769 Y48.484
X18.093 Y48.526
X18.392 Y48.59
X18.581 Y48.647
X18.861 Y48.763
X19.111 Y48.933
X19.321 Y49.15
X19.483 Y49.406
X19.59 Y49.689
X19.636 Y49.988
X19.621 Y50.291
X19.582 Y50.546
X19.559 Y50.753
X19.52 Y51.168
X19.505 Y51.375
X19.476 Y51.94
G3 X18.832 Y52.521 Z-0.809 I-0.633 J-0.054
G1 X18.79 Y52.52 Z-0.8
X13.697 Y52.43
X13.692 Y52.429 Z-0.801
X13.619 Y52.424 Z-0.816
X13.546 Y52.41 Z-0.831
X13.476 Y52.387 Z-0.846
G3 X13.068 Y51.789 Z-1 I0.228 J-0.593 F150
G1 X13.096 Y51.168 F300
X13.157 Y50.546
X13.181 Y50.339
X13.263 Y49.717
X13.306 Y49.481
X13.357 Y49.293
X13.426 Y49.099
X13.52 Y48.89
X13.639 Y48.672
X13.784 Y48.452
X13.965 Y48.22
X14.171 Y47.997
X14.41 Y47.775
X14.687 Y47.557
X14.99 Y47.356
X15.317 Y47.174
X15.672 Y47.013
X16.051 Y46.877
X16.447 Y46.77
X16.836 Y46.697
X17.231 Y46.656
X17.58 Y46.647
X17.936 Y46.667
X18.252 Y46.711
X18.573 Y46.781
X18.862 Y46.87
X18.975 Y46.915
X19.268 Y47.071
X19.518 Y47.288
X19.714 Y47.555
X19.846 Y47.859
X19.906 Y48.185
X19.893 Y48.516
X19.621 Y50.291
G3 X18.949 Y50.806 Z-0.814 I-0.624 J-0.118
G1 X18.88 Y50.8 Z-0.8
X13.846 Y50.411
X13.834 Y50.41
X13.759 Y50.399 Z-0.815
X13.687 Y50.378 Z-0.83
X13.617 Y50.349 Z-0.846
G3 X13.263 Y49.717 Z-1 I0.279 J-0.571 F150
G1 X13.524 Y47.739 F300
X13.551 Y47.587
X13.599 Y47.41
X13.666 Y47.22
X13.755 Y47.023
X13.872 Y46.81
X14.01 Y46.6
X14.184 Y46.377
X14.385 Y46.159
X14.615 Y45.945
X14.885 Y45.733
X15.182 Y45.536
X15.502 Y45.358
X15.852 Y45.199
X16.225 Y45.065
X16.618 Y44.959
X17.025 Y44.882
X17.41 Y44.842
X17.801 Y44.833
X18.15 Y44.852
X18.49 Y44.899
X18.813 Y44.97
X19.104 Y45.059
X19.269 Y45.125
X19.529 Y45.259
X19.758 Y45.442
X19.946 Y45.667
X20.087 Y45.924
X20.174 Y46.204
X20.204 Y46.496
X20.176 Y46.787
X20.13 Y47.024
X20.09 Y47.231
X19.893 Y48.516
G3 X19.195 Y49.029 Z-0.809 I-0.624 J-0.118
G1 X19.152 Y49.024 Z-0.8
X14.094 Y48.432
X14.082 Y48.431 Z-0.803
X14.012 Y48.418 Z-0.817
X13.943 Y48.398 Z-0.831
X13.877 Y48.371 Z-0.846
G3 X13.524 Y47.739 Z-1 I0.279 J-0.571 F150
G1 X13.618 Y47.024 F300
X13.645 Y46.88
X13.741 Y46.403
X13.784 Y46.196
X13.901 Y45.667
X13.945 Y45.508
X14.012 Y45.323
X14.098 Y45.136
X14.21 Y44.935
X14.348 Y44.729
X14.512 Y44.521
X14.713 Y44.306
X14.937 Y44.101
X15.196 Y43.9
X15.492 Y43.707
X15.812 Y43.532
X16.154 Y43.38
X16.523 Y43.25
X16.914 Y43.147
X17.318 Y43.074
X17.71 Y43.036
X18.106 Y43.029
X18.452 Y43.051
X18.804 Y43.102
X19.113 Y43.172
X19.427 Y43.271
X19.702 Y43.382
X19.819 Y43.44
X20.099 Y43.623
X20.331 Y43.865
X20.503 Y44.152
X20.607 Y44.471
X20.636 Y44.804
X20.589 Y45.136
X20.261 Y46.403
X20.211 Y46.61
X20.176 Y46.787
G3 X19.451 Y47.269 Z-0.807 I-0.618 J-0.144
G1 X19.414 Y47.263 Z-0.8
X14.419 Y46.409
X14.409 Y46.407
X14.336 Y46.389 Z-0.815
X14.265 Y46.362 Z-0.83
X14.198 Y46.327 Z-0.846
G3 X13.901 Y45.667 Z-1 I0.327 J-0.544 F150
G1 X14.315 Y43.803 F300
X14.36 Y43.636
X14.423 Y43.464
X14.507 Y43.281
X14.612 Y43.092
X14.747 Y42.89
X14.903 Y42.693
X15.097 Y42.486
X15.315 Y42.286
X15.564 Y42.093
X15.851 Y41.905
X16.163 Y41.735
X16.498 Y41.586
X16.859 Y41.459
X17.241 Y41.358
X17.642 Y41.286
X18.053 Y41.246
X18.44 Y41.239
X18.83 Y41.264
X19.177 Y41.314
X19.51 Y41.39
X19.827 Y41.489
X20.107 Y41.603
X20.273 Y41.686
X20.554 Y41.869
X20.786 Y42.11
X20.958 Y42.397
X21.061 Y42.716
X21.09 Y43.05
X21.043 Y43.381
X20.589 Y45.136
G3 X19.852 Y45.578 Z-0.811 I-0.609 J-0.181
G1 X19.799 Y45.567 Z-0.8
X14.823 Y44.543
X14.811 Y44.541 Z-0.802
X14.742 Y44.522 Z-0.817
X14.675 Y44.496 Z-0.831
X14.612 Y44.463 Z-0.846
G3 X14.315 Y43.803 Z-1 I0.327 J-0.544 F150
G1 X14.52 Y42.881 F300
X14.579 Y42.674
X14.84 Y41.845
X14.931 Y41.6
X15.014 Y41.422
X15.116 Y41.243
X15.245 Y41.052
X15.4 Y40.859
X15.582 Y40.667
X15.801 Y40.469
X16.042 Y40.285
X16.317 Y40.108
X16.628 Y39.941
X16.962 Y39.795
X17.317 Y39.673
X17.696 Y39.575
X18.094 Y39.507
X18.503 Y39.47
X18.896 Y39.466
X19.292 Y39.493
X19.641 Y39.546
X19.978 Y39.626
X20.295 Y39.728
X20.578 Y39.844
X20.866 Y39.991
X20.948 Y40.042
X21.179 Y40.217
X21.372 Y40.435
X21.518 Y40.686
X21.612 Y40.96
X21.652 Y41.247
X21.634 Y41.537
X21.56 Y41.818
X21.32 Y42.467
X21.301 Y42.522
X21.122 Y43.088
X21.095 Y43.183
X21.043 Y43.381
G3 X20.287 Y43.819 Z-0.807 I-0.609 J-0.181
G1 X20.254 Y43.811 Z-0.8
X15.305 Y42.633
X15.282 Y42.627
X15.21 Y42.602 Z-0.815
X15.142 Y42.569 Z-0.83
X15.078 Y42.529 Z-0.846
G3 X14.84 Y41.845 Z-1 I0.373 J-0.514 F150
G1 X15.428 Y39.981 F300
X15.505 Y39.773
X15.582 Y39.607
X15.682 Y39.431
X15.804 Y39.252
X15.956 Y39.063
X16.129 Y38.88
X16.339 Y38.69
X16.574 Y38.51
X16.839 Y38.34
X17.142 Y38.177
X17.468 Y38.035
X17.815 Y37.915
X18.186 Y37.82
X18.577 Y37.752
X18.981 Y37.716
X19.397 Y37.711
X19.781 Y37.738
X20.165 Y37.797
X20.498 Y37.875
X20.832 Y37.982
X21.122 Y38.102
X21.413 Y38.25
X21.663 Y38.404
X21.675 Y38.413
X21.91 Y38.628
X22.094 Y38.888
X22.218 Y39.182
X22.276 Y39.495
X22.266 Y39.814
X22.188 Y40.123
X21.56 Y41.818
G3 X20.797 Y42.187 Z-0.814 I-0.587 J-0.241
G1 X20.731 Y42.168 Z-0.8
X15.87 Y40.762
X15.863 Y40.761 Z-0.801
X15.794 Y40.736 Z-0.816
X15.728 Y40.704 Z-0.831
X15.666 Y40.664 Z-0.846
G3 X15.428 Y39.981 Z-1 I0.373 J-0.514 F150
G1 X15.624 Y39.359 F300
X15.714 Y39.101
X15.843 Y38.738
X15.922 Y38.531
X16.128 Y38.034
X16.241 Y37.796
X16.339 Y37.625
X16.456 Y37.455
X16.603 Y37.275
X16.775 Y37.096
X16.973 Y36.919
X17.209 Y36.741
X17.466 Y36.578
X17.757 Y36.425
X18.082 Y36.286
X18.428 Y36.169
X18.791 Y36.079
X19.178 Y36.015
X19.578 Y35.981
X19.991 Y35.98
X20.407 Y36.012
X20.77 Y36.07
X21.138 Y36.159
X21.451 Y36.262
X21.769 Y36.396
X22.043 Y36.538
X22.31 Y36.705
X22.361 Y36.743
X22.607 Y36.973
X22.794 Y37.254
X22.913 Y37.569
X22.958 Y37.903
X22.926 Y38.238
X22.819 Y38.558
X22.639 Y38.945
X22.548 Y39.152
X22.188 Y40.123
G3 X21.4 Y40.484 Z-0.809 I-0.587 J-0.241
G1 X21.36 Y40.471 Z-0.8
X16.522 Y38.859
X16.5 Y38.851
X16.431 Y38.82 Z-0.815
X16.366 Y38.782 Z-0.83
X16.306 Y38.736 Z-0.846
G3 X16.128 Y38.034 Z-1 I0.417 J-0.479 F150
G1 X16.866 Y36.252 F300
X16.975 Y36.021
X17.067 Y35.862
X17.182 Y35.696
X17.319 Y35.528
X17.487 Y35.353
X17.675 Y35.185
X17.902 Y35.014
X18.151 Y34.856
X18.433 Y34.707
X18.748 Y34.572
X19.087 Y34.458
X19.444 Y34.369
X19.822 Y34.307
X20.22 Y34.273
X20.628 Y34.272
X21.043 Y34.304
X21.415 Y34.363
X21.79 Y34.454
X22.115 Y34.561
X22.427 Y34.692
X22.717 Y34.843
