(cartarm_base_mount_mid)
(Machine)
(  vendor: Autodesk)
(  model: Generic 3-axis)
(  description: This machine has XY axis on the Table and Z axis on the Head)
(T1 D=4.76 CR=0 - ZMIN=-6.66 - flat end mill)
G90 G94
G17
G21
(-Attention- Property Safe Retracts is set to Clearance Height.)
(Ensure the clearance height will clear the part and or fixtures.)
(Raise the Z-axis to a safe height before starting the program.)
(When using Fusion for Personal Use, the feedrate of rapid)
(moves is reduced to match the feedrate of cutting moves,)
(which can increase machining time. Unrestricted rapid moves)
(are available with a Fusion Subscription.)

(outer holes)
T1
S18000 M3
G17 G90 G94
G54
M8
G0 X100.128 Y10.11
Z4
G1 Z-1.876 F150
Z-3.4 F50
X99.89
X99.856 Y10.105
X99.825 Y10.089
X99.801 Y10.065
X99.785 Y10.034
X99.78 Y10
G3 X100.22 Y10 I0.22 J0 F150
X99.78 Y10 I-0.22 J0
G1 X99.785 Y9.966
X99.801 Y9.935
X99.825 Y9.911
X99.856 Y9.895
X99.89 Y9.89
X100.128
Z1
Y10.11
Z-2.276
Z-3.8 F50
X99.89
X99.856 Y10.105
X99.825 Y10.089
X99.801 Y10.065
X99.785 Y10.034
X99.78 Y10
G3 X100.22 Y10 I0.22 J0 F150
X99.78 Y10 I-0.22 J0
G1 X99.785 Y9.966
X99.801 Y9.935
X99.825 Y9.911
X99.856 Y9.895
X99.89 Y9.89
X100.128
Z1
Y10.11
Z-2.676
Z-4.2 F50
X99.89
X99.856 Y10.105
X99.825 Y10.089
X99.801 Y10.065
X99.785 Y10.034
X99.78 Y10
G3 X100.22 Y10 I0.22 J0 F150
X99.78 Y10 I-0.22 J0
G1 X99.785 Y9.966
X99.801 Y9.935
X99.825 Y9.911
X99.856 Y9.895
X99.89 Y9.89
X100.128
Z1
Y10.11
Z-3.076
Z-4.6 F50
X99.89
X99.856 Y10.105
X99.825 Y10.089
X99.801 Y10.065
X99.785 Y10.034
X99.78 Y10
G3 X100.22 Y10 I0.22 J0 F150
X99.78 Y10 I-0.22 J0
G1 X99.785 Y9.966
X99.801 Y9.935
X99.825 Y9.911
X99.856 Y9.895
X99.89 Y9.89
X100.128
Z1
Y10.11
Z-3.476
Z-5 F50
X99.89
X99.856 Y10.105
X99.825 Y10.089
X99.801 Y10.065
X99.785 Y10.034
X99.78 Y10
G3 X100.22 Y10 I0.22 J0 F150
X99.78 Y10 I-0.22 J0
G1 X99.785 Y9.966
X99.801 Y9.935
X99.825 Y9.911
X99.856 Y9.895
X99.89 Y9.89
X100.128
Z1
Y10.11
Z-3.876
Z-5.4 F50
X99.89
X99.856 Y10.105
X99.825 Y10.089
X99.801 Y10.065
X99.785 Y10.034
X99.78 Y10
G3 X100.22 Y10 I0.22 J0 F150
X99.78 Y10 I-0.22 J0
G1 X99.785 Y9.966
X99.801 Y9.935
X99.825 Y9.911
X99.856 Y9.895
X99.89 Y9.89
X100.128
Z1
Y10.11
Z-4.276
Z-5.8 F50
X99.89
X99.856 Y10.105
X99.825 Y10.089
X99.801 Y10.065
X99.785 Y10.034
X99.78 Y10
G3 X100.22 Y10 I0.22 J0 F150
X99.78 Y10 I-0.22 J0
G1 X99.785 Y9.966
X99.801 Y9.935
X99.825 Y9.911
X99.856 Y9.895
X99.89 Y9.89
X100.128
Z1
Y10.11
Z-4.676
Z-6.2 F50
X99.89
X99.856 Y10.105
X99.825 Y10.089
X99.801 Y10.065
X99.785 Y10.034
X99.78 Y10
G3 X100.22 Y10 I0.22 J0 F150
X99.78 Y10 I-0.22 J0
G1 X99.785 Y9.966
X99.801 Y9.935
X99.825 Y9.911
X99.856 Y9.895
X99.89 Y9.89
X100.128
Z1
Y10.11
Z-4.906
Z-6.43 F50
X99.89
X99.856 Y10.105
X99.825 Y10.089
X99.801 Y10.065
X99.785 Y10.034
X99.78 Y10
G3 X100.22 Y10 I0.22 J0 F150
X99.78 Y10 I-0.22 J0
G1 X99.785 Y9.966
X99.801 Y9.935
X99.825 Y9.911
X99.856 Y9.895
X99.89 Y9.89
X100.128
Z1
Y10.11
Z-5.136
Z-6.66 F50
X99.89
X99.856 Y10.105
X99.825 Y10.089
X99.801 Y10.065
X99.785 Y10.034
X99.78 Y10
G3 X100.22 Y10 I0.22 J0 F150
X99.78 Y10 I-0.22 J0
G1 X99.785 Y9.966
X99.801 Y9.935
X99.825 Y9.911
X99.856 Y9.895
X99.89 Y9.89
X100.128
Z1
X10.128 Y10.11
Z-1.876
Z-3.4 F50
X9.89
X9.856 Y10.105
X9.825 Y10.089
X9.801 Y10.065
X9.785 Y10.034
X9.78 Y10
G3 X10.22 Y10 I0.22 J0 F150
X9.78 Y10 I-0.22 J0
G1 X9.785 Y9.966
X9.801 Y9.935
X9.825 Y9.911
X9.856 Y9.895
X9.89 Y9.89
X10.128
Z1
Y10.11
Z-2.276
Z-3.8 F50
X9.89
X9.856 Y10.105
X9.825 Y10.089
X9.801 Y10.065
X9.785 Y10.034
X9.78 Y10
G3 X10.22 Y10 I0.22 J0 F150
X9.78 Y10 I-0.22 J0
G1 X9.785 Y9.966
X9.801 Y9.935
X9.825 Y9.911
X9.856 Y9.895
X9.89 Y9.89
X10.128
Z1
Y10.11
Z-2.676
Z-4.2 F50
X9.89
X9.856 Y10.105
X9.825 Y10.089
X9.801 Y10.065
X9.785 Y10.034
X9.78 Y10
G3 X10.22 Y10 I0.22 J0 F150
X9.78 Y10 I-0.22 J0
G1 X9.785 Y9.966
X9.801 Y9.935
X9.825 Y9.911
X9.856 Y9.895
X9.89 Y9.89
X10.128
Z1
Y10.11
Z-3.076
Z-4.6 F50
X9.89
X9.856 Y10.105
X9.825 Y10.089
X9.801 Y10.065
X9.785 Y10.034
X9.78 Y10
G3 X10.22 Y10 I0.22 J0 F150
X9.78 Y10 I-0.22 J0
G1 X9.785 Y9.966
X9.801 Y9.935
X9.825 Y9.911
X9.856 Y9.895
X9.89 Y9.89
X10.128
Z1
Y10.11
Z-3.476
Z-5 F50
X9.89
X9.856 Y10.105
X9.825 Y10.089
X9.801 Y10.065
X9.785 Y10.034
X9.78 Y10
G3 X10.22 Y10 I0.22 J0 F150
X9.78 Y10 I-0.22 J0
G1 X9.785 Y9.966
X9.801 Y9.935
X9.825 Y9.911
X9.856 Y9.895
X9.89 Y9.89
X10.128
Z1
Y10.11
Z-3.876
Z-5.4 F50
X9.89
X9.856 Y10.105
X9.825 Y10.089
X9.801 Y10.065
X9.785 Y10.034
X9.78 Y10
G3 X10.22 Y10 I0.22 J0 F150
X9.78 Y10 I-0.22 J0
G1 X9.785 Y9.966
X9.801 Y9.935
X9.825 Y9.911
X9.856 Y9.895
X9.89 Y9.89
X10.128
Z1
Y10.11
Z-4.276
Z-5.8 F50
X9.89
X9.856 Y10.105
X9.825 Y10.089
X9.801 Y10.065
X9.785 Y10.034
X9.78 Y10
G3 X10.22 Y10 I0.22 J0 F150
X9.78 Y10 I-0.22 J0
G1 X9.785 Y9.966
X9.801 Y9.935
X9.825 Y9.911
X9.856 Y9.895
X9.89 Y9.89
X10.128
Z1
Y10.11
Z-4.676
Z-6.2 F50
X9.89
X9.856 Y10.105
X9.825 Y10.089
X9.801 Y10.065
X9.785 Y10.034
X9.78 Y10
G3 X10.22 Y10 I0.22 J0 F150
X9.78 Y10 I-0.22 J0
G1 X9.785 Y9.966
X9.801 Y9.935
X9.825 Y9.911
X9.856 Y9.895
X9.89 Y9.89
X10.128
Z1
Y10.11
Z-4.906
Z-6.43 F50
X9.89
X9.856 Y10.105
X9.825 Y10.089
X9.801 Y10.065
X9.785 Y10.034
X9.78 Y10
G3 X10.22 Y10 I0.22 J0 F150
X9.78 Y10 I-0.22 J0
G1 X9.785 Y9.966
X9.801 Y9.935
X9.825 Y9.911
X9.856 Y9.895
X9.89 Y9.89
X10.128
Z1
Y10.11
Z-5.136
Z-6.66 F50
X9.89
X9.856 Y10.105
X9.825 Y10.089
X9.801 Y10.065
X9.785 Y10.034
X9.78 Y10
G3 X10.22 Y10 I0.22 J0 F150
X9.78 Y10 I-0.22 J0
G1 X9.785 Y9.966
X9.801 Y9.935
X9.825 Y9.911
X9.856 Y9.895
X9.89 Y9.89
X10.128
Z1
Y100.11
Z-1.876
Z-3.4 F50
X9.89
X9.856 Y100.105
X9.825 Y100.089
X9.801 Y100.065
X9.785 Y100.034
X9.78 Y100
G3 X10.22 Y100 I0.22 J0 F150
X9.78 Y100 I-0.22 J0
G1 X9.785 Y99.966
X9.801 Y99.935
X9.825 Y99.911
X9.856 Y99.895
X9.89 Y99.89
X10.128
Z1
Y100.11
Z-2.276
Z-3.8 F50
X9.89
X9.856 Y100.105
X9.825 Y100.089
X9.801 Y100.065
X9.785 Y100.034
X9.78 Y100
G3 X10.22 Y100 I0.22 J0 F150
X9.78 Y100 I-0.22 J0
G1 X9.785 Y99.966
X9.801 Y99.935
X9.825 Y99.911
X9.856 Y99.895
X9.89 Y99.89
X10.128
Z1
Y100.11
Z-2.676
Z-4.2 F50
X9.89
X9.856 Y100.105
X9.825 Y100.089
X9.801 Y100.065
X9.785 Y100.034
X9.78 Y100
G3 X10.22 Y100 I0.22 J0 F150
X9.78 Y100 I-0.22 J0
G1 X9.785 Y99.966
X9.801 Y99.935
X9.825 Y99.911
X9.856 Y99.895
X9.89 Y99.89
X10.128
Z1
Y100.11
Z-3.076
Z-4.6 F50
X9.89
X9.856 Y100.105
X9.825 Y100.089
X9.801 Y100.065
X9.785 Y100.034
X9.78 Y100
G3 X10.22 Y100 I0.22 J0 F150
X9.78 Y100 I-0.22 J0
G1 X9.785 Y99.966
X9.801 Y99.935
X9.825 Y99.911
X9.856 Y99.895
X9.89 Y99.89
X10.128
Z1
Y100.11
Z-3.476
Z-5 F50
X9.89
X9.856 Y100.105
X9.825 Y100.089
X9.801 Y100.065
X9.785 Y100.034
X9.78 Y100
G3 X10.22 Y100 I0.22 J0 F150
X9.78 Y100 I-0.22 J0
G1 X9.785 Y99.966
X9.801 Y99.935
X9.825 Y99.911
X9.856 Y99.895
X9.89 Y99.89
X10.128
Z1
Y100.11
Z-3.876
Z-5.4 F50
X9.89
X9.856 Y100.105
X9.825 Y100.089
X9.801 Y100.065
X9.785 Y100.034
X9.78 Y100
G3 X10.22 Y100 I0.22 J0 F150
X9.78 Y100 I-0.22 J0
G1 X9.785 Y99.966
X9.801 Y99.935
X9.825 Y99.911
X9.856 Y99.895
X9.89 Y99.89
X10.128
Z1
Y100.11
Z-4.276
Z-5.8 F50
X9.89
X9.856 Y100.105
X9.825 Y100.089
X9.801 Y100.065
X9.785 Y100.034
X9.78 Y100
G3 X10.22 Y100 I0.22 J0 F150
X9.78 Y100 I-0.22 J0
G1 X9.785 Y99.966
X9.801 Y99.935
X9.825 Y99.911
X9.856 Y99.895
X9.89 Y99.89
X10.128
Z1
Y100.11
Z-4.676
Z-6.2 F50
X9.89
X9.856 Y100.105
X9.825 Y100.089
X9.801 Y100.065
X9.785 Y100.034
X9.78 Y100
G3 X10.22 Y100 I0.22 J0 F150
X9.78 Y100 I-0.22 J0
G1 X9.785 Y99.966
X9.801 Y99.935
X9.825 Y99.911
X9.856 Y99.895
X9.89 Y99.89
X10.128
Z1
Y100.11
Z-4.906
Z-6.43 F50
X9.89
X9.856 Y100.105
X9.825 Y100.089
X9.801 Y100.065
X9.785 Y100.034
X9.78 Y100
G3 X10.22 Y100 I0.22 J0 F150
X9.78 Y100 I-0.22 J0
G1 X9.785 Y99.966
X9.801 Y99.935
X9.825 Y99.911
X9.856 Y99.895
X9.89 Y99.89
X10.128
Z1
Y100.11
Z-5.136
Z-6.66 F50
X9.89
X9.856 Y100.105
X9.825 Y100.089
X9.801 Y100.065
X9.785 Y100.034
X9.78 Y100
G3 X10.22 Y100 I0.22 J0 F150
X9.78 Y100 I-0.22 J0
G1 X9.785 Y99.966
X9.801 Y99.935
X9.825 Y99.911
X9.856 Y99.895
X9.89 Y99.89
X10.128
Z1
X100.128 Y100.11
Z-1.876
Z-3.4 F50
X99.89
X99.856 Y100.105
X99.825 Y100.089
X99.801 Y100.065
X99.785 Y100.034
X99.78 Y100
G3 X100.22 Y100 I0.22 J0 F150
X99.78 Y100 I-0.22 J0
G1 X99.785 Y99.966
X99.801 Y99.935
X99.825 Y99.911
X99.856 Y99.895
X99.89 Y99.89
X100.128
Z1
Y100.11
Z-2.276
Z-3.8 F50
X99.89
X99.856 Y100.105
X99.825 Y100.089
X99.801 Y100.065
X99.785 Y100.034
X99.78 Y100
G3 X100.22 Y100 I0.22 J0 F150
X99.78 Y100 I-0.22 J0
G1 X99.785 Y99.966
X99.801 Y99.935
X99.825 Y99.911
X99.856 Y99.895
X99.89 Y99.89
X100.128
Z1
Y100.11
Z-2.676
Z-4.2 F50
X99.89
X99.856 Y100.105
X99.825 Y100.089
X99.801 Y100.065
X99.785 Y100.034
X99.78 Y100
G3 X100.22 Y100 I0.22 J0 F150
X99.78 Y100 I-0.22 J0
G1 X99.785 Y99.966
X99.801 Y99.935
X99.825 Y99.911
X99.856 Y99.895
X99.89 Y99.89
X100.128
Z1
Y100.11
Z-3.076
Z-4.6 F50
X99.89
X99.856 Y100.105
X99.825 Y100.089
X99.801 Y100.065
X99.785 Y100.034
X99.78 Y100
G3 X100.22 Y100 I0.22 J0 F150
X99.78 Y100 I-0.22 J0
G1 X99.785 Y99.966
X99.801 Y99.935
X99.825 Y99.911
X99.856 Y99.895
X99.89 Y99.89
X100.128
Z1
Y100.11
Z-3.476
Z-5 F50
X99.89
X99.856 Y100.105
X99.825 Y100.089
X99.801 Y100.065
X99.785 Y100.034
X99.78 Y100
G3 X100.22 Y100 I0.22 J0 F150
X99.78 Y100 I-0.22 J0
G1 X99.785 Y99.966
X99.801 Y99.935
X99.825 Y99.911
X99.856 Y99.895
X99.89 Y99.89
X100.128
Z1
Y100.11
Z-3.876
Z-5.4 F50
X99.89
X99.856 Y100.105
X99.825 Y100.089
X99.801 Y100.065
X99.785 Y100.034
X99.78 Y100
G3 X100.22 Y100 I0.22 J0 F150
X99.78 Y100 I-0.22 J0
G1 X99.785 Y99.966
X99.801 Y99.935
X99.825 Y99.911
X99.856 Y99.895
X99.89 Y99.89
X100.128
Z1
Y100.11
Z-4.276
Z-5.8 F50
X99.89
X99.856 Y100.105
X99.825 Y100.089
X99.801 Y100.065
X99.785 Y100.034
X99.78 Y100
G3 X100.22 Y100 I0.22 J0 F150
X99.78 Y100 I-0.22 J0
G1 X99.785 Y99.966
X99.801 Y99.935
X99.825 Y99.911
X99.856 Y99.895
X99.89 Y99.89
X100.128
Z1
Y100.11
Z-4.676
Z-6.2 F50
X99.89
X99.856 Y100.105
X99.825 Y100.089
X99.801 Y100.065
X99.785 Y100.034
X99.78 Y100
G3 X100.22 Y100 I0.22 J0 F150
X99.78 Y100 I-0.22 J0
G1 X99.785 Y99.966
X99.801 Y99.935
X99.825 Y99.911
X99.856 Y99.895
X99.89 Y99.89
X100.128
Z1
Y100.11
Z-4.906
Z-6.43 F50
X99.89
X99.856 Y100.105
X99.825 Y100.089
X99.801 Y100.065
X99.785 Y100.034
X99.78 Y100
G3 X100.22 Y100 I0.22 J0 F150
X99.78 Y100 I-0.22 J0
G1 X99.785 Y99.966
X99.801 Y99.935
X99.825 Y99.911
X99.856 Y99.895
X99.89 Y99.89
X100.128
Z1
Y100.11
Z-5.136
Z-6.66 F50
X99.89
X99.856 Y100.105
X99.825 Y100.089
X99.801 Y100.065
X99.785 Y100.034
X99.78 Y100
G3 X100.22 Y100 I0.22 J0 F150
X99.78 Y100 I-0.22 J0
G1 X99.785 Y99.966
X99.801 Y99.935
X99.825 Y99.911
X99.856 Y99.895
X99.89 Y99.89
X100.128
Z4
(When using Fusion for Personal Use, the feedrate of rapid)
(moves is reduced to match the feedrate of cutting moves,)
(which can increase machining time. Unrestricted rapid moves)
(are available with a Fusion Subscription.)

(inner holes)
G0 X24.256 Y72.75
G1 Z4 F150
Z-1.876
Z-3.4 F50
X24.196 Y72.81
X24.173 Y72.805
X24.154 Y72.792
X24.141 Y72.773
X24.136 Y72.75
G3 X24.376 Y72.75 I0.12 J0 F150
X24.136 Y72.75 I-0.12 J0
G1 X24.141 Y72.727
X24.154 Y72.708
X24.173 Y72.695
X24.196 Y72.69
X24.256 Y72.75
Z1
Z-2.276
Z-3.8 F50
X24.196 Y72.81
X24.173 Y72.805
X24.154 Y72.792
X24.141 Y72.773
X24.136 Y72.75
G3 X24.376 Y72.75 I0.12 J0 F150
X24.136 Y72.75 I-0.12 J0
G1 X24.141 Y72.727
X24.154 Y72.708
X24.173 Y72.695
X24.196 Y72.69
X24.256 Y72.75
Z1
Z-2.676
Z-4.2 F50
X24.196 Y72.81
X24.173 Y72.805
X24.154 Y72.792
X24.141 Y72.773
X24.136 Y72.75
G3 X24.376 Y72.75 I0.12 J0 F150
X24.136 Y72.75 I-0.12 J0
G1 X24.141 Y72.727
X24.154 Y72.708
X24.173 Y72.695
X24.196 Y72.69
X24.256 Y72.75
Z1
Z-3.076
Z-4.6 F50
X24.196 Y72.81
X24.173 Y72.805
X24.154 Y72.792
X24.141 Y72.773
X24.136 Y72.75
G3 X24.376 Y72.75 I0.12 J0 F150
X24.136 Y72.75 I-0.12 J0
G1 X24.141 Y72.727
X24.154 Y72.708
X24.173 Y72.695
X24.196 Y72.69
X24.256 Y72.75
Z1
Z-3.476
Z-5 F50
X24.196 Y72.81
X24.173 Y72.805
X24.154 Y72.792
X24.141 Y72.773
X24.136 Y72.75
G3 X24.376 Y72.75 I0.12 J0 F150
X24.136 Y72.75 I-0.12 J0
G1 X24.141 Y72.727
X24.154 Y72.708
X24.173 Y72.695
X24.196 Y72.69
X24.256 Y72.75
Z1
Z-3.876
Z-5.4 F50
X24.196 Y72.81
X24.173 Y72.805
X24.154 Y72.792
X24.141 Y72.773
X24.136 Y72.75
G3 X24.376 Y72.75 I0.12 J0 F150
X24.136 Y72.75 I-0.12 J0
G1 X24.141 Y72.727
X24.154 Y72.708
X24.173 Y72.695
X24.196 Y72.69
X24.256 Y72.75
Z1
Z-4.276
Z-5.8 F50
X24.196 Y72.81
X24.173 Y72.805
X24.154 Y72.792
X24.141 Y72.773
X24.136 Y72.75
G3 X24.376 Y72.75 I0.12 J0 F150
X24.136 Y72.75 I-0.12 J0
G1 X24.141 Y72.727
X24.154 Y72.708
X24.173 Y72.695
X24.196 Y72.69
X24.256 Y72.75
Z1
Z-4.676
Z-6.2 F50
X24.196 Y72.81
X24.173 Y72.805
X24.154 Y72.792
X24.141 Y72.773
X24.136 Y72.75
G3 X24.376 Y72.75 I0.12 J0 F150
X24.136 Y72.75 I-0.12 J0
G1 X24.141 Y72.727
X24.154 Y72.708
X24.173 Y72.695
X24.196 Y72.69
X24.256 Y72.75
Z1
Z-4.906
Z-6.43 F50
X24.196 Y72.81
X24.173 Y72.805
X24.154 Y72.792
X24.141 Y72.773
X24.136 Y72.75
G3 X24.376 Y72.75 I0.12 J0 F150
X24.136 Y72.75 I-0.12 J0
G1 X24.141 Y72.727
X24.154 Y72.708
X24.173 Y72.695
X24.196 Y72.69
X24.256 Y72.75
Z1
Z-5.136
Z-6.66 F50
X24.196 Y72.81
X24.173 Y72.805
X24.154 Y72.792
X24.141 Y72.773
X24.136 Y72.75
G3 X24.376 Y72.75 I0.12 J0 F150
X24.136 Y72.75 I-0.12 J0
G1 X24.141 Y72.727
X24.154 Y72.708
X24.173 Y72.695
X24.196 Y72.69
X24.256 Y72.75
Z1
X37.25 Y85.744
Z-1.876
Z-3.4 F50
X37.19 Y85.804
X37.167 Y85.799
X37.148 Y85.786
X37.135 Y85.767
X37.13 Y85.744
G3 X37.37 Y85.744 I0.12 J0 F150
X37.13 Y85.744 I-0.12 J0
G1 X37.135 Y85.721
X37.148 Y85.701
X37.167 Y85.688
X37.19 Y85.684
X37.25 Y85.744
Z1
Z-2.276
Z-3.8 F50
X37.19 Y85.804
X37.167 Y85.799
X37.148 Y85.786
X37.135 Y85.767
X37.13 Y85.744
G3 X37.37 Y85.744 I0.12 J0 F150
X37.13 Y85.744 I-0.12 J0
G1 X37.135 Y85.721
X37.148 Y85.701
X37.167 Y85.688
X37.19 Y85.684
X37.25 Y85.744
Z1
Z-2.676
Z-4.2 F50
X37.19 Y85.804
X37.167 Y85.799
X37.148 Y85.786
X37.135 Y85.767
X37.13 Y85.744
G3 X37.37 Y85.744 I0.12 J0 F150
X37.13 Y85.744 I-0.12 J0
G1 X37.135 Y85.721
X37.148 Y85.701
X37.167 Y85.688
X37.19 Y85.684
X37.25 Y85.744
Z1
Z-3.076
Z-4.6 F50
X37.19 Y85.804
X37.167 Y85.799
X37.148 Y85.786
X37.135 Y85.767
X37.13 Y85.744
G3 X37.37 Y85.744 I0.12 J0 F150
X37.13 Y85.744 I-0.12 J0
G1 X37.135 Y85.721
X37.148 Y85.701
X37.167 Y85.688
X37.19 Y85.684
X37.25 Y85.744
Z1
Z-3.476
Z-5 F50
X37.19 Y85.804
X37.167 Y85.799
X37.148 Y85.786
X37.135 Y85.767
X37.13 Y85.744
G3 X37.37 Y85.744 I0.12 J0 F150
X37.13 Y85.744 I-0.12 J0
G1 X37.135 Y85.721
X37.148 Y85.701
X37.167 Y85.688
X37.19 Y85.684
X37.25 Y85.744
Z1
Z-3.876
Z-5.4 F50
X37.19 Y85.804
X37.167 Y85.799
X37.148 Y85.786
X37.135 Y85.767
X37.13 Y85.744
G3 X37.37 Y85.744 I0.12 J0 F150
X37.13 Y85.744 I-0.12 J0
G1 X37.135 Y85.721
X37.148 Y85.701
X37.167 Y85.688
X37.19 Y85.684
X37.25 Y85.744
Z1
Z-4.276
Z-5.8 F50
X37.19 Y85.804
X37.167 Y85.799
X37.148 Y85.786
X37.135 Y85.767
X37.13 Y85.744
G3 X37.37 Y85.744 I0.12 J0 F150
X37.13 Y85.744 I-0.12 J0
G1 X37.135 Y85.721
X37.148 Y85.701
X37.167 Y85.688
X37.19 Y85.684
X37.25 Y85.744
Z1
Z-4.676
Z-6.2 F50
X37.19 Y85.804
X37.167 Y85.799
X37.148 Y85.786
X37.135 Y85.767
X37.13 Y85.744
G3 X37.37 Y85.744 I0.12 J0 F150
X37.13 Y85.744 I-0.12 J0
G1 X37.135 Y85.721
X37.148 Y85.701
X37.167 Y85.688
X37.19 Y85.684
X37.25 Y85.744
Z1
Z-4.906
Z-6.43 F50
X37.19 Y85.804
X37.167 Y85.799
X37.148 Y85.786
X37.135 Y85.767
X37.13 Y85.744
G3 X37.37 Y85.744 I0.12 J0 F150
X37.13 Y85.744 I-0.12 J0
G1 X37.135 Y85.721
X37.148 Y85.701
X37.167 Y85.688
X37.19 Y85.684
X37.25 Y85.744
Z1
Z-5.136
Z-6.66 F50
X37.19 Y85.804
X37.167 Y85.799
X37.148 Y85.786
X37.135 Y85.767
X37.13 Y85.744
G3 X37.37 Y85.744 I0.12 J0 F150
X37.13 Y85.744 I-0.12 J0
G1 X37.135 Y85.721
X37.148 Y85.701
X37.167 Y85.688
X37.19 Y85.684
X37.25 Y85.744
Z1
X55 Y90.5
Z-1.876
Z-3.4 F50
X54.94 Y90.56
X54.917 Y90.555
X54.898 Y90.542
X54.885 Y90.523
X54.88 Y90.5
G3 X55.12 Y90.5 I0.12 J0 F150
X54.88 Y90.5 I-0.12 J0
G1 X54.885 Y90.477
X54.898 Y90.458
X54.917 Y90.445
X54.94 Y90.44
X55 Y90.5
Z1
Z-2.276
Z-3.8 F50
X54.94 Y90.56
X54.917 Y90.555
X54.898 Y90.542
X54.885 Y90.523
X54.88 Y90.5
G3 X55.12 Y90.5 I0.12 J0 F150
X54.88 Y90.5 I-0.12 J0
G1 X54.885 Y90.477
X54.898 Y90.458
X54.917 Y90.445
X54.94 Y90.44
X55 Y90.5
Z1
Z-2.676
Z-4.2 F50
X54.94 Y90.56
X54.917 Y90.555
X54.898 Y90.542
X54.885 Y90.523
X54.88 Y90.5
G3 X55.12 Y90.5 I0.12 J0 F150
X54.88 Y90.5 I-0.12 J0
G1 X54.885 Y90.477
X54.898 Y90.458
X54.917 Y90.445
X54.94 Y90.44
X55 Y90.5
Z1
Z-3.076
Z-4.6 F50
X54.94 Y90.56
X54.917 Y90.555
X54.898 Y90.542
X54.885 Y90.523
X54.88 Y90.5
G3 X55.12 Y90.5 I0.12 J0 F150
X54.88 Y90.5 I-0.12 J0
G1 X54.885 Y90.477
X54.898 Y90.458
X54.917 Y90.445
X54.94 Y90.44
X55 Y90.5
Z1
Z-3.476
Z-5 F50
X54.94 Y90.56
X54.917 Y90.555
X54.898 Y90.542
X54.885 Y90.523
X54.88 Y90.5
G3 X55.12 Y90.5 I0.12 J0 F150
X54.88 Y90.5 I-0.12 J0
G1 X54.885 Y90.477
X54.898 Y90.458
X54.917 Y90.445
X54.94 Y90.44
X55 Y90.5
Z1
Z-3.876
Z-5.4 F50
X54.94 Y90.56
X54.917 Y90.555
X54.898 Y90.542
X54.885 Y90.523
X54.88 Y90.5
G3 X55.12 Y90.5 I0.12 J0 F150
X54.88 Y90.5 I-0.12 J0
G1 X54.885 Y90.477
X54.898 Y90.458
X54.917 Y90.445
X54.94 Y90.44
X55 Y90.5
Z1
Z-4.276
Z-5.8 F50
X54.94 Y90.56
X54.917 Y90.555
X54.898 Y90.542
X54.885 Y90.523
X54.88 Y90.5
G3 X55.12 Y90.5 I0.12 J0 F150
X54.88 Y90.5 I-0.12 J0
G1 X54.885 Y90.477
X54.898 Y90.458
X54.917 Y90.445
X54.94 Y90.44
X55 Y90.5
Z1
Z-4.676
Z-6.2 F50
X54.94 Y90.56
X54.917 Y90.555
X54.898 Y90.542
X54.885 Y90.523
X54.88 Y90.5
G3 X55.12 Y90.5 I0.12 J0 F150
X54.88 Y90.5 I-0.12 J0
G1 X54.885 Y90.477
X54.898 Y90.458
X54.917 Y90.445
X54.94 Y90.44
X55 Y90.5
Z1
Z-4.906
Z-6.43 F50
X54.94 Y90.56
X54.917 Y90.555
X54.898 Y90.542
X54.885 Y90.523
X54.88 Y90.5
G3 X55.12 Y90.5 I0.12 J0 F150
X54.88 Y90.5 I-0.12 J0
G1 X54.885 Y90.477
X54.898 Y90.458
X54.917 Y90.445
X54.94 Y90.44
X55 Y90.5
Z1
Z-5.136
Z-6.66 F50
X54.94 Y90.56
X54.917 Y90.555
X54.898 Y90.542
X54.885 Y90.523
X54.88 Y90.5
G3 X55.12 Y90.5 I0.12 J0 F150
X54.88 Y90.5 I-0.12 J0
G1 X54.885 Y90.477
X54.898 Y90.458
X54.917 Y90.445
X54.94 Y90.44
X55 Y90.5
Z1
X72.75 Y85.744
Z-1.876
Z-3.4 F50
X72.69 Y85.804
X72.667 Y85.799
X72.648 Y85.786
X72.635 Y85.767
X72.63 Y85.744
G3 X72.87 Y85.744 I0.12 J0 F150
X72.63 Y85.744 I-0.12 J0
G1 X72.635 Y85.721
X72.648 Y85.701
X72.667 Y85.688
X72.69 Y85.684
X72.75 Y85.744
Z1
Z-2.276
Z-3.8 F50
X72.69 Y85.804
X72.667 Y85.799
X72.648 Y85.786
X72.635 Y85.767
X72.63 Y85.744
G3 X72.87 Y85.744 I0.12 J0 F150
X72.63 Y85.744 I-0.12 J0
G1 X72.635 Y85.721
X72.648 Y85.701
X72.667 Y85.688
X72.69 Y85.684
X72.75 Y85.744
Z1
Z-2.676
Z-4.2 F50
X72.69 Y85.804
X72.667 Y85.799
X72.648 Y85.786
X72.635 Y85.767
X72.63 Y85.744
G3 X72.87 Y85.744 I0.12 J0 F150
X72.63 Y85.744 I-0.12 J0
G1 X72.635 Y85.721
X72.648 Y85.701
X72.667 Y85.688
X72.69 Y85.684
X72.75 Y85.744
Z1
Z-3.076
Z-4.6 F50
X72.69 Y85.804
X72.667 Y85.799
X72.648 Y85.786
X72.635 Y85.767
X72.63 Y85.744
G3 X72.87 Y85.744 I0.12 J0 F150
X72.63 Y85.744 I-0.12 J0
G1 X72.635 Y85.721
X72.648 Y85.701
X72.667 Y85.688
X72.69 Y85.684
X72.75 Y85.744
Z1
Z-3.476
Z-5 F50
X72.69 Y85.804
X72.667 Y85.799
X72.648 Y85.786
X72.635 Y85.767
X72.63 Y85.744
G3 X72.87 Y85.744 I0.12 J0 F150
X72.63 Y85.744 I-0.12 J0
G1 X72.635 Y85.721
X72.648 Y85.701
X72.667 Y85.688
X72.69 Y85.684
X72.75 Y85.744
Z1
Z-3.876
Z-5.4 F50
X72.69 Y85.804
X72.667 Y85.799
X72.648 Y85.786
X72.635 Y85.767
X72.63 Y85.744
G3 X72.87 Y85.744 I0.12 J0 F150
X72.63 Y85.744 I-0.12 J0
G1 X72.635 Y85.721
X72.648 Y85.701
X72.667 Y85.688
X72.69 Y85.684
X72.75 Y85.744
Z1
Z-4.276
Z-5.8 F50
X72.69 Y85.804
X72.667 Y85.799
X72.648 Y85.786
X72.635 Y85.767
X72.63 Y85.744
G3 X72.87 Y85.744 I0.12 J0 F150
X72.63 Y85.744 I-0.12 J0
G1 X72.635 Y85.721
X72.648 Y85.701
X72.667 Y85.688
X72.69 Y85.684
X72.75 Y85.744
Z1
Z-4.676
Z-6.2 F50
X72.69 Y85.804
X72.667 Y85.799
X72.648 Y85.786
X72.635 Y85.767
X72.63 Y85.744
G3 X72.87 Y85.744 I0.12 J0 F150
X72.63 Y85.744 I-0.12 J0
G1 X72.635 Y85.721
X72.648 Y85.701
X72.667 Y85.688
X72.69 Y85.684
X72.75 Y85.744
Z1
Z-4.906
Z-6.43 F50
X72.69 Y85.804
X72.667 Y85.799
X72.648 Y85.786
X72.635 Y85.767
X72.63 Y85.744
G3 X72.87 Y85.744 I0.12 J0 F150
X72.63 Y85.744 I-0.12 J0
G1 X72.635 Y85.721
X72.648 Y85.701
X72.667 Y85.688
X72.69 Y85.684
X72.75 Y85.744
Z1
Z-5.136
Z-6.66 F50
X72.69 Y85.804
X72.667 Y85.799
X72.648 Y85.786
X72.635 Y85.767
X72.63 Y85.744
G3 X72.87 Y85.744 I0.12 J0 F150
X72.63 Y85.744 I-0.12 J0
G1 X72.635 Y85.721
X72.648 Y85.701
X72.667 Y85.688
X72.69 Y85.684
X72.75 Y85.744
Z1
X85.744 Y72.75
Z-1.876
Z-3.4 F50
X85.684 Y72.81
X85.661 Y72.805
X85.641 Y72.792
X85.628 Y72.773
X85.624 Y72.75
G3 X85.864 Y72.75 I0.12 J0 F150
X85.624 Y72.75 I-0.12 J0
G1 X85.628 Y72.727
X85.641 Y72.708
X85.661 Y72.695
X85.684 Y72.69
X85.744 Y72.75
Z1
Z-2.276
Z-3.8 F50
X85.684 Y72.81
X85.661 Y72.805
X85.641 Y72.792
X85.628 Y72.773
X85.624 Y72.75
G3 X85.864 Y72.75 I0.12 J0 F150
X85.624 Y72.75 I-0.12 J0
G1 X85.628 Y72.727
X85.641 Y72.708
X85.661 Y72.695
X85.684 Y72.69
X85.744 Y72.75
Z1
Z-2.676
Z-4.2 F50
X85.684 Y72.81
X85.661 Y72.805
X85.641 Y72.792
X85.628 Y72.773
X85.624 Y72.75
G3 X85.864 Y72.75 I0.12 J0 F150
X85.624 Y72.75 I-0.12 J0
G1 X85.628 Y72.727
X85.641 Y72.708
X85.661 Y72.695
X85.684 Y72.69
X85.744 Y72.75
Z1
Z-3.076
Z-4.6 F50
X85.684 Y72.81
X85.661 Y72.805
X85.641 Y72.792
X85.628 Y72.773
X85.624 Y72.75
G3 X85.864 Y72.75 I0.12 J0 F150
X85.624 Y72.75 I-0.12 J0
G1 X85.628 Y72.727
X85.641 Y72.708
X85.661 Y72.695
X85.684 Y72.69
X85.744 Y72.75
Z1
Z-3.476
Z-5 F50
X85.684 Y72.81
X85.661 Y72.805
X85.641 Y72.792
X85.628 Y72.773
X85.624 Y72.75
G3 X85.864 Y72.75 I0.12 J0 F150
X85.624 Y72.75 I-0.12 J0
G1 X85.628 Y72.727
X85.641 Y72.708
X85.661 Y72.695
X85.684 Y72.69
X85.744 Y72.75
Z1
Z-3.876
Z-5.4 F50
X85.684 Y72.81
X85.661 Y72.805
X85.641 Y72.792
X85.628 Y72.773
X85.624 Y72.75
G3 X85.864 Y72.75 I0.12 J0 F150
X85.624 Y72.75 I-0.12 J0
G1 X85.628 Y72.727
X85.641 Y72.708
X85.661 Y72.695
X85.684 Y72.69
X85.744 Y72.75
Z1
Z-4.276
Z-5.8 F50
X85.684 Y72.81
X85.661 Y72.805
X85.641 Y72.792
X85.628 Y72.773
X85.624 Y72.75
G3 X85.864 Y72.75 I0.12 J0 F150
X85.624 Y72.75 I-0.12 J0
G1 X85.628 Y72.727
X85.641 Y72.708
X85.661 Y72.695
X85.684 Y72.69
X85.744 Y72.75
Z1
Z-4.676
Z-6.2 F50
X85.684 Y72.81
X85.661 Y72.805
X85.641 Y72.792
X85.628 Y72.773
X85.624 Y72.75
G3 X85.864 Y72.75 I0.12 J0 F150
X85.624 Y72.75 I-0.12 J0
G1 X85.628 Y72.727
X85.641 Y72.708
X85.661 Y72.695
X85.684 Y72.69
X85.744 Y72.75
Z1
Z-4.906
Z-6.43 F50
X85.684 Y72.81
X85.661 Y72.805
X85.641 Y72.792
X85.628 Y72.773
X85.624 Y72.75
G3 X85.864 Y72.75 I0.12 J0 F150
X85.624 Y72.75 I-0.12 J0
G1 X85.628 Y72.727
X85.641 Y72.708
X85.661 Y72.695
X85.684 Y72.69
X85.744 Y72.75
Z1
Z-5.136
Z-6.66 F50
X85.684 Y72.81
X85.661 Y72.805
X85.641 Y72.792
X85.628 Y72.773
X85.624 Y72.75
G3 X85.864 Y72.75 I0.12 J0 F150
X85.624 Y72.75 I-0.12 J0
G1 X85.628 Y72.727
X85.641 Y72.708
X85.661 Y72.695
X85.684 Y72.69
X85.744 Y72.75
Z1
X90.5 Y55
Z-1.876
Z-3.4 F50
X90.44 Y55.06
X90.417 Y55.055
X90.398 Y55.042
X90.385 Y55.023
X90.38 Y55
G3 X90.62 Y55 I0.12 J0 F150
X90.38 Y55 I-0.12 J0
G1 X90.385 Y54.977
X90.398 Y54.958
X90.417 Y54.945
X90.44 Y54.94
X90.5 Y55
Z1
Z-2.276
Z-3.8 F50
X90.44 Y55.06
X90.417 Y55.055
X90.398 Y55.042
X90.385 Y55.023
X90.38 Y55
G3 X90.62 Y55 I0.12 J0 F150
X90.38 Y55 I-0.12 J0
G1 X90.385 Y54.977
X90.398 Y54.958
X90.417 Y54.945
X90.44 Y54.94
X90.5 Y55
Z1
Z-2.676
Z-4.2 F50
X90.44 Y55.06
X90.417 Y55.055
X90.398 Y55.042
X90.385 Y55.023
X90.38 Y55
G3 X90.62 Y55 I0.12 J0 F150
X90.38 Y55 I-0.12 J0
G1 X90.385 Y54.977
X90.398 Y54.958
X90.417 Y54.945
X90.44 Y54.94
X90.5 Y55
Z1
Z-3.076
Z-4.6 F50
X90.44 Y55.06
X90.417 Y55.055
X90.398 Y55.042
X90.385 Y55.023
X90.38 Y55
G3 X90.62 Y55 I0.12 J0 F150
X90.38 Y55 I-0.12 J0
G1 X90.385 Y54.977
X90.398 Y54.958
X90.417 Y54.945
X90.44 Y54.94
X90.5 Y55
Z1
Z-3.476
Z-5 F50
X90.44 Y55.06
X90.417 Y55.055
X90.398 Y55.042
X90.385 Y55.023
X90.38 Y55
G3 X90.62 Y55 I0.12 J0 F150
X90.38 Y55 I-0.12 J0
G1 X90.385 Y54.977
X90.398 Y54.958
X90.417 Y54.945
X90.44 Y54.94
X90.5 Y55
Z1
Z-3.876
Z-5.4 F50
X90.44 Y55.06
X90.417 Y55.055
X90.398 Y55.042
X90.385 Y55.023
X90.38 Y55
G3 X90.62 Y55 I0.12 J0 F150
X90.38 Y55 I-0.12 J0
G1 X90.385 Y54.977
X90.398 Y54.958
X90.417 Y54.945
X90.44 Y54.94
X90.5 Y55
Z1
Z-4.276
Z-5.8 F50
X90.44 Y55.06
X90.417 Y55.055
X90.398 Y55.042
X90.385 Y55.023
X90.38 Y55
G3 X90.62 Y55 I0.12 J0 F150
X90.38 Y55 I-0.12 J0
G1 X90.385 Y54.977
X90.398 Y54.958
X90.417 Y54.945
X90.44 Y54.94
X90.5 Y55
Z1
Z-4.676
Z-6.2 F50
X90.44 Y55.06
X90.417 Y55.055
X90.398 Y55.042
X90.385 Y55.023
X90.38 Y55
G3 X90.62 Y55 I0.12 J0 F150
X90.38 Y55 I-0.12 J0
G1 X90.385 Y54.977
X90.398 Y54.958
X90.417 Y54.945
X90.44 Y54.94
X90.5 Y55
Z1
Z-4.906
Z-6.43 F50
X90.44 Y55.06
X90.417 Y55.055
X90.398 Y55.042
X90.385 Y55.023
X90.38 Y55
G3 X90.62 Y55 I0.12 J0 F150
X90.38 Y55 I-0.12 J0
G1 X90.385 Y54.977
X90.398 Y54.958
X90.417 Y54.945
X90.44 Y54.94
X90.5 Y55
Z1
Z-5.136
Z-6.66 F50
X90.44 Y55.06
X90.417 Y55.055
X90.398 Y55.042
X90.385 Y55.023
X90.38 Y55
G3 X90.62 Y55 I0.12 J0 F150
X90.38 Y55 I-0.12 J0
G1 X90.385 Y54.977
X90.398 Y54.958
X90.417 Y54.945
X90.44 Y54.94
X90.5 Y55
Z1
X85.744 Y37.25
Z-1.876
Z-3.4 F50
X85.684 Y37.31
X85.661 Y37.305
X85.641 Y37.292
X85.628 Y37.273
X85.624 Y37.25
G3 X85.864 Y37.25 I0.12 J0 F150
X85.624 Y37.25 I-0.12 J0
G1 X85.628 Y37.227
X85.641 Y37.208
X85.661 Y37.195
X85.684 Y37.19
X85.744 Y37.25
Z1
Z-2.276
Z-3.8 F50
X85.684 Y37.31
X85.661 Y37.305
X85.641 Y37.292
X85.628 Y37.273
X85.624 Y37.25
G3 X85.864 Y37.25 I0.12 J0 F150
X85.624 Y37.25 I-0.12 J0
G1 X85.628 Y37.227
X85.641 Y37.208
X85.661 Y37.195
X85.684 Y37.19
X85.744 Y37.25
Z1
Z-2.676
Z-4.2 F50
X85.684 Y37.31
X85.661 Y37.305
X85.641 Y37.292
X85.628 Y37.273
X85.624 Y37.25
G3 X85.864 Y37.25 I0.12 J0 F150
X85.624 Y37.25 I-0.12 J0
G1 X85.628 Y37.227
X85.641 Y37.208
X85.661 Y37.195
X85.684 Y37.19
X85.744 Y37.25
Z1
Z-3.076
Z-4.6 F50
X85.684 Y37.31
X85.661 Y37.305
X85.641 Y37.292
X85.628 Y37.273
X85.624 Y37.25
G3 X85.864 Y37.25 I0.12 J0 F150
X85.624 Y37.25 I-0.12 J0
G1 X85.628 Y37.227
X85.641 Y37.208
X85.661 Y37.195
X85.684 Y37.19
X85.744 Y37.25
Z1
Z-3.476
Z-5 F50
X85.684 Y37.31
X85.661 Y37.305
X85.641 Y37.292
X85.628 Y37.273
X85.624 Y37.25
G3 X85.864 Y37.25 I0.12 J0 F150
X85.624 Y37.25 I-0.12 J0
G1 X85.628 Y37.227
X85.641 Y37.208
X85.661 Y37.195
X85.684 Y37.19
X85.744 Y37.25
Z1
Z-3.876
Z-5.4 F50
X85.684 Y37.31
X85.661 Y37.305
X85.641 Y37.292
X85.628 Y37.273
X85.624 Y37.25
G3 X85.864 Y37.25 I0.12 J0 F150
X85.624 Y37.25 I-0.12 J0
G1 X85.628 Y37.227
X85.641 Y37.208
X85.661 Y37.195
X85.684 Y37.19
X85.744 Y37.25
Z1
Z-4.276
Z-5.8 F50
X85.684 Y37.31
X85.661 Y37.305
X85.641 Y37.292
X85.628 Y37.273
X85.624 Y37.25
G3 X85.864 Y37.25 I0.12 J0 F150
X85.624 Y37.25 I-0.12 J0
G1 X85.628 Y37.227
X85.641 Y37.208
X85.661 Y37.195
X85.684 Y37.19
X85.744 Y37.25
Z1
Z-4.676
Z-6.2 F50
X85.684 Y37.31
X85.661 Y37.305
X85.641 Y37.292
X85.628 Y37.273
X85.624 Y37.25
G3 X85.864 Y37.25 I0.12 J0 F150
X85.624 Y37.25 I-0.12 J0
G1 X85.628 Y37.227
X85.641 Y37.208
X85.661 Y37.195
X85.684 Y37.19
X85.744 Y37.25
Z1
Z-4.906
Z-6.43 F50
X85.684 Y37.31
X85.661 Y37.305
X85.641 Y37.292
X85.628 Y37.273
X85.624 Y37.25
G3 X85.864 Y37.25 I0.12 J0 F150
X85.624 Y37.25 I-0.12 J0
G1 X85.628 Y37.227
X85.641 Y37.208
X85.661 Y37.195
X85.684 Y37.19
X85.744 Y37.25
Z1
Z-5.136
Z-6.66 F50
X85.684 Y37.31
X85.661 Y37.305
X85.641 Y37.292
X85.628 Y37.273
X85.624 Y37.25
G3 X85.864 Y37.25 I0.12 J0 F150
X85.624 Y37.25 I-0.12 J0
G1 X85.628 Y37.227
X85.641 Y37.208
X85.661 Y37.195
X85.684 Y37.19
X85.744 Y37.25
Z1
X72.75 Y24.256
Z-1.876
Z-3.4 F50
X72.69 Y24.316
X72.667 Y24.312
X72.648 Y24.299
X72.635 Y24.279
X72.63 Y24.256
G3 X72.87 Y24.256 I0.12 J0 F150
X72.63 Y24.256 I-0.12 J0
G1 X72.635 Y24.233
X72.648 Y24.214
X72.667 Y24.201
X72.69 Y24.196
X72.75 Y24.256
Z1
Z-2.276
Z-3.8 F50
X72.69 Y24.316
X72.667 Y24.312
X72.648 Y24.299
X72.635 Y24.279
X72.63 Y24.256
G3 X72.87 Y24.256 I0.12 J0 F150
X72.63 Y24.256 I-0.12 J0
G1 X72.635 Y24.233
X72.648 Y24.214
X72.667 Y24.201
X72.69 Y24.196
X72.75 Y24.256
Z1
Z-2.676
Z-4.2 F50
X72.69 Y24.316
X72.667 Y24.312
X72.648 Y24.299
X72.635 Y24.279
X72.63 Y24.256
G3 X72.87 Y24.256 I0.12 J0 F150
X72.63 Y24.256 I-0.12 J0
G1 X72.635 Y24.233
X72.648 Y24.214
X72.667 Y24.201
X72.69 Y24.196
X72.75 Y24.256
Z1
Z-3.076
Z-4.6 F50
X72.69 Y24.316
X72.667 Y24.312
X72.648 Y24.299
X72.635 Y24.279
X72.63 Y24.256
G3 X72.87 Y24.256 I0.12 J0 F150
X72.63 Y24.256 I-0.12 J0
G1 X72.635 Y24.233
X72.648 Y24.214
X72.667 Y24.201
X72.69 Y24.196
X72.75 Y24.256
Z1
Z-3.476
Z-5 F50
X72.69 Y24.316
X72.667 Y24.312
X72.648 Y24.299
X72.635 Y24.279
X72.63 Y24.256
G3 X72.87 Y24.256 I0.12 J0 F150
X72.63 Y24.256 I-0.12 J0
G1 X72.635 Y24.233
X72.648 Y24.214
X72.667 Y24.201
X72.69 Y24.196
X72.75 Y24.256
Z1
Z-3.876
Z-5.4 F50
X72.69 Y24.316
X72.667 Y24.312
X72.648 Y24.299
X72.635 Y24.279
X72.63 Y24.256
G3 X72.87 Y24.256 I0.12 J0 F150
X72.63 Y24.256 I-0.12 J0
G1 X72.635 Y24.233
X72.648 Y24.214
X72.667 Y24.201
X72.69 Y24.196
X72.75 Y24.256
Z1
Z-4.276
Z-5.8 F50
X72.69 Y24.316
X72.667 Y24.312
X72.648 Y24.299
X72.635 Y24.279
X72.63 Y24.256
G3 X72.87 Y24.256 I0.12 J0 F150
X72.63 Y24.256 I-0.12 J0
G1 X72.635 Y24.233
X72.648 Y24.214
X72.667 Y24.201
X72.69 Y24.196
X72.75 Y24.256
Z1
Z-4.676
Z-6.2 F50
X72.69 Y24.316
X72.667 Y24.312
X72.648 Y24.299
X72.635 Y24.279
X72.63 Y24.256
G3 X72.87 Y24.256 I0.12 J0 F150
X72.63 Y24.256 I-0.12 J0
G1 X72.635 Y24.233
X72.648 Y24.214
X72.667 Y24.201
X72.69 Y24.196
X72.75 Y24.256
Z1
Z-4.906
Z-6.43 F50
X72.69 Y24.316
X72.667 Y24.312
X72.648 Y24.299
X72.635 Y24.279
X72.63 Y24.256
G3 X72.87 Y24.256 I0.12 J0 F150
X72.63 Y24.256 I-0.12 J0
G1 X72.635 Y24.233
X72.648 Y24.214
X72.667 Y24.201
X72.69 Y24.196
X72.75 Y24.256
Z1
Z-5.136
Z-6.66 F50
X72.69 Y24.316
X72.667 Y24.312
X72.648 Y24.299
X72.635 Y24.279
X72.63 Y24.256
G3 X72.87 Y24.256 I0.12 J0 F150
X72.63 Y24.256 I-0.12 J0
G1 X72.635 Y24.233
X72.648 Y24.214
X72.667 Y24.201
X72.69 Y24.196
X72.75 Y24.256
Z1
X55 Y19.5
Z-1.876
Z-3.4 F50
X54.94 Y19.56
X54.917 Y19.555
X54.898 Y19.542
X54.885 Y19.523
X54.88 Y19.5
G3 X55.12 Y19.5 I0.12 J0 F150
X54.88 Y19.5 I-0.12 J0
G1 X54.885 Y19.477
X54.898 Y19.458
X54.917 Y19.445
X54.94 Y19.44
X55 Y19.5
Z1
Z-2.276
Z-3.8 F50
X54.94 Y19.56
X54.917 Y19.555
X54.898 Y19.542
X54.885 Y19.523
X54.88 Y19.5
G3 X55.12 Y19.5 I0.12 J0 F150
X54.88 Y19.5 I-0.12 J0
G1 X54.885 Y19.477
X54.898 Y19.458
X54.917 Y19.445
X54.94 Y19.44
X55 Y19.5
Z1
Z-2.676
Z-4.2 F50
X54.94 Y19.56
X54.917 Y19.555
X54.898 Y19.542
X54.885 Y19.523
X54.88 Y19.5
G3 X55.12 Y19.5 I0.12 J0 F150
X54.88 Y19.5 I-0.12 J0
G1 X54.885 Y19.477
X54.898 Y19.458
X54.917 Y19.445
X54.94 Y19.44
X55 Y19.5
Z1
Z-3.076
Z-4.6 F50
X54.94 Y19.56
X54.917 Y19.555
X54.898 Y19.542
X54.885 Y19.523
X54.88 Y19.5
G3 X55.12 Y19.5 I0.12 J0 F150
X54.88 Y19.5 I-0.12 J0
G1 X54.885 Y19.477
X54.898 Y19.458
X54.917 Y19.445
X54.94 Y19.44
X55 Y19.5
Z1
Z-3.476
Z-5 F50
X54.94 Y19.56
X54.917 Y19.555
X54.898 Y19.542
X54.885 Y19.523
X54.88 Y19.5
G3 X55.12 Y19.5 I0.12 J0 F150
X54.88 Y19.5 I-0.12 J0
G1 X54.885 Y19.477
X54.898 Y19.458
X54.917 Y19.445
X54.94 Y19.44
X55 Y19.5
Z1
Z-3.876
Z-5.4 F50
X54.94 Y19.56
X54.917 Y19.555
X54.898 Y19.542
X54.885 Y19.523
X54.88 Y19.5
G3 X55.12 Y19.5 I0.12 J0 F150
X54.88 Y19.5 I-0.12 J0
G1 X54.885 Y19.477
X54.898 Y19.458
X54.917 Y19.445
X54.94 Y19.44
X55 Y19.5
Z1
Z-4.276
Z-5.8 F50
X54.94 Y19.56
X54.917 Y19.555
X54.898 Y19.542
X54.885 Y19.523
X54.88 Y19.5
G3 X55.12 Y19.5 I0.12 J0 F150
X54.88 Y19.5 I-0.12 J0
G1 X54.885 Y19.477
X54.898 Y19.458
X54.917 Y19.445
X54.94 Y19.44
X55 Y19.5
Z1
Z-4.676
Z-6.2 F50
X54.94 Y19.56
X54.917 Y19.555
X54.898 Y19.542
X54.885 Y19.523
X54.88 Y19.5
G3 X55.12 Y19.5 I0.12 J0 F150
X54.88 Y19.5 I-0.12 J0
G1 X54.885 Y19.477
X54.898 Y19.458
X54.917 Y19.445
X54.94 Y19.44
X55 Y19.5
Z1
Z-4.906
Z-6.43 F50
X54.94 Y19.56
X54.917 Y19.555
X54.898 Y19.542
X54.885 Y19.523
X54.88 Y19.5
G3 X55.12 Y19.5 I0.12 J0 F150
X54.88 Y19.5 I-0.12 J0
G1 X54.885 Y19.477
X54.898 Y19.458
X54.917 Y19.445
X54.94 Y19.44
X55 Y19.5
Z1
Z-5.136
Z-6.66 F50
X54.94 Y19.56
X54.917 Y19.555
X54.898 Y19.542
X54.885 Y19.523
X54.88 Y19.5
G3 X55.12 Y19.5 I0.12 J0 F150
X54.88 Y19.5 I-0.12 J0
G1 X54.885 Y19.477
X54.898 Y19.458
X54.917 Y19.445
X54.94 Y19.44
X55 Y19.5
Z1
X37.25 Y24.256
Z-1.876
Z-3.4 F50
X37.19 Y24.316
X37.167 Y24.312
X37.148 Y24.299
X37.135 Y24.279
X37.13 Y24.256
G3 X37.37 Y24.256 I0.12 J0 F150
X37.13 Y24.256 I-0.12 J0
G1 X37.135 Y24.233
X37.148 Y24.214
X37.167 Y24.201
X37.19 Y24.196
X37.25 Y24.256
Z1
Z-2.276
Z-3.8 F50
X37.19 Y24.316
X37.167 Y24.312
X37.148 Y24.299
X37.135 Y24.279
X37.13 Y24.256
G3 X37.37 Y24.256 I0.12 J0 F150
X37.13 Y24.256 I-0.12 J0
G1 X37.135 Y24.233
X37.148 Y24.214
X37.167 Y24.201
X37.19 Y24.196
X37.25 Y24.256
Z1
Z-2.676
Z-4.2 F50
X37.19 Y24.316
X37.167 Y24.312
X37.148 Y24.299
X37.135 Y24.279
X37.13 Y24.256
G3 X37.37 Y24.256 I0.12 J0 F150
X37.13 Y24.256 I-0.12 J0
G1 X37.135 Y24.233
X37.148 Y24.214
X37.167 Y24.201
X37.19 Y24.196
X37.25 Y24.256
Z1
Z-3.076
Z-4.6 F50
X37.19 Y24.316
X37.167 Y24.312
X37.148 Y24.299
X37.135 Y24.279
X37.13 Y24.256
G3 X37.37 Y24.256 I0.12 J0 F150
X37.13 Y24.256 I-0.12 J0
G1 X37.135 Y24.233
X37.148 Y24.214
X37.167 Y24.201
X37.19 Y24.196
X37.25 Y24.256
Z1
Z-3.476
Z-5 F50
X37.19 Y24.316
X37.167 Y24.312
X37.148 Y24.299
X37.135 Y24.279
X37.13 Y24.256
G3 X37.37 Y24.256 I0.12 J0 F150
X37.13 Y24.256 I-0.12 J0
G1 X37.135 Y24.233
X37.148 Y24.214
X37.167 Y24.201
X37.19 Y24.196
X37.25 Y24.256
Z1
Z-3.876
Z-5.4 F50
X37.19 Y24.316
X37.167 Y24.312
X37.148 Y24.299
X37.135 Y24.279
X37.13 Y24.256
G3 X37.37 Y24.256 I0.12 J0 F150
X37.13 Y24.256 I-0.12 J0
G1 X37.135 Y24.233
X37.148 Y24.214
X37.167 Y24.201
X37.19 Y24.196
X37.25 Y24.256
Z1
Z-4.276
Z-5.8 F50
X37.19 Y24.316
X37.167 Y24.312
X37.148 Y24.299
X37.135 Y24.279
X37.13 Y24.256
G3 X37.37 Y24.256 I0.12 J0 F150
X37.13 Y24.256 I-0.12 J0
G1 X37.135 Y24.233
X37.148 Y24.214
X37.167 Y24.201
X37.19 Y24.196
X37.25 Y24.256
Z1
Z-4.676
Z-6.2 F50
X37.19 Y24.316
X37.167 Y24.312
X37.148 Y24.299
X37.135 Y24.279
X37.13 Y24.256
G3 X37.37 Y24.256 I0.12 J0 F150
X37.13 Y24.256 I-0.12 J0
G1 X37.135 Y24.233
X37.148 Y24.214
X37.167 Y24.201
X37.19 Y24.196
X37.25 Y24.256
Z1
Z-4.906
Z-6.43 F50
X37.19 Y24.316
X37.167 Y24.312
X37.148 Y24.299
X37.135 Y24.279
X37.13 Y24.256
G3 X37.37 Y24.256 I0.12 J0 F150
X37.13 Y24.256 I-0.12 J0
G1 X37.135 Y24.233
X37.148 Y24.214
X37.167 Y24.201
X37.19 Y24.196
X37.25 Y24.256
Z1
Z-5.136
Z-6.66 F50
X37.19 Y24.316
X37.167 Y24.312
X37.148 Y24.299
X37.135 Y24.279
X37.13 Y24.256
G3 X37.37 Y24.256 I0.12 J0 F150
X37.13 Y24.256 I-0.12 J0
G1 X37.135 Y24.233
X37.148 Y24.214
X37.167 Y24.201
X37.19 Y24.196
X37.25 Y24.256
Z1
X24.256 Y37.25
Z-1.876
Z-3.4 F50
X24.196 Y37.31
X24.173 Y37.305
X24.154 Y37.292
X24.141 Y37.273
X24.136 Y37.25
G3 X24.376 Y37.25 I0.12 J0 F150
X24.136 Y37.25 I-0.12 J0
G1 X24.141 Y37.227
X24.154 Y37.208
X24.173 Y37.195
X24.196 Y37.19
X24.256 Y37.25
Z1
Z-2.276
Z-3.8 F50
X24.196 Y37.31
X24.173 Y37.305
X24.154 Y37.292
X24.141 Y37.273
X24.136 Y37.25
G3 X24.376 Y37.25 I0.12 J0 F150
X24.136 Y37.25 I-0.12 J0
G1 X24.141 Y37.227
X24.154 Y37.208
X24.173 Y37.195
X24.196 Y37.19
X24.256 Y37.25
Z1
Z-2.676
Z-4.2 F50
X24.196 Y37.31
X24.173 Y37.305
X24.154 Y37.292
X24.141 Y37.273
X24.136 Y37.25
G3 X24.376 Y37.25 I0.12 J0 F150
X24.136 Y37.25 I-0.12 J0
G1 X24.141 Y37.227
X24.154 Y37.208
X24.173 Y37.195
X24.196 Y37.19
X24.256 Y37.25
Z1
Z-3.076
Z-4.6 F50
X24.196 Y37.31
X24.173 Y37.305
X24.154 Y37.292
X24.141 Y37.273
X24.136 Y37.25
G3 X24.376 Y37.25 I0.12 J0 F150
X24.136 Y37.25 I-0.12 J0
G1 X24.141 Y37.227
X24.154 Y37.208
X24.173 Y37.195
X24.196 Y37.19
X24.256 Y37.25
Z1
Z-3.476
Z-5 F50
X24.196 Y37.31
X24.173 Y37.305
X24.154 Y37.292
X24.141 Y37.273
X24.136 Y37.25
G3 X24.376 Y37.25 I0.12 J0 F150
X24.136 Y37.25 I-0.12 J0
G1 X24.141 Y37.227
X24.154 Y37.208
X24.173 Y37.195
X24.196 Y37.19
X24.256 Y37.25
Z1
Z-3.876
Z-5.4 F50
X24.196 Y37.31
X24.173 Y37.305
X24.154 Y37.292
X24.141 Y37.273
X24.136 Y37.25
G3 X24.376 Y37.25 I0.12 J0 F150
X24.136 Y37.25 I-0.12 J0
G1 X24.141 Y37.227
X24.154 Y37.208
X24.173 Y37.195
X24.196 Y37.19
X24.256 Y37.25
Z1
Z-4.276
Z-5.8 F50
X24.196 Y37.31
X24.173 Y37.305
X24.154 Y37.292
X24.141 Y37.273
X24.136 Y37.25
G3 X24.376 Y37.25 I0.12 J0 F150
X24.136 Y37.25 I-0.12 J0
G1 X24.141 Y37.227
X24.154 Y37.208
X24.173 Y37.195
X24.196 Y37.19
X24.256 Y37.25
Z1
Z-4.676
Z-6.2 F50
X24.196 Y37.31
X24.173 Y37.305
X24.154 Y37.292
X24.141 Y37.273
X24.136 Y37.25
G3 X24.376 Y37.25 I0.12 J0 F150
X24.136 Y37.25 I-0.12 J0
G1 X24.141 Y37.227
X24.154 Y37.208
X24.173 Y37.195
X24.196 Y37.19
X24.256 Y37.25
Z1
Z-4.906
Z-6.43 F50
X24.196 Y37.31
X24.173 Y37.305
X24.154 Y37.292
X24.141 Y37.273
X24.136 Y37.25
G3 X24.376 Y37.25 I0.12 J0 F150
X24.136 Y37.25 I-0.12 J0
G1 X24.141 Y37.227
X24.154 Y37.208
X24.173 Y37.195
X24.196 Y37.19
X24.256 Y37.25
Z1
Z-5.136
Z-6.66 F50
X24.196 Y37.31
X24.173 Y37.305
X24.154 Y37.292
X24.141 Y37.273
X24.136 Y37.25
G3 X24.376 Y37.25 I0.12 J0 F150
X24.136 Y37.25 I-0.12 J0
G1 X24.141 Y37.227
X24.154 Y37.208
X24.173 Y37.195
X24.196 Y37.19
X24.256 Y37.25
Z1
X19.5 Y55
Z-1.876
Z-3.4 F50
X19.44 Y55.06
X19.417 Y55.055
X19.398 Y55.042
X19.385 Y55.023
X19.38 Y55
G3 X19.62 Y55 I0.12 J0 F150
X19.38 Y55 I-0.12 J0
G1 X19.385 Y54.977
X19.398 Y54.958
X19.417 Y54.945
X19.44 Y54.94
X19.5 Y55
Z1
Z-2.276
Z-3.8 F50
X19.44 Y55.06
X19.417 Y55.055
X19.398 Y55.042
X19.385 Y55.023
X19.38 Y55
G3 X19.62 Y55 I0.12 J0 F150
X19.38 Y55 I-0.12 J0
G1 X19.385 Y54.977
X19.398 Y54.958
X19.417 Y54.945
X19.44 Y54.94
X19.5 Y55
Z1
Z-2.676
Z-4.2 F50
X19.44 Y55.06
X19.417 Y55.055
X19.398 Y55.042
X19.385 Y55.023
X19.38 Y55
G3 X19.62 Y55 I0.12 J0 F150
X19.38 Y55 I-0.12 J0
G1 X19.385 Y54.977
X19.398 Y54.958
X19.417 Y54.945
X19.44 Y54.94
X19.5 Y55
Z1
Z-3.076
Z-4.6 F50
X19.44 Y55.06
X19.417 Y55.055
X19.398 Y55.042
X19.385 Y55.023
X19.38 Y55
G3 X19.62 Y55 I0.12 J0 F150
X19.38 Y55 I-0.12 J0
G1 X19.385 Y54.977
X19.398 Y54.958
X19.417 Y54.945
X19.44 Y54.94
X19.5 Y55
Z1
Z-3.476
Z-5 F50
X19.44 Y55.06
X19.417 Y55.055
X19.398 Y55.042
X19.385 Y55.023
X19.38 Y55
G3 X19.62 Y55 I0.12 J0 F150
X19.38 Y55 I-0.12 J0
G1 X19.385 Y54.977
X19.398 Y54.958
X19.417 Y54.945
X19.44 Y54.94
X19.5 Y55
Z1
Z-3.876
Z-5.4 F50
X19.44 Y55.06
X19.417 Y55.055
X19.398 Y55.042
X19.385 Y55.023
X19.38 Y55
G3 X19.62 Y55 I0.12 J0 F150
X19.38 Y55 I-0.12 J0
G1 X19.385 Y54.977
X19.398 Y54.958
X19.417 Y54.945
X19.44 Y54.94
X19.5 Y55
Z1
Z-4.276
Z-5.8 F50
X19.44 Y55.06
X19.417 Y55.055
X19.398 Y55.042
X19.385 Y55.023
X19.38 Y55
G3 X19.62 Y55 I0.12 J0 F150
X19.38 Y55 I-0.12 J0
G1 X19.385 Y54.977
X19.398 Y54.958
X19.417 Y54.945
X19.44 Y54.94
X19.5 Y55
Z1
Z-4.676
Z-6.2 F50
X19.44 Y55.06
X19.417 Y55.055
X19.398 Y55.042
X19.385 Y55.023
X19.38 Y55
G3 X19.62 Y55 I0.12 J0 F150
X19.38 Y55 I-0.12 J0
G1 X19.385 Y54.977
X19.398 Y54.958
X19.417 Y54.945
X19.44 Y54.94
X19.5 Y55
Z1
Z-4.906
Z-6.43 F50
X19.44 Y55.06
X19.417 Y55.055
X19.398 Y55.042
X19.385 Y55.023
X19.38 Y55
G3 X19.62 Y55 I0.12 J0 F150
X19.38 Y55 I-0.12 J0
G1 X19.385 Y54.977
X19.398 Y54.958
X19.417 Y54.945
X19.44 Y54.94
X19.5 Y55
Z1
Z-5.136
Z-6.66 F50
X19.44 Y55.06
X19.417 Y55.055
X19.398 Y55.042
X19.385 Y55.023
X19.38 Y55
G3 X19.62 Y55 I0.12 J0 F150
X19.38 Y55 I-0.12 J0
G1 X19.385 Y54.977
X19.398 Y54.958
X19.417 Y54.945
X19.44 Y54.94
X19.5 Y55
Z4
(When using Fusion for Personal Use, the feedrate of rapid)
(moves is reduced to match the feedrate of cutting moves,)
(which can increase machining time. Unrestricted rapid moves)
(are available with a Fusion Subscription.)

(center hole)
G0 Z6
X82.742 Y54.524
G1 Z0.952 F150
Z-0.124 F50
G18 G2 X83.218 Z-0.6 I0.476 K0
G1 X83.694
G17 G3 X84.17 Y55 I0 J0.476
X25.83 Y55 I-29.17 J0 F150
X84.17 Y55 I29.17 J0
X83.694 Y55.476 I-0.476 J0
G1 X83.218
G18 G3 X82.742 Z-0.124 I0 K0.476
G1 Z1
Y54.524
Z0.352
Z-0.724 F50
G2 X83.218 Z-1.2 I0.476 K0
G1 X83.694
G17 G3 X84.17 Y55 I0 J0.476
X25.83 Y55 I-29.17 J0 F150
X84.17 Y55 I29.17 J0
X83.694 Y55.476 I-0.476 J0
G1 X83.218
G18 G3 X82.742 Z-0.724 I0 K0.476
G1 Z1
Y54.524
Z0.33
Z-0.248 F50
Z-1.324
G2 X83.218 Z-1.8 I0.476 K0
G1 X83.694
G17 G3 X84.17 Y55 I0 J0.476
X25.83 Y55 I-29.17 J0 F150
X84.17 Y55 I29.17 J0
X83.694 Y55.476 I-0.476 J0
G1 X83.218
G18 G3 X82.742 Z-1.324 I0 K0.476
G1 Z1
Y54.524
Z0.33
Z-0.848 F50
Z-1.924
G2 X83.218 Z-2.4 I0.476 K0
G1 X83.694
G17 G3 X84.17 Y55 I0 J0.476
X25.83 Y55 I-29.17 J0 F150
X84.17 Y55 I29.17 J0
X83.694 Y55.476 I-0.476 J0
G1 X83.218
G18 G3 X82.742 Z-1.924 I0 K0.476
G1 Z1
Y54.524
Z0.33
Z-1.448 F50
Z-2.524
G2 X83.218 Z-3 I0.476 K0
G1 X83.694
G17 G3 X84.17 Y55 I0 J0.476
X25.83 Y55 I-29.17 J0 F150
X84.17 Y55 I29.17 J0
X83.694 Y55.476 I-0.476 J0
G1 X83.218
G18 G3 X82.742 Z-2.524 I0 K0.476
G1 Z1
Y54.524
Z0.33
Z-2.048 F50
Z-3.124
G2 X83.218 Z-3.6 I0.476 K0
G1 X83.694
G17 G3 X84.17 Y55 I0 J0.476
X25.83 Y55 I-29.17 J0 F150
X84.17 Y55 I29.17 J0
X83.694 Y55.476 I-0.476 J0
G1 X83.218
G18 G3 X82.742 Z-3.124 I0 K0.476
G1 Z1
Y54.524
Z0.33
Z-2.648 F50
Z-3.724
G2 X83.218 Z-4.2 I0.476 K0
G1 X83.694
G17 G3 X84.17 Y55 I0 J0.476
X25.83 Y55 I-29.17 J0 F150
X84.17 Y55 I29.17 J0
X83.694 Y55.476 I-0.476 J0
G1 X83.218
G18 G3 X82.742 Z-3.724 I0 K0.476
G1 Z1
Y54.524
Z0.33
Z-3.248 F50
Z-4.324
G2 X83.218 Z-4.8 I0.476 K0
G1 X83.694
G17 G3 X84.17 Y55 I0 J0.476
X25.83 Y55 I-29.17 J0 F150
X84.17 Y55 I29.17 J0
X83.694 Y55.476 I-0.476 J0
G1 X83.218
G18 G3 X82.742 Z-4.324 I0 K0.476
G1 Z1
Y54.524
Z0.33
Z-3.848 F50
Z-4.924
G2 X83.218 Z-5.4 I0.476 K0
G1 X83.694
G17 G3 X84.17 Y55 I0 J0.476
X25.83 Y55 I-29.17 J0 F150
X84.17 Y55 I29.17 J0
X83.694 Y55.476 I-0.476 J0
G1 X83.218
G18 G3 X82.742 Z-4.924 I0 K0.476
G1 Z1
Y54.524
Z0.33
Z-4.448 F50
Z-5.524
G2 X83.218 Z-6 I0.476 K0
G1 X83.694
G17 G3 X84.17 Y55 I0 J0.476
X25.83 Y55 I-29.17 J0 F150
X84.17 Y55 I29.17 J0
X83.694 Y55.476 I-0.476 J0
G1 X83.218
G18 G3 X82.742 Z-5.524 I0 K0.476
G1 Z1
Y54.524
Z0.33
Z-5.048 F50
Z-5.854
G2 X83.218 Z-6.33 I0.476 K0
G1 X83.694
G17 G3 X84.17 Y55 I0 J0.476
X25.83 Y55 I-29.17 J0 F150
X84.17 Y55 I29.17 J0
X83.694 Y55.476 I-0.476 J0
G1 X83.218
G18 G3 X82.742 Z-5.854 I0 K0.476
G1 Z6
G17
(When using Fusion for Personal Use, the feedrate of rapid)
(moves is reduced to match the feedrate of cutting moves,)
(which can increase machining time. Unrestricted rapid moves)
(are available with a Fusion Subscription.)

(2D Adaptive1)
G0 Z15
X85.744 Y72.751
G1 Z5 F150
Z2.976
Z2.5 F50
Z-1
X85.745 Y72.826 F150
X85.732 Y72.861
X85.698 Y72.878
X85.662 Y72.888
X85.587 Y72.881
X85.523 Y72.842
X85.479 Y72.781
X85.441 Y72.636
X85.474 Y72.49
X85.566 Y72.371
X85.697 Y72.299
X85.846 Y72.281
X85.991 Y72.318
X86.116 Y72.402
X86.208 Y72.521
X86.274 Y72.656
X86.29 Y72.805
X86.271 Y72.953
X86.218 Y73.094
X86.134 Y73.218
X86.024 Y73.321
X85.895 Y73.397
X85.753 Y73.444
X85.604 Y73.461
X85.454 Y73.447
X85.31 Y73.405
X85.176 Y73.338
X85.056 Y73.248
X84.953 Y73.139
X84.87 Y73.014
X84.809 Y72.877
X84.769 Y72.733
X84.752 Y72.583
X84.759 Y72.434
X84.787 Y72.286
X84.836 Y72.145
X84.905 Y72.011
X84.991 Y71.889
X85.094 Y71.78
X85.211 Y71.686
X85.339 Y71.607
X85.477 Y71.547
X85.62 Y71.505
X85.769 Y71.481
X85.918 Y71.476
X86.068 Y71.49
X86.215 Y71.52
X86.357 Y71.567
X86.493 Y71.63
X86.621 Y71.709
X86.739 Y71.802
X86.846 Y71.907
X86.941 Y72.023
X87.023 Y72.149
X87.091 Y72.282
X87.145 Y72.422
X87.184 Y72.567
X87.208 Y72.715
X87.218 Y72.865
X87.212 Y73.015
X87.192 Y73.163
X87.158 Y73.309
X87.109 Y73.451
X87.048 Y73.588
X86.974 Y73.719
X86.887 Y73.841
X86.791 Y73.956
X86.683 Y74.061
X86.567 Y74.156
X86.443 Y74.24
X86.312 Y74.313
X86.175 Y74.374
X86.033 Y74.423
X85.888 Y74.459
X85.74 Y74.483
X85.59 Y74.494
X85.44 Y74.493
X85.291 Y74.479
X85.143 Y74.453
X84.998 Y74.416
X84.856 Y74.366
X84.719 Y74.306
X84.587 Y74.234
X84.461 Y74.153
X84.342 Y74.062
X84.23 Y73.962
X84.126 Y73.854
X84.03 Y73.738
X83.944 Y73.616
X83.867 Y73.487
X83.799 Y73.353
X83.742 Y73.214
X83.695 Y73.072
X83.658 Y72.927
X83.632 Y72.779
X83.617 Y72.63
X83.612 Y72.48
X83.618 Y72.33
X83.634 Y72.181
X83.661 Y72.033
X83.698 Y71.888
X83.744 Y71.745
X83.801 Y71.606
X83.818 Y71.571
X83.927 Y71.392
X84.067 Y71.237
X84.234 Y71.111
X84.313 Y71.063
X84.378 Y71.031
X84.848 Y70.811
X85.027 Y70.73
X85.166 Y70.672
X85.205 Y70.662
X85.383 Y70.638
X85.74 Y70.598
X85.785 Y70.595
X85.829 Y70.596
X85.919 Y70.608
X86.365 Y70.689
X86.409 Y70.7
X86.454 Y70.715
X86.632 Y70.802
X86.811 Y70.894
X86.989 Y70.991
X87.042 Y71.031
X87.346 Y71.324
X87.412 Y71.389
X87.448 Y71.429
X87.477 Y71.469
X87.534 Y71.568
X87.733 Y71.926
X87.754 Y71.971
X87.77 Y72.016
X87.793 Y72.105
X87.881 Y72.514
X87.893 Y72.578
X87.897 Y72.643
X87.881 Y72.859
X87.854 Y73.18
X87.836 Y73.269
X87.803 Y73.359
X87.661 Y73.717
X87.623 Y73.807
X87.597 Y73.851
X87.565 Y73.896
X87.28 Y74.254
X87.224 Y74.318
X87.167 Y74.365
X86.811 Y74.613
X86.721 Y74.672
X86.677 Y74.694
X86.632 Y74.711
X86.275 Y74.826
X86.097 Y74.878
X85.919 Y74.886
X85.562 Y74.892
X85.473 Y74.888
X85.383 Y74.871
X85.027 Y74.77
X84.848 Y74.712
X84.67 Y74.602
X84.408 Y74.434
X84.313 Y74.362
X84.216 Y74.254
X83.956 Y73.949
X83.917 Y73.896
X83.832 Y73.717
X83.754 Y73.538
X83.677 Y73.359
X83.653 Y73.269
X83.641 Y73.18
X83.599 Y72.822
X83.589 Y72.643
X83.586 Y72.544
G3 X83.684 Y72.256 I0.476 J0.002
G1 X83.734 Y72.213 Z-0.995
X83.783 Y72.171 Z-0.981
X83.83 Y72.13 Z-0.959
X83.9 Y72.109 Z-0.917
X83.962 Y72.089 Z-0.864
X84.014 Y72.073 Z-0.799
X84.04 Y72.071 Z-0.758
X84.062 Y72.07 Z-0.715
X84.084 Y72.071 Z-0.653
X84.097 Y72.072 Z-0.589
X84.102 Z-0.524
Z5
X85.744 Y72.751
Z1.976
Z1.5 F50
Z-2
X85.745 Y72.826 F150
X85.732 Y72.861
X85.698 Y72.878
X85.662 Y72.888
X85.587 Y72.881
X85.523 Y72.842
X85.479 Y72.781
X85.441 Y72.636
X85.474 Y72.49
X85.566 Y72.371
X85.697 Y72.299
X85.846 Y72.281
X85.991 Y72.318
X86.116 Y72.402
X86.208 Y72.521
X86.274 Y72.656
X86.29 Y72.805
X86.271 Y72.953
X86.218 Y73.094
X86.134 Y73.218
X86.024 Y73.321
X85.895 Y73.397
X85.753 Y73.444
X85.604 Y73.461
X85.454 Y73.447
X85.31 Y73.405
X85.176 Y73.338
X85.056 Y73.248
X84.953 Y73.139
X84.87 Y73.014
X84.809 Y72.877
X84.769 Y72.733
X84.752 Y72.583
X84.759 Y72.434
X84.787 Y72.286
X84.836 Y72.145
X84.905 Y72.011
X84.991 Y71.889
X85.094 Y71.78
X85.211 Y71.686
X85.339 Y71.607
X85.477 Y71.547
X85.62 Y71.505
X85.769 Y71.481
X85.918 Y71.476
X86.068 Y71.49
X86.215 Y71.52
X86.357 Y71.567
X86.493 Y71.63
X86.621 Y71.709
X86.739 Y71.802
X86.846 Y71.907
X86.941 Y72.023
X87.023 Y72.149
X87.091 Y72.282
X87.145 Y72.422
X87.184 Y72.567
X87.208 Y72.715
X87.218 Y72.865
X87.212 Y73.015
X87.192 Y73.163
X87.158 Y73.309
X87.109 Y73.451
X87.048 Y73.588
X86.974 Y73.719
X86.887 Y73.841
X86.791 Y73.956
X86.683 Y74.061
X86.567 Y74.156
X86.443 Y74.24
X86.312 Y74.313
X86.175 Y74.374
X86.033 Y74.423
X85.888 Y74.459
X85.74 Y74.483
X85.59 Y74.494
X85.44 Y74.493
X85.291 Y74.479
X85.143 Y74.453
X84.998 Y74.416
X84.856 Y74.366
X84.719 Y74.306
X84.587 Y74.234
X84.461 Y74.153
X84.342 Y74.062
X84.23 Y73.962
X84.126 Y73.854
X84.03 Y73.738
X83.944 Y73.616
X83.867 Y73.487
X83.799 Y73.353
X83.742 Y73.214
X83.695 Y73.072
X83.658 Y72.927
X83.632 Y72.779
X83.617 Y72.63
X83.612 Y72.48
X83.618 Y72.33
X83.634 Y72.181
X83.661 Y72.033
X83.698 Y71.888
X83.744 Y71.745
X83.801 Y71.606
X83.818 Y71.571
X83.927 Y71.392
X84.067 Y71.237
X84.234 Y71.111
X84.313 Y71.063
X84.378 Y71.031
X84.848 Y70.811
X85.027 Y70.73
X85.166 Y70.672
X85.205 Y70.662
X85.383 Y70.638
X85.74 Y70.598
X85.785 Y70.595
X85.829 Y70.596
X85.919 Y70.608
X86.365 Y70.689
X86.409 Y70.7
X86.454 Y70.715
X86.632 Y70.802
X86.811 Y70.894
X86.989 Y70.991
X87.042 Y71.031
X87.346 Y71.324
X87.412 Y71.389
X87.448 Y71.429
X87.477 Y71.469
X87.534 Y71.568
X87.733 Y71.926
X87.754 Y71.971
X87.77 Y72.016
X87.793 Y72.105
X87.881 Y72.514
X87.893 Y72.578
X87.897 Y72.643
X87.881 Y72.859
X87.854 Y73.18
X87.836 Y73.269
X87.803 Y73.359
X87.661 Y73.717
X87.623 Y73.807
X87.597 Y73.851
X87.565 Y73.896
X87.28 Y74.254
X87.224 Y74.318
X87.167 Y74.365
X86.811 Y74.613
X86.721 Y74.672
X86.677 Y74.694
X86.632 Y74.711
X86.275 Y74.826
X86.097 Y74.878
X85.919 Y74.886
X85.562 Y74.892
X85.473 Y74.888
X85.383 Y74.871
X85.027 Y74.77
X84.848 Y74.712
X84.67 Y74.602
X84.408 Y74.434
X84.313 Y74.362
X84.216 Y74.254
X83.956 Y73.949
X83.917 Y73.896
X83.832 Y73.717
X83.754 Y73.538
X83.677 Y73.359
X83.653 Y73.269
X83.641 Y73.18
X83.599 Y72.822
X83.589 Y72.643
X83.586 Y72.544
G3 X83.684 Y72.256 I0.476 J0.002
G1 X83.734 Y72.213 Z-1.995
X83.783 Y72.171 Z-1.981
X83.83 Y72.13 Z-1.959
X83.9 Y72.109 Z-1.917
X83.962 Y72.089 Z-1.864
X84.014 Y72.073 Z-1.799
X84.04 Y72.071 Z-1.758
X84.062 Y72.07 Z-1.715
X84.084 Y72.071 Z-1.653
X84.097 Y72.072 Z-1.589
X84.102 Z-1.524
Z5
X85.744 Y72.751
Z0.976
Z0.5 F50
Z-3
X85.745 Y72.826 F150
X85.732 Y72.861
X85.698 Y72.878
X85.662 Y72.888
X85.587 Y72.881
X85.523 Y72.842
X85.479 Y72.781
X85.441 Y72.636
X85.474 Y72.49
X85.566 Y72.371
X85.697 Y72.299
X85.846 Y72.281
X85.991 Y72.318
X86.116 Y72.402
X86.208 Y72.521
X86.274 Y72.656
X86.29 Y72.805
X86.271 Y72.953
X86.218 Y73.094
X86.134 Y73.218
X86.024 Y73.321
X85.895 Y73.397
X85.753 Y73.444
X85.604 Y73.461
X85.454 Y73.447
X85.31 Y73.405
X85.176 Y73.338
X85.056 Y73.248
X84.953 Y73.139
X84.87 Y73.014
X84.809 Y72.877
X84.769 Y72.733
X84.752 Y72.583
X84.759 Y72.434
X84.787 Y72.286
X84.836 Y72.145
X84.905 Y72.011
X84.991 Y71.889
X85.094 Y71.78
X85.211 Y71.686
X85.339 Y71.607
X85.477 Y71.547
X85.62 Y71.505
X85.769 Y71.481
X85.918 Y71.476
X86.068 Y71.49
X86.215 Y71.52
X86.357 Y71.567
X86.493 Y71.63
X86.621 Y71.709
X86.739 Y71.802
X86.846 Y71.907
X86.941 Y72.023
X87.023 Y72.149
X87.091 Y72.282
X87.145 Y72.422
X87.184 Y72.567
X87.208 Y72.715
X87.218 Y72.865
X87.212 Y73.015
X87.192 Y73.163
X87.158 Y73.309
X87.109 Y73.451
X87.048 Y73.588
X86.974 Y73.719
X86.887 Y73.841
X86.791 Y73.956
X86.683 Y74.061
X86.567 Y74.156
X86.443 Y74.24
X86.312 Y74.313
X86.175 Y74.374
X86.033 Y74.423
X85.888 Y74.459
X85.74 Y74.483
X85.59 Y74.494
X85.44 Y74.493
X85.291 Y74.479
X85.143 Y74.453
X84.998 Y74.416
X84.856 Y74.366
X84.719 Y74.306
X84.587 Y74.234
X84.461 Y74.153
X84.342 Y74.062
X84.23 Y73.962
X84.126 Y73.854
X84.03 Y73.738
X83.944 Y73.616
X83.867 Y73.487
X83.799 Y73.353
X83.742 Y73.214
X83.695 Y73.072
X83.658 Y72.927
X83.632 Y72.779
X83.617 Y72.63
X83.612 Y72.48
X83.618 Y72.33
X83.634 Y72.181
X83.661 Y72.033
X83.698 Y71.888
X83.744 Y71.745
X83.801 Y71.606
X83.818 Y71.571
X83.927 Y71.392
X84.067 Y71.237
X84.234 Y71.111
X84.313 Y71.063
X84.378 Y71.031
X84.848 Y70.811
X85.027 Y70.73
X85.166 Y70.672
X85.205 Y70.662
X85.383 Y70.638
X85.74 Y70.598
X85.785 Y70.595
X85.829 Y70.596
X85.919 Y70.608
X86.365 Y70.689
X86.409 Y70.7
X86.454 Y70.715
X86.632 Y70.802
X86.811 Y70.894
X86.989 Y70.991
X87.042 Y71.031
X87.346 Y71.324
X87.412 Y71.389
X87.448 Y71.429
X87.477 Y71.469
X87.534 Y71.568
X87.733 Y71.926
X87.754 Y71.971
X87.77 Y72.016
X87.793 Y72.105
X87.881 Y72.514
X87.893 Y72.578
X87.897 Y72.643
X87.881 Y72.859
X87.854 Y73.18
X87.836 Y73.269
X87.803 Y73.359
X87.661 Y73.717
X87.623 Y73.807
X87.597 Y73.851
X87.565 Y73.896
X87.28 Y74.254
X87.224 Y74.318
X87.167 Y74.365
X86.811 Y74.613
X86.721 Y74.672
X86.677 Y74.694
X86.632 Y74.711
X86.275 Y74.826
X86.097 Y74.878
X85.919 Y74.886
X85.562 Y74.892
X85.473 Y74.888
X85.383 Y74.871
X85.027 Y74.77
X84.848 Y74.712
X84.67 Y74.602
X84.408 Y74.434
X84.313 Y74.362
X84.216 Y74.254
X83.956 Y73.949
X83.917 Y73.896
X83.832 Y73.717
X83.754 Y73.538
X83.677 Y73.359
X83.653 Y73.269
X83.641 Y73.18
X83.599 Y72.822
X83.589 Y72.643
X83.586 Y72.544
G3 X84.102 Y72.072 I0.476 J0.002
G1 X84.184 Y72.079 Z-2.993
X84.264 Y72.086 Z-2.971
X84.339 Y72.092 Z-2.936
X84.407 Y72.098 Z-2.889
X84.465 Y72.103 Z-2.83
X84.513 Y72.107 Z-2.762
X84.547 Y72.11 Z-2.687
X84.569 Y72.111 Z-2.607
X84.576 Y72.112 Z-2.524
Z15
X90.501 Y55
Z5
Z2.976
Z2.5 F50
Z-1
X90.44 Y54.956 F150
X90.415 Y54.928
X90.42 Y54.891
X90.457 Y54.826
X90.52 Y54.785
X90.594 Y54.773
X90.667 Y54.791
X90.79 Y54.876
X90.826 Y54.943
X90.85 Y55.091
X90.809 Y55.235
X90.714 Y55.351
X90.582 Y55.421
X90.432 Y55.437
X90.288 Y55.398
X90.161 Y55.318
X90.062 Y55.205
X89.997 Y55.07
X89.971 Y54.922
X89.982 Y54.772
X90.031 Y54.631
X90.112 Y54.504
X90.221 Y54.401
X90.351 Y54.326
X90.493 Y54.278
X90.642 Y54.26
X90.791 Y54.273
X90.935 Y54.316
X91.068 Y54.385
X91.187 Y54.476
X91.287 Y54.588
X91.367 Y54.715
X91.424 Y54.854
X91.457 Y55
X91.467 Y55.15
X91.452 Y55.299
X91.416 Y55.445
X91.357 Y55.582
X91.277 Y55.71
X91.181 Y55.825
X91.068 Y55.923
X90.942 Y56.005
X90.806 Y56.068
X90.662 Y56.112
X90.514 Y56.136
X90.364 Y56.141
X90.215 Y56.127
X90.069 Y56.093
X89.928 Y56.042
X89.795 Y55.973
X89.67 Y55.889
X89.557 Y55.79
X89.456 Y55.68
X89.369 Y55.558
X89.296 Y55.427
X89.238 Y55.288
X89.197 Y55.144
X89.171 Y54.996
X89.162 Y54.846
X89.169 Y54.697
X89.193 Y54.548
X89.232 Y54.404
X89.286 Y54.264
X89.354 Y54.13
X89.435 Y54.004
X89.529 Y53.887
X89.634 Y53.779
X89.749 Y53.683
X89.872 Y53.598
X90.004 Y53.526
X90.142 Y53.467
X90.284 Y53.421
X90.431 Y53.388
X90.58 Y53.37
X90.73 Y53.365
X90.879 Y53.374
X91.028 Y53.397
X91.173 Y53.432
X91.315 Y53.48
X91.453 Y53.541
X91.584 Y53.613
X91.709 Y53.697
X91.826 Y53.79
X91.935 Y53.894
X92.034 Y54.006
X92.125 Y54.126
X92.204 Y54.253
X92.274 Y54.386
X92.332 Y54.524
X92.379 Y54.666
X92.415 Y54.815
X92.438 Y54.963
X92.45 Y55.119
X92.449 Y55.27
X92.436 Y55.428
X92.411 Y55.579
X92.372 Y55.735
X92.322 Y55.882
X92.258 Y56.031
X92.183 Y56.173
X92.096 Y56.309
X91.997 Y56.441
X91.89 Y56.561
X91.768 Y56.678
X91.64 Y56.782
X91.5 Y56.878
X91.352 Y56.963
X91.325 Y56.976
X91.258 Y57.005
X91.19 Y57.029
X91.121 Y57.049
X90.817 Y57.126
X90.728 Y57.143
X90.638 Y57.148
X90.281 Y57.131
X90.102 Y57.119
X90.057 Y57.11
X90.012 Y57.097
X89.565 Y56.938
X89.507 Y56.914
X89.448 Y56.88
X89.386 Y56.837
X89.029 Y56.572
X88.972 Y56.522
X88.85 Y56.364
X88.492 Y55.877
X88.449 Y55.806
X88.135 Y55.221
X88.106 Y55.155
X88.089 Y55.09
X88.083 Y55.045
X88.08 Y55
X88.083 Y54.955
X88.089 Y54.91
X88.106 Y54.845
X88.135 Y54.779
X88.449 Y54.194
X88.492 Y54.123
X88.85 Y53.636
X88.972 Y53.478
X89.029 Y53.428
X89.386 Y53.163
X89.448 Y53.12
X89.507 Y53.086
X89.565 Y53.062
X90.012 Y52.903
X90.057 Y52.89
X90.102 Y52.881
X90.281 Y52.869
X90.638 Y52.852
X90.728 Y52.857
X90.817 Y52.874
X91.264 Y52.987
X91.309 Y53.001
X91.354 Y53.021
X91.533 Y53.125
X91.82 Y53.299
X91.89 Y53.353
X92.007 Y53.478
X92.248 Y53.744
X92.285 Y53.79
X92.313 Y53.836
X92.427 Y54.071
X92.485 Y54.194
X92.563 Y54.373
X92.596 Y54.552
X92.649 Y54.91
X92.657 Y55
X92.649 Y55.09
X92.596 Y55.448
X92.563 Y55.627
X92.485 Y55.806
X92.4 Y55.985
X92.313 Y56.164
X92.285 Y56.21
X92.248 Y56.256
X92.007 Y56.522
X91.89 Y56.647
X91.82 Y56.701
X91.523 Y56.88
X91.354 Y56.979
X91.309 Y56.999
X91.264 Y57.013
X91.121 Y57.049
X91.071 Y57.057
X91.022 Y57.06
X91.021
X90.951 Y57.055
X90.884 Y57.04
X90.819 Y57.015
X90.766 Y56.975 Z-0.995
X90.714 Y56.937 Z-0.981
X90.664 Y56.899 Z-0.959
X90.628 Y56.836 Z-0.917
X90.596 Y56.779 Z-0.864
X90.568 Y56.732 Z-0.799
X90.56 Y56.695 Z-0.737
X90.554 Y56.669 Z-0.669
X90.55 Y56.652 Z-0.597
X90.549 Y56.647 Z-0.524
Z5
X90.501 Y55
Z1.976
Z1.5 F50
Z-2
X90.44 Y54.956 F150
X90.415 Y54.928
X90.42 Y54.891
X90.457 Y54.826
X90.52 Y54.785
X90.594 Y54.773
X90.667 Y54.791
X90.79 Y54.876
X90.826 Y54.943
X90.85 Y55.091
X90.809 Y55.235
X90.714 Y55.351
X90.582 Y55.421
X90.432 Y55.437
X90.288 Y55.398
X90.161 Y55.318
X90.062 Y55.205
X89.997 Y55.07
X89.971 Y54.922
X89.982 Y54.772
X90.031 Y54.631
X90.112 Y54.504
X90.221 Y54.401
X90.351 Y54.326
X90.493 Y54.278
X90.642 Y54.26
X90.791 Y54.273
X90.935 Y54.316
X91.068 Y54.385
X91.187 Y54.476
X91.287 Y54.588
X91.367 Y54.715
X91.424 Y54.854
X91.457 Y55
X91.467 Y55.15
X91.452 Y55.299
X91.416 Y55.445
X91.357 Y55.582
X91.277 Y55.71
X91.181 Y55.825
X91.068 Y55.923
X90.942 Y56.005
X90.806 Y56.068
X90.662 Y56.112
X90.514 Y56.136
X90.364 Y56.141
X90.215 Y56.127
X90.069 Y56.093
X89.928 Y56.042
X89.795 Y55.973
X89.67 Y55.889
X89.557 Y55.79
X89.456 Y55.68
X89.369 Y55.558
X89.296 Y55.427
X89.238 Y55.288
X89.197 Y55.144
X89.171 Y54.996
X89.162 Y54.846
X89.169 Y54.697
X89.193 Y54.548
X89.232 Y54.404
X89.286 Y54.264
X89.354 Y54.13
X89.435 Y54.004
X89.529 Y53.887
X89.634 Y53.779
X89.749 Y53.683
X89.872 Y53.598
X90.004 Y53.526
X90.142 Y53.467
X90.284 Y53.421
X90.431 Y53.388
X90.58 Y53.37
X90.73 Y53.365
X90.879 Y53.374
X91.028 Y53.397
X91.173 Y53.432
X91.315 Y53.48
X91.453 Y53.541
X91.584 Y53.613
X91.709 Y53.697
X91.826 Y53.79
X91.935 Y53.894
X92.034 Y54.006
X92.125 Y54.126
X92.204 Y54.253
X92.274 Y54.386
X92.332 Y54.524
X92.379 Y54.666
X92.415 Y54.815
X92.438 Y54.963
X92.45 Y55.119
X92.449 Y55.27
X92.436 Y55.428
X92.411 Y55.579
X92.372 Y55.735
X92.322 Y55.882
X92.258 Y56.031
X92.183 Y56.173
X92.096 Y56.309
X91.997 Y56.441
X91.89 Y56.561
X91.768 Y56.678
X91.64 Y56.782
X91.5 Y56.878
X91.352 Y56.963
X91.325 Y56.976
X91.258 Y57.005
X91.19 Y57.029
X91.121 Y57.049
X90.817 Y57.126
X90.728 Y57.143
X90.638 Y57.148
X90.281 Y57.131
X90.102 Y57.119
X90.057 Y57.11
X90.012 Y57.097
X89.565 Y56.938
X89.507 Y56.914
X89.448 Y56.88
X89.386 Y56.837
X89.029 Y56.572
X88.972 Y56.522
X88.85 Y56.364
X88.492 Y55.877
X88.449 Y55.806
X88.135 Y55.221
X88.106 Y55.155
X88.089 Y55.09
X88.083 Y55.045
X88.08 Y55
X88.083 Y54.955
X88.089 Y54.91
X88.106 Y54.845
X88.135 Y54.779
X88.449 Y54.194
X88.492 Y54.123
X88.85 Y53.636
X88.972 Y53.478
X89.029 Y53.428
X89.386 Y53.163
X89.448 Y53.12
X89.507 Y53.086
X89.565 Y53.062
X90.012 Y52.903
X90.057 Y52.89
X90.102 Y52.881
X90.281 Y52.869
X90.638 Y52.852
X90.728 Y52.857
X90.817 Y52.874
X91.264 Y52.987
X91.309 Y53.001
X91.354 Y53.021
X91.533 Y53.125
X91.82 Y53.299
X91.89 Y53.353
X92.007 Y53.478
X92.248 Y53.744
X92.285 Y53.79
X92.313 Y53.836
X92.427 Y54.071
X92.485 Y54.194
X92.563 Y54.373
X92.596 Y54.552
X92.649 Y54.91
X92.657 Y55
X92.649 Y55.09
X92.596 Y55.448
X92.563 Y55.627
X92.485 Y55.806
X92.4 Y55.985
X92.313 Y56.164
X92.285 Y56.21
X92.248 Y56.256
X92.007 Y56.522
X91.89 Y56.647
X91.82 Y56.701
X91.523 Y56.88
X91.354 Y56.979
X91.309 Y56.999
X91.264 Y57.013
X91.121 Y57.049
X91.071 Y57.057
X91.022 Y57.06
X91.021
X90.951 Y57.055
X90.884 Y57.04
X90.819 Y57.015
X90.766 Y56.975 Z-1.995
X90.714 Y56.937 Z-1.981
X90.664 Y56.899 Z-1.959
X90.628 Y56.836 Z-1.917
X90.596 Y56.779 Z-1.864
X90.568 Y56.732 Z-1.799
X90.56 Y56.695 Z-1.737
X90.554 Y56.669 Z-1.669
X90.55 Y56.652 Z-1.597
X90.549 Y56.647 Z-1.524
Z5
X90.501 Y55
Z0.976
Z0.5 F50
Z-3
X90.44 Y54.956 F150
X90.415 Y54.928
X90.42 Y54.891
X90.457 Y54.826
X90.52 Y54.785
X90.594 Y54.773
X90.667 Y54.791
X90.79 Y54.876
X90.826 Y54.943
X90.85 Y55.091
X90.809 Y55.235
X90.714 Y55.351
X90.582 Y55.421
X90.432 Y55.437
X90.288 Y55.398
X90.161 Y55.318
X90.062 Y55.205
X89.997 Y55.07
X89.971 Y54.922
X89.982 Y54.772
X90.031 Y54.631
X90.112 Y54.504
X90.221 Y54.401
X90.351 Y54.326
X90.493 Y54.278
X90.642 Y54.26
X90.791 Y54.273
X90.935 Y54.316
X91.068 Y54.385
X91.187 Y54.476
X91.287 Y54.588
X91.367 Y54.715
X91.424 Y54.854
X91.457 Y55
X91.467 Y55.15
X91.452 Y55.299
X91.416 Y55.445
X91.357 Y55.582
X91.277 Y55.71
X91.181 Y55.825
X91.068 Y55.923
X90.942 Y56.005
X90.806 Y56.068
X90.662 Y56.112
X90.514 Y56.136
X90.364 Y56.141
X90.215 Y56.127
X90.069 Y56.093
X89.928 Y56.042
X89.795 Y55.973
X89.67 Y55.889
X89.557 Y55.79
X89.456 Y55.68
X89.369 Y55.558
X89.296 Y55.427
X89.238 Y55.288
X89.197 Y55.144
X89.171 Y54.996
X89.162 Y54.846
X89.169 Y54.697
X89.193 Y54.548
X89.232 Y54.404
X89.286 Y54.264
X89.354 Y54.13
X89.435 Y54.004
X89.529 Y53.887
X89.634 Y53.779
X89.749 Y53.683
X89.872 Y53.598
X90.004 Y53.526
X90.142 Y53.467
X90.284 Y53.421
X90.431 Y53.388
X90.58 Y53.37
X90.73 Y53.365
X90.879 Y53.374
X91.028 Y53.397
X91.173 Y53.432
X91.315 Y53.48
X91.453 Y53.541
X91.584 Y53.613
X91.709 Y53.697
X91.826 Y53.79
X91.935 Y53.894
X92.034 Y54.006
X92.125 Y54.126
X92.204 Y54.253
X92.274 Y54.386
X92.332 Y54.524
X92.379 Y54.666
X92.415 Y54.815
X92.438 Y54.963
X92.45 Y55.119
X92.449 Y55.27
X92.436 Y55.428
X92.411 Y55.579
X92.372 Y55.735
X92.322 Y55.882
X92.258 Y56.031
X92.183 Y56.173
X92.096 Y56.309
X91.997 Y56.441
X91.89 Y56.561
X91.768 Y56.678
X91.64 Y56.782
X91.5 Y56.878
X91.352 Y56.963
X91.325 Y56.976
X91.258 Y57.005
X91.19 Y57.029
X91.121 Y57.049
X90.817 Y57.126
X90.728 Y57.143
X90.638 Y57.148
X90.281 Y57.131
X90.102 Y57.119
X90.057 Y57.11
X90.012 Y57.097
X89.565 Y56.938
X89.507 Y56.914
X89.448 Y56.88
X89.386 Y56.837
X89.029 Y56.572
X88.972 Y56.522
X88.85 Y56.364
X88.492 Y55.877
X88.449 Y55.806
X88.135 Y55.221
X88.106 Y55.155
X88.089 Y55.09
X88.083 Y55.045
X88.08 Y55
X88.083 Y54.955
X88.089 Y54.91
X88.106 Y54.845
X88.135 Y54.779
X88.449 Y54.194
X88.492 Y54.123
X88.85 Y53.636
X88.972 Y53.478
X89.029 Y53.428
X89.386 Y53.163
X89.448 Y53.12
X89.507 Y53.086
X89.565 Y53.062
X90.012 Y52.903
X90.057 Y52.89
X90.102 Y52.881
X90.281 Y52.869
X90.638 Y52.852
X90.728 Y52.857
X90.817 Y52.874
X91.264 Y52.987
X91.309 Y53.001
X91.354 Y53.021
X91.533 Y53.125
X91.82 Y53.299
X91.89 Y53.353
X92.007 Y53.478
X92.248 Y53.744
X92.285 Y53.79
X92.313 Y53.836
X92.427 Y54.071
X92.485 Y54.194
X92.563 Y54.373
X92.596 Y54.552
X92.649 Y54.91
X92.657 Y55
X92.649 Y55.09
X92.596 Y55.448
X92.563 Y55.627
X92.485 Y55.806
X92.4 Y55.985
X92.313 Y56.164
X92.285 Y56.21
X92.248 Y56.256
X92.007 Y56.522
X91.89 Y56.647
X91.82 Y56.701
X91.523 Y56.88
X91.354 Y56.979
X91.309 Y56.999
X91.264 Y57.013
X91.121 Y57.049
X91.071 Y57.057
X91.022 Y57.06
X91.021
G3 X90.549 Y56.647 I0 J-0.476
G1 X90.538 Y56.565 Z-2.993
X90.527 Y56.485 Z-2.971
X90.518 Y56.411 Z-2.936
X90.509 Y56.343 Z-2.889
X90.501 Y56.285 Z-2.83
X90.495 Y56.238 Z-2.762
X90.49 Y56.203 Z-2.687
X90.487 Y56.182 Z-2.607
X90.486 Y56.175 Z-2.524
Z15
X85.744 Y37.249
Z5
Z2.976
Z2.5 F50
Z-1
X85.713 Y37.317 F150
X85.686 Y37.343
X85.649 Y37.341
X85.581 Y37.308
X85.538 Y37.247
X85.523 Y37.173
X85.539 Y37.1
X85.62 Y36.973
X85.685 Y36.937
X85.833 Y36.911
X85.978 Y36.95
X86.094 Y37.045
X86.163 Y37.178
X86.177 Y37.328
X86.137 Y37.472
X86.056 Y37.598
X85.941 Y37.695
X85.805 Y37.759
X85.657 Y37.782
X85.508 Y37.768
X85.367 Y37.716
X85.243 Y37.631
X85.143 Y37.52
X85.071 Y37.388
X85.027 Y37.245
X85.013 Y37.096
X85.03 Y36.947
X85.078 Y36.804
X85.15 Y36.673
X85.245 Y36.557
X85.36 Y36.46
X85.489 Y36.384
X85.63 Y36.332
X85.777 Y36.303
X85.927 Y36.299
X86.076 Y36.318
X86.22 Y36.36
X86.355 Y36.425
X86.48 Y36.508
X86.591 Y36.609
X86.685 Y36.726
X86.762 Y36.855
X86.82 Y36.993
X86.858 Y37.138
X86.877 Y37.287
X86.876 Y37.437
X86.856 Y37.586
X86.817 Y37.73
X86.76 Y37.869
X86.686 Y38
X86.597 Y38.121
X86.494 Y38.23
X86.38 Y38.327
X86.254 Y38.409
X86.12 Y38.476
X85.98 Y38.528
X85.834 Y38.564
X85.685 Y38.583
X85.535 Y38.586
X85.386 Y38.572
X85.239 Y38.542
X85.096 Y38.497
X84.958 Y38.437
X84.827 Y38.364
X84.705 Y38.277
X84.592 Y38.178
X84.49 Y38.069
X84.398 Y37.95
X84.319 Y37.822
X84.253 Y37.688
X84.2 Y37.548
X84.16 Y37.403
X84.134 Y37.255
X84.122 Y37.106
X84.124 Y36.956
X84.14 Y36.807
X84.169 Y36.659
X84.211 Y36.515
X84.265 Y36.376
X84.332 Y36.241
X84.41 Y36.113
X84.499 Y35.992
X84.598 Y35.88
X84.706 Y35.776
X84.822 Y35.681
X84.946 Y35.596
X85.077 Y35.522
X85.213 Y35.459
X85.354 Y35.407
X85.499 Y35.367
X85.65 Y35.338
X85.799 Y35.322
X85.956 Y35.317
X86.106 Y35.325
X86.263 Y35.346
X86.413 Y35.378
X86.566 Y35.425
X86.711 Y35.481
X86.856 Y35.552
X86.995 Y35.634
X87.125 Y35.726
X87.253 Y35.832
X87.368 Y35.945
X87.479 Y36.073
X87.577 Y36.206
X87.665 Y36.349
X87.743 Y36.501
X87.792 Y36.618
X87.817 Y36.683
X87.837 Y36.75
X87.854 Y36.818
X87.884 Y37.178
X87.897 Y37.357
X87.893 Y37.422
X87.881 Y37.486
X87.793 Y37.895
X87.77 Y37.984
X87.754 Y38.029
X87.733 Y38.074
X87.524 Y38.45
X87.477 Y38.531
X87.448 Y38.571
X87.412 Y38.611
X87.167 Y38.849
X87.042 Y38.969
X86.989 Y39.009
X86.811 Y39.106
X86.632 Y39.198
X86.454 Y39.285
X86.409 Y39.3
X86.365 Y39.311
X85.919 Y39.392
X85.829 Y39.404
X85.785 Y39.405
X85.74 Y39.402
X85.383 Y39.362
X85.205 Y39.338
X85.166 Y39.328
X85.027 Y39.27
X84.848 Y39.189
X84.378 Y38.969
X84.313 Y38.937
X83.956 Y38.717
X83.788 Y38.611
X83.778 Y38.604
X83.733 Y38.567
X83.689 Y38.518
X83.658 Y38.475
X83.634 Y38.432
X83.614 Y38.385
X83.599 Y38.338
X83.591 Y38.296
X83.586 Y38.253
X83.574 Y37.895
X83.578 Y37.716
X83.589 Y37.357
X83.599 Y37.175
X83.641 Y36.82
X83.653 Y36.731
X83.677 Y36.641
X83.778 Y36.408
X83.832 Y36.283
X83.917 Y36.104
X83.956 Y36.051
X84.216 Y35.746
X84.313 Y35.638
X84.408 Y35.566
X84.686 Y35.387
X84.848 Y35.288
X85.027 Y35.23
X85.383 Y35.129
X85.473 Y35.112
X85.562 Y35.108
X85.919 Y35.114
X86.097 Y35.122
X86.275 Y35.174
X86.632 Y35.289
X86.677 Y35.306
X86.721 Y35.328
X86.811 Y35.387
X87.167 Y35.635
X87.224 Y35.682
X87.28 Y35.746
X87.565 Y36.104
X87.597 Y36.149
X87.623 Y36.193
X87.661 Y36.283
X87.803 Y36.641
X87.836 Y36.731
X87.854 Y36.818
X87.841 Y36.836 Z-0.993
X87.832 Y36.849 Z-0.977
X87.829 Y36.854 Z-0.955
Z5
X85.744 Y37.249
Z1.976
Z1.5 F50
Z-2
X85.713 Y37.317 F150
X85.686 Y37.343
X85.649 Y37.341
X85.581 Y37.308
X85.538 Y37.247
X85.523 Y37.173
X85.539 Y37.1
X85.62 Y36.973
X85.685 Y36.937
X85.833 Y36.911
X85.978 Y36.95
X86.094 Y37.045
X86.163 Y37.178
X86.177 Y37.328
X86.137 Y37.472
X86.056 Y37.598
X85.941 Y37.695
X85.805 Y37.759
X85.657 Y37.782
X85.508 Y37.768
X85.367 Y37.716
X85.243 Y37.631
X85.143 Y37.52
X85.071 Y37.388
X85.027 Y37.245
X85.013 Y37.096
X85.03 Y36.947
X85.078 Y36.804
X85.15 Y36.673
X85.245 Y36.557
X85.36 Y36.46
X85.489 Y36.384
X85.63 Y36.332
X85.777 Y36.303
X85.927 Y36.299
X86.076 Y36.318
X86.22 Y36.36
X86.355 Y36.425
X86.48 Y36.508
X86.591 Y36.609
X86.685 Y36.726
X86.762 Y36.855
X86.82 Y36.993
X86.858 Y37.138
X86.877 Y37.287
X86.876 Y37.437
X86.856 Y37.586
X86.817 Y37.73
X86.76 Y37.869
X86.686 Y38
X86.597 Y38.121
X86.494 Y38.23
X86.38 Y38.327
X86.254 Y38.409
X86.12 Y38.476
X85.98 Y38.528
X85.834 Y38.564
X85.685 Y38.583
X85.535 Y38.586
X85.386 Y38.572
X85.239 Y38.542
X85.096 Y38.497
X84.958 Y38.437
X84.827 Y38.364
X84.705 Y38.277
X84.592 Y38.178
X84.49 Y38.069
X84.398 Y37.95
X84.319 Y37.822
X84.253 Y37.688
X84.2 Y37.548
X84.16 Y37.403
X84.134 Y37.255
X84.122 Y37.106
X84.124 Y36.956
X84.14 Y36.807
X84.169 Y36.659
X84.211 Y36.515
X84.265 Y36.376
X84.332 Y36.241
X84.41 Y36.113
X84.499 Y35.992
X84.598 Y35.88
X84.706 Y35.776
X84.822 Y35.681
X84.946 Y35.596
X85.077 Y35.522
X85.213 Y35.459
X85.354 Y35.407
X85.499 Y35.367
X85.65 Y35.338
X85.799 Y35.322
X85.956 Y35.317
X86.106 Y35.325
X86.263 Y35.346
X86.413 Y35.378
X86.566 Y35.425
X86.711 Y35.481
X86.856 Y35.552
X86.995 Y35.634
X87.125 Y35.726
X87.253 Y35.832
X87.368 Y35.945
X87.479 Y36.073
X87.577 Y36.206
X87.665 Y36.349
X87.743 Y36.501
X87.792 Y36.618
X87.817 Y36.683
X87.837 Y36.75
X87.854 Y36.818
X87.884 Y37.178
X87.897 Y37.357
X87.893 Y37.422
X87.881 Y37.486
X87.793 Y37.895
X87.77 Y37.984
X87.754 Y38.029
X87.733 Y38.074
X87.524 Y38.45
X87.477 Y38.531
X87.448 Y38.571
X87.412 Y38.611
X87.167 Y38.849
X87.042 Y38.969
X86.989 Y39.009
X86.811 Y39.106
X86.632 Y39.198
X86.454 Y39.285
X86.409 Y39.3
X86.365 Y39.311
X85.919 Y39.392
X85.829 Y39.404
X85.785 Y39.405
X85.74 Y39.402
X85.383 Y39.362
X85.205 Y39.338
X85.166 Y39.328
X85.027 Y39.27
X84.848 Y39.189
X84.378 Y38.969
X84.313 Y38.937
X83.956 Y38.717
X83.788 Y38.611
X83.778 Y38.604
X83.733 Y38.567
X83.689 Y38.518
X83.658 Y38.475
X83.634 Y38.432
X83.614 Y38.385
X83.599 Y38.338
X83.591 Y38.296
X83.586 Y38.253
X83.574 Y37.895
X83.578 Y37.716
X83.589 Y37.357
X83.599 Y37.175
X83.641 Y36.82
X83.653 Y36.731
X83.677 Y36.641
X83.778 Y36.408
X83.832 Y36.283
X83.917 Y36.104
X83.956 Y36.051
X84.216 Y35.746
X84.313 Y35.638
X84.408 Y35.566
X84.686 Y35.387
X84.848 Y35.288
X85.027 Y35.23
X85.383 Y35.129
X85.473 Y35.112
X85.562 Y35.108
X85.919 Y35.114
X86.097 Y35.122
X86.275 Y35.174
X86.632 Y35.289
X86.677 Y35.306
X86.721 Y35.328
X86.811 Y35.387
X87.167 Y35.635
X87.224 Y35.682
X87.28 Y35.746
X87.565 Y36.104
X87.597 Y36.149
X87.623 Y36.193
X87.661 Y36.283
X87.803 Y36.641
X87.836 Y36.731
X87.854 Y36.818
X87.841 Y36.836 Z-1.993
X87.832 Y36.849 Z-1.977
X87.829 Y36.854 Z-1.955
Z5
X85.744 Y37.249
Z0.976
Z0.5 F50
Z-3
X85.713 Y37.317 F150
X85.686 Y37.343
X85.649 Y37.341
X85.581 Y37.308
X85.538 Y37.247
X85.523 Y37.173
X85.539 Y37.1
X85.62 Y36.973
X85.685 Y36.937
X85.833 Y36.911
X85.978 Y36.95
X86.094 Y37.045
X86.163 Y37.178
X86.177 Y37.328
X86.137 Y37.472
X86.056 Y37.598
X85.941 Y37.695
X85.805 Y37.759
X85.657 Y37.782
X85.508 Y37.768
X85.367 Y37.716
X85.243 Y37.631
X85.143 Y37.52
X85.071 Y37.388
X85.027 Y37.245
X85.013 Y37.096
X85.03 Y36.947
X85.078 Y36.804
X85.15 Y36.673
X85.245 Y36.557
X85.36 Y36.46
X85.489 Y36.384
X85.63 Y36.332
X85.777 Y36.303
X85.927 Y36.299
X86.076 Y36.318
X86.22 Y36.36
X86.355 Y36.425
X86.48 Y36.508
X86.591 Y36.609
X86.685 Y36.726
X86.762 Y36.855
X86.82 Y36.993
X86.858 Y37.138
X86.877 Y37.287
X86.876 Y37.437
X86.856 Y37.586
X86.817 Y37.73
X86.76 Y37.869
X86.686 Y38
X86.597 Y38.121
X86.494 Y38.23
X86.38 Y38.327
X86.254 Y38.409
X86.12 Y38.476
X85.98 Y38.528
X85.834 Y38.564
X85.685 Y38.583
X85.535 Y38.586
X85.386 Y38.572
X85.239 Y38.542
X85.096 Y38.497
X84.958 Y38.437
X84.827 Y38.364
X84.705 Y38.277
X84.592 Y38.178
X84.49 Y38.069
X84.398 Y37.95
X84.319 Y37.822
X84.253 Y37.688
X84.2 Y37.548
X84.16 Y37.403
X84.134 Y37.255
X84.122 Y37.106
X84.124 Y36.956
X84.14 Y36.807
X84.169 Y36.659
X84.211 Y36.515
X84.265 Y36.376
X84.332 Y36.241
X84.41 Y36.113
X84.499 Y35.992
X84.598 Y35.88
X84.706 Y35.776
X84.822 Y35.681
X84.946 Y35.596
X85.077 Y35.522
X85.213 Y35.459
X85.354 Y35.407
X85.499 Y35.367
X85.65 Y35.338
X85.799 Y35.322
X85.956 Y35.317
X86.106 Y35.325
X86.263 Y35.346
X86.413 Y35.378
X86.566 Y35.425
X86.711 Y35.481
X86.856 Y35.552
X86.995 Y35.634
X87.125 Y35.726
X87.253 Y35.832
X87.368 Y35.945
X87.479 Y36.073
X87.577 Y36.206
X87.665 Y36.349
X87.743 Y36.501
X87.792 Y36.618
X87.817 Y36.683
X87.837 Y36.75
X87.854 Y36.818
X87.884 Y37.178
X87.897 Y37.357
X87.893 Y37.422
X87.881 Y37.486
X87.793 Y37.895
X87.77 Y37.984
X87.754 Y38.029
X87.733 Y38.074
X87.524 Y38.45
X87.477 Y38.531
X87.448 Y38.571
X87.412 Y38.611
X87.167 Y38.849
X87.042 Y38.969
X86.989 Y39.009
X86.811 Y39.106
X86.632 Y39.198
X86.454 Y39.285
X86.409 Y39.3
X86.365 Y39.311
X85.919 Y39.392
X85.829 Y39.404
X85.785 Y39.405
X85.74 Y39.402
X85.383 Y39.362
X85.205 Y39.338
X85.166 Y39.328
X85.027 Y39.27
X84.848 Y39.189
X84.378 Y38.969
X84.313 Y38.937
X83.956 Y38.717
X83.788 Y38.611
X83.778 Y38.604
X83.733 Y38.567
X83.689 Y38.518
X83.658 Y38.475
X83.634 Y38.432
X83.614 Y38.385
X83.599 Y38.338
X83.591 Y38.296
X83.586 Y38.253
X83.574 Y37.895
X83.578 Y37.716
X83.589 Y37.357
X83.599 Y37.175
X83.641 Y36.82
X83.653 Y36.731
X83.677 Y36.641
X83.778 Y36.408
X83.832 Y36.283
X83.917 Y36.104
X83.956 Y36.051
X84.216 Y35.746
X84.313 Y35.638
X84.408 Y35.566
X84.686 Y35.387
X84.848 Y35.288
X85.027 Y35.23
X85.383 Y35.129
X85.473 Y35.112
X85.562 Y35.108
X85.919 Y35.114
X86.097 Y35.122
X86.275 Y35.174
X86.632 Y35.289
X86.677 Y35.306
X86.721 Y35.328
X86.811 Y35.387
X87.167 Y35.635
X87.224 Y35.682
X87.28 Y35.746
X87.565 Y36.104
X87.597 Y36.149
X87.623 Y36.193
X87.661 Y36.283
X87.803 Y36.641
X87.836 Y36.731
X87.854 Y36.818
X87.846 Y36.839
X87.829 Y36.854
X87.756 Y36.892 Z-2.993
X87.685 Y36.929 Z-2.971
X87.618 Y36.964 Z-2.936
X87.558 Y36.996 Z-2.889
X87.506 Y37.023 Z-2.83
X87.464 Y37.045 Z-2.762
X87.433 Y37.062 Z-2.687
X87.414 Y37.072 Z-2.607
X87.408 Y37.075 Z-2.524
Z15
X72.751 Y24.255
Z5
Z2.976
Z2.5 F50
Z-1
X72.683 Y24.286 F150
X72.648 Y24.3
X72.615 Y24.281
X72.571 Y24.22
X72.559 Y24.146
X72.577 Y24.074
X72.623 Y24.014
X72.75 Y23.935
X72.824 Y23.928
X72.97 Y23.964
X73.088 Y24.057
X73.159 Y24.189
X73.173 Y24.338
X73.132 Y24.482
X73.041 Y24.601
X72.918 Y24.688
X72.776 Y24.736
X72.627 Y24.745
X72.48 Y24.715
X72.345 Y24.648
X72.232 Y24.55
X72.145 Y24.427
X72.09 Y24.288
X72.068 Y24.14
X72.077 Y23.99
X72.115 Y23.845
X72.183 Y23.711
X72.276 Y23.594
X72.39 Y23.495
X72.519 Y23.419
X72.66 Y23.368
X72.807 Y23.341
X72.957 Y23.339
X73.106 Y23.362
X73.248 Y23.408
X73.382 Y23.477
X73.503 Y23.565
X73.61 Y23.671
X73.699 Y23.791
X73.77 Y23.923
X73.82 Y24.065
X73.85 Y24.212
X73.859 Y24.362
X73.847 Y24.511
X73.815 Y24.658
X73.764 Y24.799
X73.696 Y24.932
X73.61 Y25.056
X73.511 Y25.168
X73.398 Y25.267
X73.274 Y25.351
X73.141 Y25.42
X73.001 Y25.474
X72.855 Y25.51
X72.707 Y25.53
X72.557 Y25.533
X72.407 Y25.518
X72.261 Y25.488
X72.118 Y25.441
X71.981 Y25.38
X71.852 Y25.304
X71.731 Y25.215
X71.621 Y25.113
X71.521 Y25.001
X71.434 Y24.879
X71.359 Y24.749
X71.297 Y24.612
X71.25 Y24.47
X71.216 Y24.324
X71.197 Y24.175
X71.192 Y24.025
X71.201 Y23.876
X71.225 Y23.727
X71.262 Y23.582
X71.312 Y23.441
X71.376 Y23.305
X71.451 Y23.175
X71.537 Y23.052
X71.634 Y22.938
X71.741 Y22.832
X71.856 Y22.736
X71.979 Y22.651
X72.109 Y22.576
X72.245 Y22.512
X72.386 Y22.46
X72.53 Y22.42
X72.678 Y22.392
X72.827 Y22.376
X72.977 Y22.373
X73.126 Y22.381
X73.277 Y22.402
X73.425 Y22.434
X73.574 Y22.48
X73.715 Y22.536
X73.856 Y22.606
X73.988 Y22.684
X74.12 Y22.778
X74.238 Y22.877
X74.354 Y22.992
X74.458 Y23.113
X74.554 Y23.244
X74.64 Y23.384
X74.713 Y23.528
X74.777 Y23.684
X74.828 Y23.841
X74.866 Y24.007
X74.876 Y24.074
X74.883 Y24.122
X74.887 Y24.171
X74.888 Y24.22
X74.892 Y24.438
X74.888 Y24.527
X74.871 Y24.617
X74.77 Y24.973
X74.712 Y25.152
X74.602 Y25.33
X74.434 Y25.592
X74.362 Y25.687
X74.254 Y25.784
X73.949 Y26.044
X73.896 Y26.083
X73.717 Y26.168
X73.538 Y26.246
X73.359 Y26.323
X73.269 Y26.347
X73.18 Y26.359
X72.822 Y26.401
X72.643 Y26.411
X72.284 Y26.422
X72.105 Y26.426
X71.747 Y26.414
X71.704 Y26.409
X71.662 Y26.401
X71.615 Y26.386
X71.568 Y26.366
X71.525 Y26.342
X71.482 Y26.311
X71.433 Y26.267
X71.396 Y26.222
X71.389 Y26.212
X71.283 Y26.044
X71.063 Y25.687
X71.031 Y25.622
X70.811 Y25.152
X70.73 Y24.973
X70.672 Y24.834
X70.662 Y24.795
X70.638 Y24.617
X70.598 Y24.26
X70.595 Y24.215
X70.596 Y24.171
X70.608 Y24.081
X70.689 Y23.635
X70.7 Y23.591
X70.715 Y23.546
X70.802 Y23.368
X70.894 Y23.189
X70.991 Y23.011
X71.031 Y22.958
X71.324 Y22.654
X71.389 Y22.588
X71.429 Y22.552
X71.469 Y22.523
X71.568 Y22.466
X71.926 Y22.267
X71.971 Y22.246
X72.016 Y22.23
X72.105 Y22.207
X72.514 Y22.119
X72.578 Y22.107
X72.643 Y22.103
X72.859 Y22.119
X73.18 Y22.146
X73.269 Y22.164
X73.359 Y22.197
X73.717 Y22.339
X73.807 Y22.377
X73.851 Y22.403
X73.896 Y22.435
X74.254 Y22.72
X74.318 Y22.776
X74.365 Y22.833
X74.613 Y23.189
X74.672 Y23.279
X74.694 Y23.323
X74.711 Y23.368
X74.826 Y23.725
X74.878 Y23.903
X74.886 Y24.081
X74.888 Y24.22
G3 X74.786 Y24.506 I-0.476 J-0.008
G1 X74.736 Y24.549 Z-0.995
X74.686 Y24.59 Z-0.981
X74.639 Y24.63 Z-0.959
X74.568 Y24.651 Z-0.917
X74.506 Y24.67 Z-0.864
X74.454 Y24.686 Z-0.799
X74.413 Y24.687 Z-0.728
X74.387 Y24.686 Z-0.663
X74.372 Y24.685 Z-0.594
X74.366 Z-0.524
Z5
X72.751 Y24.255
Z1.976
Z1.5 F50
Z-2
X72.683 Y24.286 F150
X72.648 Y24.3
X72.615 Y24.281
X72.571 Y24.22
X72.559 Y24.146
X72.577 Y24.074
X72.623 Y24.014
X72.75 Y23.935
X72.824 Y23.928
X72.97 Y23.964
X73.088 Y24.057
X73.159 Y24.189
X73.173 Y24.338
X73.132 Y24.482
X73.041 Y24.601
X72.918 Y24.688
X72.776 Y24.736
X72.627 Y24.745
X72.48 Y24.715
X72.345 Y24.648
X72.232 Y24.55
X72.145 Y24.427
X72.09 Y24.288
X72.068 Y24.14
X72.077 Y23.99
X72.115 Y23.845
X72.183 Y23.711
X72.276 Y23.594
X72.39 Y23.495
X72.519 Y23.419
X72.66 Y23.368
X72.807 Y23.341
X72.957 Y23.339
X73.106 Y23.362
X73.248 Y23.408
X73.382 Y23.477
X73.503 Y23.565
X73.61 Y23.671
X73.699 Y23.791
X73.77 Y23.923
X73.82 Y24.065
X73.85 Y24.212
X73.859 Y24.362
X73.847 Y24.511
X73.815 Y24.658
X73.764 Y24.799
X73.696 Y24.932
X73.61 Y25.056
X73.511 Y25.168
X73.398 Y25.267
X73.274 Y25.351
X73.141 Y25.42
X73.001 Y25.474
X72.855 Y25.51
X72.707 Y25.53
X72.557 Y25.533
X72.407 Y25.518
X72.261 Y25.488
X72.118 Y25.441
X71.981 Y25.38
X71.852 Y25.304
X71.731 Y25.215
X71.621 Y25.113
X71.521 Y25.001
X71.434 Y24.879
X71.359 Y24.749
X71.297 Y24.612
X71.25 Y24.47
X71.216 Y24.324
X71.197 Y24.175
X71.192 Y24.025
X71.201 Y23.876
X71.225 Y23.727
X71.262 Y23.582
X71.312 Y23.441
X71.376 Y23.305
X71.451 Y23.175
X71.537 Y23.052
X71.634 Y22.938
X71.741 Y22.832
X71.856 Y22.736
X71.979 Y22.651
X72.109 Y22.576
X72.245 Y22.512
X72.386 Y22.46
X72.53 Y22.42
X72.678 Y22.392
X72.827 Y22.376
X72.977 Y22.373
X73.126 Y22.381
X73.277 Y22.402
X73.425 Y22.434
X73.574 Y22.48
X73.715 Y22.536
X73.856 Y22.606
X73.988 Y22.684
X74.12 Y22.778
X74.238 Y22.877
X74.354 Y22.992
X74.458 Y23.113
X74.554 Y23.244
X74.64 Y23.384
X74.713 Y23.528
X74.777 Y23.684
X74.828 Y23.841
X74.866 Y24.007
X74.876 Y24.074
X74.883 Y24.122
X74.887 Y24.171
X74.888 Y24.22
X74.892 Y24.438
X74.888 Y24.527
X74.871 Y24.617
X74.77 Y24.973
X74.712 Y25.152
X74.602 Y25.33
X74.434 Y25.592
X74.362 Y25.687
X74.254 Y25.784
X73.949 Y26.044
X73.896 Y26.083
X73.717 Y26.168
X73.538 Y26.246
X73.359 Y26.323
X73.269 Y26.347
X73.18 Y26.359
X72.822 Y26.401
X72.643 Y26.411
X72.284 Y26.422
X72.105 Y26.426
X71.747 Y26.414
X71.704 Y26.409
X71.662 Y26.401
X71.615 Y26.386
X71.568 Y26.366
X71.525 Y26.342
X71.482 Y26.311
X71.433 Y26.267
X71.396 Y26.222
X71.389 Y26.212
X71.283 Y26.044
X71.063 Y25.687
X71.031 Y25.622
X70.811 Y25.152
X70.73 Y24.973
X70.672 Y24.834
X70.662 Y24.795
X70.638 Y24.617
X70.598 Y24.26
X70.595 Y24.215
X70.596 Y24.171
X70.608 Y24.081
X70.689 Y23.635
X70.7 Y23.591
X70.715 Y23.546
X70.802 Y23.368
X70.894 Y23.189
X70.991 Y23.011
X71.031 Y22.958
X71.324 Y22.654
X71.389 Y22.588
X71.429 Y22.552
X71.469 Y22.523
X71.568 Y22.466
X71.926 Y22.267
X71.971 Y22.246
X72.016 Y22.23
X72.105 Y22.207
X72.514 Y22.119
X72.578 Y22.107
X72.643 Y22.103
X72.859 Y22.119
X73.18 Y22.146
X73.269 Y22.164
X73.359 Y22.197
X73.717 Y22.339
X73.807 Y22.377
X73.851 Y22.403
X73.896 Y22.435
X74.254 Y22.72
X74.318 Y22.776
X74.365 Y22.833
X74.613 Y23.189
X74.672 Y23.279
X74.694 Y23.323
X74.711 Y23.368
X74.826 Y23.725
X74.878 Y23.903
X74.886 Y24.081
X74.888 Y24.22
G3 X74.786 Y24.506 I-0.476 J-0.008
G1 X74.736 Y24.549 Z-1.995
X74.686 Y24.59 Z-1.981
X74.639 Y24.63 Z-1.959
X74.568 Y24.651 Z-1.917
X74.506 Y24.67 Z-1.864
X74.454 Y24.686 Z-1.799
X74.413 Y24.687 Z-1.728
X74.387 Y24.686 Z-1.663
X74.372 Y24.685 Z-1.594
X74.366 Z-1.524
Z5
X72.751 Y24.255
Z0.976
Z0.5 F50
Z-3
X72.683 Y24.286 F150
X72.648 Y24.3
X72.615 Y24.281
X72.571 Y24.22
X72.559 Y24.146
X72.577 Y24.074
X72.623 Y24.014
X72.75 Y23.935
X72.824 Y23.928
X72.97 Y23.964
X73.088 Y24.057
X73.159 Y24.189
X73.173 Y24.338
X73.132 Y24.482
X73.041 Y24.601
X72.918 Y24.688
X72.776 Y24.736
X72.627 Y24.745
X72.48 Y24.715
X72.345 Y24.648
X72.232 Y24.55
X72.145 Y24.427
X72.09 Y24.288
X72.068 Y24.14
X72.077 Y23.99
X72.115 Y23.845
X72.183 Y23.711
X72.276 Y23.594
X72.39 Y23.495
X72.519 Y23.419
X72.66 Y23.368
X72.807 Y23.341
X72.957 Y23.339
X73.106 Y23.362
X73.248 Y23.408
X73.382 Y23.477
X73.503 Y23.565
X73.61 Y23.671
X73.699 Y23.791
X73.77 Y23.923
X73.82 Y24.065
X73.85 Y24.212
X73.859 Y24.362
X73.847 Y24.511
X73.815 Y24.658
X73.764 Y24.799
X73.696 Y24.932
X73.61 Y25.056
X73.511 Y25.168
X73.398 Y25.267
X73.274 Y25.351
X73.141 Y25.42
X73.001 Y25.474
X72.855 Y25.51
X72.707 Y25.53
X72.557 Y25.533
X72.407 Y25.518
X72.261 Y25.488
X72.118 Y25.441
X71.981 Y25.38
X71.852 Y25.304
X71.731 Y25.215
X71.621 Y25.113
X71.521 Y25.001
X71.434 Y24.879
X71.359 Y24.749
X71.297 Y24.612
X71.25 Y24.47
X71.216 Y24.324
X71.197 Y24.175
X71.192 Y24.025
X71.201 Y23.876
X71.225 Y23.727
X71.262 Y23.582
X71.312 Y23.441
X71.376 Y23.305
X71.451 Y23.175
X71.537 Y23.052
X71.634 Y22.938
X71.741 Y22.832
X71.856 Y22.736
X71.979 Y22.651
X72.109 Y22.576
X72.245 Y22.512
X72.386 Y22.46
X72.53 Y22.42
X72.678 Y22.392
X72.827 Y22.376
X72.977 Y22.373
X73.126 Y22.381
X73.277 Y22.402
X73.425 Y22.434
X73.574 Y22.48
X73.715 Y22.536
X73.856 Y22.606
X73.988 Y22.684
X74.12 Y22.778
X74.238 Y22.877
X74.354 Y22.992
X74.458 Y23.113
X74.554 Y23.244
X74.64 Y23.384
X74.713 Y23.528
X74.777 Y23.684
X74.828 Y23.841
X74.866 Y24.007
X74.876 Y24.074
X74.883 Y24.122
X74.887 Y24.171
X74.888 Y24.22
X74.892 Y24.438
X74.888 Y24.527
X74.871 Y24.617
X74.77 Y24.973
X74.712 Y25.152
X74.602 Y25.33
X74.434 Y25.592
X74.362 Y25.687
X74.254 Y25.784
X73.949 Y26.044
X73.896 Y26.083
X73.717 Y26.168
X73.538 Y26.246
X73.359 Y26.323
X73.269 Y26.347
X73.18 Y26.359
X72.822 Y26.401
X72.643 Y26.411
X72.284 Y26.422
X72.105 Y26.426
X71.747 Y26.414
X71.704 Y26.409
X71.662 Y26.401
X71.615 Y26.386
X71.568 Y26.366
X71.525 Y26.342
X71.482 Y26.311
X71.433 Y26.267
X71.396 Y26.222
X71.389 Y26.212
X71.283 Y26.044
X71.063 Y25.687
X71.031 Y25.622
X70.811 Y25.152
X70.73 Y24.973
X70.672 Y24.834
X70.662 Y24.795
X70.638 Y24.617
X70.598 Y24.26
X70.595 Y24.215
X70.596 Y24.171
X70.608 Y24.081
X70.689 Y23.635
X70.7 Y23.591
X70.715 Y23.546
X70.802 Y23.368
X70.894 Y23.189
X70.991 Y23.011
X71.031 Y22.958
X71.324 Y22.654
X71.389 Y22.588
X71.429 Y22.552
X71.469 Y22.523
X71.568 Y22.466
X71.926 Y22.267
X71.971 Y22.246
X72.016 Y22.23
X72.105 Y22.207
X72.514 Y22.119
X72.578 Y22.107
X72.643 Y22.103
X72.859 Y22.119
X73.18 Y22.146
X73.269 Y22.164
X73.359 Y22.197
X73.717 Y22.339
X73.807 Y22.377
X73.851 Y22.403
X73.896 Y22.435
X74.254 Y22.72
X74.318 Y22.776
X74.365 Y22.833
X74.613 Y23.189
X74.672 Y23.279
X74.694 Y23.323
X74.711 Y23.368
X74.826 Y23.725
X74.878 Y23.903
X74.886 Y24.081
X74.888 Y24.22
G3 X74.366 Y24.685 I-0.476 J-0.008
G1 X74.284 Y24.677 Z-2.993
X74.204 Y24.669 Z-2.971
X74.13 Y24.662 Z-2.936
X74.062 Y24.656 Z-2.889
X74.004 Y24.65 Z-2.83
X73.956 Y24.645 Z-2.762
X73.921 Y24.642 Z-2.687
X73.9 Y24.64 Z-2.607
X73.893 Y24.639 Z-2.524
Z15
X55 Y19.499
Z5
Z2.976
Z2.5 F50
Z-1
X55.032 Y19.431 F150
X55.059 Y19.404
X55.134
X55.199 Y19.44
X55.243 Y19.501
X55.26 Y19.574
X55.239 Y19.722
X55.153 Y19.845
X55.023 Y19.92
X54.873 Y19.937
X54.729 Y19.896
X54.609 Y19.807
X54.525 Y19.682
X54.484 Y19.538
X54.475 Y19.388
X54.516 Y19.244
X54.59 Y19.113
X54.692 Y19.003
X54.816 Y18.92
X54.956 Y18.866
X55.105 Y18.843
X55.254 Y18.853
X55.399 Y18.893
X55.532 Y18.962
X55.65 Y19.055
X55.749 Y19.167
X55.827 Y19.296
X55.881 Y19.435
X55.912 Y19.582
X55.917 Y19.732
X55.9 Y19.881
X55.86 Y20.026
X55.798 Y20.162
X55.717 Y20.289
X55.618 Y20.402
X55.505 Y20.499
X55.379 Y20.581
X55.242 Y20.643
X55.099 Y20.687
X54.951 Y20.712
X54.801 Y20.717
X54.652 Y20.702
X54.505 Y20.669
X54.365 Y20.618
X54.231 Y20.55
X54.106 Y20.467
X53.991 Y20.37
X53.889 Y20.261
X53.799 Y20.14
X53.724 Y20.01
X53.664 Y19.873
X53.619 Y19.73
X53.591 Y19.582
X53.577 Y19.433
X53.579 Y19.283
X53.597 Y19.134
X53.629 Y18.988
X53.676 Y18.845
X53.737 Y18.708
X53.811 Y18.578
X53.897 Y18.455
X53.995 Y18.341
X54.103 Y18.237
X54.22 Y18.144
X54.346 Y18.062
X54.478 Y17.991
X54.617 Y17.934
X54.76 Y17.889
X54.907 Y17.857
X55.055 Y17.838
X55.205 Y17.832
X55.355 Y17.84
X55.504 Y17.86
X55.65 Y17.893
X55.793 Y17.938
X55.932 Y17.995
X56.065 Y18.063
X56.193 Y18.142
X56.314 Y18.231
X56.427 Y18.329
X56.532 Y18.437
X56.628 Y18.552
X56.715 Y18.674
X56.791 Y18.803
X56.858 Y18.937
X56.915 Y19.076
X56.96 Y19.219
X56.995 Y19.365
X57.019 Y19.513
X57.032 Y19.663
X57.033 Y19.813
X57.024 Y19.962
X57.004 Y20.111
X56.973 Y20.258
X56.932 Y20.402
X56.888 Y20.51
X56.837 Y20.604
X56.778 Y20.693
X56.572 Y20.971
X56.522 Y21.028
X56.364 Y21.15
X55.877 Y21.508
X55.806 Y21.551
X55.221 Y21.865
X55.155 Y21.894
X55.09 Y21.911
X55.045 Y21.917
X55 Y21.92
X54.955 Y21.917
X54.91 Y21.911
X54.845 Y21.894
X54.779 Y21.865
X54.194 Y21.551
X54.123 Y21.508
X53.636 Y21.15
X53.478 Y21.028
X53.428 Y20.971
X53.163 Y20.613
X53.12 Y20.552
X53.086 Y20.493
X53.062 Y20.435
X52.903 Y19.988
X52.89 Y19.943
X52.881 Y19.898
X52.869 Y19.719
X52.852 Y19.362
X52.857 Y19.272
X52.874 Y19.183
X52.987 Y18.736
X53.001 Y18.691
X53.021 Y18.646
X53.125 Y18.468
X53.299 Y18.18
X53.353 Y18.11
X53.478 Y17.993
X53.744 Y17.752
X53.79 Y17.715
X53.836 Y17.687
X54.071 Y17.573
X54.194 Y17.515
X54.373 Y17.437
X54.552 Y17.404
X54.91 Y17.351
X55 Y17.343
X55.09 Y17.351
X55.448 Y17.404
X55.627 Y17.437
X55.806 Y17.515
X55.985 Y17.6
X56.164 Y17.687
X56.21 Y17.715
X56.256 Y17.752
X56.522 Y17.993
X56.647 Y18.11
X56.701 Y18.18
X56.88 Y18.477
X56.979 Y18.646
X56.999 Y18.691
X57.013 Y18.736
X57.126 Y19.183
X57.143 Y19.272
X57.148 Y19.362
X57.131 Y19.719
X57.119 Y19.898
X57.11 Y19.943
X57.097 Y19.988
X56.938 Y20.435
X56.914 Y20.493
X56.88 Y20.552
X56.837 Y20.613
X56.778 Y20.693
G3 X56.523 Y20.858 I-0.373 J-0.296
G1 X56.464 Y20.865 Z-0.996
X56.405 Y20.873 Z-0.985
X56.338 Y20.859 Z-0.961
X56.274 Y20.845 Z-0.927
X56.217 Y20.834 Z-0.883
X56.17 Y20.803 Z-0.824
X56.132 Y20.778 Z-0.757
X56.104 Y20.76 Z-0.684
X56.086 Y20.748 Z-0.605
X56.081 Y20.745 Z-0.524
Z5
X55 Y19.499
Z1.976
Z1.5 F50
Z-2
X55.032 Y19.431 F150
X55.059 Y19.404
X55.134
X55.199 Y19.44
X55.243 Y19.501
X55.26 Y19.574
X55.239 Y19.722
X55.153 Y19.845
X55.023 Y19.92
X54.873 Y19.937
X54.729 Y19.896
X54.609 Y19.807
X54.525 Y19.682
X54.484 Y19.538
X54.475 Y19.388
X54.516 Y19.244
X54.59 Y19.113
X54.692 Y19.003
X54.816 Y18.92
X54.956 Y18.866
X55.105 Y18.843
X55.254 Y18.853
X55.399 Y18.893
X55.532 Y18.962
X55.65 Y19.055
X55.749 Y19.167
X55.827 Y19.296
X55.881 Y19.435
X55.912 Y19.582
X55.917 Y19.732
X55.9 Y19.881
X55.86 Y20.026
X55.798 Y20.162
X55.717 Y20.289
X55.618 Y20.402
X55.505 Y20.499
X55.379 Y20.581
X55.242 Y20.643
X55.099 Y20.687
X54.951 Y20.712
X54.801 Y20.717
X54.652 Y20.702
X54.505 Y20.669
X54.365 Y20.618
X54.231 Y20.55
X54.106 Y20.467
X53.991 Y20.37
X53.889 Y20.261
X53.799 Y20.14
X53.724 Y20.01
X53.664 Y19.873
X53.619 Y19.73
X53.591 Y19.582
X53.577 Y19.433
X53.579 Y19.283
X53.597 Y19.134
X53.629 Y18.988
X53.676 Y18.845
X53.737 Y18.708
X53.811 Y18.578
X53.897 Y18.455
X53.995 Y18.341
X54.103 Y18.237
X54.22 Y18.144
X54.346 Y18.062
X54.478 Y17.991
X54.617 Y17.934
X54.76 Y17.889
X54.907 Y17.857
X55.055 Y17.838
X55.205 Y17.832
X55.355 Y17.84
X55.504 Y17.86
X55.65 Y17.893
X55.793 Y17.938
X55.932 Y17.995
X56.065 Y18.063
X56.193 Y18.142
X56.314 Y18.231
X56.427 Y18.329
X56.532 Y18.437
X56.628 Y18.552
X56.715 Y18.674
X56.791 Y18.803
X56.858 Y18.937
X56.915 Y19.076
X56.96 Y19.219
X56.995 Y19.365
X57.019 Y19.513
X57.032 Y19.663
X57.033 Y19.813
X57.024 Y19.962
X57.004 Y20.111
X56.973 Y20.258
X56.932 Y20.402
X56.888 Y20.51
X56.837 Y20.604
X56.778 Y20.693
X56.572 Y20.971
X56.522 Y21.028
X56.364 Y21.15
X55.877 Y21.508
X55.806 Y21.551
X55.221 Y21.865
X55.155 Y21.894
X55.09 Y21.911
X55.045 Y21.917
X55 Y21.92
X54.955 Y21.917
X54.91 Y21.911
X54.845 Y21.894
X54.779 Y21.865
X54.194 Y21.551
X54.123 Y21.508
X53.636 Y21.15
X53.478 Y21.028
X53.428 Y20.971
X53.163 Y20.613
X53.12 Y20.552
X53.086 Y20.493
X53.062 Y20.435
X52.903 Y19.988
X52.89 Y19.943
X52.881 Y19.898
X52.869 Y19.719
X52.852 Y19.362
X52.857 Y19.272
X52.874 Y19.183
X52.987 Y18.736
X53.001 Y18.691
X53.021 Y18.646
X53.125 Y18.468
X53.299 Y18.18
X53.353 Y18.11
X53.478 Y17.993
X53.744 Y17.752
X53.79 Y17.715
X53.836 Y17.687
X54.071 Y17.573
X54.194 Y17.515
X54.373 Y17.437
X54.552 Y17.404
X54.91 Y17.351
X55 Y17.343
X55.09 Y17.351
X55.448 Y17.404
X55.627 Y17.437
X55.806 Y17.515
X55.985 Y17.6
X56.164 Y17.687
X56.21 Y17.715
X56.256 Y17.752
X56.522 Y17.993
X56.647 Y18.11
X56.701 Y18.18
X56.88 Y18.477
X56.979 Y18.646
X56.999 Y18.691
X57.013 Y18.736
X57.126 Y19.183
X57.143 Y19.272
X57.148 Y19.362
X57.131 Y19.719
X57.119 Y19.898
X57.11 Y19.943
X57.097 Y19.988
X56.938 Y20.435
X56.914 Y20.493
X56.88 Y20.552
X56.837 Y20.613
X56.778 Y20.693
G3 X56.523 Y20.858 I-0.373 J-0.296
G1 X56.464 Y20.865 Z-1.996
X56.405 Y20.873 Z-1.985
X56.338 Y20.859 Z-1.961
X56.274 Y20.845 Z-1.927
X56.217 Y20.834 Z-1.883
X56.17 Y20.803 Z-1.824
X56.132 Y20.778 Z-1.757
X56.104 Y20.76 Z-1.684
X56.086 Y20.748 Z-1.605
X56.081 Y20.745 Z-1.524
Z5
X55 Y19.499
Z0.976
Z0.5 F50
Z-3
X55.032 Y19.431 F150
X55.059 Y19.404
X55.134
X55.199 Y19.44
X55.243 Y19.501
X55.26 Y19.574
X55.239 Y19.722
X55.153 Y19.845
X55.023 Y19.92
X54.873 Y19.937
X54.729 Y19.896
X54.609 Y19.807
X54.525 Y19.682
X54.484 Y19.538
X54.475 Y19.388
X54.516 Y19.244
X54.59 Y19.113
X54.692 Y19.003
X54.816 Y18.92
X54.956 Y18.866
X55.105 Y18.843
X55.254 Y18.853
X55.399 Y18.893
X55.532 Y18.962
X55.65 Y19.055
X55.749 Y19.167
X55.827 Y19.296
X55.881 Y19.435
X55.912 Y19.582
X55.917 Y19.732
X55.9 Y19.881
X55.86 Y20.026
X55.798 Y20.162
X55.717 Y20.289
X55.618 Y20.402
X55.505 Y20.499
X55.379 Y20.581
X55.242 Y20.643
X55.099 Y20.687
X54.951 Y20.712
X54.801 Y20.717
X54.652 Y20.702
X54.505 Y20.669
X54.365 Y20.618
X54.231 Y20.55
X54.106 Y20.467
X53.991 Y20.37
X53.889 Y20.261
X53.799 Y20.14
X53.724 Y20.01
X53.664 Y19.873
X53.619 Y19.73
X53.591 Y19.582
X53.577 Y19.433
X53.579 Y19.283
X53.597 Y19.134
X53.629 Y18.988
X53.676 Y18.845
X53.737 Y18.708
X53.811 Y18.578
X53.897 Y18.455
X53.995 Y18.341
X54.103 Y18.237
X54.22 Y18.144
X54.346 Y18.062
X54.478 Y17.991
X54.617 Y17.934
X54.76 Y17.889
X54.907 Y17.857
X55.055 Y17.838
X55.205 Y17.832
X55.355 Y17.84
X55.504 Y17.86
X55.65 Y17.893
X55.793 Y17.938
X55.932 Y17.995
X56.065 Y18.063
X56.193 Y18.142
X56.314 Y18.231
X56.427 Y18.329
X56.532 Y18.437
X56.628 Y18.552
X56.715 Y18.674
X56.791 Y18.803
X56.858 Y18.937
X56.915 Y19.076
X56.96 Y19.219
X56.995 Y19.365
X57.019 Y19.513
X57.032 Y19.663
X57.033 Y19.813
X57.024 Y19.962
X57.004 Y20.111
X56.973 Y20.258
X56.932 Y20.402
X56.888 Y20.51
X56.837 Y20.604
X56.778 Y20.693
X56.572 Y20.971
X56.522 Y21.028
X56.364 Y21.15
X55.877 Y21.508
X55.806 Y21.551
X55.221 Y21.865
X55.155 Y21.894
X55.09 Y21.911
X55.045 Y21.917
X55 Y21.92
X54.955 Y21.917
X54.91 Y21.911
X54.845 Y21.894
X54.779 Y21.865
X54.194 Y21.551
X54.123 Y21.508
X53.636 Y21.15
X53.478 Y21.028
X53.428 Y20.971
X53.163 Y20.613
X53.12 Y20.552
X53.086 Y20.493
X53.062 Y20.435
X52.903 Y19.988
X52.89 Y19.943
X52.881 Y19.898
X52.869 Y19.719
X52.852 Y19.362
X52.857 Y19.272
X52.874 Y19.183
X52.987 Y18.736
X53.001 Y18.691
X53.021 Y18.646
X53.125 Y18.468
X53.299 Y18.18
X53.353 Y18.11
X53.478 Y17.993
X53.744 Y17.752
X53.79 Y17.715
X53.836 Y17.687
X54.071 Y17.573
X54.194 Y17.515
X54.373 Y17.437
X54.552 Y17.404
X54.91 Y17.351
X55 Y17.343
X55.09 Y17.351
X55.448 Y17.404
X55.627 Y17.437
X55.806 Y17.515
X55.985 Y17.6
X56.164 Y17.687
X56.21 Y17.715
X56.256 Y17.752
X56.522 Y17.993
X56.647 Y18.11
X56.701 Y18.18
X56.88 Y18.477
X56.979 Y18.646
X56.999 Y18.691
X57.013 Y18.736
X57.126 Y19.183
X57.143 Y19.272
X57.148 Y19.362
X57.131 Y19.719
X57.119 Y19.898
X57.11 Y19.943
X57.097 Y19.988
X56.938 Y20.435
X56.914 Y20.493
X56.88 Y20.552
X56.837 Y20.613
X56.778 Y20.693
G3 X56.081 Y20.745 I-0.373 J-0.296
G1 X56.02 Y20.688 Z-2.993
X55.962 Y20.634 Z-2.971
X55.907 Y20.582 Z-2.936
X55.857 Y20.536 Z-2.889
X55.814 Y20.496 Z-2.83
X55.779 Y20.464 Z-2.762
X55.754 Y20.44 Z-2.687
X55.738 Y20.425 Z-2.607
X55.733 Y20.42 Z-2.524
Z15
X37.249 Y24.256
Z5
Z2.976
Z2.5 F50
Z-1
X37.386 Y24.318 F150
X37.377 Y24.392
X37.336 Y24.455
X37.273 Y24.497
X37.126 Y24.526
X37.055 Y24.504
X36.935 Y24.414
X36.865 Y24.282
X36.854 Y24.132
X36.904 Y23.99
X37.002 Y23.877
X37.135 Y23.808
X37.284 Y23.788
X37.433 Y23.806
X37.571 Y23.865
X37.688 Y23.958
X37.777 Y24.079
X37.833 Y24.218
X37.852 Y24.367
X37.836 Y24.516
X37.787 Y24.658
X37.71 Y24.786
X37.607 Y24.896
X37.484 Y24.982
X37.346 Y25.04
X37.2 Y25.073
X37.05 Y25.078
X36.901 Y25.056
X36.759 Y25.009
X36.627 Y24.938
X36.508 Y24.846
X36.405 Y24.737
X36.322 Y24.612
X36.258 Y24.476
X36.217 Y24.332
X36.198 Y24.183
X36.201 Y24.033
X36.226 Y23.885
X36.271 Y23.743
X36.338 Y23.608
X36.422 Y23.484
X36.522 Y23.372
X36.636 Y23.274
X36.761 Y23.192
X36.896 Y23.127
X37.038 Y23.078
X37.185 Y23.048
X37.334 Y23.036
X37.484 Y23.042
X37.633 Y23.065
X37.777 Y23.106
X37.916 Y23.162
X38.047 Y23.235
X38.17 Y23.321
X38.282 Y23.421
X38.382 Y23.533
X38.47 Y23.654
X38.543 Y23.785
X38.603 Y23.923
X38.648 Y24.066
X38.678 Y24.213
X38.693 Y24.362
X38.692 Y24.512
X38.677 Y24.661
X38.647 Y24.808
X38.602 Y24.951
X38.544 Y25.09
X38.472 Y25.221
X38.389 Y25.346
X38.294 Y25.462
X38.188 Y25.569
X38.073 Y25.665
X37.95 Y25.751
X37.82 Y25.825
X37.684 Y25.888
X37.542 Y25.937
X37.397 Y25.975
X37.249 Y25.999
X37.099 Y26.011
X36.949 Y26.009
X36.8 Y25.995
X36.652 Y25.969
X36.507 Y25.93
X36.366 Y25.879
X36.229 Y25.817
X36.096 Y25.744
X35.972 Y25.66
X35.85 Y25.564
X35.74 Y25.461
X35.635 Y25.345
X35.543 Y25.226
X35.456 Y25.093
X35.383 Y24.957
X35.319 Y24.812
X35.267 Y24.664
X35.227 Y24.51
X35.199 Y24.351
X35.184 Y24.193
X35.181 Y24.027
X35.192 Y23.867
X35.216 Y23.7
X35.253 Y23.538
X35.304 Y23.38
X35.327 Y23.323
X35.36 Y23.249
X35.399 Y23.178
X35.442 Y23.11
X35.635 Y22.833
X35.682 Y22.776
X35.746 Y22.72
X36.104 Y22.435
X36.149 Y22.403
X36.193 Y22.377
X36.283 Y22.339
X36.641 Y22.197
X36.731 Y22.164
X36.82 Y22.146
X37.178 Y22.116
X37.357 Y22.103
X37.422 Y22.107
X37.486 Y22.119
X37.895 Y22.207
X37.984 Y22.23
X38.029 Y22.246
X38.074 Y22.267
X38.45 Y22.476
X38.531 Y22.523
X38.571 Y22.552
X38.611 Y22.588
X38.849 Y22.833
X38.969 Y22.958
X39.009 Y23.011
X39.106 Y23.189
X39.198 Y23.368
X39.285 Y23.546
X39.3 Y23.591
X39.311 Y23.635
X39.392 Y24.081
X39.404 Y24.171
X39.405 Y24.215
X39.402 Y24.26
X39.362 Y24.617
X39.338 Y24.795
X39.328 Y24.834
X39.27 Y24.973
X39.189 Y25.152
X38.969 Y25.622
X38.937 Y25.687
X38.717 Y26.044
X38.611 Y26.212
X38.604 Y26.222
X38.567 Y26.267
X38.518 Y26.311
X38.475 Y26.342
X38.432 Y26.366
X38.385 Y26.386
X38.338 Y26.401
X38.296 Y26.409
X38.253 Y26.414
X37.895 Y26.426
X37.716 Y26.422
X37.357 Y26.411
X37.175 Y26.401
X36.82 Y26.359
X36.731 Y26.347
X36.641 Y26.323
X36.408 Y26.222
X36.283 Y26.168
X36.104 Y26.083
X36.051 Y26.044
X35.746 Y25.784
X35.638 Y25.687
X35.566 Y25.592
X35.387 Y25.314
X35.288 Y25.152
X35.23 Y24.973
X35.129 Y24.617
X35.112 Y24.527
X35.108 Y24.438
X35.114 Y24.081
X35.122 Y23.903
X35.174 Y23.725
X35.289 Y23.368
X35.306 Y23.323
X35.328 Y23.279
X35.387 Y23.189
X35.442 Y23.11
G3 X35.692 Y22.937 I0.382 J0.285
G1 X35.759 Y22.927 Z-0.995
X35.824 Y22.918 Z-0.981
X35.892 Y22.932 Z-0.954
X35.956 Y22.945 Z-0.917
X36.013 Y22.957 Z-0.869
X36.056 Y22.985 Z-0.812
X36.091 Y23.007 Z-0.747
X36.117 Y23.023 Z-0.676
X36.133 Y23.033 Z-0.601
X36.138 Y23.036 Z-0.524
Z5
X37.249 Y24.256
Z1.976
Z1.5 F50
Z-2
X37.386 Y24.318 F150
X37.377 Y24.392
X37.336 Y24.455
X37.273 Y24.497
X37.126 Y24.526
X37.055 Y24.504
X36.935 Y24.414
X36.865 Y24.282
X36.854 Y24.132
X36.904 Y23.99
X37.002 Y23.877
X37.135 Y23.808
X37.284 Y23.788
X37.433 Y23.806
X37.571 Y23.865
X37.688 Y23.958
X37.777 Y24.079
X37.833 Y24.218
X37.852 Y24.367
X37.836 Y24.516
X37.787 Y24.658
X37.71 Y24.786
X37.607 Y24.896
X37.484 Y24.982
X37.346 Y25.04
X37.2 Y25.073
X37.05 Y25.078
X36.901 Y25.056
X36.759 Y25.009
X36.627 Y24.938
X36.508 Y24.846
X36.405 Y24.737
X36.322 Y24.612
X36.258 Y24.476
X36.217 Y24.332
X36.198 Y24.183
X36.201 Y24.033
X36.226 Y23.885
X36.271 Y23.743
X36.338 Y23.608
X36.422 Y23.484
X36.522 Y23.372
X36.636 Y23.274
X36.761 Y23.192
X36.896 Y23.127
X37.038 Y23.078
X37.185 Y23.048
X37.334 Y23.036
X37.484 Y23.042
X37.633 Y23.065
X37.777 Y23.106
X37.916 Y23.162
X38.047 Y23.235
X38.17 Y23.321
X38.282 Y23.421
X38.382 Y23.533
X38.47 Y23.654
X38.543 Y23.785
X38.603 Y23.923
X38.648 Y24.066
X38.678 Y24.213
X38.693 Y24.362
X38.692 Y24.512
X38.677 Y24.661
X38.647 Y24.808
X38.602 Y24.951
X38.544 Y25.09
X38.472 Y25.221
X38.389 Y25.346
X38.294 Y25.462
X38.188 Y25.569
X38.073 Y25.665
X37.95 Y25.751
X37.82 Y25.825
X37.684 Y25.888
X37.542 Y25.937
X37.397 Y25.975
X37.249 Y25.999
X37.099 Y26.011
X36.949 Y26.009
X36.8 Y25.995
X36.652 Y25.969
X36.507 Y25.93
X36.366 Y25.879
X36.229 Y25.817
X36.096 Y25.744
X35.972 Y25.66
X35.85 Y25.564
X35.74 Y25.461
X35.635 Y25.345
X35.543 Y25.226
X35.456 Y25.093
X35.383 Y24.957
X35.319 Y24.812
X35.267 Y24.664
X35.227 Y24.51
X35.199 Y24.351
X35.184 Y24.193
X35.181 Y24.027
X35.192 Y23.867
X35.216 Y23.7
X35.253 Y23.538
X35.304 Y23.38
