(eot_link)
(Machine)
(  vendor: Autodesk)
(  model: Generic 3-axis)
(  description: This machine has XYZ axis on the Head)
(T3 D=3.1 CR=0 - ZMIN=-8 - flat end mill)
G90 G94
G17
G21
(-Attention- Property Safe Retracts is set to Clearance Height.)
(Ensure the clearance height will clear the part and or fixtures.)
(Raise the Z-axis to a safe height before starting the program.)
(When using Fusion for Personal Use, the feedrate of rapid)
(moves is reduced to match the feedrate of cutting moves,)
(which can increase machining time. Unrestricted rapid moves)
(are available with a Fusion Subscription.)

(2D Contour3)
T3
S14000 M3
G17 G90 G94
G54
M8
G0 X18.948 Y41.085
Z15
G1 Z5 F100
Z0.62
Z-0.3
G3 X18.248 Y41.085 I-0.35 J0
X18.948 Y41.085 I0.35 J0
G1 Z-0.6
G3 X18.248 Y41.085 I-0.35 J0
X18.948 Y41.085 I0.35 J0
G1 Z-0.9
G3 X18.248 Y41.085 I-0.35 J0
X18.948 Y41.085 I0.35 J0
G1 Z-1.2
G3 X18.248 Y41.085 I-0.35 J0
X18.948 Y41.085 I0.35 J0
G1 Z-1.5
G3 X18.248 Y41.085 I-0.35 J0
X18.948 Y41.085 I0.35 J0
G1 Z-1.8
G3 X18.248 Y41.085 I-0.35 J0
X18.948 Y41.085 I0.35 J0
G1 Z-2.1
G3 X18.248 Y41.085 I-0.35 J0
X18.948 Y41.085 I0.35 J0
G1 Z-2.4
G3 X18.248 Y41.085 I-0.35 J0
X18.948 Y41.085 I0.35 J0
G1 Z-2.7
G3 X18.248 Y41.085 I-0.35 J0
X18.948 Y41.085 I0.35 J0
G1 Z-3
G3 X18.248 Y41.085 I-0.35 J0
X18.948 Y41.085 I0.35 J0
G1 Z-3.3
G3 X18.248 Y41.085 I-0.35 J0
X18.948 Y41.085 I0.35 J0
G1 Z-3.6
G3 X18.248 Y41.085 I-0.35 J0
X18.948 Y41.085 I0.35 J0
G1 Z-3.9
G3 X18.248 Y41.085 I-0.35 J0
X18.948 Y41.085 I0.35 J0
G1 Z-4.2
G3 X18.248 Y41.085 I-0.35 J0
X18.948 Y41.085 I0.35 J0
G1 Z-4.5
G3 X18.248 Y41.085 I-0.35 J0
X18.948 Y41.085 I0.35 J0
G1 Z-4.8
G3 X18.248 Y41.085 I-0.35 J0
X18.948 Y41.085 I0.35 J0
G1 Z-5.1
G3 X18.248 Y41.085 I-0.35 J0
X18.948 Y41.085 I0.35 J0
G1 Z-5.4
G3 X18.248 Y41.085 I-0.35 J0
X18.948 Y41.085 I0.35 J0
G1 Z-5.7
G3 X18.248 Y41.085 I-0.35 J0
X18.948 Y41.085 I0.35 J0
G1 Z-6
G3 X18.248 Y41.085 I-0.35 J0
X18.948 Y41.085 I0.35 J0
G1 Z-6.3
G3 X18.248 Y41.085 I-0.35 J0
X18.948 Y41.085 I0.35 J0
G1 Z-6.6
G3 X18.248 Y41.085 I-0.35 J0
X18.948 Y41.085 I0.35 J0
G1 Z-6.9
G3 X18.248 Y41.085 I-0.35 J0
X18.948 Y41.085 I0.35 J0
G1 Z-7.2
G3 X18.248 Y41.085 I-0.35 J0
X18.948 Y41.085 I0.35 J0
G1 Z-7.5
G3 X18.248 Y41.085 I-0.35 J0
X18.948 Y41.085 I0.35 J0
G1 Z-7.8
G3 X18.248 Y41.085 I-0.35 J0
X18.948 Y41.085 I0.35 J0
G1 Z-8
G3 X18.248 Y41.085 I-0.35 J0
X18.948 Y41.085 I0.35 J0
G1 Z5
X41.303 Y42.14
Z0.62
Z-0.3
G3 X40.867 Y41.593 I-0.218 J-0.274
X41.303 Y42.14 I0.218 J0.274
G1 Z-0.6
G3 X40.867 Y41.593 I-0.218 J-0.274
X41.303 Y42.14 I0.218 J0.274
G1 Z-0.9
G3 X40.867 Y41.593 I-0.218 J-0.274
X41.303 Y42.14 I0.218 J0.274
G1 Z-1.2
G3 X40.867 Y41.593 I-0.218 J-0.274
X41.303 Y42.14 I0.218 J0.274
G1 Z-1.5
G3 X40.867 Y41.593 I-0.218 J-0.274
X41.303 Y42.14 I0.218 J0.274
G1 Z-1.8
G3 X40.867 Y41.593 I-0.218 J-0.274
X41.303 Y42.14 I0.218 J0.274
G1 Z-2.1
G3 X40.867 Y41.593 I-0.218 J-0.274
X41.303 Y42.14 I0.218 J0.274
G1 Z-2.4
G3 X40.867 Y41.593 I-0.218 J-0.274
X41.303 Y42.14 I0.218 J0.274
G1 Z-2.7
G3 X40.867 Y41.593 I-0.218 J-0.274
X41.303 Y42.14 I0.218 J0.274
G1 Z-3
G3 X40.867 Y41.593 I-0.218 J-0.274
X41.303 Y42.14 I0.218 J0.274
G1 Z-3.3
G3 X40.867 Y41.593 I-0.218 J-0.274
X41.303 Y42.14 I0.218 J0.274
G1 Z-3.6
G3 X40.867 Y41.593 I-0.218 J-0.274
X41.303 Y42.14 I0.218 J0.274
G1 Z-3.9
G3 X40.867 Y41.593 I-0.218 J-0.274
X41.303 Y42.14 I0.218 J0.274
G1 Z-4.2
G3 X40.867 Y41.593 I-0.218 J-0.274
X41.303 Y42.14 I0.218 J0.274
G1 Z-4.5
G3 X40.867 Y41.593 I-0.218 J-0.274
X41.303 Y42.14 I0.218 J0.274
G1 Z-4.8
G3 X40.867 Y41.593 I-0.218 J-0.274
X41.303 Y42.14 I0.218 J0.274
G1 Z-5.1
G3 X40.867 Y41.593 I-0.218 J-0.274
X41.303 Y42.14 I0.218 J0.274
G1 Z-5.4
G3 X40.867 Y41.593 I-0.218 J-0.274
X41.303 Y42.14 I0.218 J0.274
G1 Z-5.7
G3 X40.867 Y41.593 I-0.218 J-0.274
X41.303 Y42.14 I0.218 J0.274
G1 Z-6
G3 X40.867 Y41.593 I-0.218 J-0.274
X41.303 Y42.14 I0.218 J0.274
G1 Z-6.3
G3 X40.867 Y41.593 I-0.218 J-0.274
X41.303 Y42.14 I0.218 J0.274
G1 Z-6.6
G3 X40.867 Y41.593 I-0.218 J-0.274
X41.303 Y42.14 I0.218 J0.274
G1 Z-6.9
G3 X40.867 Y41.593 I-0.218 J-0.274
X41.303 Y42.14 I0.218 J0.274
G1 Z-7.2
G3 X40.867 Y41.593 I-0.218 J-0.274
X41.303 Y42.14 I0.218 J0.274
G1 Z-7.5
G3 X40.867 Y41.593 I-0.218 J-0.274
X41.303 Y42.14 I0.218 J0.274
G1 Z-7.8
G3 X40.867 Y41.593 I-0.218 J-0.274
X41.303 Y42.14 I0.218 J0.274
G1 Z-8
G3 X40.867 Y41.593 I-0.218 J-0.274
X41.303 Y42.14 I0.218 J0.274
G1 Z5
X42.216 Y19.379
Z0.62
Z-0.3
G3 X41.516 Y19.379 I-0.35 J0
X42.216 Y19.379 I0.35 J0
G1 Z-0.6
G3 X41.516 Y19.379 I-0.35 J0
X42.216 Y19.379 I0.35 J0
G1 Z-0.9
G3 X41.516 Y19.379 I-0.35 J0
X42.216 Y19.379 I0.35 J0
G1 Z-1.2
G3 X41.516 Y19.379 I-0.35 J0
X42.216 Y19.379 I0.35 J0
G1 Z-1.5
G3 X41.516 Y19.379 I-0.35 J0
X42.216 Y19.379 I0.35 J0
G1 Z-1.8
G3 X41.516 Y19.379 I-0.35 J0
X42.216 Y19.379 I0.35 J0
G1 Z-2.1
G3 X41.516 Y19.379 I-0.35 J0
X42.216 Y19.379 I0.35 J0
G1 Z-2.4
G3 X41.516 Y19.379 I-0.35 J0
X42.216 Y19.379 I0.35 J0
G1 Z-2.7
G3 X41.516 Y19.379 I-0.35 J0
X42.216 Y19.379 I0.35 J0
G1 Z-3
G3 X41.516 Y19.379 I-0.35 J0
X42.216 Y19.379 I0.35 J0
G1 Z-3.3
G3 X41.516 Y19.379 I-0.35 J0
X42.216 Y19.379 I0.35 J0
G1 Z-3.6
G3 X41.516 Y19.379 I-0.35 J0
X42.216 Y19.379 I0.35 J0
G1 Z-3.9
G3 X41.516 Y19.379 I-0.35 J0
X42.216 Y19.379 I0.35 J0
G1 Z-4.2
G3 X41.516 Y19.379 I-0.35 J0
X42.216 Y19.379 I0.35 J0
G1 Z-4.5
G3 X41.516 Y19.379 I-0.35 J0
X42.216 Y19.379 I0.35 J0
G1 Z-4.8
G3 X41.516 Y19.379 I-0.35 J0
X42.216 Y19.379 I0.35 J0
G1 Z-5.1
G3 X41.516 Y19.379 I-0.35 J0
X42.216 Y19.379 I0.35 J0
G1 Z-5.4
G3 X41.516 Y19.379 I-0.35 J0
X42.216 Y19.379 I0.35 J0
G1 Z-5.7
G3 X41.516 Y19.379 I-0.35 J0
X42.216 Y19.379 I0.35 J0
G1 Z-6
G3 X41.516 Y19.379 I-0.35 J0
X42.216 Y19.379 I0.35 J0
G1 Z-6.3
G3 X41.516 Y19.379 I-0.35 J0
X42.216 Y19.379 I0.35 J0
G1 Z-6.6
G3 X41.516 Y19.379 I-0.35 J0
X42.216 Y19.379 I0.35 J0
G1 Z-6.9
G3 X41.516 Y19.379 I-0.35 J0
X42.216 Y19.379 I0.35 J0
G1 Z-7.2
G3 X41.516 Y19.379 I-0.35 J0
X42.216 Y19.379 I0.35 J0
G1 Z-7.5
G3 X41.516 Y19.379 I-0.35 J0
X42.216 Y19.379 I0.35 J0
G1 Z-7.8
G3 X41.516 Y19.379 I-0.35 J0
X42.216 Y19.379 I0.35 J0
G1 Z-8
G3 X41.516 Y19.379 I-0.35 J0
X42.216 Y19.379 I0.35 J0
G1 Z5
X19.729 Y18.599
Z0.62
Z-0.3
G3 X19.029 Y18.599 I-0.35 J0
X19.729 Y18.599 I0.35 J0
G1 Z-0.6
G3 X19.029 Y18.599 I-0.35 J0
X19.729 Y18.599 I0.35 J0
G1 Z-0.9
G3 X19.029 Y18.599 I-0.35 J0
X19.729 Y18.599 I0.35 J0
G1 Z-1.2
G3 X19.029 Y18.599 I-0.35 J0
X19.729 Y18.599 I0.35 J0
G1 Z-1.5
G3 X19.029 Y18.599 I-0.35 J0
X19.729 Y18.599 I0.35 J0
G1 Z-1.8
G3 X19.029 Y18.599 I-0.35 J0
X19.729 Y18.599 I0.35 J0
G1 Z-2.1
G3 X19.029 Y18.599 I-0.35 J0
X19.729 Y18.599 I0.35 J0
G1 Z-2.4
G3 X19.029 Y18.599 I-0.35 J0
X19.729 Y18.599 I0.35 J0
G1 Z-2.7
G3 X19.029 Y18.599 I-0.35 J0
X19.729 Y18.599 I0.35 J0
G1 Z-3
G3 X19.029 Y18.599 I-0.35 J0
X19.729 Y18.599 I0.35 J0
G1 Z-3.3
G3 X19.029 Y18.599 I-0.35 J0
X19.729 Y18.599 I0.35 J0
G1 Z-3.6
G3 X19.029 Y18.599 I-0.35 J0
X19.729 Y18.599 I0.35 J0
G1 Z-3.9
G3 X19.029 Y18.599 I-0.35 J0
X19.729 Y18.599 I0.35 J0
G1 Z-4.2
G3 X19.029 Y18.599 I-0.35 J0
X19.729 Y18.599 I0.35 J0
G1 Z-4.5
G3 X19.029 Y18.599 I-0.35 J0
X19.729 Y18.599 I0.35 J0
G1 Z-4.8
G3 X19.029 Y18.599 I-0.35 J0
X19.729 Y18.599 I0.35 J0
G1 Z-5.1
G3 X19.029 Y18.599 I-0.35 J0
X19.729 Y18.599 I0.35 J0
G1 Z-5.4
G3 X19.029 Y18.599 I-0.35 J0
X19.729 Y18.599 I0.35 J0
G1 Z-5.7
G3 X19.029 Y18.599 I-0.35 J0
X19.729 Y18.599 I0.35 J0
G1 Z-6
G3 X19.029 Y18.599 I-0.35 J0
X19.729 Y18.599 I0.35 J0
G1 Z-6.3
G3 X19.029 Y18.599 I-0.35 J0
X19.729 Y18.599 I0.35 J0
G1 Z-6.6
G3 X19.029 Y18.599 I-0.35 J0
X19.729 Y18.599 I0.35 J0
G1 Z-6.9
G3 X19.029 Y18.599 I-0.35 J0
X19.729 Y18.599 I0.35 J0
G1 Z-7.2
G3 X19.029 Y18.599 I-0.35 J0
X19.729 Y18.599 I0.35 J0
G1 Z-7.5
G3 X19.029 Y18.599 I-0.35 J0
X19.729 Y18.599 I0.35 J0
G1 Z-7.8
G3 X19.029 Y18.599 I-0.35 J0
X19.729 Y18.599 I0.35 J0
G1 Z-8
G3 X19.029 Y18.599 I-0.35 J0
X19.729 Y18.599 I0.35 J0
G1 Z15
(When using Fusion for Personal Use, the feedrate of rapid)
(moves is reduced to match the feedrate of cutting moves,)
(which can increase machining time. Unrestricted rapid moves)
(are available with a Fusion Subscription.)

(2D Contour1)
G0 X40.782 Y30.232
G1 Z15 F100
Z5
Z0.62
Z-0.3
G3 X19.682 Y30.232 I-10.55 J0
X40.782 Y30.232 I10.55 J0
G1 Z-0.6
G3 X19.682 Y30.232 I-10.55 J0
X40.782 Y30.232 I10.55 J0
G1 Z-0.9
G3 X19.682 Y30.232 I-10.55 J0
X40.782 Y30.232 I10.55 J0
G1 Z-1.2
G3 X19.682 Y30.232 I-10.55 J0
X40.782 Y30.232 I10.55 J0
G1 Z-1.5
G3 X19.682 Y30.232 I-10.55 J0
X40.782 Y30.232 I10.55 J0
G1 Z-1.8
G3 X19.682 Y30.232 I-10.55 J0
X40.782 Y30.232 I10.55 J0
G1 Z-2.1
G3 X19.682 Y30.232 I-10.55 J0
X40.782 Y30.232 I10.55 J0
G1 Z-2.4
G3 X19.682 Y30.232 I-10.55 J0
X40.782 Y30.232 I10.55 J0
G1 Z-2.7
G3 X19.682 Y30.232 I-10.55 J0
X40.782 Y30.232 I10.55 J0
G1 Z-3
G3 X19.682 Y30.232 I-10.55 J0
X40.782 Y30.232 I10.55 J0
G1 Z-3.3
G3 X19.682 Y30.232 I-10.55 J0
X40.782 Y30.232 I10.55 J0
G1 Z-3.6
G3 X19.682 Y30.232 I-10.55 J0
X40.782 Y30.232 I10.55 J0
G1 Z-3.9
G3 X19.682 Y30.232 I-10.55 J0
X40.782 Y30.232 I10.55 J0
G1 Z-4.2
G3 X19.682 Y30.232 I-10.55 J0
X40.782 Y30.232 I10.55 J0
G1 Z-4.5
G3 X19.682 Y30.232 I-10.55 J0
X40.782 Y30.232 I10.55 J0
G1 Z-4.8
G3 X19.682 Y30.232 I-10.55 J0
X40.782 Y30.232 I10.55 J0
G1 Z-5.1
G3 X19.682 Y30.232 I-10.55 J0
X40.782 Y30.232 I10.55 J0
G1 Z-5.4
G3 X19.682 Y30.232 I-10.55 J0
X40.782 Y30.232 I10.55 J0
G1 Z-5.7
G3 X19.682 Y30.232 I-10.55 J0
X40.782 Y30.232 I10.55 J0
G1 Z-6
G3 X19.682 Y30.232 I-10.55 J0
X40.782 Y30.232 I10.55 J0
G1 Z-6.3
G3 X19.682 Y30.232 I-10.55 J0
X40.782 Y30.232 I10.55 J0
G1 Z-6.6
G3 X19.682 Y30.232 I-10.55 J0
X40.782 Y30.232 I10.55 J0
G1 Z-6.9
G3 X19.682 Y30.232 I-10.55 J0
X40.782 Y30.232 I10.55 J0
G1 Z-7.2
G3 X19.682 Y30.232 I-10.55 J0
X40.782 Y30.232 I10.55 J0
G1 Z-7.5
G3 X19.682 Y30.232 I-10.55 J0
X40.782 Y30.232 I10.55 J0
G1 Z-7.8
G3 X19.682 Y30.232 I-10.55 J0
X40.782 Y30.232 I10.55 J0
G1 Z-8
G3 X19.682 Y30.232 I-10.55 J0
X40.782 Y30.232 I10.55 J0
G1 Z5
X47.231 Y40.93
Z0.62
Z-0.3
G3 X47.031 Y40.93 I-0.1 J0
X47.231 Y40.93 I0.1 J0
G1 Z-0.6
G3 X47.031 Y40.93 I-0.1 J0
X47.231 Y40.93 I0.1 J0
G1 Z-0.9
G3 X47.031 Y40.93 I-0.1 J0
X47.231 Y40.93 I0.1 J0
G1 Z-1.2
G3 X47.031 Y40.93 I-0.1 J0
X47.231 Y40.93 I0.1 J0
G1 Z-1.5
G3 X47.031 Y40.93 I-0.1 J0
X47.231 Y40.93 I0.1 J0
G1 Z-1.8
G3 X47.031 Y40.93 I-0.1 J0
X47.231 Y40.93 I0.1 J0
G1 Z-2.1
G3 X47.031 Y40.93 I-0.1 J0
X47.231 Y40.93 I0.1 J0
G1 Z-2.4
G3 X47.031 Y40.93 I-0.1 J0
X47.231 Y40.93 I0.1 J0
G1 Z-2.7
G3 X47.031 Y40.93 I-0.1 J0
X47.231 Y40.93 I0.1 J0
G1 Z-3
G3 X47.031 Y40.93 I-0.1 J0
X47.231 Y40.93 I0.1 J0
G1 Z-3.3
G3 X47.031 Y40.93 I-0.1 J0
X47.231 Y40.93 I0.1 J0
G1 Z-3.6
G3 X47.031 Y40.93 I-0.1 J0
X47.231 Y40.93 I0.1 J0
G1 Z-3.9
G3 X47.031 Y40.93 I-0.1 J0
X47.231 Y40.93 I0.1 J0
G1 Z-4.2
G3 X47.031 Y40.93 I-0.1 J0
X47.231 Y40.93 I0.1 J0
G1 Z-4.5
G3 X47.031 Y40.93 I-0.1 J0
X47.231 Y40.93 I0.1 J0
G1 Z-4.8
G3 X47.031 Y40.93 I-0.1 J0
X47.231 Y40.93 I0.1 J0
G1 Z-5.1
G3 X47.031 Y40.93 I-0.1 J0
X47.231 Y40.93 I0.1 J0
G1 Z-5.4
G3 X47.031 Y40.93 I-0.1 J0
X47.231 Y40.93 I0.1 J0
G1 Z-5.7
G3 X47.031 Y40.93 I-0.1 J0
X47.231 Y40.93 I0.1 J0
G1 Z-6
G3 X47.031 Y40.93 I-0.1 J0
X47.231 Y40.93 I0.1 J0
G1 Z-6.3
G3 X47.031 Y40.93 I-0.1 J0
X47.231 Y40.93 I0.1 J0
G1 Z-6.6
G3 X47.031 Y40.93 I-0.1 J0
X47.231 Y40.93 I0.1 J0
G1 Z-6.9
G3 X47.031 Y40.93 I-0.1 J0
X47.231 Y40.93 I0.1 J0
G1 Z-7.2
G3 X47.031 Y40.93 I-0.1 J0
X47.231 Y40.93 I0.1 J0
G1 Z-7.5
G3 X47.031 Y40.93 I-0.1 J0
X47.231 Y40.93 I0.1 J0
G1 Z-7.8
G3 X47.031 Y40.93 I-0.1 J0
X47.231 Y40.93 I0.1 J0
G1 Z-8
G3 X47.031 Y40.93 I-0.1 J0
X47.231 Y40.93 I0.1 J0
G1 Z5
X31.147 Y10.249
Z0.62
Z-0.3
G3 X30.947 Y10.249 I-0.1 J0
X31.147 Y10.249 I0.1 J0
G1 Z-0.6
G3 X30.947 Y10.249 I-0.1 J0
X31.147 Y10.249 I0.1 J0
G1 Z-0.9
G3 X30.947 Y10.249 I-0.1 J0
X31.147 Y10.249 I0.1 J0
G1 Z-1.2
G3 X30.947 Y10.249 I-0.1 J0
X31.147 Y10.249 I0.1 J0
G1 Z-1.5
G3 X30.947 Y10.249 I-0.1 J0
X31.147 Y10.249 I0.1 J0
G1 Z-1.8
G3 X30.947 Y10.249 I-0.1 J0
X31.147 Y10.249 I0.1 J0
G1 Z-2.1
G3 X30.947 Y10.249 I-0.1 J0
X31.147 Y10.249 I0.1 J0
G1 Z-2.4
G3 X30.947 Y10.249 I-0.1 J0
X31.147 Y10.249 I0.1 J0
G1 Z-2.7
G3 X30.947 Y10.249 I-0.1 J0
X31.147 Y10.249 I0.1 J0
G1 Z-3
G3 X30.947 Y10.249 I-0.1 J0
X31.147 Y10.249 I0.1 J0
G1 Z-3.3
G3 X30.947 Y10.249 I-0.1 J0
X31.147 Y10.249 I0.1 J0
G1 Z-3.6
G3 X30.947 Y10.249 I-0.1 J0
X31.147 Y10.249 I0.1 J0
G1 Z-3.9
G3 X30.947 Y10.249 I-0.1 J0
X31.147 Y10.249 I0.1 J0
G1 Z-4.2
G3 X30.947 Y10.249 I-0.1 J0
X31.147 Y10.249 I0.1 J0
G1 Z-4.5
G3 X30.947 Y10.249 I-0.1 J0
X31.147 Y10.249 I0.1 J0
G1 Z-4.8
G3 X30.947 Y10.249 I-0.1 J0
X31.147 Y10.249 I0.1 J0
G1 Z-5.1
G3 X30.947 Y10.249 I-0.1 J0
X31.147 Y10.249 I0.1 J0
G1 Z-5.4
G3 X30.947 Y10.249 I-0.1 J0
X31.147 Y10.249 I0.1 J0
G1 Z-5.7
G3 X30.947 Y10.249 I-0.1 J0
X31.147 Y10.249 I0.1 J0
G1 Z-6
G3 X30.947 Y10.249 I-0.1 J0
X31.147 Y10.249 I0.1 J0
G1 Z-6.3
G3 X30.947 Y10.249 I-0.1 J0
X31.147 Y10.249 I0.1 J0
G1 Z-6.6
G3 X30.947 Y10.249 I-0.1 J0
X31.147 Y10.249 I0.1 J0
G1 Z-6.9
G3 X30.947 Y10.249 I-0.1 J0
X31.147 Y10.249 I0.1 J0
G1 Z-7.2
G3 X30.947 Y10.249 I-0.1 J0
X31.147 Y10.249 I0.1 J0
G1 Z-7.5
G3 X30.947 Y10.249 I-0.1 J0
X31.147 Y10.249 I0.1 J0
G1 Z-7.8
G3 X30.947 Y10.249 I-0.1 J0
X31.147 Y10.249 I0.1 J0
G1 Z-8
G3 X30.947 Y10.249 I-0.1 J0
X31.147 Y10.249 I0.1 J0
G1 Z5
X12.619 Y39.518
Z0.62
Z-0.3
G3 X12.419 Y39.518 I-0.1 J0
X12.619 Y39.518 I0.1 J0
G1 Z-0.6
G3 X12.419 Y39.518 I-0.1 J0
X12.619 Y39.518 I0.1 J0
G1 Z-0.9
G3 X12.419 Y39.518 I-0.1 J0
X12.619 Y39.518 I0.1 J0
G1 Z-1.2
G3 X12.419 Y39.518 I-0.1 J0
X12.619 Y39.518 I0.1 J0
G1 Z-1.5
G3 X12.419 Y39.518 I-0.1 J0
X12.619 Y39.518 I0.1 J0
G1 Z-1.8
G3 X12.419 Y39.518 I-0.1 J0
X12.619 Y39.518 I0.1 J0
G1 Z-2.1
G3 X12.419 Y39.518 I-0.1 J0
X12.619 Y39.518 I0.1 J0
G1 Z-2.4
G3 X12.419 Y39.518 I-0.1 J0
X12.619 Y39.518 I0.1 J0
G1 Z-2.7
G3 X12.419 Y39.518 I-0.1 J0
X12.619 Y39.518 I0.1 J0
G1 Z-3
G3 X12.419 Y39.518 I-0.1 J0
X12.619 Y39.518 I0.1 J0
G1 Z-3.3
G3 X12.419 Y39.518 I-0.1 J0
X12.619 Y39.518 I0.1 J0
G1 Z-3.6
G3 X12.419 Y39.518 I-0.1 J0
X12.619 Y39.518 I0.1 J0
G1 Z-3.9
G3 X12.419 Y39.518 I-0.1 J0
X12.619 Y39.518 I0.1 J0
G1 Z-4.2
G3 X12.419 Y39.518 I-0.1 J0
X12.619 Y39.518 I0.1 J0
G1 Z-4.5
G3 X12.419 Y39.518 I-0.1 J0
X12.619 Y39.518 I0.1 J0
G1 Z-4.8
G3 X12.419 Y39.518 I-0.1 J0
X12.619 Y39.518 I0.1 J0
G1 Z-5.1
G3 X12.419 Y39.518 I-0.1 J0
X12.619 Y39.518 I0.1 J0
G1 Z-5.4
G3 X12.419 Y39.518 I-0.1 J0
X12.619 Y39.518 I0.1 J0
G1 Z-5.7
G3 X12.419 Y39.518 I-0.1 J0
X12.619 Y39.518 I0.1 J0
G1 Z-6
G3 X12.419 Y39.518 I-0.1 J0
X12.619 Y39.518 I0.1 J0
G1 Z-6.3
G3 X12.419 Y39.518 I-0.1 J0
X12.619 Y39.518 I0.1 J0
G1 Z-6.6
G3 X12.419 Y39.518 I-0.1 J0
X12.619 Y39.518 I0.1 J0
G1 Z-6.9
G3 X12.419 Y39.518 I-0.1 J0
X12.619 Y39.518 I0.1 J0
G1 Z-7.2
G3 X12.419 Y39.518 I-0.1 J0
X12.619 Y39.518 I0.1 J0
G1 Z-7.5
G3 X12.419 Y39.518 I-0.1 J0
X12.619 Y39.518 I0.1 J0
G1 Z-7.8
G3 X12.419 Y39.518 I-0.1 J0
X12.619 Y39.518 I0.1 J0
G1 Z-8
G3 X12.419 Y39.518 I-0.1 J0
X12.619 Y39.518 I0.1 J0
G1 Z15
(When using Fusion for Personal Use, the feedrate of rapid)
(moves is reduced to match the feedrate of cutting moves,)
(which can increase machining time. Unrestricted rapid moves)
(are available with a Fusion Subscription.)

(2D Pocket1)
G0 X20.238 Y30.588
G1 Z15 F100
Z5
Z-0.013
X20.231 Y30.589 Z-0.075
X20.21 Y30.592 Z-0.134
X20.178 Y30.597 Z-0.187
X20.134 Y30.604 Z-0.231
X20.082 Y30.613 Z-0.264
X20.024 Y30.622 Z-0.285
X19.962 Y30.632 Z-0.292
X19.666 Y30.678
X19.617 Y30.682
X-1.423
G3 X-1.623 Y30.482 I0 J-0.2
G1 X-1.621 Y29.982
G3 X-1.421 Y29.782 I0.2 J0.001
G1 X18.299
X19.617
X-1.421 Z-0.583
X18.299
X19.617
G3 X19.817 Y29.982 I0 J0.2
G1 Y30.482
G3 X19.617 Y30.682 I-0.2 J0
G1 X-1.423
X-1.47 Y30.677
X-1.514 Y30.66
X-1.554 Y30.634
X-2.085 Y30.175
G3 X-1.97 Y29.825 I0.131 J-0.151
G1 X-1.907 Y29.82 Z-0.59
X-1.848 Y29.815 Z-0.608
X-1.793 Y29.811 Z-0.639
X-1.746 Y29.807 Z-0.68
X-1.707 Y29.804 Z-0.729
X-1.669 Y29.801 Z-0.779
X-1.622 Y29.797 Z-0.82
X-1.567 Y29.793 Z-0.85
X-1.507 Y29.788 Z-0.869
X-1.445 Y29.783 Z-0.875
X-1.421 Y29.782
X18.299
X19.617
G3 X19.817 Y29.982 I0 J0.2
G1 Y30.482
G3 X19.617 Y30.682 I-0.2 J0
G1 X-1.423
X-1.47 Y30.677
X-1.514 Y30.66
X-1.554 Y30.634
X-2.085 Y30.175
G3 X-1.97 Y29.825 I0.131 J-0.151
G1 X-1.907 Y29.82 Z-0.881
X-1.848 Y29.815 Z-0.9
X-1.793 Y29.811 Z-0.93
X-1.746 Y29.807 Z-0.971
X-1.707 Y29.804 Z-1.021
X-1.669 Y29.801 Z-1.07
X-1.622 Y29.797 Z-1.111
X-1.567 Y29.793 Z-1.142
X-1.507 Y29.788 Z-1.16
X-1.445 Y29.783 Z-1.167
X-1.421 Y29.782
X18.299
X19.617
G3 X19.817 Y29.982 I0 J0.2
G1 Y30.482
G3 X19.617 Y30.682 I-0.2 J0
G1 X-1.423
X-1.47 Y30.677
X-1.514 Y30.66
X-1.554 Y30.634
X-2.085 Y30.175
G3 X-1.97 Y29.825 I0.131 J-0.151
G1 X-1.907 Y29.82 Z-1.173
X-1.848 Y29.815 Z-1.192
X-1.793 Y29.811 Z-1.222
X-1.746 Y29.807 Z-1.263
X-1.707 Y29.804 Z-1.312
X-1.669 Y29.801 Z-1.362
X-1.622 Y29.797 Z-1.403
X-1.567 Y29.793 Z-1.433
X-1.507 Y29.788 Z-1.452
X-1.445 Y29.783 Z-1.458
X-1.421 Y29.782
X18.299
X19.617
G3 X19.817 Y29.982 I0 J0.2
G1 Y30.482
G3 X19.617 Y30.682 I-0.2 J0
G1 X-1.423
X-1.47 Y30.677
X-1.514 Y30.66
X-1.554 Y30.634
X-2.085 Y30.175
G3 X-1.97 Y29.825 I0.131 J-0.151
G1 X-1.907 Y29.82 Z-1.465
X-1.848 Y29.815 Z-1.483
X-1.793 Y29.811 Z-1.514
X-1.746 Y29.807 Z-1.555
X-1.707 Y29.804 Z-1.604
X-1.669 Y29.801 Z-1.654
X-1.622 Y29.797 Z-1.695
X-1.567 Y29.793 Z-1.725
X-1.507 Y29.788 Z-1.744
X-1.445 Y29.783 Z-1.75
X-1.421 Y29.782
X18.299
X19.617
G3 X19.817 Y29.982 I0 J0.2
G1 Y30.482
G3 X19.617 Y30.682 I-0.2 J0
G1 X-1.423
X-1.47 Y30.677
X-1.514 Y30.66
X-1.554 Y30.634
X-2.085 Y30.175
G3 X-1.97 Y29.825 I0.131 J-0.151
G1 X-1.907 Y29.82 Z-1.756
X-1.848 Y29.815 Z-1.775
X-1.793 Y29.811 Z-1.805
X-1.746 Y29.807 Z-1.846
X-1.707 Y29.804 Z-1.896
X-1.669 Y29.801 Z-1.945
X-1.622 Y29.797 Z-1.986
X-1.567 Y29.793 Z-2.017
X-1.507 Y29.788 Z-2.035
X-1.445 Y29.783 Z-2.042
X-1.421 Y29.782
X18.299
X19.617
G3 X19.817 Y29.982 I0 J0.2
G1 Y30.482
G3 X19.617 Y30.682 I-0.2 J0
G1 X-1.423
X-1.47 Y30.677
X-1.514 Y30.66
X-1.554 Y30.634
X-2.085 Y30.175
G3 X-1.97 Y29.825 I0.131 J-0.151
G1 X-1.907 Y29.82 Z-2.048
X-1.848 Y29.815 Z-2.067
X-1.793 Y29.811 Z-2.097
X-1.746 Y29.807 Z-2.138
X-1.707 Y29.804 Z-2.187
X-1.669 Y29.801 Z-2.237
X-1.622 Y29.797 Z-2.278
X-1.567 Y29.793 Z-2.308
X-1.507 Y29.788 Z-2.327
X-1.445 Y29.783 Z-2.333
X-1.421 Y29.782
X18.299
X19.617
G3 X19.817 Y29.982 I0 J0.2
G1 Y30.482
G3 X19.617 Y30.682 I-0.2 J0
G1 X-1.423
X-1.47 Y30.677
X-1.514 Y30.66
X-1.554 Y30.634
X-2.085 Y30.175
G3 X-1.97 Y29.825 I0.131 J-0.151
G1 X-1.907 Y29.82 Z-2.34
X-1.848 Y29.815 Z-2.358
X-1.793 Y29.811 Z-2.389
X-1.746 Y29.807 Z-2.43
X-1.707 Y29.804 Z-2.479
X-1.669 Y29.801 Z-2.529
X-1.622 Y29.797 Z-2.57
X-1.567 Y29.793 Z-2.6
X-1.507 Y29.788 Z-2.619
X-1.445 Y29.783 Z-2.625
X-1.421 Y29.782
X18.299
X19.617
G3 X19.817 Y29.982 I0 J0.2
G1 Y30.482
G3 X19.617 Y30.682 I-0.2 J0
G1 X-1.423
X-1.47 Y30.677
X-1.514 Y30.66
X-1.554 Y30.634
X-2.085 Y30.175
G3 X-1.97 Y29.825 I0.131 J-0.151
G1 X-1.907 Y29.82 Z-2.631
X-1.848 Y29.815 Z-2.65
X-1.793 Y29.811 Z-2.68
X-1.746 Y29.807 Z-2.721
X-1.707 Y29.804 Z-2.771
X-1.669 Y29.801 Z-2.82
X-1.622 Y29.797 Z-2.861
X-1.567 Y29.793 Z-2.892
X-1.507 Y29.788 Z-2.91
X-1.445 Y29.783 Z-2.917
X-1.421 Y29.782
X18.299
X19.617
G3 X19.817 Y29.982 I0 J0.2
G1 Y30.482
G3 X19.617 Y30.682 I-0.2 J0
G1 X-1.423
X-1.47 Y30.677
X-1.514 Y30.66
X-1.554 Y30.634
X-2.085 Y30.175
G3 X-1.97 Y29.825 I0.131 J-0.151
G1 X-1.907 Y29.82 Z-2.923
X-1.848 Y29.815 Z-2.942
X-1.793 Y29.811 Z-2.972
X-1.746 Y29.807 Z-3.013
X-1.707 Y29.804 Z-3.062
X-1.669 Y29.801 Z-3.112
X-1.622 Y29.797 Z-3.153
X-1.567 Y29.793 Z-3.183
X-1.507 Y29.788 Z-3.202
X-1.445 Y29.783 Z-3.208
X-1.421 Y29.782
X18.299
X19.617
G3 X19.817 Y29.982 I0 J0.2
G1 Y30.482
G3 X19.617 Y30.682 I-0.2 J0
G1 X-1.423
X-1.47 Y30.677
X-1.514 Y30.66
X-1.554 Y30.634
X-2.085 Y30.175
G3 X-1.97 Y29.825 I0.131 J-0.151
G1 X-1.907 Y29.82 Z-3.215
X-1.848 Y29.815 Z-3.233
X-1.793 Y29.811 Z-3.264
X-1.746 Y29.807 Z-3.305
X-1.707 Y29.804 Z-3.354
X-1.669 Y29.801 Z-3.404
X-1.622 Y29.797 Z-3.445
X-1.567 Y29.793 Z-3.475
X-1.507 Y29.788 Z-3.494
X-1.445 Y29.783 Z-3.5
X-1.421 Y29.782
X18.299
X19.617
G3 X19.817 Y29.982 I0 J0.2
G1 Y30.482
G3 X19.617 Y30.682 I-0.2 J0
G1 X-1.423
X-1.471 Y30.678
X-1.735 Y30.637
X-1.803 Y30.626 Z-3.492
X-1.867 Y30.616 Z-3.469
X-1.925 Y30.607 Z-3.432
X-1.974 Y30.599 Z-3.383
X-2.01 Y30.593 Z-3.325
X-2.033 Y30.59 Z-3.259
X-2.041 Y30.588 Z-3.19
Z15
(When using Fusion for Personal Use, the feedrate of rapid)
(moves is reduced to match the feedrate of cutting moves,)
(which can increase machining time. Unrestricted rapid moves)
(are available with a Fusion Subscription.)

(2D Contour2)
G0 X30.542 Y-2.48
G1 Z15 F100
Z5
Z0.62
Z0.01
G19 G3 Y-2.17 Z-0.3 J0.31 K0
G1 Y-1.86
G17 G3 X30.232 Y-1.55 I-0.31 J0
G2 X30.232 Y62.015 I0 J31.782
X30.232 Y-1.55 I0 J-31.782
G3 X29.922 Y-1.86 I0 J-0.31
G1 Y-2.17
G19 G2 Y-2.48 Z0.01 J0 K0.31
G1 Z5
X30.542
Z0.32
Z-0.29
G3 Y-2.17 Z-0.6 J0.31 K0
G1 Y-1.86
G17 G3 X30.232 Y-1.55 I-0.31 J0
G2 X30.232 Y62.015 I0 J31.782
X30.232 Y-1.55 I0 J-31.782
G3 X29.922 Y-1.86 I0 J-0.31
G1 Y-2.17
G19 G2 Y-2.48 Z-0.29 J0 K0.31
G1 Z5
X30.542
Z0.02
Z-0.59
G3 Y-2.17 Z-0.9 J0.31 K0
G1 Y-1.86
G17 G3 X30.232 Y-1.55 I-0.31 J0
G2 X30.232 Y62.015 I0 J31.782
X30.232 Y-1.55 I0 J-31.782
G3 X29.922 Y-1.86 I0 J-0.31
G1 Y-2.17
G19 G2 Y-2.48 Z-0.59 J0 K0.31
G1 Z5
X30.542
Z-0.28
Z-0.89
G3 Y-2.17 Z-1.2 J0.31 K0
G1 Y-1.86
G17 G3 X30.232 Y-1.55 I-0.31 J0
G2 X30.232 Y62.015 I0 J31.782
X30.232 Y-1.55 I0 J-31.782
G3 X29.922 Y-1.86 I0 J-0.31
G1 Y-2.17
G19 G2 Y-2.48 Z-0.89 J0 K0.31
G1 Z5
X30.542
Z-0.58
Z-1.19
G3 Y-2.17 Z-1.5 J0.31 K0
G1 Y-1.86
G17 G3 X30.232 Y-1.55 I-0.31 J0
G2 X30.232 Y62.015 I0 J31.782
X30.232 Y-1.55 I0 J-31.782
G3 X29.922 Y-1.86 I0 J-0.31
G1 Y-2.17
G19 G2 Y-2.48 Z-1.19 J0 K0.31
G1 Z5
X30.542
Z-0.88
Z-1.49
G3 Y-2.17 Z-1.8 J0.31 K0
G1 Y-1.86
G17 G3 X30.232 Y-1.55 I-0.31 J0
G2 X30.232 Y62.015 I0 J31.782
X30.232 Y-1.55 I0 J-31.782
G3 X29.922 Y-1.86 I0 J-0.31
G1 Y-2.17
G19 G2 Y-2.48 Z-1.49 J0 K0.31
G1 Z5
X30.542
Z-1.18
Z-1.79
G3 Y-2.17 Z-2.1 J0.31 K0
G1 Y-1.86
G17 G3 X30.232 Y-1.55 I-0.31 J0
G2 X30.232 Y62.015 I0 J31.782
X30.232 Y-1.55 I0 J-31.782
G3 X29.922 Y-1.86 I0 J-0.31
G1 Y-2.17
G19 G2 Y-2.48 Z-1.79 J0 K0.31
G1 Z5
X30.542
Z-1.48
Z-2.09
G3 Y-2.17 Z-2.4 J0.31 K0
G1 Y-1.86
G17 G3 X30.232 Y-1.55 I-0.31 J0
G2 X30.232 Y62.015 I0 J31.782
X30.232 Y-1.55 I0 J-31.782
G3 X29.922 Y-1.86 I0 J-0.31
G1 Y-2.17
G19 G2 Y-2.48 Z-2.09 J0 K0.31
G1 Z5
X30.542
Z-1.78
Z-2.39
G3 Y-2.17 Z-2.7 J0.31 K0
G1 Y-1.86
G17 G3 X30.232 Y-1.55 I-0.31 J0
G2 X30.232 Y62.015 I0 J31.782
X30.232 Y-1.55 I0 J-31.782
G3 X29.922 Y-1.86 I0 J-0.31
G1 Y-2.17
G19 G2 Y-2.48 Z-2.39 J0 K0.31
G1 Z5
X30.542
Z-2.08
Z-2.69
G3 Y-2.17 Z-3 J0.31 K0
G1 Y-1.86
G17 G3 X30.232 Y-1.55 I-0.31 J0
G2 X30.232 Y62.015 I0 J31.782
X30.232 Y-1.55 I0 J-31.782
G3 X29.922 Y-1.86 I0 J-0.31
G1 Y-2.17
G19 G2 Y-2.48 Z-2.69 J0 K0.31
G1 Z5
X30.542
Z-2.38
Z-2.99
G3 Y-2.17 Z-3.3 J0.31 K0
G1 Y-1.86
G17 G3 X30.232 Y-1.55 I-0.31 J0
G2 X30.232 Y62.015 I0 J31.782
X30.232 Y-1.55 I0 J-31.782
G3 X29.922 Y-1.86 I0 J-0.31
G1 Y-2.17
G19 G2 Y-2.48 Z-2.99 J0 K0.31
G1 Z5
X30.542
Z-2.68
Z-3.29
G3 Y-2.17 Z-3.6 J0.31 K0
G1 Y-1.86
G17 G3 X30.232 Y-1.55 I-0.31 J0
G2 X30.232 Y62.015 I0 J31.782
X30.232 Y-1.55 I0 J-31.782
G3 X29.922 Y-1.86 I0 J-0.31
G1 Y-2.17
G19 G2 Y-2.48 Z-3.29 J0 K0.31
G1 Z5
X30.542
Z-2.98
Z-3.59
G3 Y-2.17 Z-3.9 J0.31 K0
G1 Y-1.86
G17 G3 X30.232 Y-1.55 I-0.31 J0
G2 X30.232 Y62.015 I0 J31.782
X30.232 Y-1.55 I0 J-31.782
G3 X29.922 Y-1.86 I0 J-0.31
G1 Y-2.17
G19 G2 Y-2.48 Z-3.59 J0 K0.31
G1 Z5
X30.542
Z-3.28
Z-3.89
G3 Y-2.17 Z-4.2 J0.31 K0
G1 Y-1.86
G17 G3 X30.232 Y-1.55 I-0.31 J0
G2 X30.232 Y62.015 I0 J31.782
X30.232 Y-1.55 I0 J-31.782
G3 X29.922 Y-1.86 I0 J-0.31
G1 Y-2.17
G19 G2 Y-2.48 Z-3.89 J0 K0.31
G1 Z5
X30.542
Z-3.58
Z-4.19
G3 Y-2.17 Z-4.5 J0.31 K0
G1 Y-1.86
G17 G3 X30.232 Y-1.55 I-0.31 J0
G2 X30.232 Y62.015 I0 J31.782
X30.232 Y-1.55 I0 J-31.782
G3 X29.922 Y-1.86 I0 J-0.31
G1 Y-2.17
G19 G2 Y-2.48 Z-4.19 J0 K0.31
G1 Z5
X30.542
Z-3.88
Z-4.49
G3 Y-2.17 Z-4.8 J0.31 K0
G1 Y-1.86
G17 G3 X30.232 Y-1.55 I-0.31 J0
G2 X30.232 Y62.015 I0 J31.782
X30.232 Y-1.55 I0 J-31.782
G3 X29.922 Y-1.86 I0 J-0.31
G1 Y-2.17
G19 G2 Y-2.48 Z-4.49 J0 K0.31
G1 Z5
X30.542
Z-4.18
Z-4.79
G3 Y-2.17 Z-5.1 J0.31 K0
G1 Y-1.86
G17 G3 X30.232 Y-1.55 I-0.31 J0
G2 X30.232 Y62.015 I0 J31.782
X30.232 Y-1.55 I0 J-31.782
G3 X29.922 Y-1.86 I0 J-0.31
G1 Y-2.17
G19 G2 Y-2.48 Z-4.79 J0 K0.31
G1 Z5
X30.542
Z-4.48
Z-5.09
G3 Y-2.17 Z-5.4 J0.31 K0
G1 Y-1.86
G17 G3 X30.232 Y-1.55 I-0.31 J0
G2 X30.232 Y62.015 I0 J31.782
X30.232 Y-1.55 I0 J-31.782
G3 X29.922 Y-1.86 I0 J-0.31
G1 Y-2.17
G19 G2 Y-2.48 Z-5.09 J0 K0.31
G1 Z5
X30.542
Z-4.78
Z-5.39
G3 Y-2.17 Z-5.7 J0.31 K0
G1 Y-1.86
G17 G3 X30.232 Y-1.55 I-0.31 J0
G2 X30.232 Y62.015 I0 J31.782
X30.232 Y-1.55 I0 J-31.782
G3 X29.922 Y-1.86 I0 J-0.31
G1 Y-2.17
G19 G2 Y-2.48 Z-5.39 J0 K0.31
G1 Z5
X30.542
Z-5.08
Z-5.69
G3 Y-2.17 Z-6 J0.31 K0
G1 Y-1.86
G17 G3 X30.232 Y-1.55 I-0.31 J0
G2 X30.232 Y62.015 I0 J31.782
X30.232 Y-1.55 I0 J-31.782
G3 X29.922 Y-1.86 I0 J-0.31
G1 Y-2.17
G19 G2 Y-2.48 Z-5.69 J0 K0.31
G1 Z5
X30.542
Z-5.38
Z-5.99
G3 Y-2.17 Z-6.3 J0.31 K0
G1 Y-1.86
G17 G3 X30.232 Y-1.55 I-0.31 J0
G2 X30.232 Y62.015 I0 J31.782
X30.232 Y-1.55 I0 J-31.782
G3 X29.922 Y-1.86 I0 J-0.31
G1 Y-2.17
G19 G2 Y-2.48 Z-5.99 J0 K0.31
G1 Z5
X30.542
Z-5.68
Z-6.29
G3 Y-2.17 Z-6.6 J0.31 K0
G1 Y-1.86
G17 G3 X30.232 Y-1.55 I-0.31 J0
G2 X30.232 Y62.015 I0 J31.782
X30.232 Y-1.55 I0 J-31.782
G3 X29.922 Y-1.86 I0 J-0.31
G1 Y-2.17
G19 G2 Y-2.48 Z-6.29 J0 K0.31
G1 Z5
X30.542
Z-5.98
Z-6.59
G3 Y-2.17 Z-6.9 J0.31 K0
G1 Y-1.86
G17 G3 X30.232 Y-1.55 I-0.31 J0
G2 X30.232 Y62.015 I0 J31.782
X30.232 Y-1.55 I0 J-31.782
G3 X29.922 Y-1.86 I0 J-0.31
G1 Y-2.17
G19 G2 Y-2.48 Z-6.59 J0 K0.31
G1 Z5
X30.542
Z-6.28
Z-6.69
G3 Y-2.17 Z-7 J0.31 K0
G1 Y-1.86
G17 G3 X30.232 Y-1.55 I-0.31 J0
G2 X30.232 Y62.015 I0 J31.782
X30.232 Y-1.55 I0 J-31.782
G3 X29.922 Y-1.86 I0 J-0.31
G1 Y-2.17
G19 G2 Y-2.48 Z-6.69 J0 K0.31
G1 Z15
G17

M9
M5
M30
