(harmonic_2040_mount)
(Machine)
(  vendor: Autodesk)
(  model: Generic 3-axis)
(  description: This machine has XY axis on the Table and Z axis on the Head)
(T1 D=4 CR=0 - ZMIN=-21 - flat end mill)
G90 G94
G17
G21
(-Attention- Property Safe Retracts is set to Clearance Height.)
(Ensure the clearance height will clear the part and or fixtures.)
(Raise the Z-axis to a safe height before starting the program.)

(Drill1)
T1
S12000 M3
G17 G90 G94
G54
M8
G0 X30.283 Y44.062
Z16
G0 Z6
Z-0.5
Z-3.5
G1 Z-6.307 F333.3
G0 Z-0.5
Z-4.307
G1 Z-7.114 F333.3
G0 Z-0.5
Z-5.114
G1 Z-7.92 F333.3
G0 Z-0.5
Z-5.92
G1 Z-8.727 F333.3
G0 Z-0.5
Z-6.727
G1 Z-9.534 F333.3
G0 Z-0.5
Z-7.534
G1 Z-10.341 F333.3
G0 Z-0.5
Z-8.341
G1 Z-11.147 F333.3
G0 Z-0.5
Z-9.147
G1 Z-11.954 F333.3
G0 Z-0.5
Z-9.954
G1 Z-12.761 F333.3
G0 Z-0.5
Z-10.761
G1 Z-13.568 F333.3
G0 Z-0.5
Z-11.568
G1 Z-14.374 F333.3
G0 Z-0.5
Z-12.374
G1 Z-15 F333.3
G4 P2.
G0 Z6
X19.998 Y38.126
Z5.5
Z2.5
G1 Z-0.307 F333.3
G0 Z5.5
Z1.693
G1 Z-1.114 F333.3
G0 Z5.5
Z0.886
G1 Z-1.92 F333.3
G0 Z5.5
Z0.08
G1 Z-2.727 F333.3
G0 Z5.5
Z-0.727
G1 Z-3.534 F333.3
G0 Z5.5
Z-1.534
G1 Z-4.341 F333.3
G0 Z5.5
Z-2.341
G1 Z-5.147 F333.3
G0 Z5.5
Z-3.147
G1 Z-5.954 F333.3
G0 Z5.5
Z-3.954
G1 Z-6.761 F333.3
G0 Z5.5
Z-4.761
G1 Z-7.568 F333.3
G0 Z5.5
Z-5.568
G1 Z-8.374 F333.3
G0 Z5.5
Z-6.374
G1 Z-9.181 F333.3
G0 Z5.5
Z-7.181
G1 Z-9.988 F333.3
G0 Z5.5
Z-7.988
G1 Z-10.795 F333.3
G0 Z5.5
Z-8.795
G1 Z-11.602 F333.3
G0 Z5.5
Z-9.602
G1 Z-12.408 F333.3
G0 Z5.5
Z-10.408
G1 Z-13.215 F333.3
G0 Z5.5
Z-11.215
G1 Z-14.022 F333.3
G0 Z5.5
Z-12.022
G1 Z-14.829 F333.3
G0 Z5.5
Z-12.829
G1 Z-15.635 F333.3
G0 Z5.5
Z-13.635
G1 Z-16.442 F333.3
G0 Z5.5
Z-14.442
G1 Z-17.249 F333.3
G0 Z5.5
Z-15.249
G1 Z-18.056 F333.3
G0 Z5.5
Z-16.056
G1 Z-18.862 F333.3
G0 Z5.5
Z-16.862
G1 Z-19.669 F333.3
G0 Z5.5
Z-17.669
G1 Z-20.476 F333.3
G0 Z5.5
Z-18.476
G1 Z-21 F333.3
G4 P2.
G0 Z6
X9.715 Y44.062
Z-0.5
Z-3.5
G1 Z-6.307 F333.3
G0 Z-0.5
Z-4.307
G1 Z-7.114 F333.3
G0 Z-0.5
Z-5.114
G1 Z-7.92 F333.3
G0 Z-0.5
Z-5.92
G1 Z-8.727 F333.3
G0 Z-0.5
Z-6.727
G1 Z-9.534 F333.3
G0 Z-0.5
Z-7.534
G1 Z-10.341 F333.3
G0 Z-0.5
Z-8.341
G1 Z-11.147 F333.3
G0 Z-0.5
Z-9.147
G1 Z-11.954 F333.3
G0 Z-0.5
Z-9.954
G1 Z-12.761 F333.3
G0 Z-0.5
Z-10.761
G1 Z-13.568 F333.3
G0 Z-0.5
Z-11.568
G1 Z-14.374 F333.3
G0 Z-0.5
Z-12.374
G1 Z-15 F333.3
G4 P2.
G0 Z6
Y55.937
Z-0.5
Z-3.5
G1 Z-6.307 F333.3
G0 Z-0.5
Z-4.307
G1 Z-7.114 F333.3
G0 Z-0.5
Z-5.114
G1 Z-7.92 F333.3
G0 Z-0.5
Z-5.92
G1 Z-8.727 F333.3
G0 Z-0.5
Z-6.727
G1 Z-9.534 F333.3
G0 Z-0.5
Z-7.534
G1 Z-10.341 F333.3
G0 Z-0.5
Z-8.341
G1 Z-11.147 F333.3
G0 Z-0.5
Z-9.147
G1 Z-11.954 F333.3
G0 Z-0.5
Z-9.954
G1 Z-12.761 F333.3
G0 Z-0.5
Z-10.761
G1 Z-13.568 F333.3
G0 Z-0.5
Z-11.568
G1 Z-14.374 F333.3
G0 Z-0.5
Z-12.374
G1 Z-15 F333.3
G4 P2.
G0 Z6
X19.998 Y61.875
Z5.5
Z2.5
G1 Z-0.307 F333.3
G0 Z5.5
Z1.693
G1 Z-1.114 F333.3
G0 Z5.5
Z0.886
G1 Z-1.92 F333.3
G0 Z5.5
Z0.08
G1 Z-2.727 F333.3
G0 Z5.5
Z-0.727
G1 Z-3.534 F333.3
G0 Z5.5
Z-1.534
G1 Z-4.341 F333.3
G0 Z5.5
Z-2.341
G1 Z-5.147 F333.3
G0 Z5.5
Z-3.147
G1 Z-5.954 F333.3
G0 Z5.5
Z-3.954
G1 Z-6.761 F333.3
G0 Z5.5
Z-4.761
G1 Z-7.568 F333.3
G0 Z5.5
Z-5.568
G1 Z-8.374 F333.3
G0 Z5.5
Z-6.374
G1 Z-9.181 F333.3
G0 Z5.5
Z-7.181
G1 Z-9.988 F333.3
G0 Z5.5
Z-7.988
G1 Z-10.795 F333.3
G0 Z5.5
Z-8.795
G1 Z-11.602 F333.3
G0 Z5.5
Z-9.602
G1 Z-12.408 F333.3
G0 Z5.5
Z-10.408
G1 Z-13.215 F333.3
G0 Z5.5
Z-11.215
G1 Z-14.022 F333.3
G0 Z5.5
Z-12.022
G1 Z-14.829 F333.3
G0 Z5.5
Z-12.829
G1 Z-15.635 F333.3
G0 Z5.5
Z-13.635
G1 Z-16.442 F333.3
G0 Z5.5
Z-14.442
G1 Z-17.249 F333.3
G0 Z5.5
Z-15.249
G1 Z-18.056 F333.3
G0 Z5.5
Z-16.056
G1 Z-18.862 F333.3
G0 Z5.5
Z-16.862
G1 Z-19.669 F333.3
G0 Z5.5
Z-17.669
G1 Z-20.476 F333.3
G0 Z5.5
Z-18.476
G1 Z-21 F333.3
G4 P2.
G0 Z6
X30.283 Y55.937
Z-0.5
Z-3.5
G1 Z-6.307 F333.3
G0 Z-0.5
Z-4.307
G1 Z-7.114 F333.3
G0 Z-0.5
Z-5.114
G1 Z-7.92 F333.3
G0 Z-0.5
Z-5.92
G1 Z-8.727 F333.3
G0 Z-0.5
Z-6.727
G1 Z-9.534 F333.3
G0 Z-0.5
Z-7.534
G1 Z-10.341 F333.3
G0 Z-0.5
Z-8.341
G1 Z-11.147 F333.3
G0 Z-0.5
Z-9.147
G1 Z-11.954 F333.3
G0 Z-0.5
Z-9.954
G1 Z-12.761 F333.3
G0 Z-0.5
Z-10.761
G1 Z-13.568 F333.3
G0 Z-0.5
Z-11.568
G1 Z-14.374 F333.3
G0 Z-0.5
Z-12.374
G1 Z-15 F333.3
G4 P2.
G0 Z6
Z16

M9
M5
M30
