(harmonic_2040_mount)
(Machine)
(  vendor: Autodesk)
(  model: Generic 3-axis)
(  description: This machine has XY axis on the Table and Z axis on the Head)
(T1 D=4 CR=0 - ZMIN=-22 - flat end mill)
G90 G94
G17
G21
(-Attention- Property Safe Retracts is set to Clearance Height.)
(Ensure the clearance height will clear the part and or fixtures.)
(Raise the Z-axis to a safe height before starting the program.)

(Drill1)
T1
S12000 M3
G17 G90 G94
G54
M8
G0 X-10.285 Y-155.938
Z15
G0 Z5
Z-1.5
Z-4.5
G1 Z-7.307 F333.3
G0 Z-1.5
Z-5.307
G1 Z-8.114 F333.3
G0 Z-1.5
Z-6.114
G1 Z-8.92 F333.3
G0 Z-1.5
Z-6.92
G1 Z-9.727 F333.3
G0 Z-1.5
Z-7.727
G1 Z-10.534 F333.3
G0 Z-1.5
Z-8.534
G1 Z-11.341 F333.3
G0 Z-1.5
Z-9.341
G1 Z-12.147 F333.3
G0 Z-1.5
Z-10.147
G1 Z-12.954 F333.3
G0 Z-1.5
Z-10.954
G1 Z-13.761 F333.3
G0 Z-1.5
Z-11.761
G1 Z-14.568 F333.3
G0 Z-1.5
Z-12.568
G1 Z-15.374 F333.3
G0 Z-1.5
Z-13.374
G1 Z-16 F333.3
G4 P2.
G0 Z5
X-0.002 Y-161.874
Z4.5
Z1.5
G1 Z-1.307 F333.3
G0 Z4.5
Z0.693
G1 Z-2.114 F333.3
G0 Z4.5
Z-0.114
G1 Z-2.92 F333.3
G0 Z4.5
Z-0.92
G1 Z-3.727 F333.3
G0 Z4.5
Z-1.727
G1 Z-4.534 F333.3
G0 Z4.5
Z-2.534
G1 Z-5.341 F333.3
G0 Z4.5
Z-3.341
G1 Z-6.147 F333.3
G0 Z4.5
Z-4.147
G1 Z-6.954 F333.3
G0 Z4.5
Z-4.954
G1 Z-7.761 F333.3
G0 Z4.5
Z-5.761
G1 Z-8.568 F333.3
G0 Z4.5
Z-6.568
G1 Z-9.374 F333.3
G0 Z4.5
Z-7.374
G1 Z-10.181 F333.3
G0 Z4.5
Z-8.181
G1 Z-10.988 F333.3
G0 Z4.5
Z-8.988
G1 Z-11.795 F333.3
G0 Z4.5
Z-9.795
G1 Z-12.602 F333.3
G0 Z4.5
Z-10.602
G1 Z-13.408 F333.3
G0 Z4.5
Z-11.408
G1 Z-14.215 F333.3
G0 Z4.5
Z-12.215
G1 Z-15.022 F333.3
G0 Z4.5
Z-13.022
G1 Z-15.829 F333.3
G0 Z4.5
Z-13.829
G1 Z-16.635 F333.3
G0 Z4.5
Z-14.635
G1 Z-17.442 F333.3
G0 Z4.5
Z-15.442
G1 Z-18.249 F333.3
G0 Z4.5
Z-16.249
G1 Z-19.056 F333.3
G0 Z4.5
Z-17.056
G1 Z-19.862 F333.3
G0 Z4.5
Z-17.862
G1 Z-20.669 F333.3
G0 Z4.5
Z-18.669
G1 Z-21.476 F333.3
G0 Z4.5
Z-19.476
G1 Z-22 F333.3
G4 P2.
G0 Z5
X10.283 Y-155.938
Z-1.5
Z-4.5
G1 Z-7.307 F333.3
G0 Z-1.5
Z-5.307
G1 Z-8.114 F333.3
G0 Z-1.5
Z-6.114
G1 Z-8.92 F333.3
G0 Z-1.5
Z-6.92
G1 Z-9.727 F333.3
G0 Z-1.5
Z-7.727
G1 Z-10.534 F333.3
G0 Z-1.5
Z-8.534
G1 Z-11.341 F333.3
G0 Z-1.5
Z-9.341
G1 Z-12.147 F333.3
G0 Z-1.5
Z-10.147
G1 Z-12.954 F333.3
G0 Z-1.5
Z-10.954
G1 Z-13.761 F333.3
G0 Z-1.5
Z-11.761
G1 Z-14.568 F333.3
G0 Z-1.5
Z-12.568
G1 Z-15.374 F333.3
G0 Z-1.5
Z-13.374
G1 Z-16 F333.3
G4 P2.
G0 Z5
Y-144.063
Z-1.5
Z-4.5
G1 Z-7.307 F333.3
G0 Z-1.5
Z-5.307
G1 Z-8.114 F333.3
G0 Z-1.5
Z-6.114
G1 Z-8.92 F333.3
G0 Z-1.5
Z-6.92
G1 Z-9.727 F333.3
G0 Z-1.5
Z-7.727
G1 Z-10.534 F333.3
G0 Z-1.5
Z-8.534
G1 Z-11.341 F333.3
G0 Z-1.5
Z-9.341
G1 Z-12.147 F333.3
G0 Z-1.5
Z-10.147
G1 Z-12.954 F333.3
G0 Z-1.5
Z-10.954
G1 Z-13.761 F333.3
G0 Z-1.5
Z-11.761
G1 Z-14.568 F333.3
G0 Z-1.5
Z-12.568
G1 Z-15.374 F333.3
G0 Z-1.5
Z-13.374
G1 Z-16 F333.3
G4 P2.
G0 Z5
X-0.002 Y-138.125
Z4.5
Z1.5
G1 Z-1.307 F333.3
G0 Z4.5
Z0.693
G1 Z-2.114 F333.3
G0 Z4.5
Z-0.114
G1 Z-2.92 F333.3
G0 Z4.5
Z-0.92
G1 Z-3.727 F333.3
G0 Z4.5
Z-1.727
G1 Z-4.534 F333.3
G0 Z4.5
Z-2.534
G1 Z-5.341 F333.3
G0 Z4.5
Z-3.341
G1 Z-6.147 F333.3
G0 Z4.5
Z-4.147
G1 Z-6.954 F333.3
G0 Z4.5
Z-4.954
G1 Z-7.761 F333.3
G0 Z4.5
Z-5.761
G1 Z-8.568 F333.3
G0 Z4.5
Z-6.568
G1 Z-9.374 F333.3
G0 Z4.5
Z-7.374
G1 Z-10.181 F333.3
G0 Z4.5
Z-8.181
G1 Z-10.988 F333.3
G0 Z4.5
Z-8.988
G1 Z-11.795 F333.3
G0 Z4.5
Z-9.795
G1 Z-12.602 F333.3
G0 Z4.5
Z-10.602
G1 Z-13.408 F333.3
G0 Z4.5
Z-11.408
G1 Z-14.215 F333.3
G0 Z4.5
Z-12.215
G1 Z-15.022 F333.3
G0 Z4.5
Z-13.022
G1 Z-15.829 F333.3
G0 Z4.5
Z-13.829
G1 Z-16.635 F333.3
G0 Z4.5
Z-14.635
G1 Z-17.442 F333.3
G0 Z4.5
Z-15.442
G1 Z-18.249 F333.3
G0 Z4.5
Z-16.249
G1 Z-19.056 F333.3
G0 Z4.5
Z-17.056
G1 Z-19.862 F333.3
G0 Z4.5
Z-17.862
G1 Z-20.669 F333.3
G0 Z4.5
Z-18.669
G1 Z-21.476 F333.3
G0 Z4.5
Z-19.476
G1 Z-22 F333.3
G4 P2.
G0 Z5
X-10.285 Y-144.063
Z-1.5
Z-4.5
G1 Z-7.307 F333.3
G0 Z-1.5
Z-5.307
G1 Z-8.114 F333.3
G0 Z-1.5
Z-6.114
G1 Z-8.92 F333.3
G0 Z-1.5
Z-6.92
G1 Z-9.727 F333.3
G0 Z-1.5
Z-7.727
G1 Z-10.534 F333.3
G0 Z-1.5
Z-8.534
G1 Z-11.341 F333.3
G0 Z-1.5
Z-9.341
G1 Z-12.147 F333.3
G0 Z-1.5
Z-10.147
G1 Z-12.954 F333.3
G0 Z-1.5
Z-10.954
G1 Z-13.761 F333.3
G0 Z-1.5
Z-11.761
G1 Z-14.568 F333.3
G0 Z-1.5
Z-12.568
G1 Z-15.374 F333.3
G0 Z-1.5
Z-13.374
G1 Z-16 F333.3
G4 P2.
G0 Z5
Z15

M9
M5
M30
