(harmonic_2040_mount)
(Machine)
(  vendor: Autodesk)
(  model: Generic 3-axis)
(  description: This machine has XY axis on the Table and Z axis on the Head)
(T1 D=4 CR=0 - ZMIN=-22 - flat end mill)
G90 G94
G17
G21
(-Attention- Property Safe Retracts is set to Clearance Height.)
(Ensure the clearance height will clear the part and or fixtures.)
(Raise the Z-axis to a safe height before starting the program.)

(Drill1)
T1
S12000 M3
G17 G90 G94
G54
M8
G0 X-10.285 Y-155.938
Z15
G0 Z5
Z-2
Z-5
G1 Z-7.807 F333.3
G0 Z-2
Z-5.807
G1 Z-8.614 F333.3
G0 Z-2
Z-6.614
G1 Z-9.42 F333.3
G0 Z-2
Z-7.42
G1 Z-10.227 F333.3
G0 Z-2
Z-8.227
G1 Z-11.034 F333.3
G0 Z-2
Z-9.034
G1 Z-11.841 F333.3
G0 Z-2
Z-9.841
G1 Z-12.647 F333.3
G0 Z-2
Z-10.647
G1 Z-13.454 F333.3
G0 Z-2
Z-11.454
G1 Z-14.261 F333.3
G0 Z-2
Z-12.261
G1 Z-15.068 F333.3
G0 Z-2
Z-13.068
G1 Z-15.874 F333.3
G0 Z-2
Z-13.874
G1 Z-16 F333.3
G4 P2.
G0 Z5
X-0.002 Y-161.874
Z4
Z1
G1 Z-1.807 F333.3
G0 Z4
Z0.193
G1 Z-2.614 F333.3
G0 Z4
Z-0.614
G1 Z-3.42 F333.3
G0 Z4
Z-1.42
G1 Z-4.227 F333.3
G0 Z4
Z-2.227
G1 Z-5.034 F333.3
G0 Z4
Z-3.034
G1 Z-5.841 F333.3
G0 Z4
Z-3.841
G1 Z-6.647 F333.3
G0 Z4
Z-4.647
G1 Z-7.454 F333.3
G0 Z4
Z-5.454
G1 Z-8.261 F333.3
G0 Z4
Z-6.261
G1 Z-9.068 F333.3
G0 Z4
Z-7.068
G1 Z-9.874 F333.3
G0 Z4
Z-7.874
G1 Z-10.681 F333.3
G0 Z4
Z-8.681
G1 Z-11.488 F333.3
G0 Z4
Z-9.488
G1 Z-12.295 F333.3
G0 Z4
Z-10.295
G1 Z-13.102 F333.3
G0 Z4
Z-11.102
G1 Z-13.908 F333.3
G0 Z4
Z-11.908
G1 Z-14.715 F333.3
G0 Z4
Z-12.715
G1 Z-15.522 F333.3
G0 Z4
Z-13.522
G1 Z-16.329 F333.3
G0 Z4
Z-14.329
G1 Z-17.135 F333.3
G0 Z4
Z-15.135
G1 Z-17.942 F333.3
G0 Z4
Z-15.942
G1 Z-18.749 F333.3
G0 Z4
Z-16.749
G1 Z-19.556 F333.3
G0 Z4
Z-17.556
G1 Z-20.362 F333.3
G0 Z4
Z-18.362
G1 Z-21.169 F333.3
G0 Z4
Z-19.169
G1 Z-21.976 F333.3
G0 Z4
Z-19.976
G1 Z-22 F333.3
G4 P2.
G0 Z5
X10.283 Y-155.938
Z-2
Z-5
G1 Z-7.807 F333.3
G0 Z-2
Z-5.807
G1 Z-8.614 F333.3
G0 Z-2
Z-6.614
G1 Z-9.42 F333.3
G0 Z-2
Z-7.42
G1 Z-10.227 F333.3
G0 Z-2
Z-8.227
G1 Z-11.034 F333.3
G0 Z-2
Z-9.034
G1 Z-11.841 F333.3
G0 Z-2
Z-9.841
G1 Z-12.647 F333.3
G0 Z-2
Z-10.647
G1 Z-13.454 F333.3
G0 Z-2
Z-11.454
G1 Z-14.261 F333.3
G0 Z-2
Z-12.261
G1 Z-15.068 F333.3
G0 Z-2
Z-13.068
G1 Z-15.874 F333.3
G0 Z-2
Z-13.874
G1 Z-16 F333.3
G4 P2.
G0 Z5
Y-144.063
Z-2
Z-5
G1 Z-7.807 F333.3
G0 Z-2
Z-5.807
G1 Z-8.614 F333.3
G0 Z-2
Z-6.614
G1 Z-9.42 F333.3
G0 Z-2
Z-7.42
G1 Z-10.227 F333.3
G0 Z-2
Z-8.227
G1 Z-11.034 F333.3
G0 Z-2
Z-9.034
G1 Z-11.841 F333.3
G0 Z-2
Z-9.841
G1 Z-12.647 F333.3
G0 Z-2
Z-10.647
G1 Z-13.454 F333.3
G0 Z-2
Z-11.454
G1 Z-14.261 F333.3
G0 Z-2
Z-12.261
G1 Z-15.068 F333.3
G0 Z-2
Z-13.068
G1 Z-15.874 F333.3
G0 Z-2
Z-13.874
G1 Z-16 F333.3
G4 P2.
G0 Z5
X-0.002 Y-138.125
Z4
Z1
G1 Z-1.807 F333.3
G0 Z4
Z0.193
G1 Z-2.614 F333.3
G0 Z4
Z-0.614
G1 Z-3.42 F333.3
G0 Z4
Z-1.42
G1 Z-4.227 F333.3
G0 Z4
Z-2.227
G1 Z-5.034 F333.3
G0 Z4
Z-3.034
G1 Z-5.841 F333.3
G0 Z4
Z-3.841
G1 Z-6.647 F333.3
G0 Z4
Z-4.647
G1 Z-7.454 F333.3
G0 Z4
Z-5.454
G1 Z-8.261 F333.3
G0 Z4
Z-6.261
G1 Z-9.068 F333.3
G0 Z4
Z-7.068
G1 Z-9.874 F333.3
G0 Z4
Z-7.874
G1 Z-10.681 F333.3
G0 Z4
Z-8.681
G1 Z-11.488 F333.3
G0 Z4
Z-9.488
G1 Z-12.295 F333.3
G0 Z4
Z-10.295
G1 Z-13.102 F333.3
G0 Z4
Z-11.102
G1 Z-13.908 F333.3
G0 Z4
Z-11.908
G1 Z-14.715 F333.3
G0 Z4
Z-12.715
G1 Z-15.522 F333.3
G0 Z4
Z-13.522
G1 Z-16.329 F333.3
G0 Z4
Z-14.329
G1 Z-17.135 F333.3
G0 Z4
Z-15.135
G1 Z-17.942 F333.3
G0 Z4
Z-15.942
G1 Z-18.749 F333.3
G0 Z4
Z-16.749
G1 Z-19.556 F333.3
G0 Z4
Z-17.556
G1 Z-20.362 F333.3
G0 Z4
Z-18.362
G1 Z-21.169 F333.3
G0 Z4
Z-19.169
G1 Z-21.976 F333.3
G0 Z4
Z-19.976
G1 Z-22 F333.3
G4 P2.
G0 Z5
X-10.285 Y-144.063
Z-2
Z-5
G1 Z-7.807 F333.3
G0 Z-2
Z-5.807
G1 Z-8.614 F333.3
G0 Z-2
Z-6.614
G1 Z-9.42 F333.3
G0 Z-2
Z-7.42
G1 Z-10.227 F333.3
G0 Z-2
Z-8.227
G1 Z-11.034 F333.3
G0 Z-2
Z-9.034
G1 Z-11.841 F333.3
G0 Z-2
Z-9.841
G1 Z-12.647 F333.3
G0 Z-2
Z-10.647
G1 Z-13.454 F333.3
G0 Z-2
Z-11.454
G1 Z-14.261 F333.3
G0 Z-2
Z-12.261
G1 Z-15.068 F333.3
G0 Z-2
Z-13.068
G1 Z-15.874 F333.3
G0 Z-2
Z-13.874
G1 Z-16 F333.3
G4 P2.
G0 Z5
Z15

M9
M5
M30
