(hgr20_2040_bracket)
(Machine)
(  vendor: Autodesk)
(  model: Generic 3-axis)
(  description: This machine has XY axis on the Table and Z axis on the Head)
(T3  D=3.1 CR=0 - ZMIN=-8 - flat end mill)
G90 G94
G17
G21
(When using Fusion 360 for Personal Use, the feedrate of)
(rapid moves is reduced to match the feedrate of cutting)
(moves, which can increase machining time. Unrestricted rapid)
(moves are available with a Fusion 360 Subscription.)

(2D Contour1)
S24000 M3
G54
M8
G0 X41.388 Y65.89
Z10
G1 Z5 F300
Z1.3 F150
Z0.01
G18 G2 X41.698 Z-0.3 I0.31 K0
G1 X42.008
G17 G3 X42.318 Y66.2 I0 J0.31
X40.082 Y66.2 I-1.118 J0 F300
X42.318 Y66.2 I1.118 J0
X42.008 Y66.51 I-0.31 J0
G1 X41.698
G18 G3 X41.388 Z0.01 I0 K0.31
G1 Z5
Y65.89
Z1 F150
Z-0.29
G2 X41.698 Z-0.6 I0.31 K0
G1 X42.008
G17 G3 X42.318 Y66.2 I0 J0.31
X40.082 Y66.2 I-1.118 J0 F300
X42.318 Y66.2 I1.118 J0
X42.008 Y66.51 I-0.31 J0
G1 X41.698
G18 G3 X41.388 Z-0.29 I0 K0.31
G1 Z5
Y65.89
Z0.7 F150
Z-0.59
G2 X41.698 Z-0.9 I0.31 K0
G1 X42.008
G17 G3 X42.318 Y66.2 I0 J0.31
X40.082 Y66.2 I-1.118 J0 F300
X42.318 Y66.2 I1.118 J0
X42.008 Y66.51 I-0.31 J0
G1 X41.698
G18 G3 X41.388 Z-0.59 I0 K0.31
G1 Z5
Y65.89
Z0.4 F150
Z-0.89
G2 X41.698 Z-1.2 I0.31 K0
G1 X42.008
G17 G3 X42.318 Y66.2 I0 J0.31
X40.082 Y66.2 I-1.118 J0 F300
X42.318 Y66.2 I1.118 J0
X42.008 Y66.51 I-0.31 J0
G1 X41.698
G18 G3 X41.388 Z-0.89 I0 K0.31
G1 Z5
Y65.89
Z0.1 F150
Z-1.19
G2 X41.698 Z-1.5 I0.31 K0
G1 X42.008
G17 G3 X42.318 Y66.2 I0 J0.31
X40.082 Y66.2 I-1.118 J0 F300
X42.318 Y66.2 I1.118 J0
X42.008 Y66.51 I-0.31 J0
G1 X41.698
G18 G3 X41.388 Z-1.19 I0 K0.31
G1 Z5
Y65.89
Z-0.2 F150
Z-1.49
G2 X41.698 Z-1.8 I0.31 K0
G1 X42.008
G17 G3 X42.318 Y66.2 I0 J0.31
X40.082 Y66.2 I-1.118 J0 F300
X42.318 Y66.2 I1.118 J0
X42.008 Y66.51 I-0.31 J0
G1 X41.698
G18 G3 X41.388 Z-1.49 I0 K0.31
G1 Z5
Y65.89
Z-0.5 F150
Z-1.79
G2 X41.698 Z-2.1 I0.31 K0
G1 X42.008
G17 G3 X42.318 Y66.2 I0 J0.31
X40.082 Y66.2 I-1.118 J0 F300
X42.318 Y66.2 I1.118 J0
X42.008 Y66.51 I-0.31 J0
G1 X41.698
G18 G3 X41.388 Z-1.79 I0 K0.31
G1 Z5
Y65.89
Z-0.8 F150
Z-2.09
G2 X41.698 Z-2.4 I0.31 K0
G1 X42.008
G17 G3 X42.318 Y66.2 I0 J0.31
X40.082 Y66.2 I-1.118 J0 F300
X42.318 Y66.2 I1.118 J0
X42.008 Y66.51 I-0.31 J0
G1 X41.698
G18 G3 X41.388 Z-2.09 I0 K0.31
G1 Z5
Y65.89
Z-1.1 F150
Z-2.39
G2 X41.698 Z-2.7 I0.31 K0
G1 X42.008
G17 G3 X42.318 Y66.2 I0 J0.31
X40.082 Y66.2 I-1.118 J0 F300
X42.318 Y66.2 I1.118 J0
X42.008 Y66.51 I-0.31 J0
G1 X41.698
G18 G3 X41.388 Z-2.39 I0 K0.31
G1 Z5
Y65.89
Z-1.4 F150
Z-2.69
G2 X41.698 Z-3 I0.31 K0
G1 X42.008
G17 G3 X42.318 Y66.2 I0 J0.31
X40.082 Y66.2 I-1.118 J0 F300
X42.318 Y66.2 I1.118 J0
X42.008 Y66.51 I-0.31 J0
G1 X41.698
G18 G3 X41.388 Z-2.69 I0 K0.31
G1 Z5
Y65.89
Z-1.7 F150
Z-2.99
G2 X41.698 Z-3.3 I0.31 K0
G1 X42.008
G17 G3 X42.318 Y66.2 I0 J0.31
X40.082 Y66.2 I-1.118 J0 F300
X42.318 Y66.2 I1.118 J0
X42.008 Y66.51 I-0.31 J0
G1 X41.698
G18 G3 X41.388 Z-2.99 I0 K0.31
G1 Z5
Y65.89
Z-2 F150
Z-3.29
G2 X41.698 Z-3.6 I0.31 K0
G1 X42.008
G17 G3 X42.318 Y66.2 I0 J0.31
X40.082 Y66.2 I-1.118 J0 F300
X42.318 Y66.2 I1.118 J0
X42.008 Y66.51 I-0.31 J0
G1 X41.698
G18 G3 X41.388 Z-3.29 I0 K0.31
G1 Z5
Y65.89
Z-2.3 F150
Z-3.59
G2 X41.698 Z-3.9 I0.31 K0
G1 X42.008
G17 G3 X42.318 Y66.2 I0 J0.31
X40.082 Y66.2 I-1.118 J0 F300
X42.318 Y66.2 I1.118 J0
X42.008 Y66.51 I-0.31 J0
G1 X41.698
G18 G3 X41.388 Z-3.59 I0 K0.31
G1 Z5
Y65.89
Z-2.6 F150
Z-3.89
G2 X41.698 Z-4.2 I0.31 K0
G1 X42.008
G17 G3 X42.318 Y66.2 I0 J0.31
X40.082 Y66.2 I-1.118 J0 F300
X42.318 Y66.2 I1.118 J0
X42.008 Y66.51 I-0.31 J0
G1 X41.698
G18 G3 X41.388 Z-3.89 I0 K0.31
G1 Z5
Y65.89
Z-2.9 F150
Z-4.19
G2 X41.698 Z-4.5 I0.31 K0
G1 X42.008
G17 G3 X42.318 Y66.2 I0 J0.31
X40.082 Y66.2 I-1.118 J0 F300
X42.318 Y66.2 I1.118 J0
X42.008 Y66.51 I-0.31 J0
G1 X41.698
G18 G3 X41.388 Z-4.19 I0 K0.31
G1 Z5
Y65.89
Z-3.2 F150
Z-4.49
G2 X41.698 Z-4.8 I0.31 K0
G1 X42.008
G17 G3 X42.318 Y66.2 I0 J0.31
X40.082 Y66.2 I-1.118 J0 F300
X42.318 Y66.2 I1.118 J0
X42.008 Y66.51 I-0.31 J0
G1 X41.698
G18 G3 X41.388 Z-4.49 I0 K0.31
G1 Z5
Y65.89
Z-3.5 F150
Z-4.79
G2 X41.698 Z-5.1 I0.31 K0
G1 X42.008
G17 G3 X42.318 Y66.2 I0 J0.31
X40.082 Y66.2 I-1.118 J0 F300
X42.318 Y66.2 I1.118 J0
X42.008 Y66.51 I-0.31 J0
G1 X41.698
G18 G3 X41.388 Z-4.79 I0 K0.31
G1 Z5
Y65.89
Z-3.8 F150
Z-5.09
G2 X41.698 Z-5.4 I0.31 K0
G1 X42.008
G17 G3 X42.318 Y66.2 I0 J0.31
X40.082 Y66.2 I-1.118 J0 F300
X42.318 Y66.2 I1.118 J0
X42.008 Y66.51 I-0.31 J0
G1 X41.698
G18 G3 X41.388 Z-5.09 I0 K0.31
G1 Z5
Y65.89
Z-4.1 F150
Z-5.39
G2 X41.698 Z-5.7 I0.31 K0
G1 X42.008
G17 G3 X42.318 Y66.2 I0 J0.31
X40.082 Y66.2 I-1.118 J0 F300
X42.318 Y66.2 I1.118 J0
X42.008 Y66.51 I-0.31 J0
G1 X41.698
G18 G3 X41.388 Z-5.39 I0 K0.31
G1 Z5
Y65.89
Z-4.4 F150
Z-5.69
G2 X41.698 Z-6 I0.31 K0
G1 X42.008
G17 G3 X42.318 Y66.2 I0 J0.31
X40.082 Y66.2 I-1.118 J0 F300
X42.318 Y66.2 I1.118 J0
X42.008 Y66.51 I-0.31 J0
G1 X41.698
G18 G3 X41.388 Z-5.69 I0 K0.31
G1 Z5
Y65.89
Z-4.7 F150
Z-5.99
G2 X41.698 Z-6.3 I0.31 K0
G1 X42.008
G17 G3 X42.318 Y66.2 I0 J0.31
X40.082 Y66.2 I-1.118 J0 F300
X42.318 Y66.2 I1.118 J0
X42.008 Y66.51 I-0.31 J0
G1 X41.698
G18 G3 X41.388 Z-5.99 I0 K0.31
G1 Z5
Y65.89
Z-5 F150
Z-6.29
G2 X41.698 Z-6.6 I0.31 K0
G1 X42.008
G17 G3 X42.318 Y66.2 I0 J0.31
X40.082 Y66.2 I-1.118 J0 F300
X42.318 Y66.2 I1.118 J0
X42.008 Y66.51 I-0.31 J0
G1 X41.698
G18 G3 X41.388 Z-6.29 I0 K0.31
G1 Z5
Y65.89
Z-5.3 F150
Z-6.59
G2 X41.698 Z-6.9 I0.31 K0
G1 X42.008
G17 G3 X42.318 Y66.2 I0 J0.31
X40.082 Y66.2 I-1.118 J0 F300
X42.318 Y66.2 I1.118 J0
X42.008 Y66.51 I-0.31 J0
G1 X41.698
G18 G3 X41.388 Z-6.59 I0 K0.31
G1 Z5
Y65.89
Z-5.6 F150
Z-6.89
G2 X41.698 Z-7.2 I0.31 K0
G1 X42.008
G17 G3 X42.318 Y66.2 I0 J0.31
X40.082 Y66.2 I-1.118 J0 F300
X42.318 Y66.2 I1.118 J0
X42.008 Y66.51 I-0.31 J0
G1 X41.698
G18 G3 X41.388 Z-6.89 I0 K0.31
G1 Z5
Y65.89
Z-5.9 F150
Z-7.19
G2 X41.698 Z-7.5 I0.31 K0
G1 X42.008
G17 G3 X42.318 Y66.2 I0 J0.31
X40.082 Y66.2 I-1.118 J0 F300
X42.318 Y66.2 I1.118 J0
X42.008 Y66.51 I-0.31 J0
G1 X41.698
G18 G3 X41.388 Z-7.19 I0 K0.31
G1 Z5
Y65.89
Z-6.2 F150
Z-7.49
G2 X41.698 Z-7.8 I0.31 K0
G1 X42.008
G17 G3 X42.318 Y66.2 I0 J0.31
X40.082 Y66.2 I-1.118 J0 F300
X42.318 Y66.2 I1.118 J0
X42.008 Y66.51 I-0.31 J0
G1 X41.698
G18 G3 X41.388 Z-7.49 I0 K0.31
G1 Z5
Y65.89
Z-6.5 F150
Z-7.69
G2 X41.698 Z-8 I0.31 K0
G1 X42.008
G17 G3 X42.318 Y66.2 I0 J0.31
X40.082 Y66.2 I-1.118 J0 F300
X42.318 Y66.2 I1.118 J0
X42.008 Y66.51 I-0.31 J0
G1 X41.698
G18 G3 X41.388 Z-7.69 I0 K0.31
G1 Z5
X36.422 Y90.796
Z1.3 F150
Z0.01
X36.43 Y90.799 Z-0.059
X36.452 Y90.805 Z-0.125
X36.488 Y90.815 Z-0.183
X36.535 Y90.828 Z-0.232
X36.591 Y90.844 Z-0.269
X36.655 Y90.861 Z-0.292
X36.721 Y90.88 Z-0.3
X37.019 Y90.964
G17 G3 X37.234 Y91.346 I-0.084 J0.299
X34.766 Y90.654 I-1.234 J-0.346 F300
X37.234 Y91.346 I1.234 J0.346
X36.852 Y91.561 I-0.299 J-0.084
G1 X36.554 Y91.477
X36.487 Y91.458 Z-0.292
X36.424 Y91.441 Z-0.269
X36.368 Y91.425 Z-0.232
X36.32 Y91.412 Z-0.183
X36.285 Y91.402 Z-0.125
X36.263 Y91.396 Z-0.059
X36.255 Y91.393 Z0.01
Z5
X36.422 Y90.796
Z1 F150
Z-0.29
X36.43 Y90.799 Z-0.359
X36.452 Y90.805 Z-0.425
X36.488 Y90.815 Z-0.483
X36.535 Y90.828 Z-0.532
X36.591 Y90.844 Z-0.569
X36.655 Y90.861 Z-0.592
X36.721 Y90.88 Z-0.6
X37.019 Y90.964
G3 X37.234 Y91.346 I-0.084 J0.299
X34.766 Y90.654 I-1.234 J-0.346 F300
X37.234 Y91.346 I1.234 J0.346
X36.852 Y91.561 I-0.299 J-0.084
G1 X36.554 Y91.477
X36.487 Y91.458 Z-0.592
X36.424 Y91.441 Z-0.569
X36.368 Y91.425 Z-0.532
X36.32 Y91.412 Z-0.483
X36.285 Y91.402 Z-0.425
X36.263 Y91.396 Z-0.359
X36.255 Y91.393 Z-0.29
Z5
X36.422 Y90.796
Z0.7 F150
Z-0.59
X36.43 Y90.799 Z-0.659
X36.452 Y90.805 Z-0.725
X36.488 Y90.815 Z-0.783
X36.535 Y90.828 Z-0.832
X36.591 Y90.844 Z-0.869
X36.655 Y90.861 Z-0.892
X36.721 Y90.88 Z-0.9
X37.019 Y90.964
G3 X37.234 Y91.346 I-0.084 J0.299
X34.766 Y90.654 I-1.234 J-0.346 F300
X37.234 Y91.346 I1.234 J0.346
X36.852 Y91.561 I-0.299 J-0.084
G1 X36.554 Y91.477
X36.487 Y91.458 Z-0.892
X36.424 Y91.441 Z-0.869
X36.368 Y91.425 Z-0.832
X36.32 Y91.412 Z-0.783
X36.285 Y91.402 Z-0.725
X36.263 Y91.396 Z-0.659
X36.255 Y91.393 Z-0.59
Z5
X36.422 Y90.796
Z0.4 F150
Z-0.89
X36.43 Y90.799 Z-0.959
X36.452 Y90.805 Z-1.025
X36.488 Y90.815 Z-1.083
X36.535 Y90.828 Z-1.132
X36.591 Y90.844 Z-1.169
X36.655 Y90.861 Z-1.192
X36.721 Y90.88 Z-1.2
X37.019 Y90.964
G3 X37.234 Y91.346 I-0.084 J0.299
X34.766 Y90.654 I-1.234 J-0.346 F300
X37.234 Y91.346 I1.234 J0.346
X36.852 Y91.561 I-0.299 J-0.084
G1 X36.554 Y91.477
X36.487 Y91.458 Z-1.192
X36.424 Y91.441 Z-1.169
X36.368 Y91.425 Z-1.132
X36.32 Y91.412 Z-1.083
X36.285 Y91.402 Z-1.025
X36.263 Y91.396 Z-0.959
X36.255 Y91.393 Z-0.89
Z5
X36.422 Y90.796
Z0.1 F150
Z-1.19
X36.43 Y90.799 Z-1.259
X36.452 Y90.805 Z-1.325
X36.488 Y90.815 Z-1.383
X36.535 Y90.828 Z-1.432
X36.591 Y90.844 Z-1.469
X36.655 Y90.861 Z-1.492
X36.721 Y90.88 Z-1.5
X37.019 Y90.964
G3 X37.234 Y91.346 I-0.084 J0.299
X34.766 Y90.654 I-1.234 J-0.346 F300
X37.234 Y91.346 I1.234 J0.346
X36.852 Y91.561 I-0.299 J-0.084
G1 X36.554 Y91.477
X36.487 Y91.458 Z-1.492
X36.424 Y91.441 Z-1.469
X36.368 Y91.425 Z-1.432
X36.32 Y91.412 Z-1.383
X36.285 Y91.402 Z-1.325
X36.263 Y91.396 Z-1.259
X36.255 Y91.393 Z-1.19
Z5
X36.422 Y90.796
Z-0.2 F150
Z-1.49
X36.43 Y90.799 Z-1.559
X36.452 Y90.805 Z-1.625
X36.488 Y90.815 Z-1.683
X36.535 Y90.828 Z-1.732
X36.591 Y90.844 Z-1.769
X36.655 Y90.861 Z-1.792
X36.721 Y90.88 Z-1.8
X37.019 Y90.964
G3 X37.234 Y91.346 I-0.084 J0.299
X34.766 Y90.654 I-1.234 J-0.346 F300
X37.234 Y91.346 I1.234 J0.346
X36.852 Y91.561 I-0.299 J-0.084
G1 X36.554 Y91.477
X36.487 Y91.458 Z-1.792
X36.424 Y91.441 Z-1.769
X36.368 Y91.425 Z-1.732
X36.32 Y91.412 Z-1.683
X36.285 Y91.402 Z-1.625
X36.263 Y91.396 Z-1.559
X36.255 Y91.393 Z-1.49
Z5
X36.422 Y90.796
Z-0.5 F150
Z-1.79
X36.43 Y90.799 Z-1.859
X36.452 Y90.805 Z-1.925
X36.488 Y90.815 Z-1.983
X36.535 Y90.828 Z-2.032
X36.591 Y90.844 Z-2.069
X36.655 Y90.861 Z-2.092
X36.721 Y90.88 Z-2.1
X37.019 Y90.964
G3 X37.234 Y91.346 I-0.084 J0.299
X34.766 Y90.654 I-1.234 J-0.346 F300
X37.234 Y91.346 I1.234 J0.346
X36.852 Y91.561 I-0.299 J-0.084
G1 X36.554 Y91.477
X36.487 Y91.458 Z-2.092
X36.424 Y91.441 Z-2.069
X36.368 Y91.425 Z-2.032
X36.32 Y91.412 Z-1.983
X36.285 Y91.402 Z-1.925
X36.263 Y91.396 Z-1.859
X36.255 Y91.393 Z-1.79
Z5
X36.422 Y90.796
Z-0.8 F150
Z-2.09
X36.43 Y90.799 Z-2.159
X36.452 Y90.805 Z-2.225
X36.488 Y90.815 Z-2.283
X36.535 Y90.828 Z-2.332
X36.591 Y90.844 Z-2.369
X36.655 Y90.861 Z-2.392
X36.721 Y90.88 Z-2.4
X37.019 Y90.964
G3 X37.234 Y91.346 I-0.084 J0.299
X34.766 Y90.654 I-1.234 J-0.346 F300
X37.234 Y91.346 I1.234 J0.346
X36.852 Y91.561 I-0.299 J-0.084
G1 X36.554 Y91.477
X36.487 Y91.458 Z-2.392
X36.424 Y91.441 Z-2.369
X36.368 Y91.425 Z-2.332
X36.32 Y91.412 Z-2.283
X36.285 Y91.402 Z-2.225
X36.263 Y91.396 Z-2.159
X36.255 Y91.393 Z-2.09
Z5
X36.422 Y90.796
Z-1.1 F150
Z-2.39
X36.43 Y90.799 Z-2.459
X36.452 Y90.805 Z-2.525
X36.488 Y90.815 Z-2.583
X36.535 Y90.828 Z-2.632
X36.591 Y90.844 Z-2.669
X36.655 Y90.861 Z-2.692
X36.721 Y90.88 Z-2.7
X37.019 Y90.964
G3 X37.234 Y91.346 I-0.084 J0.299
X34.766 Y90.654 I-1.234 J-0.346 F300
X37.234 Y91.346 I1.234 J0.346
X36.852 Y91.561 I-0.299 J-0.084
G1 X36.554 Y91.477
X36.487 Y91.458 Z-2.692
X36.424 Y91.441 Z-2.669
X36.368 Y91.425 Z-2.632
X36.32 Y91.412 Z-2.583
X36.285 Y91.402 Z-2.525
X36.263 Y91.396 Z-2.459
X36.255 Y91.393 Z-2.39
Z5
X36.422 Y90.796
Z-1.4 F150
Z-2.69
X36.43 Y90.799 Z-2.759
X36.452 Y90.805 Z-2.825
X36.488 Y90.815 Z-2.883
X36.535 Y90.828 Z-2.932
X36.591 Y90.844 Z-2.969
X36.655 Y90.861 Z-2.992
X36.721 Y90.88 Z-3
X37.019 Y90.964
G3 X37.234 Y91.346 I-0.084 J0.299
X34.766 Y90.654 I-1.234 J-0.346 F300
X37.234 Y91.346 I1.234 J0.346
X36.852 Y91.561 I-0.299 J-0.084
G1 X36.554 Y91.477
X36.487 Y91.458 Z-2.992
X36.424 Y91.441 Z-2.969
X36.368 Y91.425 Z-2.932
X36.32 Y91.412 Z-2.883
X36.285 Y91.402 Z-2.825
X36.263 Y91.396 Z-2.759
X36.255 Y91.393 Z-2.69
Z5
X36.422 Y90.796
Z-1.7 F150
Z-2.99
X36.43 Y90.799 Z-3.059
X36.452 Y90.805 Z-3.125
X36.488 Y90.815 Z-3.183
X36.535 Y90.828 Z-3.232
X36.591 Y90.844 Z-3.269
X36.655 Y90.861 Z-3.292
X36.721 Y90.88 Z-3.3
X37.019 Y90.964
G3 X37.234 Y91.346 I-0.084 J0.299
X34.766 Y90.654 I-1.234 J-0.346 F300
X37.234 Y91.346 I1.234 J0.346
X36.852 Y91.561 I-0.299 J-0.084
G1 X36.554 Y91.477
X36.487 Y91.458 Z-3.292
X36.424 Y91.441 Z-3.269
X36.368 Y91.425 Z-3.232
X36.32 Y91.412 Z-3.183
X36.285 Y91.402 Z-3.125
X36.263 Y91.396 Z-3.059
X36.255 Y91.393 Z-2.99
Z5
X36.422 Y90.796
Z-2 F150
Z-3.29
X36.43 Y90.799 Z-3.359
X36.452 Y90.805 Z-3.425
X36.488 Y90.815 Z-3.483
X36.535 Y90.828 Z-3.532
X36.591 Y90.844 Z-3.569
X36.655 Y90.861 Z-3.592
X36.721 Y90.88 Z-3.6
X37.019 Y90.964
G3 X37.234 Y91.346 I-0.084 J0.299
X34.766 Y90.654 I-1.234 J-0.346 F300
X37.234 Y91.346 I1.234 J0.346
X36.852 Y91.561 I-0.299 J-0.084
G1 X36.554 Y91.477
X36.487 Y91.458 Z-3.592
X36.424 Y91.441 Z-3.569
X36.368 Y91.425 Z-3.532
X36.32 Y91.412 Z-3.483
X36.285 Y91.402 Z-3.425
X36.263 Y91.396 Z-3.359
X36.255 Y91.393 Z-3.29
Z5
X36.422 Y90.796
Z-2.3 F150
Z-3.59
X36.43 Y90.799 Z-3.659
X36.452 Y90.805 Z-3.725
X36.488 Y90.815 Z-3.783
X36.535 Y90.828 Z-3.832
X36.591 Y90.844 Z-3.869
X36.655 Y90.861 Z-3.892
X36.721 Y90.88 Z-3.9
X37.019 Y90.964
G3 X37.234 Y91.346 I-0.084 J0.299
X34.766 Y90.654 I-1.234 J-0.346 F300
X37.234 Y91.346 I1.234 J0.346
X36.852 Y91.561 I-0.299 J-0.084
G1 X36.554 Y91.477
X36.487 Y91.458 Z-3.892
X36.424 Y91.441 Z-3.869
X36.368 Y91.425 Z-3.832
X36.32 Y91.412 Z-3.783
X36.285 Y91.402 Z-3.725
X36.263 Y91.396 Z-3.659
X36.255 Y91.393 Z-3.59
Z5
X36.422 Y90.796
Z-2.6 F150
Z-3.89
X36.43 Y90.799 Z-3.959
X36.452 Y90.805 Z-4.025
X36.488 Y90.815 Z-4.083
X36.535 Y90.828 Z-4.132
X36.591 Y90.844 Z-4.169
X36.655 Y90.861 Z-4.192
X36.721 Y90.88 Z-4.2
X37.019 Y90.964
G3 X37.234 Y91.346 I-0.084 J0.299
X34.766 Y90.654 I-1.234 J-0.346 F300
X37.234 Y91.346 I1.234 J0.346
X36.852 Y91.561 I-0.299 J-0.084
G1 X36.554 Y91.477
X36.487 Y91.458 Z-4.192
X36.424 Y91.441 Z-4.169
X36.368 Y91.425 Z-4.132
X36.32 Y91.412 Z-4.083
X36.285 Y91.402 Z-4.025
X36.263 Y91.396 Z-3.959
X36.255 Y91.393 Z-3.89
Z5
X36.422 Y90.796
Z-2.9 F150
Z-4.19
X36.43 Y90.799 Z-4.259
X36.452 Y90.805 Z-4.325
X36.488 Y90.815 Z-4.383
X36.535 Y90.828 Z-4.432
X36.591 Y90.844 Z-4.469
X36.655 Y90.861 Z-4.492
X36.721 Y90.88 Z-4.5
X37.019 Y90.964
G3 X37.234 Y91.346 I-0.084 J0.299
X34.766 Y90.654 I-1.234 J-0.346 F300
X37.234 Y91.346 I1.234 J0.346
X36.852 Y91.561 I-0.299 J-0.084
G1 X36.554 Y91.477
X36.487 Y91.458 Z-4.492
X36.424 Y91.441 Z-4.469
X36.368 Y91.425 Z-4.432
X36.32 Y91.412 Z-4.383
X36.285 Y91.402 Z-4.325
X36.263 Y91.396 Z-4.259
X36.255 Y91.393 Z-4.19
Z5
X36.422 Y90.796
Z-3.2 F150
Z-4.49
X36.43 Y90.799 Z-4.559
X36.452 Y90.805 Z-4.625
X36.488 Y90.815 Z-4.683
X36.535 Y90.828 Z-4.732
X36.591 Y90.844 Z-4.769
X36.655 Y90.861 Z-4.792
X36.721 Y90.88 Z-4.8
X37.019 Y90.964
G3 X37.234 Y91.346 I-0.084 J0.299
X34.766 Y90.654 I-1.234 J-0.346 F300
X37.234 Y91.346 I1.234 J0.346
X36.852 Y91.561 I-0.299 J-0.084
G1 X36.554 Y91.477
X36.487 Y91.458 Z-4.792
X36.424 Y91.441 Z-4.769
X36.368 Y91.425 Z-4.732
X36.32 Y91.412 Z-4.683
X36.285 Y91.402 Z-4.625
X36.263 Y91.396 Z-4.559
X36.255 Y91.393 Z-4.49
Z5
X36.422 Y90.796
Z-3.5 F150
Z-4.79
X36.43 Y90.799 Z-4.859
X36.452 Y90.805 Z-4.925
X36.488 Y90.815 Z-4.983
X36.535 Y90.828 Z-5.032
X36.591 Y90.844 Z-5.069
X36.655 Y90.861 Z-5.092
X36.721 Y90.88 Z-5.1
X37.019 Y90.964
G3 X37.234 Y91.346 I-0.084 J0.299
X34.766 Y90.654 I-1.234 J-0.346 F300
X37.234 Y91.346 I1.234 J0.346
X36.852 Y91.561 I-0.299 J-0.084
G1 X36.554 Y91.477
X36.487 Y91.458 Z-5.092
X36.424 Y91.441 Z-5.069
X36.368 Y91.425 Z-5.032
X36.32 Y91.412 Z-4.983
X36.285 Y91.402 Z-4.925
X36.263 Y91.396 Z-4.859
X36.255 Y91.393 Z-4.79
Z5
X36.422 Y90.796
Z-3.8 F150
Z-5.09
X36.43 Y90.799 Z-5.159
X36.452 Y90.805 Z-5.225
X36.488 Y90.815 Z-5.283
X36.535 Y90.828 Z-5.332
X36.591 Y90.844 Z-5.369
X36.655 Y90.861 Z-5.392
X36.721 Y90.88 Z-5.4
X37.019 Y90.964
G3 X37.234 Y91.346 I-0.084 J0.299
X34.766 Y90.654 I-1.234 J-0.346 F300
X37.234 Y91.346 I1.234 J0.346
X36.852 Y91.561 I-0.299 J-0.084
G1 X36.554 Y91.477
X36.487 Y91.458 Z-5.392
X36.424 Y91.441 Z-5.369
X36.368 Y91.425 Z-5.332
X36.32 Y91.412 Z-5.283
X36.285 Y91.402 Z-5.225
X36.263 Y91.396 Z-5.159
X36.255 Y91.393 Z-5.09
Z5
X36.422 Y90.796
Z-4.1 F150
Z-5.39
X36.43 Y90.799 Z-5.459
X36.452 Y90.805 Z-5.525
X36.488 Y90.815 Z-5.583
X36.535 Y90.828 Z-5.632
X36.591 Y90.844 Z-5.669
X36.655 Y90.861 Z-5.692
X36.721 Y90.88 Z-5.7
X37.019 Y90.964
G3 X37.234 Y91.346 I-0.084 J0.299
X34.766 Y90.654 I-1.234 J-0.346 F300
X37.234 Y91.346 I1.234 J0.346
X36.852 Y91.561 I-0.299 J-0.084
G1 X36.554 Y91.477
X36.487 Y91.458 Z-5.692
X36.424 Y91.441 Z-5.669
X36.368 Y91.425 Z-5.632
X36.32 Y91.412 Z-5.583
X36.285 Y91.402 Z-5.525
X36.263 Y91.396 Z-5.459
X36.255 Y91.393 Z-5.39
Z5
X36.422 Y90.796
Z-4.4 F150
Z-5.69
X36.43 Y90.799 Z-5.759
X36.452 Y90.805 Z-5.825
X36.488 Y90.815 Z-5.883
X36.535 Y90.828 Z-5.932
X36.591 Y90.844 Z-5.969
X36.655 Y90.861 Z-5.992
X36.721 Y90.88 Z-6
X37.019 Y90.964
G3 X37.234 Y91.346 I-0.084 J0.299
X34.766 Y90.654 I-1.234 J-0.346 F300
X37.234 Y91.346 I1.234 J0.346
X36.852 Y91.561 I-0.299 J-0.084
G1 X36.554 Y91.477
X36.487 Y91.458 Z-5.992
X36.424 Y91.441 Z-5.969
X36.368 Y91.425 Z-5.932
X36.32 Y91.412 Z-5.883
X36.285 Y91.402 Z-5.825
X36.263 Y91.396 Z-5.759
X36.255 Y91.393 Z-5.69
Z5
X36.422 Y90.796
Z-4.7 F150
Z-5.99
X36.43 Y90.799 Z-6.059
X36.452 Y90.805 Z-6.125
X36.488 Y90.815 Z-6.183
X36.535 Y90.828 Z-6.232
X36.591 Y90.844 Z-6.269
X36.655 Y90.861 Z-6.292
X36.721 Y90.88 Z-6.3
X37.019 Y90.964
G3 X37.234 Y91.346 I-0.084 J0.299
X34.766 Y90.654 I-1.234 J-0.346 F300
X37.234 Y91.346 I1.234 J0.346
X36.852 Y91.561 I-0.299 J-0.084
G1 X36.554 Y91.477
X36.487 Y91.458 Z-6.292
X36.424 Y91.441 Z-6.269
X36.368 Y91.425 Z-6.232
X36.32 Y91.412 Z-6.183
X36.285 Y91.402 Z-6.125
X36.263 Y91.396 Z-6.059
X36.255 Y91.393 Z-5.99
Z5
X36.422 Y90.796
Z-5 F150
Z-6.29
X36.43 Y90.799 Z-6.359
X36.452 Y90.805 Z-6.425
X36.488 Y90.815 Z-6.483
X36.535 Y90.828 Z-6.532
X36.591 Y90.844 Z-6.569
X36.655 Y90.861 Z-6.592
X36.721 Y90.88 Z-6.6
X37.019 Y90.964
G3 X37.234 Y91.346 I-0.084 J0.299
X34.766 Y90.654 I-1.234 J-0.346 F300
X37.234 Y91.346 I1.234 J0.346
X36.852 Y91.561 I-0.299 J-0.084
G1 X36.554 Y91.477
X36.487 Y91.458 Z-6.592
X36.424 Y91.441 Z-6.569
X36.368 Y91.425 Z-6.532
X36.32 Y91.412 Z-6.483
X36.285 Y91.402 Z-6.425
X36.263 Y91.396 Z-6.359
X36.255 Y91.393 Z-6.29
Z5
X36.422 Y90.796
Z-5.3 F150
Z-6.59
X36.43 Y90.799 Z-6.659
X36.452 Y90.805 Z-6.725
X36.488 Y90.815 Z-6.783
X36.535 Y90.828 Z-6.832
X36.591 Y90.844 Z-6.869
X36.655 Y90.861 Z-6.892
X36.721 Y90.88 Z-6.9
X37.019 Y90.964
G3 X37.234 Y91.346 I-0.084 J0.299
X34.766 Y90.654 I-1.234 J-0.346 F300
X37.234 Y91.346 I1.234 J0.346
X36.852 Y91.561 I-0.299 J-0.084
G1 X36.554 Y91.477
X36.487 Y91.458 Z-6.892
X36.424 Y91.441 Z-6.869
X36.368 Y91.425 Z-6.832
X36.32 Y91.412 Z-6.783
X36.285 Y91.402 Z-6.725
X36.263 Y91.396 Z-6.659
X36.255 Y91.393 Z-6.59
Z5
X36.422 Y90.796
Z-5.6 F150
Z-6.89
X36.43 Y90.799 Z-6.959
X36.452 Y90.805 Z-7.025
X36.488 Y90.815 Z-7.083
X36.535 Y90.828 Z-7.132
X36.591 Y90.844 Z-7.169
X36.655 Y90.861 Z-7.192
X36.721 Y90.88 Z-7.2
X37.019 Y90.964
G3 X37.234 Y91.346 I-0.084 J0.299
X34.766 Y90.654 I-1.234 J-0.346 F300
X37.234 Y91.346 I1.234 J0.346
X36.852 Y91.561 I-0.299 J-0.084
G1 X36.554 Y91.477
X36.487 Y91.458 Z-7.192
X36.424 Y91.441 Z-7.169
X36.368 Y91.425 Z-7.132
X36.32 Y91.412 Z-7.083
X36.285 Y91.402 Z-7.025
X36.263 Y91.396 Z-6.959
X36.255 Y91.393 Z-6.89
Z5
X36.422 Y90.796
Z-5.9 F150
Z-7.19
X36.43 Y90.799 Z-7.259
X36.452 Y90.805 Z-7.325
X36.488 Y90.815 Z-7.383
X36.535 Y90.828 Z-7.432
X36.591 Y90.844 Z-7.469
X36.655 Y90.861 Z-7.492
X36.721 Y90.88 Z-7.5
X37.019 Y90.964
G3 X37.234 Y91.346 I-0.084 J0.299
X34.766 Y90.654 I-1.234 J-0.346 F300
X37.234 Y91.346 I1.234 J0.346
X36.852 Y91.561 I-0.299 J-0.084
G1 X36.554 Y91.477
X36.487 Y91.458 Z-7.492
X36.424 Y91.441 Z-7.469
X36.368 Y91.425 Z-7.432
X36.32 Y91.412 Z-7.383
X36.285 Y91.402 Z-7.325
X36.263 Y91.396 Z-7.259
X36.255 Y91.393 Z-7.19
Z5
X36.422 Y90.796
Z-6.2 F150
Z-7.49
X36.43 Y90.799 Z-7.559
X36.452 Y90.805 Z-7.625
X36.488 Y90.815 Z-7.683
X36.535 Y90.828 Z-7.732
X36.591 Y90.844 Z-7.769
X36.655 Y90.861 Z-7.792
X36.721 Y90.88 Z-7.8
X37.019 Y90.964
G3 X37.234 Y91.346 I-0.084 J0.299
X34.766 Y90.654 I-1.234 J-0.346 F300
X37.234 Y91.346 I1.234 J0.346
X36.852 Y91.561 I-0.299 J-0.084
G1 X36.554 Y91.477
X36.487 Y91.458 Z-7.792
X36.424 Y91.441 Z-7.769
X36.368 Y91.425 Z-7.732
X36.32 Y91.412 Z-7.683
X36.285 Y91.402 Z-7.625
X36.263 Y91.396 Z-7.559
X36.255 Y91.393 Z-7.49
Z5
X36.422 Y90.796
Z-6.5 F150
Z-7.69
X36.43 Y90.799 Z-7.759
X36.452 Y90.805 Z-7.825
X36.488 Y90.815 Z-7.883
X36.535 Y90.828 Z-7.932
X36.591 Y90.844 Z-7.969
X36.655 Y90.861 Z-7.992
X36.721 Y90.88 Z-8
X37.019 Y90.964
G3 X37.234 Y91.346 I-0.084 J0.299
X34.766 Y90.654 I-1.234 J-0.346 F300
X37.234 Y91.346 I1.234 J0.346
X36.852 Y91.561 I-0.299 J-0.084
G1 X36.554 Y91.477
X36.487 Y91.458 Z-7.992
X36.424 Y91.441 Z-7.969
X36.368 Y91.425 Z-7.932
X36.32 Y91.412 Z-7.883
X36.285 Y91.402 Z-7.825
X36.263 Y91.396 Z-7.759
X36.255 Y91.393 Z-7.69
Z5
X16.422 Y90.796
Z1.3 F150
Z0.01
X16.43 Y90.799 Z-0.059
X16.452 Y90.805 Z-0.125
X16.488 Y90.815 Z-0.183
X16.535 Y90.828 Z-0.232
X16.591 Y90.844 Z-0.269
X16.655 Y90.861 Z-0.292
X16.721 Y90.88 Z-0.3
X17.019 Y90.964
G3 X17.234 Y91.346 I-0.084 J0.299
X14.766 Y90.654 I-1.234 J-0.346 F300
X17.234 Y91.346 I1.234 J0.346
X16.852 Y91.561 I-0.299 J-0.084
G1 X16.554 Y91.477
X16.487 Y91.458 Z-0.292
X16.424 Y91.441 Z-0.269
X16.368 Y91.425 Z-0.232
X16.32 Y91.412 Z-0.183
X16.285 Y91.402 Z-0.125
X16.263 Y91.396 Z-0.059
X16.255 Y91.393 Z0.01
Z5
X16.422 Y90.796
Z1 F150
Z-0.29
X16.43 Y90.799 Z-0.359
X16.452 Y90.805 Z-0.425
X16.488 Y90.815 Z-0.483
X16.535 Y90.828 Z-0.532
X16.591 Y90.844 Z-0.569
X16.655 Y90.861 Z-0.592
X16.721 Y90.88 Z-0.6
X17.019 Y90.964
G3 X17.234 Y91.346 I-0.084 J0.299
X14.766 Y90.654 I-1.234 J-0.346 F300
X17.234 Y91.346 I1.234 J0.346
X16.852 Y91.561 I-0.299 J-0.084
G1 X16.554 Y91.477
X16.487 Y91.458 Z-0.592
X16.424 Y91.441 Z-0.569
X16.368 Y91.425 Z-0.532
X16.32 Y91.412 Z-0.483
X16.285 Y91.402 Z-0.425
X16.263 Y91.396 Z-0.359
X16.255 Y91.393 Z-0.29
Z5
X16.422 Y90.796
Z0.7 F150
Z-0.59
X16.43 Y90.799 Z-0.659
X16.452 Y90.805 Z-0.725
X16.488 Y90.815 Z-0.783
X16.535 Y90.828 Z-0.832
X16.591 Y90.844 Z-0.869
X16.655 Y90.861 Z-0.892
X16.721 Y90.88 Z-0.9
X17.019 Y90.964
G3 X17.234 Y91.346 I-0.084 J0.299
X14.766 Y90.654 I-1.234 J-0.346 F300
X17.234 Y91.346 I1.234 J0.346
X16.852 Y91.561 I-0.299 J-0.084
G1 X16.554 Y91.477
X16.487 Y91.458 Z-0.892
X16.424 Y91.441 Z-0.869
X16.368 Y91.425 Z-0.832
X16.32 Y91.412 Z-0.783
X16.285 Y91.402 Z-0.725
X16.263 Y91.396 Z-0.659
X16.255 Y91.393 Z-0.59
Z5
X16.422 Y90.796
Z0.4 F150
Z-0.89
X16.43 Y90.799 Z-0.959
X16.452 Y90.805 Z-1.025
X16.488 Y90.815 Z-1.083
X16.535 Y90.828 Z-1.132
X16.591 Y90.844 Z-1.169
X16.655 Y90.861 Z-1.192
X16.721 Y90.88 Z-1.2
X17.019 Y90.964
G3 X17.234 Y91.346 I-0.084 J0.299
X14.766 Y90.654 I-1.234 J-0.346 F300
X17.234 Y91.346 I1.234 J0.346
X16.852 Y91.561 I-0.299 J-0.084
G1 X16.554 Y91.477
X16.487 Y91.458 Z-1.192
X16.424 Y91.441 Z-1.169
X16.368 Y91.425 Z-1.132
X16.32 Y91.412 Z-1.083
X16.285 Y91.402 Z-1.025
X16.263 Y91.396 Z-0.959
X16.255 Y91.393 Z-0.89
Z5
X16.422 Y90.796
Z0.1 F150
Z-1.19
X16.43 Y90.799 Z-1.259
X16.452 Y90.805 Z-1.325
X16.488 Y90.815 Z-1.383
X16.535 Y90.828 Z-1.432
X16.591 Y90.844 Z-1.469
X16.655 Y90.861 Z-1.492
X16.721 Y90.88 Z-1.5
X17.019 Y90.964
G3 X17.234 Y91.346 I-0.084 J0.299
X14.766 Y90.654 I-1.234 J-0.346 F300
X17.234 Y91.346 I1.234 J0.346
X16.852 Y91.561 I-0.299 J-0.084
G1 X16.554 Y91.477
X16.487 Y91.458 Z-1.492
X16.424 Y91.441 Z-1.469
X16.368 Y91.425 Z-1.432
X16.32 Y91.412 Z-1.383
X16.285 Y91.402 Z-1.325
X16.263 Y91.396 Z-1.259
X16.255 Y91.393 Z-1.19
Z5
X16.422 Y90.796
Z-0.2 F150
Z-1.49
X16.43 Y90.799 Z-1.559
X16.452 Y90.805 Z-1.625
X16.488 Y90.815 Z-1.683
X16.535 Y90.828 Z-1.732
X16.591 Y90.844 Z-1.769
X16.655 Y90.861 Z-1.792
X16.721 Y90.88 Z-1.8
X17.019 Y90.964
G3 X17.234 Y91.346 I-0.084 J0.299
X14.766 Y90.654 I-1.234 J-0.346 F300
X17.234 Y91.346 I1.234 J0.346
X16.852 Y91.561 I-0.299 J-0.084
G1 X16.554 Y91.477
X16.487 Y91.458 Z-1.792
X16.424 Y91.441 Z-1.769
X16.368 Y91.425 Z-1.732
X16.32 Y91.412 Z-1.683
X16.285 Y91.402 Z-1.625
X16.263 Y91.396 Z-1.559
X16.255 Y91.393 Z-1.49
Z5
X16.422 Y90.796
Z-0.5 F150
Z-1.79
X16.43 Y90.799 Z-1.859
X16.452 Y90.805 Z-1.925
X16.488 Y90.815 Z-1.983
X16.535 Y90.828 Z-2.032
X16.591 Y90.844 Z-2.069
X16.655 Y90.861 Z-2.092
X16.721 Y90.88 Z-2.1
X17.019 Y90.964
G3 X17.234 Y91.346 I-0.084 J0.299
X14.766 Y90.654 I-1.234 J-0.346 F300
X17.234 Y91.346 I1.234 J0.346
X16.852 Y91.561 I-0.299 J-0.084
G1 X16.554 Y91.477
X16.487 Y91.458 Z-2.092
X16.424 Y91.441 Z-2.069
X16.368 Y91.425 Z-2.032
X16.32 Y91.412 Z-1.983
X16.285 Y91.402 Z-1.925
X16.263 Y91.396 Z-1.859
X16.255 Y91.393 Z-1.79
Z5
X16.422 Y90.796
Z-0.8 F150
Z-2.09
X16.43 Y90.799 Z-2.159
X16.452 Y90.805 Z-2.225
X16.488 Y90.815 Z-2.283
X16.535 Y90.828 Z-2.332
X16.591 Y90.844 Z-2.369
X16.655 Y90.861 Z-2.392
X16.721 Y90.88 Z-2.4
X17.019 Y90.964
G3 X17.234 Y91.346 I-0.084 J0.299
X14.766 Y90.654 I-1.234 J-0.346 F300
X17.234 Y91.346 I1.234 J0.346
X16.852 Y91.561 I-0.299 J-0.084
G1 X16.554 Y91.477
X16.487 Y91.458 Z-2.392
X16.424 Y91.441 Z-2.369
X16.368 Y91.425 Z-2.332
X16.32 Y91.412 Z-2.283
X16.285 Y91.402 Z-2.225
X16.263 Y91.396 Z-2.159
X16.255 Y91.393 Z-2.09
Z5
X16.422 Y90.796
Z-1.1 F150
Z-2.39
X16.43 Y90.799 Z-2.459
X16.452 Y90.805 Z-2.525
X16.488 Y90.815 Z-2.583
X16.535 Y90.828 Z-2.632
X16.591 Y90.844 Z-2.669
X16.655 Y90.861 Z-2.692
X16.721 Y90.88 Z-2.7
X17.019 Y90.964
G3 X17.234 Y91.346 I-0.084 J0.299
X14.766 Y90.654 I-1.234 J-0.346 F300
X17.234 Y91.346 I1.234 J0.346
X16.852 Y91.561 I-0.299 J-0.084
G1 X16.554 Y91.477
X16.487 Y91.458 Z-2.692
X16.424 Y91.441 Z-2.669
X16.368 Y91.425 Z-2.632
X16.32 Y91.412 Z-2.583
X16.285 Y91.402 Z-2.525
X16.263 Y91.396 Z-2.459
X16.255 Y91.393 Z-2.39
Z5
X16.422 Y90.796
Z-1.4 F150
Z-2.69
X16.43 Y90.799 Z-2.759
X16.452 Y90.805 Z-2.825
X16.488 Y90.815 Z-2.883
X16.535 Y90.828 Z-2.932
X16.591 Y90.844 Z-2.969
X16.655 Y90.861 Z-2.992
X16.721 Y90.88 Z-3
X17.019 Y90.964
G3 X17.234 Y91.346 I-0.084 J0.299
X14.766 Y90.654 I-1.234 J-0.346 F300
X17.234 Y91.346 I1.234 J0.346
X16.852 Y91.561 I-0.299 J-0.084
G1 X16.554 Y91.477
X16.487 Y91.458 Z-2.992
X16.424 Y91.441 Z-2.969
X16.368 Y91.425 Z-2.932
X16.32 Y91.412 Z-2.883
X16.285 Y91.402 Z-2.825
X16.263 Y91.396 Z-2.759
X16.255 Y91.393 Z-2.69
Z5
X16.422 Y90.796
Z-1.7 F150
Z-2.99
X16.43 Y90.799 Z-3.059
X16.452 Y90.805 Z-3.125
X16.488 Y90.815 Z-3.183
X16.535 Y90.828 Z-3.232
X16.591 Y90.844 Z-3.269
X16.655 Y90.861 Z-3.292
X16.721 Y90.88 Z-3.3
X17.019 Y90.964
G3 X17.234 Y91.346 I-0.084 J0.299
X14.766 Y90.654 I-1.234 J-0.346 F300
X17.234 Y91.346 I1.234 J0.346
X16.852 Y91.561 I-0.299 J-0.084
G1 X16.554 Y91.477
X16.487 Y91.458 Z-3.292
X16.424 Y91.441 Z-3.269
X16.368 Y91.425 Z-3.232
X16.32 Y91.412 Z-3.183
X16.285 Y91.402 Z-3.125
X16.263 Y91.396 Z-3.059
X16.255 Y91.393 Z-2.99
Z5
X16.422 Y90.796
Z-2 F150
Z-3.29
X16.43 Y90.799 Z-3.359
X16.452 Y90.805 Z-3.425
X16.488 Y90.815 Z-3.483
X16.535 Y90.828 Z-3.532
X16.591 Y90.844 Z-3.569
X16.655 Y90.861 Z-3.592
X16.721 Y90.88 Z-3.6
X17.019 Y90.964
G3 X17.234 Y91.346 I-0.084 J0.299
X14.766 Y90.654 I-1.234 J-0.346 F300
X17.234 Y91.346 I1.234 J0.346
X16.852 Y91.561 I-0.299 J-0.084
G1 X16.554 Y91.477
X16.487 Y91.458 Z-3.592
X16.424 Y91.441 Z-3.569
X16.368 Y91.425 Z-3.532
X16.32 Y91.412 Z-3.483
X16.285 Y91.402 Z-3.425
X16.263 Y91.396 Z-3.359
X16.255 Y91.393 Z-3.29
Z5
X16.422 Y90.796
Z-2.3 F150
Z-3.59
X16.43 Y90.799 Z-3.659
X16.452 Y90.805 Z-3.725
X16.488 Y90.815 Z-3.783
X16.535 Y90.828 Z-3.832
X16.591 Y90.844 Z-3.869
X16.655 Y90.861 Z-3.892
X16.721 Y90.88 Z-3.9
X17.019 Y90.964
G3 X17.234 Y91.346 I-0.084 J0.299
X14.766 Y90.654 I-1.234 J-0.346 F300
X17.234 Y91.346 I1.234 J0.346
X16.852 Y91.561 I-0.299 J-0.084
G1 X16.554 Y91.477
X16.487 Y91.458 Z-3.892
X16.424 Y91.441 Z-3.869
X16.368 Y91.425 Z-3.832
X16.32 Y91.412 Z-3.783
X16.285 Y91.402 Z-3.725
X16.263 Y91.396 Z-3.659
X16.255 Y91.393 Z-3.59
Z5
X16.422 Y90.796
Z-2.6 F150
Z-3.89
X16.43 Y90.799 Z-3.959
X16.452 Y90.805 Z-4.025
X16.488 Y90.815 Z-4.083
X16.535 Y90.828 Z-4.132
X16.591 Y90.844 Z-4.169
X16.655 Y90.861 Z-4.192
X16.721 Y90.88 Z-4.2
X17.019 Y90.964
G3 X17.234 Y91.346 I-0.084 J0.299
X14.766 Y90.654 I-1.234 J-0.346 F300
X17.234 Y91.346 I1.234 J0.346
X16.852 Y91.561 I-0.299 J-0.084
G1 X16.554 Y91.477
X16.487 Y91.458 Z-4.192
X16.424 Y91.441 Z-4.169
X16.368 Y91.425 Z-4.132
X16.32 Y91.412 Z-4.083
X16.285 Y91.402 Z-4.025
X16.263 Y91.396 Z-3.959
X16.255 Y91.393 Z-3.89
Z5
X16.422 Y90.796
Z-2.9 F150
Z-4.19
X16.43 Y90.799 Z-4.259
X16.452 Y90.805 Z-4.325
X16.488 Y90.815 Z-4.383
X16.535 Y90.828 Z-4.432
X16.591 Y90.844 Z-4.469
X16.655 Y90.861 Z-4.492
X16.721 Y90.88 Z-4.5
X17.019 Y90.964
G3 X17.234 Y91.346 I-0.084 J0.299
X14.766 Y90.654 I-1.234 J-0.346 F300
X17.234 Y91.346 I1.234 J0.346
X16.852 Y91.561 I-0.299 J-0.084
G1 X16.554 Y91.477
X16.487 Y91.458 Z-4.492
X16.424 Y91.441 Z-4.469
X16.368 Y91.425 Z-4.432
X16.32 Y91.412 Z-4.383
X16.285 Y91.402 Z-4.325
X16.263 Y91.396 Z-4.259
X16.255 Y91.393 Z-4.19
Z5
X16.422 Y90.796
Z-3.2 F150
Z-4.49
X16.43 Y90.799 Z-4.559
X16.452 Y90.805 Z-4.625
X16.488 Y90.815 Z-4.683
X16.535 Y90.828 Z-4.732
X16.591 Y90.844 Z-4.769
X16.655 Y90.861 Z-4.792
X16.721 Y90.88 Z-4.8
X17.019 Y90.964
G3 X17.234 Y91.346 I-0.084 J0.299
X14.766 Y90.654 I-1.234 J-0.346 F300
X17.234 Y91.346 I1.234 J0.346
X16.852 Y91.561 I-0.299 J-0.084
G1 X16.554 Y91.477
X16.487 Y91.458 Z-4.792
X16.424 Y91.441 Z-4.769
X16.368 Y91.425 Z-4.732
X16.32 Y91.412 Z-4.683
X16.285 Y91.402 Z-4.625
X16.263 Y91.396 Z-4.559
X16.255 Y91.393 Z-4.49
Z5
X16.422 Y90.796
Z-3.5 F150
Z-4.79
X16.43 Y90.799 Z-4.859
X16.452 Y90.805 Z-4.925
X16.488 Y90.815 Z-4.983
X16.535 Y90.828 Z-5.032
X16.591 Y90.844 Z-5.069
X16.655 Y90.861 Z-5.092
X16.721 Y90.88 Z-5.1
X17.019 Y90.964
G3 X17.234 Y91.346 I-0.084 J0.299
X14.766 Y90.654 I-1.234 J-0.346 F300
X17.234 Y91.346 I1.234 J0.346
X16.852 Y91.561 I-0.299 J-0.084
G1 X16.554 Y91.477
X16.487 Y91.458 Z-5.092
X16.424 Y91.441 Z-5.069
X16.368 Y91.425 Z-5.032
X16.32 Y91.412 Z-4.983
X16.285 Y91.402 Z-4.925
X16.263 Y91.396 Z-4.859
X16.255 Y91.393 Z-4.79
Z5
X16.422 Y90.796
Z-3.8 F150
Z-5.09
X16.43 Y90.799 Z-5.159
X16.452 Y90.805 Z-5.225
X16.488 Y90.815 Z-5.283
X16.535 Y90.828 Z-5.332
X16.591 Y90.844 Z-5.369
X16.655 Y90.861 Z-5.392
X16.721 Y90.88 Z-5.4
X17.019 Y90.964
G3 X17.234 Y91.346 I-0.084 J0.299
X14.766 Y90.654 I-1.234 J-0.346 F300
X17.234 Y91.346 I1.234 J0.346
X16.852 Y91.561 I-0.299 J-0.084
G1 X16.554 Y91.477
X16.487 Y91.458 Z-5.392
X16.424 Y91.441 Z-5.369
X16.368 Y91.425 Z-5.332
X16.32 Y91.412 Z-5.283
X16.285 Y91.402 Z-5.225
X16.263 Y91.396 Z-5.159
X16.255 Y91.393 Z-5.09
Z5
X16.422 Y90.796
Z-4.1 F150
Z-5.39
X16.43 Y90.799 Z-5.459
X16.452 Y90.805 Z-5.525
X16.488 Y90.815 Z-5.583
X16.535 Y90.828 Z-5.632
X16.591 Y90.844 Z-5.669
X16.655 Y90.861 Z-5.692
X16.721 Y90.88 Z-5.7
X17.019 Y90.964
G3 X17.234 Y91.346 I-0.084 J0.299
X14.766 Y90.654 I-1.234 J-0.346 F300
X17.234 Y91.346 I1.234 J0.346
X16.852 Y91.561 I-0.299 J-0.084
G1 X16.554 Y91.477
X16.487 Y91.458 Z-5.692
X16.424 Y91.441 Z-5.669
X16.368 Y91.425 Z-5.632
X16.32 Y91.412 Z-5.583
X16.285 Y91.402 Z-5.525
X16.263 Y91.396 Z-5.459
X16.255 Y91.393 Z-5.39
Z5
X16.422 Y90.796
Z-4.4 F150
Z-5.69
X16.43 Y90.799 Z-5.759
X16.452 Y90.805 Z-5.825
X16.488 Y90.815 Z-5.883
X16.535 Y90.828 Z-5.932
X16.591 Y90.844 Z-5.969
X16.655 Y90.861 Z-5.992
X16.721 Y90.88 Z-6
X17.019 Y90.964
G3 X17.234 Y91.346 I-0.084 J0.299
X14.766 Y90.654 I-1.234 J-0.346 F300
X17.234 Y91.346 I1.234 J0.346
X16.852 Y91.561 I-0.299 J-0.084
G1 X16.554 Y91.477
X16.487 Y91.458 Z-5.992
X16.424 Y91.441 Z-5.969
X16.368 Y91.425 Z-5.932
X16.32 Y91.412 Z-5.883
X16.285 Y91.402 Z-5.825
X16.263 Y91.396 Z-5.759
X16.255 Y91.393 Z-5.69
Z5
X16.422 Y90.796
Z-4.7 F150
Z-5.99
X16.43 Y90.799 Z-6.059
X16.452 Y90.805 Z-6.125
X16.488 Y90.815 Z-6.183
X16.535 Y90.828 Z-6.232
X16.591 Y90.844 Z-6.269
X16.655 Y90.861 Z-6.292
X16.721 Y90.88 Z-6.3
X17.019 Y90.964
G3 X17.234 Y91.346 I-0.084 J0.299
X14.766 Y90.654 I-1.234 J-0.346 F300
X17.234 Y91.346 I1.234 J0.346
X16.852 Y91.561 I-0.299 J-0.084
G1 X16.554 Y91.477
X16.487 Y91.458 Z-6.292
X16.424 Y91.441 Z-6.269
X16.368 Y91.425 Z-6.232
X16.32 Y91.412 Z-6.183
X16.285 Y91.402 Z-6.125
X16.263 Y91.396 Z-6.059
X16.255 Y91.393 Z-5.99
Z5
X16.422 Y90.796
Z-5 F150
Z-6.29
X16.43 Y90.799 Z-6.359
X16.452 Y90.805 Z-6.425
X16.488 Y90.815 Z-6.483
X16.535 Y90.828 Z-6.532
X16.591 Y90.844 Z-6.569
X16.655 Y90.861 Z-6.592
X16.721 Y90.88 Z-6.6
X17.019 Y90.964
G3 X17.234 Y91.346 I-0.084 J0.299
X14.766 Y90.654 I-1.234 J-0.346 F300
X17.234 Y91.346 I1.234 J0.346
X16.852 Y91.561 I-0.299 J-0.084
G1 X16.554 Y91.477
X16.487 Y91.458 Z-6.592
X16.424 Y91.441 Z-6.569
X16.368 Y91.425 Z-6.532
X16.32 Y91.412 Z-6.483
X16.285 Y91.402 Z-6.425
X16.263 Y91.396 Z-6.359
X16.255 Y91.393 Z-6.29
Z5
X16.422 Y90.796
Z-5.3 F150
Z-6.59
X16.43 Y90.799 Z-6.659
X16.452 Y90.805 Z-6.725
X16.488 Y90.815 Z-6.783
X16.535 Y90.828 Z-6.832
X16.591 Y90.844 Z-6.869
X16.655 Y90.861 Z-6.892
X16.721 Y90.88 Z-6.9
X17.019 Y90.964
G3 X17.234 Y91.346 I-0.084 J0.299
X14.766 Y90.654 I-1.234 J-0.346 F300
X17.234 Y91.346 I1.234 J0.346
X16.852 Y91.561 I-0.299 J-0.084
G1 X16.554 Y91.477
X16.487 Y91.458 Z-6.892
X16.424 Y91.441 Z-6.869
X16.368 Y91.425 Z-6.832
X16.32 Y91.412 Z-6.783
X16.285 Y91.402 Z-6.725
X16.263 Y91.396 Z-6.659
X16.255 Y91.393 Z-6.59
Z5
X16.422 Y90.796
Z-5.6 F150
Z-6.89
X16.43 Y90.799 Z-6.959
X16.452 Y90.805 Z-7.025
X16.488 Y90.815 Z-7.083
X16.535 Y90.828 Z-7.132
X16.591 Y90.844 Z-7.169
X16.655 Y90.861 Z-7.192
X16.721 Y90.88 Z-7.2
X17.019 Y90.964
G3 X17.234 Y91.346 I-0.084 J0.299
X14.766 Y90.654 I-1.234 J-0.346 F300
X17.234 Y91.346 I1.234 J0.346
X16.852 Y91.561 I-0.299 J-0.084
G1 X16.554 Y91.477
X16.487 Y91.458 Z-7.192
X16.424 Y91.441 Z-7.169
X16.368 Y91.425 Z-7.132
X16.32 Y91.412 Z-7.083
X16.285 Y91.402 Z-7.025
X16.263 Y91.396 Z-6.959
X16.255 Y91.393 Z-6.89
Z5
X16.422 Y90.796
Z-5.9 F150
Z-7.19
X16.43 Y90.799 Z-7.259
X16.452 Y90.805 Z-7.325
X16.488 Y90.815 Z-7.383
X16.535 Y90.828 Z-7.432
X16.591 Y90.844 Z-7.469
X16.655 Y90.861 Z-7.492
X16.721 Y90.88 Z-7.5
X17.019 Y90.964
G3 X17.234 Y91.346 I-0.084 J0.299
X14.766 Y90.654 I-1.234 J-0.346 F300
X17.234 Y91.346 I1.234 J0.346
X16.852 Y91.561 I-0.299 J-0.084
G1 X16.554 Y91.477
X16.487 Y91.458 Z-7.492
X16.424 Y91.441 Z-7.469
X16.368 Y91.425 Z-7.432
X16.32 Y91.412 Z-7.383
X16.285 Y91.402 Z-7.325
X16.263 Y91.396 Z-7.259
X16.255 Y91.393 Z-7.19
Z5
X16.422 Y90.796
Z-6.2 F150
Z-7.49
X16.43 Y90.799 Z-7.559
X16.452 Y90.805 Z-7.625
X16.488 Y90.815 Z-7.683
X16.535 Y90.828 Z-7.732
X16.591 Y90.844 Z-7.769
X16.655 Y90.861 Z-7.792
X16.721 Y90.88 Z-7.8
X17.019 Y90.964
G3 X17.234 Y91.346 I-0.084 J0.299
X14.766 Y90.654 I-1.234 J-0.346 F300
X17.234 Y91.346 I1.234 J0.346
X16.852 Y91.561 I-0.299 J-0.084
G1 X16.554 Y91.477
X16.487 Y91.458 Z-7.792
X16.424 Y91.441 Z-7.769
X16.368 Y91.425 Z-7.732
X16.32 Y91.412 Z-7.683
X16.285 Y91.402 Z-7.625
X16.263 Y91.396 Z-7.559
X16.255 Y91.393 Z-7.49
Z5
X16.422 Y90.796
Z-6.5 F150
Z-7.69
X16.43 Y90.799 Z-7.759
X16.452 Y90.805 Z-7.825
X16.488 Y90.815 Z-7.883
X16.535 Y90.828 Z-7.932
X16.591 Y90.844 Z-7.969
X16.655 Y90.861 Z-7.992
X16.721 Y90.88 Z-8
X17.019 Y90.964
G3 X17.234 Y91.346 I-0.084 J0.299
X14.766 Y90.654 I-1.234 J-0.346 F300
X17.234 Y91.346 I1.234 J0.346
X16.852 Y91.561 I-0.299 J-0.084
G1 X16.554 Y91.477
X16.487 Y91.458 Z-7.992
X16.424 Y91.441 Z-7.969
X16.368 Y91.425 Z-7.932
X16.32 Y91.412 Z-7.883
X16.285 Y91.402 Z-7.825
X16.263 Y91.396 Z-7.759
X16.255 Y91.393 Z-7.69
Z5
X9.514 Y66.382
Z1.3 F150
Z0.01
Y66.389 Z-0.059
Y66.412 Z-0.125
X9.515 Y66.449 Z-0.183
X9.516 Y66.498 Z-0.232
X9.517 Y66.557 Z-0.269
X9.519 Y66.622 Z-0.292
X9.52 Y66.691 Z-0.3
X9.526 Y67.001
G3 X9.222 Y67.318 I-0.31 J0.006
X8.082 Y66.2 I-0.022 J-1.118 F300
X10.318 Y66.2 I1.118 J0
X9.222 Y67.318 I-1.118 J0
X8.906 Y67.014 I-0.006 J-0.31
G1 X8.9 Y66.704
X8.899 Y66.635 Z-0.292
X8.897 Y66.569 Z-0.269
X8.896 Y66.511 Z-0.232
X8.895 Y66.462 Z-0.183
X8.894 Y66.425 Z-0.125
Y66.402 Z-0.059
Y66.394 Z0.01
Z5
X9.514 Y66.382
Z1 F150
Z-0.29
Y66.389 Z-0.359
Y66.412 Z-0.425
X9.515 Y66.449 Z-0.483
X9.516 Y66.498 Z-0.532
X9.517 Y66.557 Z-0.569
X9.519 Y66.622 Z-0.592
X9.52 Y66.691 Z-0.6
X9.526 Y67.001
G3 X9.222 Y67.318 I-0.31 J0.006
X8.082 Y66.2 I-0.022 J-1.118 F300
X10.318 Y66.2 I1.118 J0
X9.222 Y67.318 I-1.118 J0
X8.906 Y67.014 I-0.006 J-0.31
G1 X8.9 Y66.704
X8.899 Y66.635 Z-0.592
X8.897 Y66.569 Z-0.569
X8.896 Y66.511 Z-0.532
X8.895 Y66.462 Z-0.483
X8.894 Y66.425 Z-0.425
Y66.402 Z-0.359
Y66.394 Z-0.29
Z5
X9.514 Y66.382
Z0.7 F150
Z-0.59
Y66.389 Z-0.659
Y66.412 Z-0.725
X9.515 Y66.449 Z-0.783
X9.516 Y66.498 Z-0.832
X9.517 Y66.557 Z-0.869
X9.519 Y66.622 Z-0.892
X9.52 Y66.691 Z-0.9
X9.526 Y67.001
G3 X9.222 Y67.318 I-0.31 J0.006
X8.082 Y66.2 I-0.022 J-1.118 F300
X10.318 Y66.2 I1.118 J0
X9.222 Y67.318 I-1.118 J0
X8.906 Y67.014 I-0.006 J-0.31
G1 X8.9 Y66.704
X8.899 Y66.635 Z-0.892
X8.897 Y66.569 Z-0.869
X8.896 Y66.511 Z-0.832
X8.895 Y66.462 Z-0.783
X8.894 Y66.425 Z-0.725
Y66.402 Z-0.659
Y66.394 Z-0.59
Z5
X9.514 Y66.382
Z0.4 F150
Z-0.89
Y66.389 Z-0.959
Y66.412 Z-1.025
X9.515 Y66.449 Z-1.083
X9.516 Y66.498 Z-1.132
X9.517 Y66.557 Z-1.169
X9.519 Y66.622 Z-1.192
X9.52 Y66.691 Z-1.2
X9.526 Y67.001
G3 X9.222 Y67.318 I-0.31 J0.006
X8.082 Y66.2 I-0.022 J-1.118 F300
X10.318 Y66.2 I1.118 J0
X9.222 Y67.318 I-1.118 J0
X8.906 Y67.014 I-0.006 J-0.31
G1 X8.9 Y66.704
X8.899 Y66.635 Z-1.192
X8.897 Y66.569 Z-1.169
X8.896 Y66.511 Z-1.132
X8.895 Y66.462 Z-1.083
X8.894 Y66.425 Z-1.025
Y66.402 Z-0.959
Y66.394 Z-0.89
Z5
X9.514 Y66.382
Z0.1 F150
Z-1.19
Y66.389 Z-1.259
Y66.412 Z-1.325
X9.515 Y66.449 Z-1.383
X9.516 Y66.498 Z-1.432
X9.517 Y66.557 Z-1.469
X9.519 Y66.622 Z-1.492
X9.52 Y66.691 Z-1.5
X9.526 Y67.001
G3 X9.222 Y67.318 I-0.31 J0.006
X8.082 Y66.2 I-0.022 J-1.118 F300
X10.318 Y66.2 I1.118 J0
X9.222 Y67.318 I-1.118 J0
X8.906 Y67.014 I-0.006 J-0.31
G1 X8.9 Y66.704
X8.899 Y66.635 Z-1.492
X8.897 Y66.569 Z-1.469
X8.896 Y66.511 Z-1.432
X8.895 Y66.462 Z-1.383
X8.894 Y66.425 Z-1.325
Y66.402 Z-1.259
Y66.394 Z-1.19
Z5
X9.514 Y66.382
Z-0.2 F150
Z-1.49
Y66.389 Z-1.559
Y66.412 Z-1.625
X9.515 Y66.449 Z-1.683
X9.516 Y66.498 Z-1.732
X9.517 Y66.557 Z-1.769
X9.519 Y66.622 Z-1.792
X9.52 Y66.691 Z-1.8
X9.526 Y67.001
G3 X9.222 Y67.318 I-0.31 J0.006
X8.082 Y66.2 I-0.022 J-1.118 F300
X10.318 Y66.2 I1.118 J0
X9.222 Y67.318 I-1.118 J0
X8.906 Y67.014 I-0.006 J-0.31
G1 X8.9 Y66.704
X8.899 Y66.635 Z-1.792
X8.897 Y66.569 Z-1.769
X8.896 Y66.511 Z-1.732
X8.895 Y66.462 Z-1.683
X8.894 Y66.425 Z-1.625
Y66.402 Z-1.559
Y66.394 Z-1.49
Z5
X9.514 Y66.382
Z-0.5 F150
Z-1.79
Y66.389 Z-1.859
Y66.412 Z-1.925
X9.515 Y66.449 Z-1.983
X9.516 Y66.498 Z-2.032
X9.517 Y66.557 Z-2.069
X9.519 Y66.622 Z-2.092
X9.52 Y66.691 Z-2.1
X9.526 Y67.001
G3 X9.222 Y67.318 I-0.31 J0.006
X8.082 Y66.2 I-0.022 J-1.118 F300
X10.318 Y66.2 I1.118 J0
X9.222 Y67.318 I-1.118 J0
X8.906 Y67.014 I-0.006 J-0.31
G1 X8.9 Y66.704
X8.899 Y66.635 Z-2.092
X8.897 Y66.569 Z-2.069
X8.896 Y66.511 Z-2.032
X8.895 Y66.462 Z-1.983
X8.894 Y66.425 Z-1.925
Y66.402 Z-1.859
Y66.394 Z-1.79
Z5
X9.514 Y66.382
Z-0.8 F150
Z-2.09
Y66.389 Z-2.159
Y66.412 Z-2.225
X9.515 Y66.449 Z-2.283
X9.516 Y66.498 Z-2.332
X9.517 Y66.557 Z-2.369
X9.519 Y66.622 Z-2.392
X9.52 Y66.691 Z-2.4
X9.526 Y67.001
G3 X9.222 Y67.318 I-0.31 J0.006
X8.082 Y66.2 I-0.022 J-1.118 F300
X10.318 Y66.2 I1.118 J0
X9.222 Y67.318 I-1.118 J0
X8.906 Y67.014 I-0.006 J-0.31
G1 X8.9 Y66.704
X8.899 Y66.635 Z-2.392
X8.897 Y66.569 Z-2.369
X8.896 Y66.511 Z-2.332
X8.895 Y66.462 Z-2.283
X8.894 Y66.425 Z-2.225
Y66.402 Z-2.159
Y66.394 Z-2.09
Z5
X9.514 Y66.382
Z-1.1 F150
Z-2.39
Y66.389 Z-2.459
Y66.412 Z-2.525
X9.515 Y66.449 Z-2.583
X9.516 Y66.498 Z-2.632
X9.517 Y66.557 Z-2.669
X9.519 Y66.622 Z-2.692
X9.52 Y66.691 Z-2.7
X9.526 Y67.001
G3 X9.222 Y67.318 I-0.31 J0.006
X8.082 Y66.2 I-0.022 J-1.118 F300
X10.318 Y66.2 I1.118 J0
X9.222 Y67.318 I-1.118 J0
X8.906 Y67.014 I-0.006 J-0.31
G1 X8.9 Y66.704
X8.899 Y66.635 Z-2.692
X8.897 Y66.569 Z-2.669
X8.896 Y66.511 Z-2.632
X8.895 Y66.462 Z-2.583
X8.894 Y66.425 Z-2.525
Y66.402 Z-2.459
Y66.394 Z-2.39
Z5
X9.514 Y66.382
Z-1.4 F150
Z-2.69
Y66.389 Z-2.759
Y66.412 Z-2.825
X9.515 Y66.449 Z-2.883
X9.516 Y66.498 Z-2.932
X9.517 Y66.557 Z-2.969
X9.519 Y66.622 Z-2.992
X9.52 Y66.691 Z-3
X9.526 Y67.001
G3 X9.222 Y67.318 I-0.31 J0.006
X8.082 Y66.2 I-0.022 J-1.118 F300
X10.318 Y66.2 I1.118 J0
X9.222 Y67.318 I-1.118 J0
X8.906 Y67.014 I-0.006 J-0.31
G1 X8.9 Y66.704
X8.899 Y66.635 Z-2.992
X8.897 Y66.569 Z-2.969
X8.896 Y66.511 Z-2.932
X8.895 Y66.462 Z-2.883
X8.894 Y66.425 Z-2.825
Y66.402 Z-2.759
Y66.394 Z-2.69
Z5
X9.514 Y66.382
Z-1.7 F150
Z-2.99
Y66.389 Z-3.059
Y66.412 Z-3.125
X9.515 Y66.449 Z-3.183
X9.516 Y66.498 Z-3.232
X9.517 Y66.557 Z-3.269
X9.519 Y66.622 Z-3.292
X9.52 Y66.691 Z-3.3
X9.526 Y67.001
G3 X9.222 Y67.318 I-0.31 J0.006
X8.082 Y66.2 I-0.022 J-1.118 F300
X10.318 Y66.2 I1.118 J0
X9.222 Y67.318 I-1.118 J0
X8.906 Y67.014 I-0.006 J-0.31
G1 X8.9 Y66.704
X8.899 Y66.635 Z-3.292
X8.897 Y66.569 Z-3.269
X8.896 Y66.511 Z-3.232
X8.895 Y66.462 Z-3.183
X8.894 Y66.425 Z-3.125
Y66.402 Z-3.059
Y66.394 Z-2.99
Z5
X9.514 Y66.382
Z-2 F150
Z-3.29
Y66.389 Z-3.359
Y66.412 Z-3.425
X9.515 Y66.449 Z-3.483
X9.516 Y66.498 Z-3.532
X9.517 Y66.557 Z-3.569
X9.519 Y66.622 Z-3.592
X9.52 Y66.691 Z-3.6
X9.526 Y67.001
G3 X9.222 Y67.318 I-0.31 J0.006
X8.082 Y66.2 I-0.022 J-1.118 F300
X10.318 Y66.2 I1.118 J0
X9.222 Y67.318 I-1.118 J0
X8.906 Y67.014 I-0.006 J-0.31
G1 X8.9 Y66.704
X8.899 Y66.635 Z-3.592
X8.897 Y66.569 Z-3.569
X8.896 Y66.511 Z-3.532
X8.895 Y66.462 Z-3.483
X8.894 Y66.425 Z-3.425
Y66.402 Z-3.359
Y66.394 Z-3.29
Z5
X9.514 Y66.382
Z-2.3 F150
Z-3.59
Y66.389 Z-3.659
Y66.412 Z-3.725
X9.515 Y66.449 Z-3.783
X9.516 Y66.498 Z-3.832
X9.517 Y66.557 Z-3.869
X9.519 Y66.622 Z-3.892
X9.52 Y66.691 Z-3.9
X9.526 Y67.001
G3 X9.222 Y67.318 I-0.31 J0.006
X8.082 Y66.2 I-0.022 J-1.118 F300
X10.318 Y66.2 I1.118 J0
X9.222 Y67.318 I-1.118 J0
X8.906 Y67.014 I-0.006 J-0.31
G1 X8.9 Y66.704
X8.899 Y66.635 Z-3.892
X8.897 Y66.569 Z-3.869
X8.896 Y66.511 Z-3.832
X8.895 Y66.462 Z-3.783
X8.894 Y66.425 Z-3.725
Y66.402 Z-3.659
Y66.394 Z-3.59
Z5
X9.514 Y66.382
Z-2.6 F150
Z-3.89
Y66.389 Z-3.959
Y66.412 Z-4.025
X9.515 Y66.449 Z-4.083
X9.516 Y66.498 Z-4.132
X9.517 Y66.557 Z-4.169
X9.519 Y66.622 Z-4.192
X9.52 Y66.691 Z-4.2
X9.526 Y67.001
G3 X9.222 Y67.318 I-0.31 J0.006
X8.082 Y66.2 I-0.022 J-1.118 F300
X10.318 Y66.2 I1.118 J0
X9.222 Y67.318 I-1.118 J0
X8.906 Y67.014 I-0.006 J-0.31
G1 X8.9 Y66.704
X8.899 Y66.635 Z-4.192
X8.897 Y66.569 Z-4.169
X8.896 Y66.511 Z-4.132
X8.895 Y66.462 Z-4.083
X8.894 Y66.425 Z-4.025
Y66.402 Z-3.959
Y66.394 Z-3.89
Z5
X9.514 Y66.382
Z-2.9 F150
Z-4.19
Y66.389 Z-4.259
Y66.412 Z-4.325
X9.515 Y66.449 Z-4.383
X9.516 Y66.498 Z-4.432
X9.517 Y66.557 Z-4.469
X9.519 Y66.622 Z-4.492
X9.52 Y66.691 Z-4.5
X9.526 Y67.001
G3 X9.222 Y67.318 I-0.31 J0.006
X8.082 Y66.2 I-0.022 J-1.118 F300
X10.318 Y66.2 I1.118 J0
X9.222 Y67.318 I-1.118 J0
X8.906 Y67.014 I-0.006 J-0.31
G1 X8.9 Y66.704
X8.899 Y66.635 Z-4.492
X8.897 Y66.569 Z-4.469
X8.896 Y66.511 Z-4.432
X8.895 Y66.462 Z-4.383
X8.894 Y66.425 Z-4.325
Y66.402 Z-4.259
Y66.394 Z-4.19
Z5
X9.514 Y66.382
Z-3.2 F150
Z-4.49
Y66.389 Z-4.559
Y66.412 Z-4.625
X9.515 Y66.449 Z-4.683
X9.516 Y66.498 Z-4.732
X9.517 Y66.557 Z-4.769
X9.519 Y66.622 Z-4.792
X9.52 Y66.691 Z-4.8
X9.526 Y67.001
G3 X9.222 Y67.318 I-0.31 J0.006
X8.082 Y66.2 I-0.022 J-1.118 F300
X10.318 Y66.2 I1.118 J0
X9.222 Y67.318 I-1.118 J0
X8.906 Y67.014 I-0.006 J-0.31
G1 X8.9 Y66.704
X8.899 Y66.635 Z-4.792
X8.897 Y66.569 Z-4.769
X8.896 Y66.511 Z-4.732
X8.895 Y66.462 Z-4.683
X8.894 Y66.425 Z-4.625
Y66.402 Z-4.559
Y66.394 Z-4.49
Z5
X9.514 Y66.382
Z-3.5 F150
Z-4.79
Y66.389 Z-4.859
Y66.412 Z-4.925
X9.515 Y66.449 Z-4.983
X9.516 Y66.498 Z-5.032
X9.517 Y66.557 Z-5.069
X9.519 Y66.622 Z-5.092
X9.52 Y66.691 Z-5.1
X9.526 Y67.001
G3 X9.222 Y67.318 I-0.31 J0.006
X8.082 Y66.2 I-0.022 J-1.118 F300
X10.318 Y66.2 I1.118 J0
X9.222 Y67.318 I-1.118 J0
X8.906 Y67.014 I-0.006 J-0.31
G1 X8.9 Y66.704
X8.899 Y66.635 Z-5.092
X8.897 Y66.569 Z-5.069
X8.896 Y66.511 Z-5.032
X8.895 Y66.462 Z-4.983
X8.894 Y66.425 Z-4.925
Y66.402 Z-4.859
Y66.394 Z-4.79
Z5
X9.514 Y66.382
Z-3.8 F150
Z-5.09
Y66.389 Z-5.159
Y66.412 Z-5.225
X9.515 Y66.449 Z-5.283
X9.516 Y66.498 Z-5.332
X9.517 Y66.557 Z-5.369
X9.519 Y66.622 Z-5.392
X9.52 Y66.691 Z-5.4
X9.526 Y67.001
G3 X9.222 Y67.318 I-0.31 J0.006
X8.082 Y66.2 I-0.022 J-1.118 F300
X10.318 Y66.2 I1.118 J0
X9.222 Y67.318 I-1.118 J0
X8.906 Y67.014 I-0.006 J-0.31
G1 X8.9 Y66.704
X8.899 Y66.635 Z-5.392
X8.897 Y66.569 Z-5.369
X8.896 Y66.511 Z-5.332
X8.895 Y66.462 Z-5.283
X8.894 Y66.425 Z-5.225
Y66.402 Z-5.159
Y66.394 Z-5.09
Z5
X9.514 Y66.382
Z-4.1 F150
Z-5.39
Y66.389 Z-5.459
Y66.412 Z-5.525
X9.515 Y66.449 Z-5.583
X9.516 Y66.498 Z-5.632
X9.517 Y66.557 Z-5.669
X9.519 Y66.622 Z-5.692
X9.52 Y66.691 Z-5.7
X9.526 Y67.001
G3 X9.222 Y67.318 I-0.31 J0.006
X8.082 Y66.2 I-0.022 J-1.118 F300
X10.318 Y66.2 I1.118 J0
X9.222 Y67.318 I-1.118 J0
X8.906 Y67.014 I-0.006 J-0.31
G1 X8.9 Y66.704
X8.899 Y66.635 Z-5.692
X8.897 Y66.569 Z-5.669
X8.896 Y66.511 Z-5.632
X8.895 Y66.462 Z-5.583
X8.894 Y66.425 Z-5.525
Y66.402 Z-5.459
Y66.394 Z-5.39
Z5
X9.514 Y66.382
Z-4.4 F150
Z-5.69
Y66.389 Z-5.759
Y66.412 Z-5.825
X9.515 Y66.449 Z-5.883
X9.516 Y66.498 Z-5.932
X9.517 Y66.557 Z-5.969
X9.519 Y66.622 Z-5.992
X9.52 Y66.691 Z-6
X9.526 Y67.001
G3 X9.222 Y67.318 I-0.31 J0.006
X8.082 Y66.2 I-0.022 J-1.118 F300
X10.318 Y66.2 I1.118 J0
X9.222 Y67.318 I-1.118 J0
X8.906 Y67.014 I-0.006 J-0.31
G1 X8.9 Y66.704
X8.899 Y66.635 Z-5.992
X8.897 Y66.569 Z-5.969
X8.896 Y66.511 Z-5.932
X8.895 Y66.462 Z-5.883
X8.894 Y66.425 Z-5.825
Y66.402 Z-5.759
Y66.394 Z-5.69
Z5
X9.514 Y66.382
Z-4.7 F150
Z-5.99
Y66.389 Z-6.059
Y66.412 Z-6.125
X9.515 Y66.449 Z-6.183
X9.516 Y66.498 Z-6.232
X9.517 Y66.557 Z-6.269
X9.519 Y66.622 Z-6.292
X9.52 Y66.691 Z-6.3
X9.526 Y67.001
G3 X9.222 Y67.318 I-0.31 J0.006
X8.082 Y66.2 I-0.022 J-1.118 F300
X10.318 Y66.2 I1.118 J0
X9.222 Y67.318 I-1.118 J0
X8.906 Y67.014 I-0.006 J-0.31
G1 X8.9 Y66.704
X8.899 Y66.635 Z-6.292
X8.897 Y66.569 Z-6.269
X8.896 Y66.511 Z-6.232
X8.895 Y66.462 Z-6.183
X8.894 Y66.425 Z-6.125
Y66.402 Z-6.059
Y66.394 Z-5.99
Z5
X9.514 Y66.382
Z-5 F150
Z-6.29
Y66.389 Z-6.359
Y66.412 Z-6.425
X9.515 Y66.449 Z-6.483
X9.516 Y66.498 Z-6.532
X9.517 Y66.557 Z-6.569
X9.519 Y66.622 Z-6.592
X9.52 Y66.691 Z-6.6
X9.526 Y67.001
G3 X9.222 Y67.318 I-0.31 J0.006
X8.082 Y66.2 I-0.022 J-1.118 F300
X10.318 Y66.2 I1.118 J0
X9.222 Y67.318 I-1.118 J0
X8.906 Y67.014 I-0.006 J-0.31
G1 X8.9 Y66.704
X8.899 Y66.635 Z-6.592
X8.897 Y66.569 Z-6.569
X8.896 Y66.511 Z-6.532
X8.895 Y66.462 Z-6.483
X8.894 Y66.425 Z-6.425
Y66.402 Z-6.359
Y66.394 Z-6.29
Z5
X9.514 Y66.382
Z-5.3 F150
Z-6.59
Y66.389 Z-6.659
Y66.412 Z-6.725
X9.515 Y66.449 Z-6.783
X9.516 Y66.498 Z-6.832
X9.517 Y66.557 Z-6.869
X9.519 Y66.622 Z-6.892
X9.52 Y66.691 Z-6.9
X9.526 Y67.001
G3 X9.222 Y67.318 I-0.31 J0.006
X8.082 Y66.2 I-0.022 J-1.118 F300
X10.318 Y66.2 I1.118 J0
X9.222 Y67.318 I-1.118 J0
X8.906 Y67.014 I-0.006 J-0.31
G1 X8.9 Y66.704
X8.899 Y66.635 Z-6.892
X8.897 Y66.569 Z-6.869
X8.896 Y66.511 Z-6.832
X8.895 Y66.462 Z-6.783
X8.894 Y66.425 Z-6.725
Y66.402 Z-6.659
Y66.394 Z-6.59
Z5
X9.514 Y66.382
Z-5.6 F150
Z-6.89
Y66.389 Z-6.959
Y66.412 Z-7.025
X9.515 Y66.449 Z-7.083
X9.516 Y66.498 Z-7.132
X9.517 Y66.557 Z-7.169
X9.519 Y66.622 Z-7.192
X9.52 Y66.691 Z-7.2
X9.526 Y67.001
G3 X9.222 Y67.318 I-0.31 J0.006
X8.082 Y66.2 I-0.022 J-1.118 F300
X10.318 Y66.2 I1.118 J0
X9.222 Y67.318 I-1.118 J0
X8.906 Y67.014 I-0.006 J-0.31
G1 X8.9 Y66.704
X8.899 Y66.635 Z-7.192
X8.897 Y66.569 Z-7.169
X8.896 Y66.511 Z-7.132
X8.895 Y66.462 Z-7.083
X8.894 Y66.425 Z-7.025
Y66.402 Z-6.959
Y66.394 Z-6.89
Z5
X9.514 Y66.382
Z-5.9 F150
Z-7.19
Y66.389 Z-7.259
Y66.412 Z-7.325
X9.515 Y66.449 Z-7.383
X9.516 Y66.498 Z-7.432
X9.517 Y66.557 Z-7.469
X9.519 Y66.622 Z-7.492
X9.52 Y66.691 Z-7.5
X9.526 Y67.001
G3 X9.222 Y67.318 I-0.31 J0.006
X8.082 Y66.2 I-0.022 J-1.118 F300
X10.318 Y66.2 I1.118 J0
X9.222 Y67.318 I-1.118 J0
X8.906 Y67.014 I-0.006 J-0.31
G1 X8.9 Y66.704
X8.899 Y66.635 Z-7.492
X8.897 Y66.569 Z-7.469
X8.896 Y66.511 Z-7.432
X8.895 Y66.462 Z-7.383
X8.894 Y66.425 Z-7.325
Y66.402 Z-7.259
Y66.394 Z-7.19
Z5
X9.514 Y66.382
Z-6.2 F150
Z-7.49
Y66.389 Z-7.559
Y66.412 Z-7.625
X9.515 Y66.449 Z-7.683
X9.516 Y66.498 Z-7.732
X9.517 Y66.557 Z-7.769
X9.519 Y66.622 Z-7.792
X9.52 Y66.691 Z-7.8
X9.526 Y67.001
G3 X9.222 Y67.318 I-0.31 J0.006
X8.082 Y66.2 I-0.022 J-1.118 F300
X10.318 Y66.2 I1.118 J0
X9.222 Y67.318 I-1.118 J0
X8.906 Y67.014 I-0.006 J-0.31
G1 X8.9 Y66.704
X8.899 Y66.635 Z-7.792
X8.897 Y66.569 Z-7.769
X8.896 Y66.511 Z-7.732
X8.895 Y66.462 Z-7.683
X8.894 Y66.425 Z-7.625
Y66.402 Z-7.559
Y66.394 Z-7.49
Z5
X9.514 Y66.382
Z-6.5 F150
Z-7.69
Y66.389 Z-7.759
Y66.412 Z-7.825
X9.515 Y66.449 Z-7.883
X9.516 Y66.498 Z-7.932
X9.517 Y66.557 Z-7.969
X9.519 Y66.622 Z-7.992
X9.52 Y66.691 Z-8
X9.526 Y67.001
G3 X9.222 Y67.318 I-0.31 J0.006
X8.082 Y66.2 I-0.022 J-1.118 F300
X10.318 Y66.2 I1.118 J0
X9.222 Y67.318 I-1.118 J0
X8.906 Y67.014 I-0.006 J-0.31
G1 X8.9 Y66.704
X8.899 Y66.635 Z-7.992
X8.897 Y66.569 Z-7.969
X8.896 Y66.511 Z-7.932
X8.895 Y66.462 Z-7.883
X8.894 Y66.425 Z-7.825
Y66.402 Z-7.759
Y66.394 Z-7.69
Z5
X9.514 Y30.382
Z1.3 F150
Z0.01
Y30.389 Z-0.059
Y30.412 Z-0.125
X9.515 Y30.449 Z-0.183
X9.516 Y30.498 Z-0.232
X9.517 Y30.557 Z-0.269
X9.519 Y30.622 Z-0.292
X9.52 Y30.691 Z-0.3
X9.526 Y31.001
G3 X9.222 Y31.318 I-0.31 J0.006
X8.082 Y30.2 I-0.022 J-1.118 F300
X10.318 Y30.2 I1.118 J0
X9.222 Y31.318 I-1.118 J0
X8.906 Y31.014 I-0.006 J-0.31
G1 X8.9 Y30.704
X8.899 Y30.635 Z-0.292
X8.897 Y30.569 Z-0.269
X8.896 Y30.511 Z-0.232
X8.895 Y30.462 Z-0.183
X8.894 Y30.425 Z-0.125
Y30.402 Z-0.059
Y30.394 Z0.01
Z5
X9.514 Y30.382
Z1 F150
Z-0.29
Y30.389 Z-0.359
Y30.412 Z-0.425
X9.515 Y30.449 Z-0.483
X9.516 Y30.498 Z-0.532
X9.517 Y30.557 Z-0.569
X9.519 Y30.622 Z-0.592
X9.52 Y30.691 Z-0.6
X9.526 Y31.001
G3 X9.222 Y31.318 I-0.31 J0.006
X8.082 Y30.2 I-0.022 J-1.118 F300
X10.318 Y30.2 I1.118 J0
X9.222 Y31.318 I-1.118 J0
X8.906 Y31.014 I-0.006 J-0.31
G1 X8.9 Y30.704
X8.899 Y30.635 Z-0.592
X8.897 Y30.569 Z-0.569
X8.896 Y30.511 Z-0.532
X8.895 Y30.462 Z-0.483
X8.894 Y30.425 Z-0.425
Y30.402 Z-0.359
Y30.394 Z-0.29
Z5
X9.514 Y30.382
Z0.7 F150
Z-0.59
Y30.389 Z-0.659
Y30.412 Z-0.725
X9.515 Y30.449 Z-0.783
X9.516 Y30.498 Z-0.832
X9.517 Y30.557 Z-0.869
X9.519 Y30.622 Z-0.892
X9.52 Y30.691 Z-0.9
X9.526 Y31.001
G3 X9.222 Y31.318 I-0.31 J0.006
X8.082 Y30.2 I-0.022 J-1.118 F300
X10.318 Y30.2 I1.118 J0
X9.222 Y31.318 I-1.118 J0
X8.906 Y31.014 I-0.006 J-0.31
G1 X8.9 Y30.704
X8.899 Y30.635 Z-0.892
X8.897 Y30.569 Z-0.869
X8.896 Y30.511 Z-0.832
X8.895 Y30.462 Z-0.783
X8.894 Y30.425 Z-0.725
Y30.402 Z-0.659
Y30.394 Z-0.59
Z5
X9.514 Y30.382
Z0.4 F150
Z-0.89
Y30.389 Z-0.959
Y30.412 Z-1.025
X9.515 Y30.449 Z-1.083
X9.516 Y30.498 Z-1.132
X9.517 Y30.557 Z-1.169
X9.519 Y30.622 Z-1.192
X9.52 Y30.691 Z-1.2
X9.526 Y31.001
G3 X9.222 Y31.318 I-0.31 J0.006
X8.082 Y30.2 I-0.022 J-1.118 F300
X10.318 Y30.2 I1.118 J0
X9.222 Y31.318 I-1.118 J0
X8.906 Y31.014 I-0.006 J-0.31
G1 X8.9 Y30.704
X8.899 Y30.635 Z-1.192
X8.897 Y30.569 Z-1.169
X8.896 Y30.511 Z-1.132
X8.895 Y30.462 Z-1.083
X8.894 Y30.425 Z-1.025
Y30.402 Z-0.959
Y30.394 Z-0.89
Z5
X9.514 Y30.382
Z0.1 F150
Z-1.19
Y30.389 Z-1.259
Y30.412 Z-1.325
X9.515 Y30.449 Z-1.383
X9.516 Y30.498 Z-1.432
X9.517 Y30.557 Z-1.469
X9.519 Y30.622 Z-1.492
X9.52 Y30.691 Z-1.5
X9.526 Y31.001
G3 X9.222 Y31.318 I-0.31 J0.006
X8.082 Y30.2 I-0.022 J-1.118 F300
X10.318 Y30.2 I1.118 J0
X9.222 Y31.318 I-1.118 J0
X8.906 Y31.014 I-0.006 J-0.31
G1 X8.9 Y30.704
X8.899 Y30.635 Z-1.492
X8.897 Y30.569 Z-1.469
X8.896 Y30.511 Z-1.432
X8.895 Y30.462 Z-1.383
X8.894 Y30.425 Z-1.325
Y30.402 Z-1.259
Y30.394 Z-1.19
Z5
X9.514 Y30.382
Z-0.2 F150
Z-1.49
Y30.389 Z-1.559
Y30.412 Z-1.625
X9.515 Y30.449 Z-1.683
X9.516 Y30.498 Z-1.732
X9.517 Y30.557 Z-1.769
X9.519 Y30.622 Z-1.792
X9.52 Y30.691 Z-1.8
X9.526 Y31.001
G3 X9.222 Y31.318 I-0.31 J0.006
X8.082 Y30.2 I-0.022 J-1.118 F300
X10.318 Y30.2 I1.118 J0
X9.222 Y31.318 I-1.118 J0
X8.906 Y31.014 I-0.006 J-0.31
G1 X8.9 Y30.704
X8.899 Y30.635 Z-1.792
X8.897 Y30.569 Z-1.769
X8.896 Y30.511 Z-1.732
X8.895 Y30.462 Z-1.683
X8.894 Y30.425 Z-1.625
Y30.402 Z-1.559
Y30.394 Z-1.49
Z5
X9.514 Y30.382
Z-0.5 F150
Z-1.79
Y30.389 Z-1.859
Y30.412 Z-1.925
X9.515 Y30.449 Z-1.983
X9.516 Y30.498 Z-2.032
X9.517 Y30.557 Z-2.069
X9.519 Y30.622 Z-2.092
X9.52 Y30.691 Z-2.1
X9.526 Y31.001
G3 X9.222 Y31.318 I-0.31 J0.006
X8.082 Y30.2 I-0.022 J-1.118 F300
X10.318 Y30.2 I1.118 J0
X9.222 Y31.318 I-1.118 J0
X8.906 Y31.014 I-0.006 J-0.31
G1 X8.9 Y30.704
X8.899 Y30.635 Z-2.092
X8.897 Y30.569 Z-2.069
X8.896 Y30.511 Z-2.032
X8.895 Y30.462 Z-1.983
X8.894 Y30.425 Z-1.925
Y30.402 Z-1.859
Y30.394 Z-1.79
Z5
X9.514 Y30.382
Z-0.8 F150
Z-2.09
Y30.389 Z-2.159
Y30.412 Z-2.225
X9.515 Y30.449 Z-2.283
X9.516 Y30.498 Z-2.332
X9.517 Y30.557 Z-2.369
X9.519 Y30.622 Z-2.392
X9.52 Y30.691 Z-2.4
X9.526 Y31.001
G3 X9.222 Y31.318 I-0.31 J0.006
X8.082 Y30.2 I-0.022 J-1.118 F300
X10.318 Y30.2 I1.118 J0
X9.222 Y31.318 I-1.118 J0
X8.906 Y31.014 I-0.006 J-0.31
G1 X8.9 Y30.704
X8.899 Y30.635 Z-2.392
X8.897 Y30.569 Z-2.369
X8.896 Y30.511 Z-2.332
X8.895 Y30.462 Z-2.283
X8.894 Y30.425 Z-2.225
Y30.402 Z-2.159
Y30.394 Z-2.09
Z5
X9.514 Y30.382
Z-1.1 F150
Z-2.39
Y30.389 Z-2.459
Y30.412 Z-2.525
X9.515 Y30.449 Z-2.583
X9.516 Y30.498 Z-2.632
X9.517 Y30.557 Z-2.669
X9.519 Y30.622 Z-2.692
X9.52 Y30.691 Z-2.7
X9.526 Y31.001
G3 X9.222 Y31.318 I-0.31 J0.006
X8.082 Y30.2 I-0.022 J-1.118 F300
X10.318 Y30.2 I1.118 J0
X9.222 Y31.318 I-1.118 J0
X8.906 Y31.014 I-0.006 J-0.31
G1 X8.9 Y30.704
X8.899 Y30.635 Z-2.692
X8.897 Y30.569 Z-2.669
X8.896 Y30.511 Z-2.632
X8.895 Y30.462 Z-2.583
X8.894 Y30.425 Z-2.525
Y30.402 Z-2.459
Y30.394 Z-2.39
Z5
X9.514 Y30.382
Z-1.4 F150
Z-2.69
Y30.389 Z-2.759
Y30.412 Z-2.825
X9.515 Y30.449 Z-2.883
X9.516 Y30.498 Z-2.932
X9.517 Y30.557 Z-2.969
X9.519 Y30.622 Z-2.992
X9.52 Y30.691 Z-3
X9.526 Y31.001
G3 X9.222 Y31.318 I-0.31 J0.006
X8.082 Y30.2 I-0.022 J-1.118 F300
X10.318 Y30.2 I1.118 J0
X9.222 Y31.318 I-1.118 J0
X8.906 Y31.014 I-0.006 J-0.31
G1 X8.9 Y30.704
X8.899 Y30.635 Z-2.992
X8.897 Y30.569 Z-2.969
X8.896 Y30.511 Z-2.932
X8.895 Y30.462 Z-2.883
X8.894 Y30.425 Z-2.825
Y30.402 Z-2.759
Y30.394 Z-2.69
Z5
X9.514 Y30.382
Z-1.7 F150
Z-2.99
Y30.389 Z-3.059
Y30.412 Z-3.125
X9.515 Y30.449 Z-3.183
X9.516 Y30.498 Z-3.232
X9.517 Y30.557 Z-3.269
X9.519 Y30.622 Z-3.292
X9.52 Y30.691 Z-3.3
X9.526 Y31.001
G3 X9.222 Y31.318 I-0.31 J0.006
X8.082 Y30.2 I-0.022 J-1.118 F300
X10.318 Y30.2 I1.118 J0
X9.222 Y31.318 I-1.118 J0
X8.906 Y31.014 I-0.006 J-0.31
G1 X8.9 Y30.704
X8.899 Y30.635 Z-3.292
X8.897 Y30.569 Z-3.269
X8.896 Y30.511 Z-3.232
X8.895 Y30.462 Z-3.183
X8.894 Y30.425 Z-3.125
Y30.402 Z-3.059
Y30.394 Z-2.99
Z5
X9.514 Y30.382
Z-2 F150
Z-3.29
Y30.389 Z-3.359
Y30.412 Z-3.425
X9.515 Y30.449 Z-3.483
X9.516 Y30.498 Z-3.532
X9.517 Y30.557 Z-3.569
X9.519 Y30.622 Z-3.592
X9.52 Y30.691 Z-3.6
X9.526 Y31.001
G3 X9.222 Y31.318 I-0.31 J0.006
X8.082 Y30.2 I-0.022 J-1.118 F300
X10.318 Y30.2 I1.118 J0
X9.222 Y31.318 I-1.118 J0
X8.906 Y31.014 I-0.006 J-0.31
G1 X8.9 Y30.704
X8.899 Y30.635 Z-3.592
X8.897 Y30.569 Z-3.569
X8.896 Y30.511 Z-3.532
X8.895 Y30.462 Z-3.483
X8.894 Y30.425 Z-3.425
Y30.402 Z-3.359
Y30.394 Z-3.29
Z5
X9.514 Y30.382
Z-2.3 F150
Z-3.59
Y30.389 Z-3.659
Y30.412 Z-3.725
X9.515 Y30.449 Z-3.783
X9.516 Y30.498 Z-3.832
X9.517 Y30.557 Z-3.869
X9.519 Y30.622 Z-3.892
X9.52 Y30.691 Z-3.9
X9.526 Y31.001
G3 X9.222 Y31.318 I-0.31 J0.006
X8.082 Y30.2 I-0.022 J-1.118 F300
X10.318 Y30.2 I1.118 J0
X9.222 Y31.318 I-1.118 J0
X8.906 Y31.014 I-0.006 J-0.31
G1 X8.9 Y30.704
X8.899 Y30.635 Z-3.892
X8.897 Y30.569 Z-3.869
X8.896 Y30.511 Z-3.832
X8.895 Y30.462 Z-3.783
X8.894 Y30.425 Z-3.725
Y30.402 Z-3.659
Y30.394 Z-3.59
Z5
X9.514 Y30.382
Z-2.6 F150
Z-3.89
Y30.389 Z-3.959
Y30.412 Z-4.025
X9.515 Y30.449 Z-4.083
X9.516 Y30.498 Z-4.132
X9.517 Y30.557 Z-4.169
X9.519 Y30.622 Z-4.192
X9.52 Y30.691 Z-4.2
X9.526 Y31.001
G3 X9.222 Y31.318 I-0.31 J0.006
X8.082 Y30.2 I-0.022 J-1.118 F300
X10.318 Y30.2 I1.118 J0
X9.222 Y31.318 I-1.118 J0
X8.906 Y31.014 I-0.006 J-0.31
G1 X8.9 Y30.704
X8.899 Y30.635 Z-4.192
X8.897 Y30.569 Z-4.169
X8.896 Y30.511 Z-4.132
X8.895 Y30.462 Z-4.083
X8.894 Y30.425 Z-4.025
Y30.402 Z-3.959
Y30.394 Z-3.89
Z5
X9.514 Y30.382
Z-2.9 F150
Z-4.19
Y30.389 Z-4.259
Y30.412 Z-4.325
X9.515 Y30.449 Z-4.383
X9.516 Y30.498 Z-4.432
X9.517 Y30.557 Z-4.469
X9.519 Y30.622 Z-4.492
X9.52 Y30.691 Z-4.5
X9.526 Y31.001
G3 X9.222 Y31.318 I-0.31 J0.006
X8.082 Y30.2 I-0.022 J-1.118 F300
X10.318 Y30.2 I1.118 J0
X9.222 Y31.318 I-1.118 J0
X8.906 Y31.014 I-0.006 J-0.31
G1 X8.9 Y30.704
X8.899 Y30.635 Z-4.492
X8.897 Y30.569 Z-4.469
X8.896 Y30.511 Z-4.432
X8.895 Y30.462 Z-4.383
X8.894 Y30.425 Z-4.325
Y30.402 Z-4.259
Y30.394 Z-4.19
Z5
X9.514 Y30.382
Z-3.2 F150
Z-4.49
Y30.389 Z-4.559
Y30.412 Z-4.625
X9.515 Y30.449 Z-4.683
X9.516 Y30.498 Z-4.732
X9.517 Y30.557 Z-4.769
X9.519 Y30.622 Z-4.792
X9.52 Y30.691 Z-4.8
X9.526 Y31.001
G3 X9.222 Y31.318 I-0.31 J0.006
X8.082 Y30.2 I-0.022 J-1.118 F300
X10.318 Y30.2 I1.118 J0
X9.222 Y31.318 I-1.118 J0
X8.906 Y31.014 I-0.006 J-0.31
G1 X8.9 Y30.704
X8.899 Y30.635 Z-4.792
X8.897 Y30.569 Z-4.769
X8.896 Y30.511 Z-4.732
X8.895 Y30.462 Z-4.683
X8.894 Y30.425 Z-4.625
Y30.402 Z-4.559
Y30.394 Z-4.49
Z5
X9.514 Y30.382
Z-3.5 F150
Z-4.79
Y30.389 Z-4.859
Y30.412 Z-4.925
X9.515 Y30.449 Z-4.983
X9.516 Y30.498 Z-5.032
X9.517 Y30.557 Z-5.069
X9.519 Y30.622 Z-5.092
X9.52 Y30.691 Z-5.1
X9.526 Y31.001
G3 X9.222 Y31.318 I-0.31 J0.006
X8.082 Y30.2 I-0.022 J-1.118 F300
X10.318 Y30.2 I1.118 J0
X9.222 Y31.318 I-1.118 J0
X8.906 Y31.014 I-0.006 J-0.31
G1 X8.9 Y30.704
X8.899 Y30.635 Z-5.092
X8.897 Y30.569 Z-5.069
X8.896 Y30.511 Z-5.032
X8.895 Y30.462 Z-4.983
X8.894 Y30.425 Z-4.925
Y30.402 Z-4.859
Y30.394 Z-4.79
Z5
X9.514 Y30.382
Z-3.8 F150
Z-5.09
Y30.389 Z-5.159
Y30.412 Z-5.225
X9.515 Y30.449 Z-5.283
X9.516 Y30.498 Z-5.332
X9.517 Y30.557 Z-5.369
X9.519 Y30.622 Z-5.392
X9.52 Y30.691 Z-5.4
X9.526 Y31.001
G3 X9.222 Y31.318 I-0.31 J0.006
X8.082 Y30.2 I-0.022 J-1.118 F300
X10.318 Y30.2 I1.118 J0
X9.222 Y31.318 I-1.118 J0
X8.906 Y31.014 I-0.006 J-0.31
G1 X8.9 Y30.704
X8.899 Y30.635 Z-5.392
X8.897 Y30.569 Z-5.369
X8.896 Y30.511 Z-5.332
X8.895 Y30.462 Z-5.283
X8.894 Y30.425 Z-5.225
Y30.402 Z-5.159
Y30.394 Z-5.09
Z5
X9.514 Y30.382
Z-4.1 F150
Z-5.39
Y30.389 Z-5.459
Y30.412 Z-5.525
X9.515 Y30.449 Z-5.583
X9.516 Y30.498 Z-5.632
X9.517 Y30.557 Z-5.669
X9.519 Y30.622 Z-5.692
X9.52 Y30.691 Z-5.7
X9.526 Y31.001
G3 X9.222 Y31.318 I-0.31 J0.006
X8.082 Y30.2 I-0.022 J-1.118 F300
X10.318 Y30.2 I1.118 J0
X9.222 Y31.318 I-1.118 J0
X8.906 Y31.014 I-0.006 J-0.31
G1 X8.9 Y30.704
X8.899 Y30.635 Z-5.692
X8.897 Y30.569 Z-5.669
X8.896 Y30.511 Z-5.632
X8.895 Y30.462 Z-5.583
X8.894 Y30.425 Z-5.525
Y30.402 Z-5.459
Y30.394 Z-5.39
Z5
X9.514 Y30.382
Z-4.4 F150
Z-5.69
Y30.389 Z-5.759
Y30.412 Z-5.825
X9.515 Y30.449 Z-5.883
X9.516 Y30.498 Z-5.932
X9.517 Y30.557 Z-5.969
X9.519 Y30.622 Z-5.992
X9.52 Y30.691 Z-6
X9.526 Y31.001
G3 X9.222 Y31.318 I-0.31 J0.006
X8.082 Y30.2 I-0.022 J-1.118 F300
X10.318 Y30.2 I1.118 J0
X9.222 Y31.318 I-1.118 J0
X8.906 Y31.014 I-0.006 J-0.31
G1 X8.9 Y30.704
X8.899 Y30.635 Z-5.992
X8.897 Y30.569 Z-5.969
X8.896 Y30.511 Z-5.932
X8.895 Y30.462 Z-5.883
X8.894 Y30.425 Z-5.825
Y30.402 Z-5.759
Y30.394 Z-5.69
Z5
X9.514 Y30.382
Z-4.7 F150
Z-5.99
Y30.389 Z-6.059
Y30.412 Z-6.125
X9.515 Y30.449 Z-6.183
X9.516 Y30.498 Z-6.232
X9.517 Y30.557 Z-6.269
X9.519 Y30.622 Z-6.292
X9.52 Y30.691 Z-6.3
X9.526 Y31.001
G3 X9.222 Y31.318 I-0.31 J0.006
X8.082 Y30.2 I-0.022 J-1.118 F300
X10.318 Y30.2 I1.118 J0
X9.222 Y31.318 I-1.118 J0
X8.906 Y31.014 I-0.006 J-0.31
G1 X8.9 Y30.704
X8.899 Y30.635 Z-6.292
X8.897 Y30.569 Z-6.269
X8.896 Y30.511 Z-6.232
X8.895 Y30.462 Z-6.183
X8.894 Y30.425 Z-6.125
Y30.402 Z-6.059
Y30.394 Z-5.99
Z5
X9.514 Y30.382
Z-5 F150
Z-6.29
Y30.389 Z-6.359
Y30.412 Z-6.425
X9.515 Y30.449 Z-6.483
X9.516 Y30.498 Z-6.532
X9.517 Y30.557 Z-6.569
X9.519 Y30.622 Z-6.592
X9.52 Y30.691 Z-6.6
X9.526 Y31.001
G3 X9.222 Y31.318 I-0.31 J0.006
X8.082 Y30.2 I-0.022 J-1.118 F300
X10.318 Y30.2 I1.118 J0
X9.222 Y31.318 I-1.118 J0
X8.906 Y31.014 I-0.006 J-0.31
G1 X8.9 Y30.704
X8.899 Y30.635 Z-6.592
X8.897 Y30.569 Z-6.569
X8.896 Y30.511 Z-6.532
X8.895 Y30.462 Z-6.483
X8.894 Y30.425 Z-6.425
Y30.402 Z-6.359
Y30.394 Z-6.29
Z5
X9.514 Y30.382
Z-5.3 F150
Z-6.59
Y30.389 Z-6.659
Y30.412 Z-6.725
X9.515 Y30.449 Z-6.783
X9.516 Y30.498 Z-6.832
X9.517 Y30.557 Z-6.869
X9.519 Y30.622 Z-6.892
X9.52 Y30.691 Z-6.9
X9.526 Y31.001
G3 X9.222 Y31.318 I-0.31 J0.006
X8.082 Y30.2 I-0.022 J-1.118 F300
X10.318 Y30.2 I1.118 J0
X9.222 Y31.318 I-1.118 J0
X8.906 Y31.014 I-0.006 J-0.31
G1 X8.9 Y30.704
X8.899 Y30.635 Z-6.892
X8.897 Y30.569 Z-6.869
X8.896 Y30.511 Z-6.832
X8.895 Y30.462 Z-6.783
X8.894 Y30.425 Z-6.725
Y30.402 Z-6.659
Y30.394 Z-6.59
Z5
X9.514 Y30.382
Z-5.6 F150
Z-6.89
Y30.389 Z-6.959
Y30.412 Z-7.025
X9.515 Y30.449 Z-7.083
X9.516 Y30.498 Z-7.132
X9.517 Y30.557 Z-7.169
X9.519 Y30.622 Z-7.192
X9.52 Y30.691 Z-7.2
X9.526 Y31.001
G3 X9.222 Y31.318 I-0.31 J0.006
X8.082 Y30.2 I-0.022 J-1.118 F300
X10.318 Y30.2 I1.118 J0
X9.222 Y31.318 I-1.118 J0
X8.906 Y31.014 I-0.006 J-0.31
G1 X8.9 Y30.704
X8.899 Y30.635 Z-7.192
X8.897 Y30.569 Z-7.169
X8.896 Y30.511 Z-7.132
X8.895 Y30.462 Z-7.083
X8.894 Y30.425 Z-7.025
Y30.402 Z-6.959
Y30.394 Z-6.89
Z5
X9.514 Y30.382
Z-5.9 F150
Z-7.19
Y30.389 Z-7.259
Y30.412 Z-7.325
X9.515 Y30.449 Z-7.383
X9.516 Y30.498 Z-7.432
X9.517 Y30.557 Z-7.469
X9.519 Y30.622 Z-7.492
X9.52 Y30.691 Z-7.5
X9.526 Y31.001
G3 X9.222 Y31.318 I-0.31 J0.006
X8.082 Y30.2 I-0.022 J-1.118 F300
X10.318 Y30.2 I1.118 J0
X9.222 Y31.318 I-1.118 J0
X8.906 Y31.014 I-0.006 J-0.31
G1 X8.9 Y30.704
X8.899 Y30.635 Z-7.492
X8.897 Y30.569 Z-7.469
X8.896 Y30.511 Z-7.432
X8.895 Y30.462 Z-7.383
X8.894 Y30.425 Z-7.325
Y30.402 Z-7.259
Y30.394 Z-7.19
Z5
X9.514 Y30.382
Z-6.2 F150
Z-7.49
Y30.389 Z-7.559
Y30.412 Z-7.625
X9.515 Y30.449 Z-7.683
X9.516 Y30.498 Z-7.732
X9.517 Y30.557 Z-7.769
X9.519 Y30.622 Z-7.792
X9.52 Y30.691 Z-7.8
X9.526 Y31.001
G3 X9.222 Y31.318 I-0.31 J0.006
X8.082 Y30.2 I-0.022 J-1.118 F300
X10.318 Y30.2 I1.118 J0
X9.222 Y31.318 I-1.118 J0
X8.906 Y31.014 I-0.006 J-0.31
G1 X8.9 Y30.704
X8.899 Y30.635 Z-7.792
X8.897 Y30.569 Z-7.769
X8.896 Y30.511 Z-7.732
X8.895 Y30.462 Z-7.683
X8.894 Y30.425 Z-7.625
Y30.402 Z-7.559
Y30.394 Z-7.49
Z5
X9.514 Y30.382
Z-6.5 F150
Z-7.69
Y30.389 Z-7.759
Y30.412 Z-7.825
X9.515 Y30.449 Z-7.883
X9.516 Y30.498 Z-7.932
X9.517 Y30.557 Z-7.969
X9.519 Y30.622 Z-7.992
X9.52 Y30.691 Z-8
X9.526 Y31.001
G3 X9.222 Y31.318 I-0.31 J0.006
X8.082 Y30.2 I-0.022 J-1.118 F300
X10.318 Y30.2 I1.118 J0
X9.222 Y31.318 I-1.118 J0
X8.906 Y31.014 I-0.006 J-0.31
G1 X8.9 Y30.704
X8.899 Y30.635 Z-7.992
X8.897 Y30.569 Z-7.969
X8.896 Y30.511 Z-7.932
X8.895 Y30.462 Z-7.883
X8.894 Y30.425 Z-7.825
Y30.402 Z-7.759
Y30.394 Z-7.69
Z5
X16.422 Y5.796
Z1.3 F150
Z0.01
X16.43 Y5.799 Z-0.059
X16.452 Y5.805 Z-0.125
X16.488 Y5.815 Z-0.183
X16.535 Y5.828 Z-0.232
X16.591 Y5.844 Z-0.269
X16.655 Y5.861 Z-0.292
X16.721 Y5.88 Z-0.3
X17.019 Y5.964
G3 X17.234 Y6.346 I-0.084 J0.299
X14.766 Y5.654 I-1.234 J-0.346 F300
X17.234 Y6.346 I1.234 J0.346
X16.852 Y6.561 I-0.299 J-0.084
G1 X16.554 Y6.477
X16.487 Y6.458 Z-0.292
X16.424 Y6.441 Z-0.269
X16.368 Y6.425 Z-0.232
X16.32 Y6.412 Z-0.183
X16.285 Y6.402 Z-0.125
X16.263 Y6.396 Z-0.059
X16.255 Y6.393 Z0.01
Z5
X16.422 Y5.796
Z1 F150
Z-0.29
X16.43 Y5.799 Z-0.359
X16.452 Y5.805 Z-0.425
X16.488 Y5.815 Z-0.483
X16.535 Y5.828 Z-0.532
X16.591 Y5.844 Z-0.569
X16.655 Y5.861 Z-0.592
X16.721 Y5.88 Z-0.6
X17.019 Y5.964
G3 X17.234 Y6.346 I-0.084 J0.299
X14.766 Y5.654 I-1.234 J-0.346 F300
X17.234 Y6.346 I1.234 J0.346
X16.852 Y6.561 I-0.299 J-0.084
G1 X16.554 Y6.477
X16.487 Y6.458 Z-0.592
X16.424 Y6.441 Z-0.569
X16.368 Y6.425 Z-0.532
X16.32 Y6.412 Z-0.483
X16.285 Y6.402 Z-0.425
X16.263 Y6.396 Z-0.359
X16.255 Y6.393 Z-0.29
Z5
X16.422 Y5.796
Z0.7 F150
Z-0.59
X16.43 Y5.799 Z-0.659
X16.452 Y5.805 Z-0.725
X16.488 Y5.815 Z-0.783
X16.535 Y5.828 Z-0.832
X16.591 Y5.844 Z-0.869
X16.655 Y5.861 Z-0.892
X16.721 Y5.88 Z-0.9
X17.019 Y5.964
G3 X17.234 Y6.346 I-0.084 J0.299
X14.766 Y5.654 I-1.234 J-0.346 F300
X17.234 Y6.346 I1.234 J0.346
X16.852 Y6.561 I-0.299 J-0.084
G1 X16.554 Y6.477
X16.487 Y6.458 Z-0.892
X16.424 Y6.441 Z-0.869
X16.368 Y6.425 Z-0.832
X16.32 Y6.412 Z-0.783
X16.285 Y6.402 Z-0.725
X16.263 Y6.396 Z-0.659
X16.255 Y6.393 Z-0.59
Z5
X16.422 Y5.796
Z0.4 F150
Z-0.89
X16.43 Y5.799 Z-0.959
X16.452 Y5.805 Z-1.025
X16.488 Y5.815 Z-1.083
X16.535 Y5.828 Z-1.132
X16.591 Y5.844 Z-1.169
X16.655 Y5.861 Z-1.192
X16.721 Y5.88 Z-1.2
X17.019 Y5.964
G3 X17.234 Y6.346 I-0.084 J0.299
X14.766 Y5.654 I-1.234 J-0.346 F300
X17.234 Y6.346 I1.234 J0.346
X16.852 Y6.561 I-0.299 J-0.084
G1 X16.554 Y6.477
X16.487 Y6.458 Z-1.192
X16.424 Y6.441 Z-1.169
X16.368 Y6.425 Z-1.132
X16.32 Y6.412 Z-1.083
X16.285 Y6.402 Z-1.025
X16.263 Y6.396 Z-0.959
X16.255 Y6.393 Z-0.89
Z5
X16.422 Y5.796
Z0.1 F150
Z-1.19
X16.43 Y5.799 Z-1.259
X16.452 Y5.805 Z-1.325
X16.488 Y5.815 Z-1.383
X16.535 Y5.828 Z-1.432
X16.591 Y5.844 Z-1.469
X16.655 Y5.861 Z-1.492
X16.721 Y5.88 Z-1.5
X17.019 Y5.964
G3 X17.234 Y6.346 I-0.084 J0.299
X14.766 Y5.654 I-1.234 J-0.346 F300
X17.234 Y6.346 I1.234 J0.346
X16.852 Y6.561 I-0.299 J-0.084
G1 X16.554 Y6.477
X16.487 Y6.458 Z-1.492
X16.424 Y6.441 Z-1.469
X16.368 Y6.425 Z-1.432
X16.32 Y6.412 Z-1.383
X16.285 Y6.402 Z-1.325
X16.263 Y6.396 Z-1.259
X16.255 Y6.393 Z-1.19
Z5
X16.422 Y5.796
Z-0.2 F150
Z-1.49
X16.43 Y5.799 Z-1.559
X16.452 Y5.805 Z-1.625
X16.488 Y5.815 Z-1.683
X16.535 Y5.828 Z-1.732
X16.591 Y5.844 Z-1.769
X16.655 Y5.861 Z-1.792
X16.721 Y5.88 Z-1.8
X17.019 Y5.964
G3 X17.234 Y6.346 I-0.084 J0.299
X14.766 Y5.654 I-1.234 J-0.346 F300
X17.234 Y6.346 I1.234 J0.346
X16.852 Y6.561 I-0.299 J-0.084
G1 X16.554 Y6.477
X16.487 Y6.458 Z-1.792
X16.424 Y6.441 Z-1.769
X16.368 Y6.425 Z-1.732
X16.32 Y6.412 Z-1.683
X16.285 Y6.402 Z-1.625
X16.263 Y6.396 Z-1.559
X16.255 Y6.393 Z-1.49
Z5
X16.422 Y5.796
Z-0.5 F150
Z-1.79
X16.43 Y5.799 Z-1.859
X16.452 Y5.805 Z-1.925
X16.488 Y5.815 Z-1.983
X16.535 Y5.828 Z-2.032
X16.591 Y5.844 Z-2.069
X16.655 Y5.861 Z-2.092
X16.721 Y5.88 Z-2.1
X17.019 Y5.964
G3 X17.234 Y6.346 I-0.084 J0.299
X14.766 Y5.654 I-1.234 J-0.346 F300
X17.234 Y6.346 I1.234 J0.346
X16.852 Y6.561 I-0.299 J-0.084
G1 X16.554 Y6.477
X16.487 Y6.458 Z-2.092
X16.424 Y6.441 Z-2.069
X16.368 Y6.425 Z-2.032
X16.32 Y6.412 Z-1.983
X16.285 Y6.402 Z-1.925
X16.263 Y6.396 Z-1.859
X16.255 Y6.393 Z-1.79
Z5
X16.422 Y5.796
Z-0.8 F150
Z-2.09
X16.43 Y5.799 Z-2.159
X16.452 Y5.805 Z-2.225
X16.488 Y5.815 Z-2.283
X16.535 Y5.828 Z-2.332
X16.591 Y5.844 Z-2.369
X16.655 Y5.861 Z-2.392
X16.721 Y5.88 Z-2.4
X17.019 Y5.964
G3 X17.234 Y6.346 I-0.084 J0.299
X14.766 Y5.654 I-1.234 J-0.346 F300
X17.234 Y6.346 I1.234 J0.346
X16.852 Y6.561 I-0.299 J-0.084
G1 X16.554 Y6.477
X16.487 Y6.458 Z-2.392
X16.424 Y6.441 Z-2.369
X16.368 Y6.425 Z-2.332
X16.32 Y6.412 Z-2.283
X16.285 Y6.402 Z-2.225
X16.263 Y6.396 Z-2.159
X16.255 Y6.393 Z-2.09
Z5
X16.422 Y5.796
Z-1.1 F150
Z-2.39
X16.43 Y5.799 Z-2.459
X16.452 Y5.805 Z-2.525
X16.488 Y5.815 Z-2.583
X16.535 Y5.828 Z-2.632
X16.591 Y5.844 Z-2.669
X16.655 Y5.861 Z-2.692
X16.721 Y5.88 Z-2.7
X17.019 Y5.964
G3 X17.234 Y6.346 I-0.084 J0.299
X14.766 Y5.654 I-1.234 J-0.346 F300
X17.234 Y6.346 I1.234 J0.346
X16.852 Y6.561 I-0.299 J-0.084
G1 X16.554 Y6.477
X16.487 Y6.458 Z-2.692
X16.424 Y6.441 Z-2.669
X16.368 Y6.425 Z-2.632
X16.32 Y6.412 Z-2.583
X16.285 Y6.402 Z-2.525
X16.263 Y6.396 Z-2.459
X16.255 Y6.393 Z-2.39
Z5
X16.422 Y5.796
Z-1.4 F150
Z-2.69
X16.43 Y5.799 Z-2.759
X16.452 Y5.805 Z-2.825
X16.488 Y5.815 Z-2.883
X16.535 Y5.828 Z-2.932
X16.591 Y5.844 Z-2.969
X16.655 Y5.861 Z-2.992
X16.721 Y5.88 Z-3
X17.019 Y5.964
G3 X17.234 Y6.346 I-0.084 J0.299
X14.766 Y5.654 I-1.234 J-0.346 F300
X17.234 Y6.346 I1.234 J0.346
X16.852 Y6.561 I-0.299 J-0.084
G1 X16.554 Y6.477
X16.487 Y6.458 Z-2.992
X16.424 Y6.441 Z-2.969
X16.368 Y6.425 Z-2.932
X16.32 Y6.412 Z-2.883
X16.285 Y6.402 Z-2.825
X16.263 Y6.396 Z-2.759
X16.255 Y6.393 Z-2.69
Z5
X16.422 Y5.796
Z-1.7 F150
Z-2.99
X16.43 Y5.799 Z-3.059
X16.452 Y5.805 Z-3.125
X16.488 Y5.815 Z-3.183
X16.535 Y5.828 Z-3.232
X16.591 Y5.844 Z-3.269
X16.655 Y5.861 Z-3.292
X16.721 Y5.88 Z-3.3
X17.019 Y5.964
G3 X17.234 Y6.346 I-0.084 J0.299
X14.766 Y5.654 I-1.234 J-0.346 F300
X17.234 Y6.346 I1.234 J0.346
X16.852 Y6.561 I-0.299 J-0.084
G1 X16.554 Y6.477
X16.487 Y6.458 Z-3.292
X16.424 Y6.441 Z-3.269
X16.368 Y6.425 Z-3.232
X16.32 Y6.412 Z-3.183
X16.285 Y6.402 Z-3.125
X16.263 Y6.396 Z-3.059
X16.255 Y6.393 Z-2.99
Z5
X16.422 Y5.796
Z-2 F150
Z-3.29
X16.43 Y5.799 Z-3.359
X16.452 Y5.805 Z-3.425
X16.488 Y5.815 Z-3.483
X16.535 Y5.828 Z-3.532
X16.591 Y5.844 Z-3.569
X16.655 Y5.861 Z-3.592
X16.721 Y5.88 Z-3.6
X17.019 Y5.964
G3 X17.234 Y6.346 I-0.084 J0.299
X14.766 Y5.654 I-1.234 J-0.346 F300
X17.234 Y6.346 I1.234 J0.346
X16.852 Y6.561 I-0.299 J-0.084
G1 X16.554 Y6.477
X16.487 Y6.458 Z-3.592
X16.424 Y6.441 Z-3.569
X16.368 Y6.425 Z-3.532
X16.32 Y6.412 Z-3.483
X16.285 Y6.402 Z-3.425
X16.263 Y6.396 Z-3.359
X16.255 Y6.393 Z-3.29
Z5
X16.422 Y5.796
Z-2.3 F150
Z-3.59
X16.43 Y5.799 Z-3.659
X16.452 Y5.805 Z-3.725
X16.488 Y5.815 Z-3.783
X16.535 Y5.828 Z-3.832
X16.591 Y5.844 Z-3.869
X16.655 Y5.861 Z-3.892
X16.721 Y5.88 Z-3.9
X17.019 Y5.964
G3 X17.234 Y6.346 I-0.084 J0.299
X14.766 Y5.654 I-1.234 J-0.346 F300
X17.234 Y6.346 I1.234 J0.346
X16.852 Y6.561 I-0.299 J-0.084
G1 X16.554 Y6.477
X16.487 Y6.458 Z-3.892
X16.424 Y6.441 Z-3.869
X16.368 Y6.425 Z-3.832
X16.32 Y6.412 Z-3.783
X16.285 Y6.402 Z-3.725
X16.263 Y6.396 Z-3.659
X16.255 Y6.393 Z-3.59
Z5
X16.422 Y5.796
Z-2.6 F150
Z-3.89
X16.43 Y5.799 Z-3.959
X16.452 Y5.805 Z-4.025
X16.488 Y5.815 Z-4.083
X16.535 Y5.828 Z-4.132
X16.591 Y5.844 Z-4.169
X16.655 Y5.861 Z-4.192
X16.721 Y5.88 Z-4.2
X17.019 Y5.964
G3 X17.234 Y6.346 I-0.084 J0.299
X14.766 Y5.654 I-1.234 J-0.346 F300
X17.234 Y6.346 I1.234 J0.346
X16.852 Y6.561 I-0.299 J-0.084
G1 X16.554 Y6.477
X16.487 Y6.458 Z-4.192
X16.424 Y6.441 Z-4.169
X16.368 Y6.425 Z-4.132
X16.32 Y6.412 Z-4.083
X16.285 Y6.402 Z-4.025
X16.263 Y6.396 Z-3.959
X16.255 Y6.393 Z-3.89
Z5
X16.422 Y5.796
Z-2.9 F150
Z-4.19
X16.43 Y5.799 Z-4.259
X16.452 Y5.805 Z-4.325
X16.488 Y5.815 Z-4.383
X16.535 Y5.828 Z-4.432
X16.591 Y5.844 Z-4.469
X16.655 Y5.861 Z-4.492
X16.721 Y5.88 Z-4.5
X17.019 Y5.964
G3 X17.234 Y6.346 I-0.084 J0.299
X14.766 Y5.654 I-1.234 J-0.346 F300
X17.234 Y6.346 I1.234 J0.346
X16.852 Y6.561 I-0.299 J-0.084
G1 X16.554 Y6.477
X16.487 Y6.458 Z-4.492
X16.424 Y6.441 Z-4.469
X16.368 Y6.425 Z-4.432
X16.32 Y6.412 Z-4.383
X16.285 Y6.402 Z-4.325
X16.263 Y6.396 Z-4.259
X16.255 Y6.393 Z-4.19
Z5
X16.422 Y5.796
Z-3.2 F150
Z-4.49
X16.43 Y5.799 Z-4.559
X16.452 Y5.805 Z-4.625
X16.488 Y5.815 Z-4.683
X16.535 Y5.828 Z-4.732
X16.591 Y5.844 Z-4.769
X16.655 Y5.861 Z-4.792
X16.721 Y5.88 Z-4.8
X17.019 Y5.964
G3 X17.234 Y6.346 I-0.084 J0.299
X14.766 Y5.654 I-1.234 J-0.346 F300
X17.234 Y6.346 I1.234 J0.346
X16.852 Y6.561 I-0.299 J-0.084
G1 X16.554 Y6.477
X16.487 Y6.458 Z-4.792
X16.424 Y6.441 Z-4.769
X16.368 Y6.425 Z-4.732
X16.32 Y6.412 Z-4.683
X16.285 Y6.402 Z-4.625
X16.263 Y6.396 Z-4.559
X16.255 Y6.393 Z-4.49
Z5
X16.422 Y5.796
Z-3.5 F150
Z-4.79
X16.43 Y5.799 Z-4.859
X16.452 Y5.805 Z-4.925
X16.488 Y5.815 Z-4.983
X16.535 Y5.828 Z-5.032
X16.591 Y5.844 Z-5.069
X16.655 Y5.861 Z-5.092
X16.721 Y5.88 Z-5.1
X17.019 Y5.964
G3 X17.234 Y6.346 I-0.084 J0.299
X14.766 Y5.654 I-1.234 J-0.346 F300
X17.234 Y6.346 I1.234 J0.346
X16.852 Y6.561 I-0.299 J-0.084
G1 X16.554 Y6.477
X16.487 Y6.458 Z-5.092
X16.424 Y6.441 Z-5.069
X16.368 Y6.425 Z-5.032
X16.32 Y6.412 Z-4.983
X16.285 Y6.402 Z-4.925
X16.263 Y6.396 Z-4.859
X16.255 Y6.393 Z-4.79
Z5
X16.422 Y5.796
Z-3.8 F150
Z-5.09
X16.43 Y5.799 Z-5.159
X16.452 Y5.805 Z-5.225
X16.488 Y5.815 Z-5.283
X16.535 Y5.828 Z-5.332
X16.591 Y5.844 Z-5.369
X16.655 Y5.861 Z-5.392
X16.721 Y5.88 Z-5.4
X17.019 Y5.964
G3 X17.234 Y6.346 I-0.084 J0.299
X14.766 Y5.654 I-1.234 J-0.346 F300
X17.234 Y6.346 I1.234 J0.346
X16.852 Y6.561 I-0.299 J-0.084
G1 X16.554 Y6.477
X16.487 Y6.458 Z-5.392
X16.424 Y6.441 Z-5.369
X16.368 Y6.425 Z-5.332
X16.32 Y6.412 Z-5.283
X16.285 Y6.402 Z-5.225
X16.263 Y6.396 Z-5.159
X16.255 Y6.393 Z-5.09
Z5
X16.422 Y5.796
Z-4.1 F150
Z-5.39
X16.43 Y5.799 Z-5.459
X16.452 Y5.805 Z-5.525
X16.488 Y5.815 Z-5.583
X16.535 Y5.828 Z-5.632
X16.591 Y5.844 Z-5.669
X16.655 Y5.861 Z-5.692
X16.721 Y5.88 Z-5.7
X17.019 Y5.964
G3 X17.234 Y6.346 I-0.084 J0.299
X14.766 Y5.654 I-1.234 J-0.346 F300
X17.234 Y6.346 I1.234 J0.346
X16.852 Y6.561 I-0.299 J-0.084
G1 X16.554 Y6.477
X16.487 Y6.458 Z-5.692
X16.424 Y6.441 Z-5.669
X16.368 Y6.425 Z-5.632
X16.32 Y6.412 Z-5.583
X16.285 Y6.402 Z-5.525
X16.263 Y6.396 Z-5.459
X16.255 Y6.393 Z-5.39
Z5
X16.422 Y5.796
Z-4.4 F150
Z-5.69
X16.43 Y5.799 Z-5.759
X16.452 Y5.805 Z-5.825
X16.488 Y5.815 Z-5.883
X16.535 Y5.828 Z-5.932
X16.591 Y5.844 Z-5.969
X16.655 Y5.861 Z-5.992
X16.721 Y5.88 Z-6
X17.019 Y5.964
G3 X17.234 Y6.346 I-0.084 J0.299
X14.766 Y5.654 I-1.234 J-0.346 F300
X17.234 Y6.346 I1.234 J0.346
X16.852 Y6.561 I-0.299 J-0.084
G1 X16.554 Y6.477
X16.487 Y6.458 Z-5.992
X16.424 Y6.441 Z-5.969
X16.368 Y6.425 Z-5.932
X16.32 Y6.412 Z-5.883
X16.285 Y6.402 Z-5.825
X16.263 Y6.396 Z-5.759
X16.255 Y6.393 Z-5.69
Z5
X16.422 Y5.796
Z-4.7 F150
Z-5.99
X16.43 Y5.799 Z-6.059
X16.452 Y5.805 Z-6.125
X16.488 Y5.815 Z-6.183
X16.535 Y5.828 Z-6.232
X16.591 Y5.844 Z-6.269
X16.655 Y5.861 Z-6.292
X16.721 Y5.88 Z-6.3
X17.019 Y5.964
G3 X17.234 Y6.346 I-0.084 J0.299
X14.766 Y5.654 I-1.234 J-0.346 F300
X17.234 Y6.346 I1.234 J0.346
X16.852 Y6.561 I-0.299 J-0.084
G1 X16.554 Y6.477
X16.487 Y6.458 Z-6.292
X16.424 Y6.441 Z-6.269
X16.368 Y6.425 Z-6.232
X16.32 Y6.412 Z-6.183
X16.285 Y6.402 Z-6.125
X16.263 Y6.396 Z-6.059
X16.255 Y6.393 Z-5.99
Z5
X16.422 Y5.796
Z-5 F150
Z-6.29
X16.43 Y5.799 Z-6.359
X16.452 Y5.805 Z-6.425
X16.488 Y5.815 Z-6.483
X16.535 Y5.828 Z-6.532
X16.591 Y5.844 Z-6.569
X16.655 Y5.861 Z-6.592
X16.721 Y5.88 Z-6.6
X17.019 Y5.964
G3 X17.234 Y6.346 I-0.084 J0.299
X14.766 Y5.654 I-1.234 J-0.346 F300
X17.234 Y6.346 I1.234 J0.346
X16.852 Y6.561 I-0.299 J-0.084
G1 X16.554 Y6.477
X16.487 Y6.458 Z-6.592
X16.424 Y6.441 Z-6.569
X16.368 Y6.425 Z-6.532
X16.32 Y6.412 Z-6.483
X16.285 Y6.402 Z-6.425
X16.263 Y6.396 Z-6.359
X16.255 Y6.393 Z-6.29
Z5
X16.422 Y5.796
Z-5.3 F150
Z-6.59
X16.43 Y5.799 Z-6.659
X16.452 Y5.805 Z-6.725
X16.488 Y5.815 Z-6.783
X16.535 Y5.828 Z-6.832
X16.591 Y5.844 Z-6.869
X16.655 Y5.861 Z-6.892
X16.721 Y5.88 Z-6.9
X17.019 Y5.964
G3 X17.234 Y6.346 I-0.084 J0.299
X14.766 Y5.654 I-1.234 J-0.346 F300
X17.234 Y6.346 I1.234 J0.346
X16.852 Y6.561 I-0.299 J-0.084
G1 X16.554 Y6.477
X16.487 Y6.458 Z-6.892
X16.424 Y6.441 Z-6.869
X16.368 Y6.425 Z-6.832
X16.32 Y6.412 Z-6.783
X16.285 Y6.402 Z-6.725
X16.263 Y6.396 Z-6.659
X16.255 Y6.393 Z-6.59
Z5
X16.422 Y5.796
Z-5.6 F150
Z-6.89
X16.43 Y5.799 Z-6.959
X16.452 Y5.805 Z-7.025
X16.488 Y5.815 Z-7.083
X16.535 Y5.828 Z-7.132
X16.591 Y5.844 Z-7.169
X16.655 Y5.861 Z-7.192
X16.721 Y5.88 Z-7.2
X17.019 Y5.964
G3 X17.234 Y6.346 I-0.084 J0.299
X14.766 Y5.654 I-1.234 J-0.346 F300
X17.234 Y6.346 I1.234 J0.346
X16.852 Y6.561 I-0.299 J-0.084
G1 X16.554 Y6.477
X16.487 Y6.458 Z-7.192
X16.424 Y6.441 Z-7.169
X16.368 Y6.425 Z-7.132
X16.32 Y6.412 Z-7.083
X16.285 Y6.402 Z-7.025
X16.263 Y6.396 Z-6.959
X16.255 Y6.393 Z-6.89
Z5
X16.422 Y5.796
Z-5.9 F150
Z-7.19
X16.43 Y5.799 Z-7.259
X16.452 Y5.805 Z-7.325
X16.488 Y5.815 Z-7.383
X16.535 Y5.828 Z-7.432
X16.591 Y5.844 Z-7.469
X16.655 Y5.861 Z-7.492
X16.721 Y5.88 Z-7.5
X17.019 Y5.964
G3 X17.234 Y6.346 I-0.084 J0.299
X14.766 Y5.654 I-1.234 J-0.346 F300
X17.234 Y6.346 I1.234 J0.346
X16.852 Y6.561 I-0.299 J-0.084
G1 X16.554 Y6.477
X16.487 Y6.458 Z-7.492
X16.424 Y6.441 Z-7.469
X16.368 Y6.425 Z-7.432
X16.32 Y6.412 Z-7.383
X16.285 Y6.402 Z-7.325
X16.263 Y6.396 Z-7.259
X16.255 Y6.393 Z-7.19
Z5
X16.422 Y5.796
Z-6.2 F150
Z-7.49
X16.43 Y5.799 Z-7.559
X16.452 Y5.805 Z-7.625
X16.488 Y5.815 Z-7.683
X16.535 Y5.828 Z-7.732
X16.591 Y5.844 Z-7.769
X16.655 Y5.861 Z-7.792
X16.721 Y5.88 Z-7.8
X17.019 Y5.964
G3 X17.234 Y6.346 I-0.084 J0.299
X14.766 Y5.654 I-1.234 J-0.346 F300
X17.234 Y6.346 I1.234 J0.346
X16.852 Y6.561 I-0.299 J-0.084
G1 X16.554 Y6.477
X16.487 Y6.458 Z-7.792
X16.424 Y6.441 Z-7.769
X16.368 Y6.425 Z-7.732
X16.32 Y6.412 Z-7.683
X16.285 Y6.402 Z-7.625
X16.263 Y6.396 Z-7.559
X16.255 Y6.393 Z-7.49
Z5
X16.422 Y5.796
Z-6.5 F150
Z-7.69
X16.43 Y5.799 Z-7.759
X16.452 Y5.805 Z-7.825
X16.488 Y5.815 Z-7.883
X16.535 Y5.828 Z-7.932
X16.591 Y5.844 Z-7.969
X16.655 Y5.861 Z-7.992
X16.721 Y5.88 Z-8
X17.019 Y5.964
G3 X17.234 Y6.346 I-0.084 J0.299
X14.766 Y5.654 I-1.234 J-0.346 F300
X17.234 Y6.346 I1.234 J0.346
X16.852 Y6.561 I-0.299 J-0.084
G1 X16.554 Y6.477
X16.487 Y6.458 Z-7.992
X16.424 Y6.441 Z-7.969
X16.368 Y6.425 Z-7.932
X16.32 Y6.412 Z-7.883
X16.285 Y6.402 Z-7.825
X16.263 Y6.396 Z-7.759
X16.255 Y6.393 Z-7.69
Z5
X36.352 Y5.69
Z1.3 F150
Z0.01
G18 G2 X36.662 Z-0.3 I0.31 K0
G1 X36.972
G17 G3 X37.282 Y6 I0 J0.31
X34.718 Y6 I-1.282 J0 F300
X37.282 Y6 I1.282 J0
X36.972 Y6.31 I-0.31 J0
G1 X36.662
G18 G3 X36.352 Z0.01 I0 K0.31
G1 Z5
Y5.69
Z1 F150
Z-0.29
G2 X36.662 Z-0.6 I0.31 K0
G1 X36.972
G17 G3 X37.282 Y6 I0 J0.31
X34.718 Y6 I-1.282 J0 F300
X37.282 Y6 I1.282 J0
X36.972 Y6.31 I-0.31 J0
G1 X36.662
G18 G3 X36.352 Z-0.29 I0 K0.31
G1 Z5
Y5.69
Z0.7 F150
Z-0.59
G2 X36.662 Z-0.9 I0.31 K0
G1 X36.972
G17 G3 X37.282 Y6 I0 J0.31
X34.718 Y6 I-1.282 J0 F300
X37.282 Y6 I1.282 J0
X36.972 Y6.31 I-0.31 J0
G1 X36.662
G18 G3 X36.352 Z-0.59 I0 K0.31
G1 Z5
Y5.69
Z0.4 F150
Z-0.89
G2 X36.662 Z-1.2 I0.31 K0
G1 X36.972
G17 G3 X37.282 Y6 I0 J0.31
X34.718 Y6 I-1.282 J0 F300
X37.282 Y6 I1.282 J0
X36.972 Y6.31 I-0.31 J0
G1 X36.662
G18 G3 X36.352 Z-0.89 I0 K0.31
G1 Z5
Y5.69
Z0.1 F150
Z-1.19
G2 X36.662 Z-1.5 I0.31 K0
G1 X36.972
G17 G3 X37.282 Y6 I0 J0.31
X34.718 Y6 I-1.282 J0 F300
X37.282 Y6 I1.282 J0
X36.972 Y6.31 I-0.31 J0
G1 X36.662
G18 G3 X36.352 Z-1.19 I0 K0.31
G1 Z5
Y5.69
Z-0.2 F150
Z-1.49
G2 X36.662 Z-1.8 I0.31 K0
G1 X36.972
G17 G3 X37.282 Y6 I0 J0.31
X34.718 Y6 I-1.282 J0 F300
X37.282 Y6 I1.282 J0
X36.972 Y6.31 I-0.31 J0
G1 X36.662
G18 G3 X36.352 Z-1.49 I0 K0.31
G1 Z5
Y5.69
Z-0.5 F150
Z-1.79
G2 X36.662 Z-2.1 I0.31 K0
G1 X36.972
G17 G3 X37.282 Y6 I0 J0.31
X34.718 Y6 I-1.282 J0 F300
X37.282 Y6 I1.282 J0
X36.972 Y6.31 I-0.31 J0
G1 X36.662
G18 G3 X36.352 Z-1.79 I0 K0.31
G1 Z5
Y5.69
Z-0.8 F150
Z-2.09
G2 X36.662 Z-2.4 I0.31 K0
G1 X36.972
G17 G3 X37.282 Y6 I0 J0.31
X34.718 Y6 I-1.282 J0 F300
X37.282 Y6 I1.282 J0
X36.972 Y6.31 I-0.31 J0
G1 X36.662
G18 G3 X36.352 Z-2.09 I0 K0.31
G1 Z5
Y5.69
Z-1.1 F150
Z-2.39
G2 X36.662 Z-2.7 I0.31 K0
G1 X36.972
G17 G3 X37.282 Y6 I0 J0.31
X34.718 Y6 I-1.282 J0 F300
X37.282 Y6 I1.282 J0
X36.972 Y6.31 I-0.31 J0
G1 X36.662
G18 G3 X36.352 Z-2.39 I0 K0.31
G1 Z5
Y5.69
Z-1.4 F150
Z-2.69
G2 X36.662 Z-3 I0.31 K0
G1 X36.972
G17 G3 X37.282 Y6 I0 J0.31
X34.718 Y6 I-1.282 J0 F300
X37.282 Y6 I1.282 J0
X36.972 Y6.31 I-0.31 J0
G1 X36.662
G18 G3 X36.352 Z-2.69 I0 K0.31
G1 Z5
Y5.69
Z-1.7 F150
Z-2.99
G2 X36.662 Z-3.3 I0.31 K0
G1 X36.972
G17 G3 X37.282 Y6 I0 J0.31
X34.718 Y6 I-1.282 J0 F300
X37.282 Y6 I1.282 J0
X36.972 Y6.31 I-0.31 J0
G1 X36.662
G18 G3 X36.352 Z-2.99 I0 K0.31
G1 Z5
Y5.69
Z-2 F150
Z-3.29
G2 X36.662 Z-3.6 I0.31 K0
G1 X36.972
G17 G3 X37.282 Y6 I0 J0.31
X34.718 Y6 I-1.282 J0 F300
X37.282 Y6 I1.282 J0
X36.972 Y6.31 I-0.31 J0
G1 X36.662
G18 G3 X36.352 Z-3.29 I0 K0.31
G1 Z5
Y5.69
Z-2.3 F150
Z-3.59
G2 X36.662 Z-3.9 I0.31 K0
G1 X36.972
G17 G3 X37.282 Y6 I0 J0.31
X34.718 Y6 I-1.282 J0 F300
X37.282 Y6 I1.282 J0
X36.972 Y6.31 I-0.31 J0
G1 X36.662
G18 G3 X36.352 Z-3.59 I0 K0.31
G1 Z5
Y5.69
Z-2.6 F150
Z-3.89
G2 X36.662 Z-4.2 I0.31 K0
G1 X36.972
G17 G3 X37.282 Y6 I0 J0.31
X34.718 Y6 I-1.282 J0 F300
X37.282 Y6 I1.282 J0
X36.972 Y6.31 I-0.31 J0
G1 X36.662
G18 G3 X36.352 Z-3.89 I0 K0.31
G1 Z5
Y5.69
Z-2.9 F150
Z-4.19
G2 X36.662 Z-4.5 I0.31 K0
G1 X36.972
G17 G3 X37.282 Y6 I0 J0.31
X34.718 Y6 I-1.282 J0 F300
X37.282 Y6 I1.282 J0
X36.972 Y6.31 I-0.31 J0
G1 X36.662
G18 G3 X36.352 Z-4.19 I0 K0.31
G1 Z5
Y5.69
Z-3.2 F150
Z-4.49
G2 X36.662 Z-4.8 I0.31 K0
G1 X36.972
G17 G3 X37.282 Y6 I0 J0.31
X34.718 Y6 I-1.282 J0 F300
X37.282 Y6 I1.282 J0
X36.972 Y6.31 I-0.31 J0
G1 X36.662
G18 G3 X36.352 Z-4.49 I0 K0.31
G1 Z5
Y5.69
Z-3.5 F150
Z-4.79
G2 X36.662 Z-5.1 I0.31 K0
G1 X36.972
G17 G3 X37.282 Y6 I0 J0.31
X34.718 Y6 I-1.282 J0 F300
X37.282 Y6 I1.282 J0
X36.972 Y6.31 I-0.31 J0
G1 X36.662
G18 G3 X36.352 Z-4.79 I0 K0.31
G1 Z5
Y5.69
Z-3.8 F150
Z-5.09
G2 X36.662 Z-5.4 I0.31 K0
G1 X36.972
G17 G3 X37.282 Y6 I0 J0.31
X34.718 Y6 I-1.282 J0 F300
X37.282 Y6 I1.282 J0
X36.972 Y6.31 I-0.31 J0
G1 X36.662
G18 G3 X36.352 Z-5.09 I0 K0.31
G1 Z5
Y5.69
Z-4.1 F150
Z-5.39
G2 X36.662 Z-5.7 I0.31 K0
G1 X36.972
G17 G3 X37.282 Y6 I0 J0.31
X34.718 Y6 I-1.282 J0 F300
X37.282 Y6 I1.282 J0
X36.972 Y6.31 I-0.31 J0
G1 X36.662
G18 G3 X36.352 Z-5.39 I0 K0.31
G1 Z5
Y5.69
Z-4.4 F150
Z-5.69
G2 X36.662 Z-6 I0.31 K0
G1 X36.972
G17 G3 X37.282 Y6 I0 J0.31
X34.718 Y6 I-1.282 J0 F300
X37.282 Y6 I1.282 J0
X36.972 Y6.31 I-0.31 J0
G1 X36.662
G18 G3 X36.352 Z-5.69 I0 K0.31
G1 Z5
Y5.69
Z-4.7 F150
Z-5.99
G2 X36.662 Z-6.3 I0.31 K0
G1 X36.972
G17 G3 X37.282 Y6 I0 J0.31
X34.718 Y6 I-1.282 J0 F300
X37.282 Y6 I1.282 J0
X36.972 Y6.31 I-0.31 J0
G1 X36.662
G18 G3 X36.352 Z-5.99 I0 K0.31
G1 Z5
Y5.69
Z-5 F150
Z-6.29
G2 X36.662 Z-6.6 I0.31 K0
G1 X36.972
G17 G3 X37.282 Y6 I0 J0.31
X34.718 Y6 I-1.282 J0 F300
X37.282 Y6 I1.282 J0
X36.972 Y6.31 I-0.31 J0
G1 X36.662
G18 G3 X36.352 Z-6.29 I0 K0.31
G1 Z5
Y5.69
Z-5.3 F150
Z-6.59
G2 X36.662 Z-6.9 I0.31 K0
G1 X36.972
G17 G3 X37.282 Y6 I0 J0.31
X34.718 Y6 I-1.282 J0 F300
X37.282 Y6 I1.282 J0
X36.972 Y6.31 I-0.31 J0
G1 X36.662
G18 G3 X36.352 Z-6.59 I0 K0.31
G1 Z5
Y5.69
Z-5.6 F150
Z-6.89
G2 X36.662 Z-7.2 I0.31 K0
G1 X36.972
G17 G3 X37.282 Y6 I0 J0.31
X34.718 Y6 I-1.282 J0 F300
X37.282 Y6 I1.282 J0
X36.972 Y6.31 I-0.31 J0
G1 X36.662
G18 G3 X36.352 Z-6.89 I0 K0.31
G1 Z5
Y5.69
Z-5.9 F150
Z-7.19
G2 X36.662 Z-7.5 I0.31 K0
G1 X36.972
G17 G3 X37.282 Y6 I0 J0.31
X34.718 Y6 I-1.282 J0 F300
X37.282 Y6 I1.282 J0
X36.972 Y6.31 I-0.31 J0
G1 X36.662
G18 G3 X36.352 Z-7.19 I0 K0.31
G1 Z5
Y5.69
Z-6.2 F150
Z-7.49
G2 X36.662 Z-7.8 I0.31 K0
G1 X36.972
G17 G3 X37.282 Y6 I0 J0.31
X34.718 Y6 I-1.282 J0 F300
X37.282 Y6 I1.282 J0
X36.972 Y6.31 I-0.31 J0
G1 X36.662
G18 G3 X36.352 Z-7.49 I0 K0.31
G1 Z5
Y5.69
Z-6.5 F150
Z-7.69
G2 X36.662 Z-8 I0.31 K0
G1 X36.972
G17 G3 X37.282 Y6 I0 J0.31
X34.718 Y6 I-1.282 J0 F300
X37.282 Y6 I1.282 J0
X36.972 Y6.31 I-0.31 J0
G1 X36.662
G18 G3 X36.352 Z-7.69 I0 K0.31
G1 Z5
X41.388 Y29.89
Z1.3 F150
Z0.01
G2 X41.698 Z-0.3 I0.31 K0
G1 X42.008
G17 G3 X42.318 Y30.2 I0 J0.31
X40.082 Y30.2 I-1.118 J0 F300
X42.318 Y30.2 I1.118 J0
X42.008 Y30.51 I-0.31 J0
G1 X41.698
G18 G3 X41.388 Z0.01 I0 K0.31
G1 Z5
Y29.89
Z1 F150
Z-0.29
G2 X41.698 Z-0.6 I0.31 K0
G1 X42.008
G17 G3 X42.318 Y30.2 I0 J0.31
X40.082 Y30.2 I-1.118 J0 F300
X42.318 Y30.2 I1.118 J0
X42.008 Y30.51 I-0.31 J0
G1 X41.698
G18 G3 X41.388 Z-0.29 I0 K0.31
G1 Z5
Y29.89
Z0.7 F150
Z-0.59
G2 X41.698 Z-0.9 I0.31 K0
G1 X42.008
G17 G3 X42.318 Y30.2 I0 J0.31
X40.082 Y30.2 I-1.118 J0 F300
X42.318 Y30.2 I1.118 J0
X42.008 Y30.51 I-0.31 J0
G1 X41.698
G18 G3 X41.388 Z-0.59 I0 K0.31
G1 Z5
Y29.89
Z0.4 F150
Z-0.89
G2 X41.698 Z-1.2 I0.31 K0
G1 X42.008
G17 G3 X42.318 Y30.2 I0 J0.31
X40.082 Y30.2 I-1.118 J0 F300
X42.318 Y30.2 I1.118 J0
X42.008 Y30.51 I-0.31 J0
G1 X41.698
G18 G3 X41.388 Z-0.89 I0 K0.31
G1 Z5
Y29.89
Z0.1 F150
Z-1.19
G2 X41.698 Z-1.5 I0.31 K0
G1 X42.008
G17 G3 X42.318 Y30.2 I0 J0.31
X40.082 Y30.2 I-1.118 J0 F300
X42.318 Y30.2 I1.118 J0
X42.008 Y30.51 I-0.31 J0
G1 X41.698
G18 G3 X41.388 Z-1.19 I0 K0.31
G1 Z5
Y29.89
Z-0.2 F150
Z-1.49
G2 X41.698 Z-1.8 I0.31 K0
G1 X42.008
G17 G3 X42.318 Y30.2 I0 J0.31
X40.082 Y30.2 I-1.118 J0 F300
X42.318 Y30.2 I1.118 J0
X42.008 Y30.51 I-0.31 J0
G1 X41.698
G18 G3 X41.388 Z-1.49 I0 K0.31
G1 Z5
Y29.89
Z-0.5 F150
Z-1.79
G2 X41.698 Z-2.1 I0.31 K0
G1 X42.008
G17 G3 X42.318 Y30.2 I0 J0.31
X40.082 Y30.2 I-1.118 J0 F300
X42.318 Y30.2 I1.118 J0
X42.008 Y30.51 I-0.31 J0
G1 X41.698
G18 G3 X41.388 Z-1.79 I0 K0.31
G1 Z5
Y29.89
Z-0.8 F150
Z-2.09
G2 X41.698 Z-2.4 I0.31 K0
G1 X42.008
G17 G3 X42.318 Y30.2 I0 J0.31
X40.082 Y30.2 I-1.118 J0 F300
X42.318 Y30.2 I1.118 J0
X42.008 Y30.51 I-0.31 J0
G1 X41.698
G18 G3 X41.388 Z-2.09 I0 K0.31
G1 Z5
Y29.89
Z-1.1 F150
Z-2.39
G2 X41.698 Z-2.7 I0.31 K0
G1 X42.008
G17 G3 X42.318 Y30.2 I0 J0.31
X40.082 Y30.2 I-1.118 J0 F300
X42.318 Y30.2 I1.118 J0
X42.008 Y30.51 I-0.31 J0
G1 X41.698
G18 G3 X41.388 Z-2.39 I0 K0.31
G1 Z5
Y29.89
Z-1.4 F150
Z-2.69
G2 X41.698 Z-3 I0.31 K0
G1 X42.008
G17 G3 X42.318 Y30.2 I0 J0.31
X40.082 Y30.2 I-1.118 J0 F300
X42.318 Y30.2 I1.118 J0
X42.008 Y30.51 I-0.31 J0
G1 X41.698
G18 G3 X41.388 Z-2.69 I0 K0.31
G1 Z5
Y29.89
Z-1.7 F150
Z-2.99
G2 X41.698 Z-3.3 I0.31 K0
G1 X42.008
G17 G3 X42.318 Y30.2 I0 J0.31
X40.082 Y30.2 I-1.118 J0 F300
X42.318 Y30.2 I1.118 J0
X42.008 Y30.51 I-0.31 J0
G1 X41.698
G18 G3 X41.388 Z-2.99 I0 K0.31
G1 Z5
Y29.89
Z-2 F150
Z-3.29
G2 X41.698 Z-3.6 I0.31 K0
G1 X42.008
G17 G3 X42.318 Y30.2 I0 J0.31
X40.082 Y30.2 I-1.118 J0 F300
X42.318 Y30.2 I1.118 J0
X42.008 Y30.51 I-0.31 J0
G1 X41.698
G18 G3 X41.388 Z-3.29 I0 K0.31
G1 Z5
Y29.89
Z-2.3 F150
Z-3.59
G2 X41.698 Z-3.9 I0.31 K0
G1 X42.008
G17 G3 X42.318 Y30.2 I0 J0.31
X40.082 Y30.2 I-1.118 J0 F300
X42.318 Y30.2 I1.118 J0
X42.008 Y30.51 I-0.31 J0
G1 X41.698
G18 G3 X41.388 Z-3.59 I0 K0.31
G1 Z5
Y29.89
Z-2.6 F150
Z-3.89
G2 X41.698 Z-4.2 I0.31 K0
G1 X42.008
G17 G3 X42.318 Y30.2 I0 J0.31
X40.082 Y30.2 I-1.118 J0 F300
X42.318 Y30.2 I1.118 J0
X42.008 Y30.51 I-0.31 J0
G1 X41.698
G18 G3 X41.388 Z-3.89 I0 K0.31
G1 Z5
Y29.89
Z-2.9 F150
Z-4.19
G2 X41.698 Z-4.5 I0.31 K0
G1 X42.008
G17 G3 X42.318 Y30.2 I0 J0.31
X40.082 Y30.2 I-1.118 J0 F300
X42.318 Y30.2 I1.118 J0
X42.008 Y30.51 I-0.31 J0
G1 X41.698
G18 G3 X41.388 Z-4.19 I0 K0.31
G1 Z5
Y29.89
Z-3.2 F150
Z-4.49
G2 X41.698 Z-4.8 I0.31 K0
G1 X42.008
G17 G3 X42.318 Y30.2 I0 J0.31
X40.082 Y30.2 I-1.118 J0 F300
X42.318 Y30.2 I1.118 J0
X42.008 Y30.51 I-0.31 J0
G1 X41.698
G18 G3 X41.388 Z-4.49 I0 K0.31
G1 Z5
Y29.89
Z-3.5 F150
Z-4.79
G2 X41.698 Z-5.1 I0.31 K0
G1 X42.008
G17 G3 X42.318 Y30.2 I0 J0.31
X40.082 Y30.2 I-1.118 J0 F300
X42.318 Y30.2 I1.118 J0
X42.008 Y30.51 I-0.31 J0
G1 X41.698
G18 G3 X41.388 Z-4.79 I0 K0.31
G1 Z5
Y29.89
Z-3.8 F150
Z-5.09
G2 X41.698 Z-5.4 I0.31 K0
G1 X42.008
G17 G3 X42.318 Y30.2 I0 J0.31
X40.082 Y30.2 I-1.118 J0 F300
X42.318 Y30.2 I1.118 J0
X42.008 Y30.51 I-0.31 J0
G1 X41.698
G18 G3 X41.388 Z-5.09 I0 K0.31
G1 Z5
Y29.89
Z-4.1 F150
Z-5.39
G2 X41.698 Z-5.7 I0.31 K0
G1 X42.008
G17 G3 X42.318 Y30.2 I0 J0.31
X40.082 Y30.2 I-1.118 J0 F300
X42.318 Y30.2 I1.118 J0
X42.008 Y30.51 I-0.31 J0
G1 X41.698
G18 G3 X41.388 Z-5.39 I0 K0.31
G1 Z5
Y29.89
Z-4.4 F150
Z-5.69
G2 X41.698 Z-6 I0.31 K0
G1 X42.008
G17 G3 X42.318 Y30.2 I0 J0.31
X40.082 Y30.2 I-1.118 J0 F300
X42.318 Y30.2 I1.118 J0
X42.008 Y30.51 I-0.31 J0
G1 X41.698
G18 G3 X41.388 Z-5.69 I0 K0.31
G1 Z5
Y29.89
Z-4.7 F150
Z-5.99
G2 X41.698 Z-6.3 I0.31 K0
G1 X42.008
G17 G3 X42.318 Y30.2 I0 J0.31
X40.082 Y30.2 I-1.118 J0 F300
X42.318 Y30.2 I1.118 J0
X42.008 Y30.51 I-0.31 J0
G1 X41.698
G18 G3 X41.388 Z-5.99 I0 K0.31
G1 Z5
Y29.89
Z-5 F150
Z-6.29
G2 X41.698 Z-6.6 I0.31 K0
G1 X42.008
G17 G3 X42.318 Y30.2 I0 J0.31
X40.082 Y30.2 I-1.118 J0 F300
X42.318 Y30.2 I1.118 J0
X42.008 Y30.51 I-0.31 J0
G1 X41.698
G18 G3 X41.388 Z-6.29 I0 K0.31
G1 Z5
Y29.89
Z-5.3 F150
Z-6.59
G2 X41.698 Z-6.9 I0.31 K0
G1 X42.008
G17 G3 X42.318 Y30.2 I0 J0.31
X40.082 Y30.2 I-1.118 J0 F300
X42.318 Y30.2 I1.118 J0
X42.008 Y30.51 I-0.31 J0
G1 X41.698
G18 G3 X41.388 Z-6.59 I0 K0.31
G1 Z5
Y29.89
Z-5.6 F150
Z-6.89
G2 X41.698 Z-7.2 I0.31 K0
G1 X42.008
G17 G3 X42.318 Y30.2 I0 J0.31
X40.082 Y30.2 I-1.118 J0 F300
X42.318 Y30.2 I1.118 J0
X42.008 Y30.51 I-0.31 J0
G1 X41.698
G18 G3 X41.388 Z-6.89 I0 K0.31
G1 Z5
Y29.89
Z-5.9 F150
Z-7.19
G2 X41.698 Z-7.5 I0.31 K0
G1 X42.008
G17 G3 X42.318 Y30.2 I0 J0.31
X40.082 Y30.2 I-1.118 J0 F300
X42.318 Y30.2 I1.118 J0
X42.008 Y30.51 I-0.31 J0
G1 X41.698
G18 G3 X41.388 Z-7.19 I0 K0.31
G1 Z5
Y29.89
Z-6.2 F150
Z-7.49
G2 X41.698 Z-7.8 I0.31 K0
G1 X42.008
G17 G3 X42.318 Y30.2 I0 J0.31
X40.082 Y30.2 I-1.118 J0 F300
X42.318 Y30.2 I1.118 J0
X42.008 Y30.51 I-0.31 J0
G1 X41.698
G18 G3 X41.388 Z-7.49 I0 K0.31
G1 Z5
Y29.89
Z-6.5 F150
Z-7.69
G2 X41.698 Z-8 I0.31 K0
G1 X42.008
G17 G3 X42.318 Y30.2 I0 J0.31
X40.082 Y30.2 I-1.118 J0 F300
X42.318 Y30.2 I1.118 J0
X42.008 Y30.51 I-0.31 J0
G1 X41.698
G18 G3 X41.388 Z-7.69 I0 K0.31
G1 Z10
G17
(When using Fusion 360 for Personal Use, the feedrate of)
(rapid moves is reduced to match the feedrate of cutting)
(moves, which can increase machining time. Unrestricted rapid)
(moves are available with a Fusion 360 Subscription.)

(2D Pocket4)
G0 X7.749 Y66.418
G1 Z10 F300
Z5
Z2.81 F150
X7.753 Y66.396 Z2.694
X7.767 Y66.333 Z2.594
X7.792 Y66.24 Z2.527
X7.83 Y66.131 Z2.5
G3 X10.57 Y67.211 Z2.338 I1.37 J0.54
X7.83 Y66.131 Z2.177 I-1.37 J-0.54
X10.57 Y67.211 Z2.015 I1.37 J0.54
X7.83 Y66.131 Z1.854 I-1.37 J-0.54
X10.57 Y67.211 Z1.692 I1.37 J0.54
X7.83 Y66.131 Z1.531 I-1.37 J-0.54
X10.57 Y67.211 Z1.369 I1.37 J0.54
X7.83 Y66.131 Z1.208 I-1.37 J-0.54
X10.57 Y67.211 Z1.046 I1.37 J0.54
X7.83 Y66.131 Z0.885 I-1.37 J-0.54
X10.57 Y67.211 Z0.723 I1.37 J0.54
X7.83 Y66.131 Z0.561 I-1.37 J-0.54
X10.57 Y67.211 Z0.4 I1.37 J0.54
X7.83 Y66.131 Z0.238 I-1.37 J-0.54
X10.57 Y67.211 Z0.077 I1.37 J0.54
X7.83 Y66.131 Z-0.085 I-1.37 J-0.54
X10.57 Y67.211 Z-0.246 I1.37 J0.54
X9.2 Y68.144 Z-0.308 I-1.37 J-0.54
X7.256 Y66.2 I0 J-1.944 F300
X9.2 Y64.257 I1.943 J0
X9.2 Y68.144 I0 J1.943
G2 X8.037 Y68.806 I0 J1.352
G3 X6.716 Y69.014 I-0.747 J-0.443
X5.446 Y66.2 I2.484 J-2.814
X12.953 Y66.2 I3.754 J0
X6.716 Y69.014 I-3.754 J0
X6.756 Y66.772 Z-0.385 I0.975 J-1.104 F150
G1 X8.266 Y65.533 Z-0.444
G3 X10.134 Y67.809 Z-0.585 I0.934 J1.138
X9.2 Y68.144 Z-0.615 I-0.934 J-1.138
X7.256 Y66.2 I0 J-1.944 F300
X9.2 Y64.257 I1.943 J0
X9.2 Y68.144 I0 J1.943
G2 X8.037 Y68.806 I0 J1.352
G3 X6.716 Y69.014 I-0.747 J-0.443
X5.446 Y66.2 I2.484 J-2.814
X12.953 Y66.2 I3.754 J0
X6.716 Y69.014 I-3.754 J0
X6.756 Y66.772 Z-0.693 I0.975 J-1.104 F150
G1 X8.266 Y65.533 Z-0.752
G3 X10.134 Y67.809 Z-0.892 I0.934 J1.138
X9.2 Y68.144 Z-0.923 I-0.934 J-1.138
X7.256 Y66.2 I0 J-1.944 F300
X9.2 Y64.257 I1.943 J0
X9.2 Y68.144 I0 J1.943
G2 X8.037 Y68.806 I0 J1.352
G3 X6.716 Y69.014 I-0.747 J-0.443
X5.446 Y66.2 I2.484 J-2.814
X12.953 Y66.2 I3.754 J0
X6.716 Y69.014 I-3.754 J0
X6.756 Y66.772 Z-1 I0.975 J-1.104 F150
G1 X8.266 Y65.533 Z-1.06
G3 X10.134 Y67.809 Z-1.2 I0.934 J1.138
X9.2 Y68.144 Z-1.231 I-0.934 J-1.138
X7.256 Y66.2 I0 J-1.944 F300
X9.2 Y64.257 I1.943 J0
X9.2 Y68.144 I0 J1.943
G2 X8.037 Y68.806 I0 J1.352
G3 X6.716 Y69.014 I-0.747 J-0.443
X5.446 Y66.2 I2.484 J-2.814
X12.953 Y66.2 I3.754 J0
X6.716 Y69.014 I-3.754 J0
X6.756 Y66.772 Z-1.308 I0.975 J-1.104 F150
G1 X8.266 Y65.533 Z-1.367
G3 X10.134 Y67.809 Z-1.508 I0.934 J1.138
X9.2 Y68.144 Z-1.538 I-0.934 J-1.138
X7.256 Y66.2 I0 J-1.944 F300
X9.2 Y64.257 I1.943 J0
X9.2 Y68.144 I0 J1.943
G2 X8.037 Y68.806 I0 J1.352
G3 X6.716 Y69.014 I-0.747 J-0.443
X5.446 Y66.2 I2.484 J-2.814
X12.953 Y66.2 I3.754 J0
X6.716 Y69.014 I-3.754 J0
X6.756 Y66.772 Z-1.616 I0.975 J-1.104 F150
G1 X8.266 Y65.533 Z-1.675
G3 X10.134 Y67.809 Z-1.815 I0.934 J1.138
X9.2 Y68.144 Z-1.846 I-0.934 J-1.138
X7.256 Y66.2 I0 J-1.944 F300
X9.2 Y64.257 I1.943 J0
X9.2 Y68.144 I0 J1.943
G2 X8.037 Y68.806 I0 J1.352
G3 X6.716 Y69.014 I-0.747 J-0.443
X5.446 Y66.2 I2.484 J-2.814
X12.953 Y66.2 I3.754 J0
X6.716 Y69.014 I-3.754 J0
X6.756 Y66.772 Z-1.924 I0.975 J-1.104 F150
G1 X8.266 Y65.533 Z-1.983
G3 X10.134 Y67.809 Z-2.123 I0.934 J1.138
X9.2 Y68.144 Z-2.154 I-0.934 J-1.138
X7.256 Y66.2 I0 J-1.944 F300
X9.2 Y64.257 I1.943 J0
X9.2 Y68.144 I0 J1.943
G2 X8.037 Y68.806 I0 J1.352
G3 X6.716 Y69.014 I-0.747 J-0.443
X5.446 Y66.2 I2.484 J-2.814
X12.953 Y66.2 I3.754 J0
X6.716 Y69.014 I-3.754 J0
X6.756 Y66.772 Z-2.231 I0.975 J-1.104 F150
G1 X8.266 Y65.533 Z-2.29
G3 X10.134 Y67.809 Z-2.431 I0.934 J1.138
X9.2 Y68.144 Z-2.462 I-0.934 J-1.138
X7.256 Y66.2 I0 J-1.944 F300
X9.2 Y64.257 I1.943 J0
X9.2 Y68.144 I0 J1.943
G2 X8.037 Y68.806 I0 J1.352
G3 X6.716 Y69.014 I-0.747 J-0.443
X5.446 Y66.2 I2.484 J-2.814
X12.953 Y66.2 I3.754 J0
X6.716 Y69.014 I-3.754 J0
X6.756 Y66.772 Z-2.539 I0.975 J-1.104 F150
G1 X8.266 Y65.533 Z-2.598
G3 X10.134 Y67.809 Z-2.739 I0.934 J1.138
X9.2 Y68.144 Z-2.769 I-0.934 J-1.138
X7.256 Y66.2 I0 J-1.944 F300
X9.2 Y64.257 I1.943 J0
X9.2 Y68.144 I0 J1.943
G2 X8.037 Y68.806 I0 J1.352
G3 X6.716 Y69.014 I-0.747 J-0.443
X5.446 Y66.2 I2.484 J-2.814
X12.953 Y66.2 I3.754 J0
X6.716 Y69.014 I-3.754 J0
X6.756 Y66.772 Z-2.847 I0.975 J-1.104 F150
G1 X8.266 Y65.533 Z-2.906
G3 X10.134 Y67.809 Z-3.046 I0.934 J1.138
X9.2 Y68.144 Z-3.077 I-0.934 J-1.138
X7.256 Y66.2 I0 J-1.944 F300
X9.2 Y64.257 I1.943 J0
X9.2 Y68.144 I0 J1.943
G2 X8.037 Y68.806 I0 J1.352
G3 X6.716 Y69.014 I-0.747 J-0.443
X5.446 Y66.2 I2.484 J-2.814
X12.953 Y66.2 I3.754 J0
X6.716 Y69.014 I-3.754 J0
X6.756 Y66.772 Z-3.154 I0.975 J-1.104 F150
G1 X8.266 Y65.533 Z-3.214
G3 X10.134 Y67.809 Z-3.354 I0.934 J1.138
X9.2 Y68.144 Z-3.385 I-0.934 J-1.138
X7.256 Y66.2 I0 J-1.944 F300
X9.2 Y64.257 I1.943 J0
X9.2 Y68.144 I0 J1.943
G2 X8.037 Y68.806 I0 J1.352
G3 X6.716 Y69.014 I-0.747 J-0.443
X5.446 Y66.2 I2.484 J-2.814
X12.953 Y66.2 I3.754 J0
X6.716 Y69.014 I-3.754 J0
X6.756 Y66.772 Z-3.462 I0.975 J-1.104 F150
G1 X8.266 Y65.533 Z-3.521
G3 X10.134 Y67.809 Z-3.662 I0.934 J1.138
X9.2 Y68.144 Z-3.692 I-0.934 J-1.138
X7.256 Y66.2 I0 J-1.944 F300
X9.2 Y64.257 I1.943 J0
X9.2 Y68.144 I0 J1.943
G2 X8.037 Y68.806 I0 J1.352
G3 X6.716 Y69.014 I-0.747 J-0.443
X5.446 Y66.2 I2.484 J-2.814
X12.953 Y66.2 I3.754 J0
X6.716 Y69.014 I-3.754 J0
X6.756 Y66.772 Z-3.77 I0.975 J-1.104 F150
G1 X8.266 Y65.533 Z-3.829
G3 X10.134 Y67.809 Z-3.969 I0.934 J1.138
X9.2 Y68.144 Z-4 I-0.934 J-1.138
X7.256 Y66.2 I0 J-1.944 F300
X9.2 Y64.257 I1.943 J0
X9.2 Y68.144 I0 J1.943
G2 X8.037 Y68.806 I0 J1.352
G3 X6.716 Y69.014 I-0.747 J-0.443
X5.446 Y66.2 I2.484 J-2.814
X12.953 Y66.2 I3.754 J0
X6.716 Y69.014 I-3.754 J0
G1 X6.675 Y68.97 Z-3.988
X6.644 Y68.92 Z-3.976
X6.625 Y68.874 Z-3.943
X6.614 Y68.825 Z-3.909
X6.612 Y68.758 Z-3.809
X6.614 Y68.734 Z-3.69
Z10
X41.418 Y67.651
Z5
Z2.81 F150
X41.396 Y67.647 Z2.694
X41.333 Y67.633 Z2.594
X41.24 Y67.608 Z2.527
X41.131 Y67.57 Z2.5
G3 X42.211 Y64.83 Z2.338 I0.54 J-1.37
X41.131 Y67.57 Z2.177 I-0.54 J1.37
X42.211 Y64.83 Z2.015 I0.54 J-1.37
X41.131 Y67.57 Z1.854 I-0.54 J1.37
X42.211 Y64.83 Z1.692 I0.54 J-1.37
X41.131 Y67.57 Z1.531 I-0.54 J1.37
X42.211 Y64.83 Z1.369 I0.54 J-1.37
X41.131 Y67.57 Z1.208 I-0.54 J1.37
X42.211 Y64.83 Z1.046 I0.54 J-1.37
X41.131 Y67.57 Z0.885 I-0.54 J1.37
X42.211 Y64.83 Z0.723 I0.54 J-1.37
X41.131 Y67.57 Z0.561 I-0.54 J1.37
X42.211 Y64.83 Z0.4 I0.54 J-1.37
X41.131 Y67.57 Z0.238 I-0.54 J1.37
X42.211 Y64.83 Z0.077 I0.54 J-1.37
X41.131 Y67.57 Z-0.085 I-0.54 J1.37
X42.211 Y64.83 Z-0.246 I0.54 J-1.37
X43.144 Y66.2 Z-0.308 I-0.54 J1.37
X39.257 Y66.2 I-1.944 J0 F300
X43.144 Y66.2 I1.944 J0
G2 X43.806 Y67.363 I1.352 J0
G3 X44.014 Y68.684 I-0.443 J0.747
X38.386 Y63.716 I-2.814 J-2.484
X44.014 Y68.684 I2.814 J2.484
X41.772 Y68.644 Z-0.385 I-1.104 J-0.975 F150
G1 X40.533 Y67.134 Z-0.444
G3 X42.809 Y65.266 Z-0.585 I1.138 J-0.934
X43.144 Y66.2 Z-0.615 I-1.138 J0.934
X39.257 Y66.2 I-1.944 J0 F300
X43.144 Y66.2 I1.944 J0
G2 X43.806 Y67.363 I1.352 J0
G3 X44.014 Y68.684 I-0.443 J0.747
X38.386 Y63.716 I-2.814 J-2.484
X44.014 Y68.684 I2.814 J2.484
X41.772 Y68.644 Z-0.693 I-1.104 J-0.975 F150
G1 X40.533 Y67.134 Z-0.752
G3 X42.809 Y65.266 Z-0.892 I1.138 J-0.934
X43.144 Y66.2 Z-0.923 I-1.138 J0.934
X39.257 Y66.2 I-1.944 J0 F300
X43.144 Y66.2 I1.944 J0
G2 X43.806 Y67.363 I1.352 J0
G3 X44.014 Y68.684 I-0.443 J0.747
X38.386 Y63.716 I-2.814 J-2.484
X44.014 Y68.684 I2.814 J2.484
X41.772 Y68.644 Z-1 I-1.104 J-0.975 F150
G1 X40.533 Y67.134 Z-1.06
G3 X42.809 Y65.266 Z-1.2 I1.138 J-0.934
X43.144 Y66.2 Z-1.231 I-1.138 J0.934
X39.257 Y66.2 I-1.944 J0 F300
X43.144 Y66.2 I1.944 J0
G2 X43.806 Y67.363 I1.352 J0
G3 X44.014 Y68.684 I-0.443 J0.747
X38.386 Y63.716 I-2.814 J-2.484
X44.014 Y68.684 I2.814 J2.484
X41.772 Y68.644 Z-1.308 I-1.104 J-0.975 F150
G1 X40.533 Y67.134 Z-1.367
G3 X42.809 Y65.266 Z-1.508 I1.138 J-0.934
X43.144 Y66.2 Z-1.538 I-1.138 J0.934
X39.257 Y66.2 I-1.944 J0 F300
X43.144 Y66.2 I1.944 J0
G2 X43.806 Y67.363 I1.352 J0
G3 X44.014 Y68.684 I-0.443 J0.747
X38.386 Y63.716 I-2.814 J-2.484
X44.014 Y68.684 I2.814 J2.484
X41.772 Y68.644 Z-1.616 I-1.104 J-0.975 F150
G1 X40.533 Y67.134 Z-1.675
G3 X42.809 Y65.266 Z-1.815 I1.138 J-0.934
X43.144 Y66.2 Z-1.846 I-1.138 J0.934
X39.257 Y66.2 I-1.944 J0 F300
X43.144 Y66.2 I1.944 J0
G2 X43.806 Y67.363 I1.352 J0
G3 X44.014 Y68.684 I-0.443 J0.747
X38.386 Y63.716 I-2.814 J-2.484
X44.014 Y68.684 I2.814 J2.484
X41.772 Y68.644 Z-1.924 I-1.104 J-0.975 F150
G1 X40.533 Y67.134 Z-1.983
G3 X42.809 Y65.266 Z-2.123 I1.138 J-0.934
X43.144 Y66.2 Z-2.154 I-1.138 J0.934
X39.257 Y66.2 I-1.944 J0 F300
X43.144 Y66.2 I1.944 J0
G2 X43.806 Y67.363 I1.352 J0
G3 X44.014 Y68.684 I-0.443 J0.747
X38.386 Y63.716 I-2.814 J-2.484
X44.014 Y68.684 I2.814 J2.484
X41.772 Y68.644 Z-2.231 I-1.104 J-0.975 F150
G1 X40.533 Y67.134 Z-2.29
G3 X42.809 Y65.266 Z-2.431 I1.138 J-0.934
X43.144 Y66.2 Z-2.462 I-1.138 J0.934
X39.257 Y66.2 I-1.944 J0 F300
X43.144 Y66.2 I1.944 J0
G2 X43.806 Y67.363 I1.352 J0
G3 X44.014 Y68.684 I-0.443 J0.747
X38.386 Y63.716 I-2.814 J-2.484
X44.014 Y68.684 I2.814 J2.484
X41.772 Y68.644 Z-2.539 I-1.104 J-0.975 F150
G1 X40.533 Y67.134 Z-2.598
G3 X42.809 Y65.266 Z-2.739 I1.138 J-0.934
X43.144 Y66.2 Z-2.769 I-1.138 J0.934
X39.257 Y66.2 I-1.944 J0 F300
X43.144 Y66.2 I1.944 J0
G2 X43.806 Y67.363 I1.352 J0
G3 X44.014 Y68.684 I-0.443 J0.747
X38.386 Y63.716 I-2.814 J-2.484
X44.014 Y68.684 I2.814 J2.484
X41.772 Y68.644 Z-2.847 I-1.104 J-0.975 F150
G1 X40.533 Y67.134 Z-2.906
G3 X42.809 Y65.266 Z-3.046 I1.138 J-0.934
X43.144 Y66.2 Z-3.077 I-1.138 J0.934
X39.257 Y66.2 I-1.944 J0 F300
X43.144 Y66.2 I1.944 J0
G2 X43.806 Y67.363 I1.352 J0
G3 X44.014 Y68.684 I-0.443 J0.747
X38.386 Y63.716 I-2.814 J-2.484
X44.014 Y68.684 I2.814 J2.484
X41.772 Y68.644 Z-3.154 I-1.104 J-0.975 F150
G1 X40.533 Y67.134 Z-3.214
G3 X42.809 Y65.266 Z-3.354 I1.138 J-0.934
X43.144 Y66.2 Z-3.385 I-1.138 J0.934
X39.257 Y66.2 I-1.944 J0 F300
X43.144 Y66.2 I1.944 J0
G2 X43.806 Y67.363 I1.352 J0
G3 X44.014 Y68.684 I-0.443 J0.747
X38.386 Y63.716 I-2.814 J-2.484
X44.014 Y68.684 I2.814 J2.484
X41.772 Y68.644 Z-3.462 I-1.104 J-0.975 F150
G1 X40.533 Y67.134 Z-3.521
G3 X42.809 Y65.266 Z-3.662 I1.138 J-0.934
X43.144 Y66.2 Z-3.692 I-1.138 J0.934
X39.257 Y66.2 I-1.944 J0 F300
X43.144 Y66.2 I1.944 J0
G2 X43.806 Y67.363 I1.352 J0
G3 X44.014 Y68.684 I-0.443 J0.747
X38.386 Y63.716 I-2.814 J-2.484
X44.014 Y68.684 I2.814 J2.484
X41.772 Y68.644 Z-3.77 I-1.104 J-0.975 F150
G1 X40.533 Y67.134 Z-3.829
G3 X42.809 Y65.266 Z-3.969 I1.138 J-0.934
X43.144 Y66.2 Z-4 I-1.138 J0.934
X39.257 Y66.2 I-1.944 J0 F300
X43.144 Y66.2 I1.944 J0
G2 X43.806 Y67.363 I1.352 J0
G3 X44.014 Y68.684 I-0.443 J0.747
X38.386 Y63.716 I-2.814 J-2.484
X44.014 Y68.684 I2.814 J2.484
G1 X43.97 Y68.725 Z-3.988
X43.92 Y68.756 Z-3.976
X43.874 Y68.775 Z-3.943
X43.825 Y68.786 Z-3.909
X43.758 Y68.788 Z-3.809
X43.734 Y68.786 Z-3.69
Z10
X10.651 Y29.982
Z5
Z2.81 F150
X10.647 Y30.004 Z2.694
X10.633 Y30.067 Z2.594
X10.608 Y30.16 Z2.527
X10.57 Y30.269 Z2.5
G3 X7.83 Y29.189 Z2.338 I-1.37 J-0.54
X10.57 Y30.269 Z2.177 I1.37 J0.54
X7.83 Y29.189 Z2.015 I-1.37 J-0.54
X10.57 Y30.269 Z1.854 I1.37 J0.54
X7.83 Y29.189 Z1.692 I-1.37 J-0.54
X10.57 Y30.269 Z1.531 I1.37 J0.54
X7.83 Y29.189 Z1.369 I-1.37 J-0.54
X10.57 Y30.269 Z1.208 I1.37 J0.54
X7.83 Y29.189 Z1.046 I-1.37 J-0.54
X10.57 Y30.269 Z0.885 I1.37 J0.54
X7.83 Y29.189 Z0.723 I-1.37 J-0.54
X10.57 Y30.269 Z0.561 I1.37 J0.54
X7.83 Y29.189 Z0.4 I-1.37 J-0.54
X10.57 Y30.269 Z0.238 I1.37 J0.54
X7.83 Y29.189 Z0.077 I-1.37 J-0.54
X10.57 Y30.269 Z-0.085 I1.37 J0.54
X7.83 Y29.189 Z-0.246 I-1.37 J-0.54
X9.2 Y28.257 Z-0.308 I1.37 J0.54
X11.144 Y30.2 I0 J1.944 F300
X9.2 Y32.144 I-1.944 J0
X7.256 Y30.2 I0 J-1.944
X9.2 Y28.257 I1.943 J0
G2 X10.363 Y27.594 I0 J-1.352
G3 X11.684 Y27.386 I0.747 J0.443
X12.953 Y30.2 I-2.484 J2.814
X5.446 Y30.2 I-3.754 J0
X11.684 Y27.386 I3.754 J0
X11.644 Y29.628 Z-0.385 I-0.975 J1.104 F150
G1 X10.134 Y30.867 Z-0.444
G3 X8.266 Y28.591 Z-0.585 I-0.934 J-1.138
X9.2 Y28.257 Z-0.615 I0.934 J1.138
X11.144 Y30.2 I0 J1.944 F300
X9.2 Y32.144 I-1.944 J0
X7.256 Y30.2 I0 J-1.944
X9.2 Y28.257 I1.943 J0
G2 X10.363 Y27.594 I0 J-1.352
G3 X11.684 Y27.386 I0.747 J0.443
X12.953 Y30.2 I-2.484 J2.814
X5.446 Y30.2 I-3.754 J0
X11.684 Y27.386 I3.754 J0
X11.644 Y29.628 Z-0.693 I-0.975 J1.104 F150
G1 X10.134 Y30.867 Z-0.752
G3 X8.266 Y28.591 Z-0.892 I-0.934 J-1.138
X9.2 Y28.257 Z-0.923 I0.934 J1.138
