(hgr20_2040_5xbracket)
(Machine)
(  vendor: Autodesk)
(  model: Generic 3-axis)
(  description: This machine has XY axis on the Table and Z axis on the Head)
(T3  D=3.1 CR=0 - ZMIN=-7 - flat end mill)
G90 G94
G17
G21
(When using Fusion 360 for Personal Use, the feedrate of)
(rapid moves is reduced to match the feedrate of cutting)
(moves, which can increase machining time. Unrestricted rapid)
(moves are available with a Fusion 360 Subscription.)

(2D Contour1)
S24000 M3
G54
M8
G0 X44.088 Y32.99
Z10
G1 Z5 F300
Z1.3 F150
Z0.01
G18 G2 X44.398 Z-0.3 I0.31 K0
G1 X44.708
G17 G3 X45.018 Y33.3 I0 J0.31
X42.782 Y33.3 I-1.118 J0 F300
X45.018 Y33.3 I1.118 J0
X44.708 Y33.61 I-0.31 J0
G1 X44.398
G18 G3 X44.088 Z0.01 I0 K0.31
G1 Z5
Y32.99
Z1 F150
Z-0.29
G2 X44.398 Z-0.6 I0.31 K0
G1 X44.708
G17 G3 X45.018 Y33.3 I0 J0.31
X42.782 Y33.3 I-1.118 J0 F300
X45.018 Y33.3 I1.118 J0
X44.708 Y33.61 I-0.31 J0
G1 X44.398
G18 G3 X44.088 Z-0.29 I0 K0.31
G1 Z5
Y32.99
Z0.7 F150
Z-0.59
G2 X44.398 Z-0.9 I0.31 K0
G1 X44.708
G17 G3 X45.018 Y33.3 I0 J0.31
X42.782 Y33.3 I-1.118 J0 F300
X45.018 Y33.3 I1.118 J0
X44.708 Y33.61 I-0.31 J0
G1 X44.398
G18 G3 X44.088 Z-0.59 I0 K0.31
G1 Z5
Y32.99
Z0.4 F150
Z-0.89
G2 X44.398 Z-1.2 I0.31 K0
G1 X44.708
G17 G3 X45.018 Y33.3 I0 J0.31
X42.782 Y33.3 I-1.118 J0 F300
X45.018 Y33.3 I1.118 J0
X44.708 Y33.61 I-0.31 J0
G1 X44.398
G18 G3 X44.088 Z-0.89 I0 K0.31
G1 Z5
Y32.99
Z0.1 F150
Z-1.19
G2 X44.398 Z-1.5 I0.31 K0
G1 X44.708
G17 G3 X45.018 Y33.3 I0 J0.31
X42.782 Y33.3 I-1.118 J0 F300
X45.018 Y33.3 I1.118 J0
X44.708 Y33.61 I-0.31 J0
G1 X44.398
G18 G3 X44.088 Z-1.19 I0 K0.31
G1 Z5
Y32.99
Z-0.2 F150
Z-1.49
G2 X44.398 Z-1.8 I0.31 K0
G1 X44.708
G17 G3 X45.018 Y33.3 I0 J0.31
X42.782 Y33.3 I-1.118 J0 F300
X45.018 Y33.3 I1.118 J0
X44.708 Y33.61 I-0.31 J0
G1 X44.398
G18 G3 X44.088 Z-1.49 I0 K0.31
G1 Z5
Y32.99
Z-0.5 F150
Z-1.79
G2 X44.398 Z-2.1 I0.31 K0
G1 X44.708
G17 G3 X45.018 Y33.3 I0 J0.31
X42.782 Y33.3 I-1.118 J0 F300
X45.018 Y33.3 I1.118 J0
X44.708 Y33.61 I-0.31 J0
G1 X44.398
G18 G3 X44.088 Z-1.79 I0 K0.31
G1 Z5
Y32.99
Z-0.8 F150
Z-2.09
G2 X44.398 Z-2.4 I0.31 K0
G1 X44.708
G17 G3 X45.018 Y33.3 I0 J0.31
X42.782 Y33.3 I-1.118 J0 F300
X45.018 Y33.3 I1.118 J0
X44.708 Y33.61 I-0.31 J0
G1 X44.398
G18 G3 X44.088 Z-2.09 I0 K0.31
G1 Z5
Y32.99
Z-1.1 F150
Z-2.39
G2 X44.398 Z-2.7 I0.31 K0
G1 X44.708
G17 G3 X45.018 Y33.3 I0 J0.31
X42.782 Y33.3 I-1.118 J0 F300
X45.018 Y33.3 I1.118 J0
X44.708 Y33.61 I-0.31 J0
G1 X44.398
G18 G3 X44.088 Z-2.39 I0 K0.31
G1 Z5
Y32.99
Z-1.4 F150
Z-2.69
G2 X44.398 Z-3 I0.31 K0
G1 X44.708
G17 G3 X45.018 Y33.3 I0 J0.31
X42.782 Y33.3 I-1.118 J0 F300
X45.018 Y33.3 I1.118 J0
X44.708 Y33.61 I-0.31 J0
G1 X44.398
G18 G3 X44.088 Z-2.69 I0 K0.31
G1 Z5
Y32.99
Z-1.7 F150
Z-2.99
G2 X44.398 Z-3.3 I0.31 K0
G1 X44.708
G17 G3 X45.018 Y33.3 I0 J0.31
X42.782 Y33.3 I-1.118 J0 F300
X45.018 Y33.3 I1.118 J0
X44.708 Y33.61 I-0.31 J0
G1 X44.398
G18 G3 X44.088 Z-2.99 I0 K0.31
G1 Z5
Y32.99
Z-2 F150
Z-3.29
G2 X44.398 Z-3.6 I0.31 K0
G1 X44.708
G17 G3 X45.018 Y33.3 I0 J0.31
X42.782 Y33.3 I-1.118 J0 F300
X45.018 Y33.3 I1.118 J0
X44.708 Y33.61 I-0.31 J0
G1 X44.398
G18 G3 X44.088 Z-3.29 I0 K0.31
G1 Z5
Y32.99
Z-2.3 F150
Z-3.59
G2 X44.398 Z-3.9 I0.31 K0
G1 X44.708
G17 G3 X45.018 Y33.3 I0 J0.31
X42.782 Y33.3 I-1.118 J0 F300
X45.018 Y33.3 I1.118 J0
X44.708 Y33.61 I-0.31 J0
G1 X44.398
G18 G3 X44.088 Z-3.59 I0 K0.31
G1 Z5
Y32.99
Z-2.6 F150
Z-3.89
G2 X44.398 Z-4.2 I0.31 K0
G1 X44.708
G17 G3 X45.018 Y33.3 I0 J0.31
X42.782 Y33.3 I-1.118 J0 F300
X45.018 Y33.3 I1.118 J0
X44.708 Y33.61 I-0.31 J0
G1 X44.398
G18 G3 X44.088 Z-3.89 I0 K0.31
G1 Z5
Y32.99
Z-2.9 F150
Z-4.19
G2 X44.398 Z-4.5 I0.31 K0
G1 X44.708
G17 G3 X45.018 Y33.3 I0 J0.31
X42.782 Y33.3 I-1.118 J0 F300
X45.018 Y33.3 I1.118 J0
X44.708 Y33.61 I-0.31 J0
G1 X44.398
G18 G3 X44.088 Z-4.19 I0 K0.31
G1 Z5
Y32.99
Z-3.2 F150
Z-4.49
G2 X44.398 Z-4.8 I0.31 K0
G1 X44.708
G17 G3 X45.018 Y33.3 I0 J0.31
X42.782 Y33.3 I-1.118 J0 F300
X45.018 Y33.3 I1.118 J0
X44.708 Y33.61 I-0.31 J0
G1 X44.398
G18 G3 X44.088 Z-4.49 I0 K0.31
G1 Z5
Y32.99
Z-3.5 F150
Z-4.79
G2 X44.398 Z-5.1 I0.31 K0
G1 X44.708
G17 G3 X45.018 Y33.3 I0 J0.31
X42.782 Y33.3 I-1.118 J0 F300
X45.018 Y33.3 I1.118 J0
X44.708 Y33.61 I-0.31 J0
G1 X44.398
G18 G3 X44.088 Z-4.79 I0 K0.31
G1 Z5
Y32.99
Z-3.8 F150
Z-5.09
G2 X44.398 Z-5.4 I0.31 K0
G1 X44.708
G17 G3 X45.018 Y33.3 I0 J0.31
X42.782 Y33.3 I-1.118 J0 F300
X45.018 Y33.3 I1.118 J0
X44.708 Y33.61 I-0.31 J0
G1 X44.398
G18 G3 X44.088 Z-5.09 I0 K0.31
G1 Z5
Y32.99
Z-4.1 F150
Z-5.39
G2 X44.398 Z-5.7 I0.31 K0
G1 X44.708
G17 G3 X45.018 Y33.3 I0 J0.31
X42.782 Y33.3 I-1.118 J0 F300
X45.018 Y33.3 I1.118 J0
X44.708 Y33.61 I-0.31 J0
G1 X44.398
G18 G3 X44.088 Z-5.39 I0 K0.31
G1 Z5
Y32.99
Z-4.4 F150
Z-5.69
G2 X44.398 Z-6 I0.31 K0
G1 X44.708
G17 G3 X45.018 Y33.3 I0 J0.31
X42.782 Y33.3 I-1.118 J0 F300
X45.018 Y33.3 I1.118 J0
X44.708 Y33.61 I-0.31 J0
G1 X44.398
G18 G3 X44.088 Z-5.69 I0 K0.31
G1 Z5
Y32.99
Z-4.7 F150
Z-5.99
G2 X44.398 Z-6.3 I0.31 K0
G1 X44.708
G17 G3 X45.018 Y33.3 I0 J0.31
X42.782 Y33.3 I-1.118 J0 F300
X45.018 Y33.3 I1.118 J0
X44.708 Y33.61 I-0.31 J0
G1 X44.398
G18 G3 X44.088 Z-5.99 I0 K0.31
G1 Z5
Y32.99
Z-5 F150
Z-6.29
G2 X44.398 Z-6.6 I0.31 K0
G1 X44.708
G17 G3 X45.018 Y33.3 I0 J0.31
X42.782 Y33.3 I-1.118 J0 F300
X45.018 Y33.3 I1.118 J0
X44.708 Y33.61 I-0.31 J0
G1 X44.398
G18 G3 X44.088 Z-6.29 I0 K0.31
G1 Z5
Y32.99
Z-5.3 F150
Z-6.59
G2 X44.398 Z-6.9 I0.31 K0
G1 X44.708
G17 G3 X45.018 Y33.3 I0 J0.31
X42.782 Y33.3 I-1.118 J0 F300
X45.018 Y33.3 I1.118 J0
X44.708 Y33.61 I-0.31 J0
G1 X44.398
G18 G3 X44.088 Z-6.59 I0 K0.31
G1 Z5
Y32.99
Z-5.6 F150
Z-6.69
G2 X44.398 Z-7 I0.31 K0
G1 X44.708
G17 G3 X45.018 Y33.3 I0 J0.31
X42.782 Y33.3 I-1.118 J0 F300
X45.018 Y33.3 I1.118 J0
X44.708 Y33.61 I-0.31 J0
G1 X44.398
G18 G3 X44.088 Z-6.69 I0 K0.31
G1 Z5
X51.422 Y5.796
Z1.3 F150
Z0.01
X51.43 Y5.799 Z-0.059
X51.452 Y5.805 Z-0.125
X51.488 Y5.815 Z-0.183
X51.535 Y5.828 Z-0.232
X51.591 Y5.844 Z-0.269
X51.655 Y5.861 Z-0.292
X51.721 Y5.88 Z-0.3
X52.019 Y5.964
G17 G3 X52.234 Y6.346 I-0.084 J0.299
X49.766 Y5.654 I-1.234 J-0.346 F300
X52.234 Y6.346 I1.234 J0.346
X51.852 Y6.561 I-0.299 J-0.084
G1 X51.554 Y6.477
X51.487 Y6.458 Z-0.292
X51.424 Y6.441 Z-0.269
X51.368 Y6.425 Z-0.232
X51.32 Y6.412 Z-0.183
X51.285 Y6.402 Z-0.125
X51.263 Y6.396 Z-0.059
X51.255 Y6.393 Z0.01
Z5
X51.422 Y5.796
Z1 F150
Z-0.29
X51.43 Y5.799 Z-0.359
X51.452 Y5.805 Z-0.425
X51.488 Y5.815 Z-0.483
X51.535 Y5.828 Z-0.532
X51.591 Y5.844 Z-0.569
X51.655 Y5.861 Z-0.592
X51.721 Y5.88 Z-0.6
X52.019 Y5.964
G3 X52.234 Y6.346 I-0.084 J0.299
X49.766 Y5.654 I-1.234 J-0.346 F300
X52.234 Y6.346 I1.234 J0.346
X51.852 Y6.561 I-0.299 J-0.084
G1 X51.554 Y6.477
X51.487 Y6.458 Z-0.592
X51.424 Y6.441 Z-0.569
X51.368 Y6.425 Z-0.532
X51.32 Y6.412 Z-0.483
X51.285 Y6.402 Z-0.425
X51.263 Y6.396 Z-0.359
X51.255 Y6.393 Z-0.29
Z5
X51.422 Y5.796
Z0.7 F150
Z-0.59
X51.43 Y5.799 Z-0.659
X51.452 Y5.805 Z-0.725
X51.488 Y5.815 Z-0.783
X51.535 Y5.828 Z-0.832
X51.591 Y5.844 Z-0.869
X51.655 Y5.861 Z-0.892
X51.721 Y5.88 Z-0.9
X52.019 Y5.964
G3 X52.234 Y6.346 I-0.084 J0.299
X49.766 Y5.654 I-1.234 J-0.346 F300
X52.234 Y6.346 I1.234 J0.346
X51.852 Y6.561 I-0.299 J-0.084
G1 X51.554 Y6.477
X51.487 Y6.458 Z-0.892
X51.424 Y6.441 Z-0.869
X51.368 Y6.425 Z-0.832
X51.32 Y6.412 Z-0.783
X51.285 Y6.402 Z-0.725
X51.263 Y6.396 Z-0.659
X51.255 Y6.393 Z-0.59
Z5
X51.422 Y5.796
Z0.4 F150
Z-0.89
X51.43 Y5.799 Z-0.959
X51.452 Y5.805 Z-1.025
X51.488 Y5.815 Z-1.083
X51.535 Y5.828 Z-1.132
X51.591 Y5.844 Z-1.169
X51.655 Y5.861 Z-1.192
X51.721 Y5.88 Z-1.2
X52.019 Y5.964
G3 X52.234 Y6.346 I-0.084 J0.299
X49.766 Y5.654 I-1.234 J-0.346 F300
X52.234 Y6.346 I1.234 J0.346
X51.852 Y6.561 I-0.299 J-0.084
G1 X51.554 Y6.477
X51.487 Y6.458 Z-1.192
X51.424 Y6.441 Z-1.169
X51.368 Y6.425 Z-1.132
X51.32 Y6.412 Z-1.083
X51.285 Y6.402 Z-1.025
X51.263 Y6.396 Z-0.959
X51.255 Y6.393 Z-0.89
Z5
X51.422 Y5.796
Z0.1 F150
Z-1.19
X51.43 Y5.799 Z-1.259
X51.452 Y5.805 Z-1.325
X51.488 Y5.815 Z-1.383
X51.535 Y5.828 Z-1.432
X51.591 Y5.844 Z-1.469
X51.655 Y5.861 Z-1.492
X51.721 Y5.88 Z-1.5
X52.019 Y5.964
G3 X52.234 Y6.346 I-0.084 J0.299
X49.766 Y5.654 I-1.234 J-0.346 F300
X52.234 Y6.346 I1.234 J0.346
X51.852 Y6.561 I-0.299 J-0.084
G1 X51.554 Y6.477
X51.487 Y6.458 Z-1.492
X51.424 Y6.441 Z-1.469
X51.368 Y6.425 Z-1.432
X51.32 Y6.412 Z-1.383
X51.285 Y6.402 Z-1.325
X51.263 Y6.396 Z-1.259
X51.255 Y6.393 Z-1.19
Z5
X51.422 Y5.796
Z-0.2 F150
Z-1.49
X51.43 Y5.799 Z-1.559
X51.452 Y5.805 Z-1.625
X51.488 Y5.815 Z-1.683
X51.535 Y5.828 Z-1.732
X51.591 Y5.844 Z-1.769
X51.655 Y5.861 Z-1.792
X51.721 Y5.88 Z-1.8
X52.019 Y5.964
G3 X52.234 Y6.346 I-0.084 J0.299
X49.766 Y5.654 I-1.234 J-0.346 F300
X52.234 Y6.346 I1.234 J0.346
X51.852 Y6.561 I-0.299 J-0.084
G1 X51.554 Y6.477
X51.487 Y6.458 Z-1.792
X51.424 Y6.441 Z-1.769
X51.368 Y6.425 Z-1.732
X51.32 Y6.412 Z-1.683
X51.285 Y6.402 Z-1.625
X51.263 Y6.396 Z-1.559
X51.255 Y6.393 Z-1.49
Z5
X51.422 Y5.796
Z-0.5 F150
Z-1.79
X51.43 Y5.799 Z-1.859
X51.452 Y5.805 Z-1.925
X51.488 Y5.815 Z-1.983
X51.535 Y5.828 Z-2.032
X51.591 Y5.844 Z-2.069
X51.655 Y5.861 Z-2.092
X51.721 Y5.88 Z-2.1
X52.019 Y5.964
G3 X52.234 Y6.346 I-0.084 J0.299
X49.766 Y5.654 I-1.234 J-0.346 F300
X52.234 Y6.346 I1.234 J0.346
X51.852 Y6.561 I-0.299 J-0.084
G1 X51.554 Y6.477
X51.487 Y6.458 Z-2.092
X51.424 Y6.441 Z-2.069
X51.368 Y6.425 Z-2.032
X51.32 Y6.412 Z-1.983
X51.285 Y6.402 Z-1.925
X51.263 Y6.396 Z-1.859
X51.255 Y6.393 Z-1.79
Z5
X51.422 Y5.796
Z-0.8 F150
Z-2.09
X51.43 Y5.799 Z-2.159
X51.452 Y5.805 Z-2.225
X51.488 Y5.815 Z-2.283
X51.535 Y5.828 Z-2.332
X51.591 Y5.844 Z-2.369
X51.655 Y5.861 Z-2.392
X51.721 Y5.88 Z-2.4
X52.019 Y5.964
G3 X52.234 Y6.346 I-0.084 J0.299
X49.766 Y5.654 I-1.234 J-0.346 F300
X52.234 Y6.346 I1.234 J0.346
X51.852 Y6.561 I-0.299 J-0.084
G1 X51.554 Y6.477
X51.487 Y6.458 Z-2.392
X51.424 Y6.441 Z-2.369
X51.368 Y6.425 Z-2.332
X51.32 Y6.412 Z-2.283
X51.285 Y6.402 Z-2.225
X51.263 Y6.396 Z-2.159
X51.255 Y6.393 Z-2.09
Z5
X51.422 Y5.796
Z-1.1 F150
Z-2.39
X51.43 Y5.799 Z-2.459
X51.452 Y5.805 Z-2.525
X51.488 Y5.815 Z-2.583
X51.535 Y5.828 Z-2.632
X51.591 Y5.844 Z-2.669
X51.655 Y5.861 Z-2.692
X51.721 Y5.88 Z-2.7
X52.019 Y5.964
G3 X52.234 Y6.346 I-0.084 J0.299
X49.766 Y5.654 I-1.234 J-0.346 F300
X52.234 Y6.346 I1.234 J0.346
X51.852 Y6.561 I-0.299 J-0.084
G1 X51.554 Y6.477
X51.487 Y6.458 Z-2.692
X51.424 Y6.441 Z-2.669
X51.368 Y6.425 Z-2.632
X51.32 Y6.412 Z-2.583
X51.285 Y6.402 Z-2.525
X51.263 Y6.396 Z-2.459
X51.255 Y6.393 Z-2.39
Z5
X51.422 Y5.796
Z-1.4 F150
Z-2.69
X51.43 Y5.799 Z-2.759
X51.452 Y5.805 Z-2.825
X51.488 Y5.815 Z-2.883
X51.535 Y5.828 Z-2.932
X51.591 Y5.844 Z-2.969
X51.655 Y5.861 Z-2.992
X51.721 Y5.88 Z-3
X52.019 Y5.964
G3 X52.234 Y6.346 I-0.084 J0.299
X49.766 Y5.654 I-1.234 J-0.346 F300
X52.234 Y6.346 I1.234 J0.346
X51.852 Y6.561 I-0.299 J-0.084
G1 X51.554 Y6.477
X51.487 Y6.458 Z-2.992
X51.424 Y6.441 Z-2.969
X51.368 Y6.425 Z-2.932
X51.32 Y6.412 Z-2.883
X51.285 Y6.402 Z-2.825
X51.263 Y6.396 Z-2.759
X51.255 Y6.393 Z-2.69
Z5
X51.422 Y5.796
Z-1.7 F150
Z-2.99
X51.43 Y5.799 Z-3.059
X51.452 Y5.805 Z-3.125
X51.488 Y5.815 Z-3.183
X51.535 Y5.828 Z-3.232
X51.591 Y5.844 Z-3.269
X51.655 Y5.861 Z-3.292
X51.721 Y5.88 Z-3.3
X52.019 Y5.964
G3 X52.234 Y6.346 I-0.084 J0.299
X49.766 Y5.654 I-1.234 J-0.346 F300
X52.234 Y6.346 I1.234 J0.346
X51.852 Y6.561 I-0.299 J-0.084
G1 X51.554 Y6.477
X51.487 Y6.458 Z-3.292
X51.424 Y6.441 Z-3.269
X51.368 Y6.425 Z-3.232
X51.32 Y6.412 Z-3.183
X51.285 Y6.402 Z-3.125
X51.263 Y6.396 Z-3.059
X51.255 Y6.393 Z-2.99
Z5
X51.422 Y5.796
Z-2 F150
Z-3.29
X51.43 Y5.799 Z-3.359
X51.452 Y5.805 Z-3.425
X51.488 Y5.815 Z-3.483
X51.535 Y5.828 Z-3.532
X51.591 Y5.844 Z-3.569
X51.655 Y5.861 Z-3.592
X51.721 Y5.88 Z-3.6
X52.019 Y5.964
G3 X52.234 Y6.346 I-0.084 J0.299
X49.766 Y5.654 I-1.234 J-0.346 F300
X52.234 Y6.346 I1.234 J0.346
X51.852 Y6.561 I-0.299 J-0.084
G1 X51.554 Y6.477
X51.487 Y6.458 Z-3.592
X51.424 Y6.441 Z-3.569
X51.368 Y6.425 Z-3.532
X51.32 Y6.412 Z-3.483
X51.285 Y6.402 Z-3.425
X51.263 Y6.396 Z-3.359
X51.255 Y6.393 Z-3.29
Z5
X51.422 Y5.796
Z-2.3 F150
Z-3.59
X51.43 Y5.799 Z-3.659
X51.452 Y5.805 Z-3.725
X51.488 Y5.815 Z-3.783
X51.535 Y5.828 Z-3.832
X51.591 Y5.844 Z-3.869
X51.655 Y5.861 Z-3.892
X51.721 Y5.88 Z-3.9
X52.019 Y5.964
G3 X52.234 Y6.346 I-0.084 J0.299
X49.766 Y5.654 I-1.234 J-0.346 F300
X52.234 Y6.346 I1.234 J0.346
X51.852 Y6.561 I-0.299 J-0.084
G1 X51.554 Y6.477
X51.487 Y6.458 Z-3.892
X51.424 Y6.441 Z-3.869
X51.368 Y6.425 Z-3.832
X51.32 Y6.412 Z-3.783
X51.285 Y6.402 Z-3.725
X51.263 Y6.396 Z-3.659
X51.255 Y6.393 Z-3.59
Z5
X51.422 Y5.796
Z-2.6 F150
Z-3.89
X51.43 Y5.799 Z-3.959
X51.452 Y5.805 Z-4.025
X51.488 Y5.815 Z-4.083
X51.535 Y5.828 Z-4.132
X51.591 Y5.844 Z-4.169
X51.655 Y5.861 Z-4.192
X51.721 Y5.88 Z-4.2
X52.019 Y5.964
G3 X52.234 Y6.346 I-0.084 J0.299
X49.766 Y5.654 I-1.234 J-0.346 F300
X52.234 Y6.346 I1.234 J0.346
X51.852 Y6.561 I-0.299 J-0.084
G1 X51.554 Y6.477
X51.487 Y6.458 Z-4.192
X51.424 Y6.441 Z-4.169
X51.368 Y6.425 Z-4.132
X51.32 Y6.412 Z-4.083
X51.285 Y6.402 Z-4.025
X51.263 Y6.396 Z-3.959
X51.255 Y6.393 Z-3.89
Z5
X51.422 Y5.796
Z-2.9 F150
Z-4.19
X51.43 Y5.799 Z-4.259
X51.452 Y5.805 Z-4.325
X51.488 Y5.815 Z-4.383
X51.535 Y5.828 Z-4.432
X51.591 Y5.844 Z-4.469
X51.655 Y5.861 Z-4.492
X51.721 Y5.88 Z-4.5
X52.019 Y5.964
G3 X52.234 Y6.346 I-0.084 J0.299
X49.766 Y5.654 I-1.234 J-0.346 F300
X52.234 Y6.346 I1.234 J0.346
X51.852 Y6.561 I-0.299 J-0.084
G1 X51.554 Y6.477
X51.487 Y6.458 Z-4.492
X51.424 Y6.441 Z-4.469
X51.368 Y6.425 Z-4.432
X51.32 Y6.412 Z-4.383
X51.285 Y6.402 Z-4.325
X51.263 Y6.396 Z-4.259
X51.255 Y6.393 Z-4.19
Z5
X51.422 Y5.796
Z-3.2 F150
Z-4.49
X51.43 Y5.799 Z-4.559
X51.452 Y5.805 Z-4.625
X51.488 Y5.815 Z-4.683
X51.535 Y5.828 Z-4.732
X51.591 Y5.844 Z-4.769
X51.655 Y5.861 Z-4.792
X51.721 Y5.88 Z-4.8
X52.019 Y5.964
G3 X52.234 Y6.346 I-0.084 J0.299
X49.766 Y5.654 I-1.234 J-0.346 F300
X52.234 Y6.346 I1.234 J0.346
X51.852 Y6.561 I-0.299 J-0.084
G1 X51.554 Y6.477
X51.487 Y6.458 Z-4.792
X51.424 Y6.441 Z-4.769
X51.368 Y6.425 Z-4.732
X51.32 Y6.412 Z-4.683
X51.285 Y6.402 Z-4.625
X51.263 Y6.396 Z-4.559
X51.255 Y6.393 Z-4.49
Z5
X51.422 Y5.796
Z-3.5 F150
Z-4.79
X51.43 Y5.799 Z-4.859
X51.452 Y5.805 Z-4.925
X51.488 Y5.815 Z-4.983
X51.535 Y5.828 Z-5.032
X51.591 Y5.844 Z-5.069
X51.655 Y5.861 Z-5.092
X51.721 Y5.88 Z-5.1
X52.019 Y5.964
G3 X52.234 Y6.346 I-0.084 J0.299
X49.766 Y5.654 I-1.234 J-0.346 F300
X52.234 Y6.346 I1.234 J0.346
X51.852 Y6.561 I-0.299 J-0.084
G1 X51.554 Y6.477
X51.487 Y6.458 Z-5.092
X51.424 Y6.441 Z-5.069
X51.368 Y6.425 Z-5.032
X51.32 Y6.412 Z-4.983
X51.285 Y6.402 Z-4.925
X51.263 Y6.396 Z-4.859
X51.255 Y6.393 Z-4.79
Z5
X51.422 Y5.796
Z-3.8 F150
Z-5.09
X51.43 Y5.799 Z-5.159
X51.452 Y5.805 Z-5.225
X51.488 Y5.815 Z-5.283
X51.535 Y5.828 Z-5.332
X51.591 Y5.844 Z-5.369
X51.655 Y5.861 Z-5.392
X51.721 Y5.88 Z-5.4
X52.019 Y5.964
G3 X52.234 Y6.346 I-0.084 J0.299
X49.766 Y5.654 I-1.234 J-0.346 F300
X52.234 Y6.346 I1.234 J0.346
X51.852 Y6.561 I-0.299 J-0.084
G1 X51.554 Y6.477
X51.487 Y6.458 Z-5.392
X51.424 Y6.441 Z-5.369
X51.368 Y6.425 Z-5.332
X51.32 Y6.412 Z-5.283
X51.285 Y6.402 Z-5.225
X51.263 Y6.396 Z-5.159
X51.255 Y6.393 Z-5.09
Z5
X51.422 Y5.796
Z-4.1 F150
Z-5.39
X51.43 Y5.799 Z-5.459
X51.452 Y5.805 Z-5.525
X51.488 Y5.815 Z-5.583
X51.535 Y5.828 Z-5.632
X51.591 Y5.844 Z-5.669
X51.655 Y5.861 Z-5.692
X51.721 Y5.88 Z-5.7
X52.019 Y5.964
G3 X52.234 Y6.346 I-0.084 J0.299
X49.766 Y5.654 I-1.234 J-0.346 F300
X52.234 Y6.346 I1.234 J0.346
X51.852 Y6.561 I-0.299 J-0.084
G1 X51.554 Y6.477
X51.487 Y6.458 Z-5.692
X51.424 Y6.441 Z-5.669
X51.368 Y6.425 Z-5.632
X51.32 Y6.412 Z-5.583
X51.285 Y6.402 Z-5.525
X51.263 Y6.396 Z-5.459
X51.255 Y6.393 Z-5.39
Z5
X51.422 Y5.796
Z-4.4 F150
Z-5.69
X51.43 Y5.799 Z-5.759
X51.452 Y5.805 Z-5.825
X51.488 Y5.815 Z-5.883
X51.535 Y5.828 Z-5.932
X51.591 Y5.844 Z-5.969
X51.655 Y5.861 Z-5.992
X51.721 Y5.88 Z-6
X52.019 Y5.964
G3 X52.234 Y6.346 I-0.084 J0.299
X49.766 Y5.654 I-1.234 J-0.346 F300
X52.234 Y6.346 I1.234 J0.346
X51.852 Y6.561 I-0.299 J-0.084
G1 X51.554 Y6.477
X51.487 Y6.458 Z-5.992
X51.424 Y6.441 Z-5.969
X51.368 Y6.425 Z-5.932
X51.32 Y6.412 Z-5.883
X51.285 Y6.402 Z-5.825
X51.263 Y6.396 Z-5.759
X51.255 Y6.393 Z-5.69
Z5
X51.422 Y5.796
Z-4.7 F150
Z-5.99
X51.43 Y5.799 Z-6.059
X51.452 Y5.805 Z-6.125
X51.488 Y5.815 Z-6.183
X51.535 Y5.828 Z-6.232
X51.591 Y5.844 Z-6.269
X51.655 Y5.861 Z-6.292
X51.721 Y5.88 Z-6.3
X52.019 Y5.964
G3 X52.234 Y6.346 I-0.084 J0.299
X49.766 Y5.654 I-1.234 J-0.346 F300
X52.234 Y6.346 I1.234 J0.346
X51.852 Y6.561 I-0.299 J-0.084
G1 X51.554 Y6.477
X51.487 Y6.458 Z-6.292
X51.424 Y6.441 Z-6.269
X51.368 Y6.425 Z-6.232
X51.32 Y6.412 Z-6.183
X51.285 Y6.402 Z-6.125
X51.263 Y6.396 Z-6.059
X51.255 Y6.393 Z-5.99
Z5
X51.422 Y5.796
Z-5 F150
Z-6.29
X51.43 Y5.799 Z-6.359
X51.452 Y5.805 Z-6.425
X51.488 Y5.815 Z-6.483
X51.535 Y5.828 Z-6.532
X51.591 Y5.844 Z-6.569
X51.655 Y5.861 Z-6.592
X51.721 Y5.88 Z-6.6
X52.019 Y5.964
G3 X52.234 Y6.346 I-0.084 J0.299
X49.766 Y5.654 I-1.234 J-0.346 F300
X52.234 Y6.346 I1.234 J0.346
X51.852 Y6.561 I-0.299 J-0.084
G1 X51.554 Y6.477
X51.487 Y6.458 Z-6.592
X51.424 Y6.441 Z-6.569
X51.368 Y6.425 Z-6.532
X51.32 Y6.412 Z-6.483
X51.285 Y6.402 Z-6.425
X51.263 Y6.396 Z-6.359
X51.255 Y6.393 Z-6.29
Z5
X51.422 Y5.796
Z-5.3 F150
Z-6.59
X51.43 Y5.799 Z-6.659
X51.452 Y5.805 Z-6.725
X51.488 Y5.815 Z-6.783
X51.535 Y5.828 Z-6.832
X51.591 Y5.844 Z-6.869
X51.655 Y5.861 Z-6.892
X51.721 Y5.88 Z-6.9
X52.019 Y5.964
G3 X52.234 Y6.346 I-0.084 J0.299
X49.766 Y5.654 I-1.234 J-0.346 F300
X52.234 Y6.346 I1.234 J0.346
X51.852 Y6.561 I-0.299 J-0.084
G1 X51.554 Y6.477
X51.487 Y6.458 Z-6.892
X51.424 Y6.441 Z-6.869
X51.368 Y6.425 Z-6.832
X51.32 Y6.412 Z-6.783
X51.285 Y6.402 Z-6.725
X51.263 Y6.396 Z-6.659
X51.255 Y6.393 Z-6.59
Z5
X51.422 Y5.796
Z-5.6 F150
Z-6.69
X51.43 Y5.799 Z-6.759
X51.452 Y5.805 Z-6.825
X51.488 Y5.815 Z-6.883
X51.535 Y5.828 Z-6.932
X51.591 Y5.844 Z-6.969
X51.655 Y5.861 Z-6.992
X51.721 Y5.88 Z-7
X52.019 Y5.964
G3 X52.234 Y6.346 I-0.084 J0.299
X49.766 Y5.654 I-1.234 J-0.346 F300
X52.234 Y6.346 I1.234 J0.346
X51.852 Y6.561 I-0.299 J-0.084
G1 X51.554 Y6.477
X51.487 Y6.458 Z-6.992
X51.424 Y6.441 Z-6.969
X51.368 Y6.425 Z-6.932
X51.32 Y6.412 Z-6.883
X51.285 Y6.402 Z-6.825
X51.263 Y6.396 Z-6.759
X51.255 Y6.393 Z-6.69
Z5
X71.352 Y5.69
Z1.3 F150
Z0.01
G18 G2 X71.662 Z-0.3 I0.31 K0
G1 X71.972
G17 G3 X72.282 Y6 I0 J0.31
X69.718 Y6 I-1.282 J0 F300
X72.282 Y6 I1.282 J0
X71.972 Y6.31 I-0.31 J0
G1 X71.662
G18 G3 X71.352 Z0.01 I0 K0.31
G1 Z5
Y5.69
Z1 F150
Z-0.29
G2 X71.662 Z-0.6 I0.31 K0
G1 X71.972
G17 G3 X72.282 Y6 I0 J0.31
X69.718 Y6 I-1.282 J0 F300
X72.282 Y6 I1.282 J0
X71.972 Y6.31 I-0.31 J0
G1 X71.662
G18 G3 X71.352 Z-0.29 I0 K0.31
G1 Z5
Y5.69
Z0.7 F150
Z-0.59
G2 X71.662 Z-0.9 I0.31 K0
G1 X71.972
G17 G3 X72.282 Y6 I0 J0.31
X69.718 Y6 I-1.282 J0 F300
X72.282 Y6 I1.282 J0
X71.972 Y6.31 I-0.31 J0
G1 X71.662
G18 G3 X71.352 Z-0.59 I0 K0.31
G1 Z5
Y5.69
Z0.4 F150
Z-0.89
G2 X71.662 Z-1.2 I0.31 K0
G1 X71.972
G17 G3 X72.282 Y6 I0 J0.31
X69.718 Y6 I-1.282 J0 F300
X72.282 Y6 I1.282 J0
X71.972 Y6.31 I-0.31 J0
G1 X71.662
G18 G3 X71.352 Z-0.89 I0 K0.31
G1 Z5
Y5.69
Z0.1 F150
Z-1.19
G2 X71.662 Z-1.5 I0.31 K0
G1 X71.972
G17 G3 X72.282 Y6 I0 J0.31
X69.718 Y6 I-1.282 J0 F300
X72.282 Y6 I1.282 J0
X71.972 Y6.31 I-0.31 J0
G1 X71.662
G18 G3 X71.352 Z-1.19 I0 K0.31
G1 Z5
Y5.69
Z-0.2 F150
Z-1.49
G2 X71.662 Z-1.8 I0.31 K0
G1 X71.972
G17 G3 X72.282 Y6 I0 J0.31
X69.718 Y6 I-1.282 J0 F300
X72.282 Y6 I1.282 J0
X71.972 Y6.31 I-0.31 J0
G1 X71.662
G18 G3 X71.352 Z-1.49 I0 K0.31
G1 Z5
Y5.69
Z-0.5 F150
Z-1.79
G2 X71.662 Z-2.1 I0.31 K0
G1 X71.972
G17 G3 X72.282 Y6 I0 J0.31
X69.718 Y6 I-1.282 J0 F300
X72.282 Y6 I1.282 J0
X71.972 Y6.31 I-0.31 J0
G1 X71.662
G18 G3 X71.352 Z-1.79 I0 K0.31
G1 Z5
Y5.69
Z-0.8 F150
Z-2.09
G2 X71.662 Z-2.4 I0.31 K0
G1 X71.972
G17 G3 X72.282 Y6 I0 J0.31
X69.718 Y6 I-1.282 J0 F300
X72.282 Y6 I1.282 J0
X71.972 Y6.31 I-0.31 J0
G1 X71.662
G18 G3 X71.352 Z-2.09 I0 K0.31
G1 Z5
Y5.69
Z-1.1 F150
Z-2.39
G2 X71.662 Z-2.7 I0.31 K0
G1 X71.972
G17 G3 X72.282 Y6 I0 J0.31
X69.718 Y6 I-1.282 J0 F300
X72.282 Y6 I1.282 J0
X71.972 Y6.31 I-0.31 J0
G1 X71.662
G18 G3 X71.352 Z-2.39 I0 K0.31
G1 Z5
Y5.69
Z-1.4 F150
Z-2.69
G2 X71.662 Z-3 I0.31 K0
G1 X71.972
G17 G3 X72.282 Y6 I0 J0.31
X69.718 Y6 I-1.282 J0 F300
X72.282 Y6 I1.282 J0
X71.972 Y6.31 I-0.31 J0
G1 X71.662
G18 G3 X71.352 Z-2.69 I0 K0.31
G1 Z5
Y5.69
Z-1.7 F150
Z-2.99
G2 X71.662 Z-3.3 I0.31 K0
G1 X71.972
G17 G3 X72.282 Y6 I0 J0.31
X69.718 Y6 I-1.282 J0 F300
X72.282 Y6 I1.282 J0
X71.972 Y6.31 I-0.31 J0
G1 X71.662
G18 G3 X71.352 Z-2.99 I0 K0.31
G1 Z5
Y5.69
Z-2 F150
Z-3.29
G2 X71.662 Z-3.6 I0.31 K0
G1 X71.972
G17 G3 X72.282 Y6 I0 J0.31
X69.718 Y6 I-1.282 J0 F300
X72.282 Y6 I1.282 J0
X71.972 Y6.31 I-0.31 J0
G1 X71.662
G18 G3 X71.352 Z-3.29 I0 K0.31
G1 Z5
Y5.69
Z-2.3 F150
Z-3.59
G2 X71.662 Z-3.9 I0.31 K0
G1 X71.972
G17 G3 X72.282 Y6 I0 J0.31
X69.718 Y6 I-1.282 J0 F300
X72.282 Y6 I1.282 J0
X71.972 Y6.31 I-0.31 J0
G1 X71.662
G18 G3 X71.352 Z-3.59 I0 K0.31
G1 Z5
Y5.69
Z-2.6 F150
Z-3.89
G2 X71.662 Z-4.2 I0.31 K0
G1 X71.972
G17 G3 X72.282 Y6 I0 J0.31
X69.718 Y6 I-1.282 J0 F300
X72.282 Y6 I1.282 J0
X71.972 Y6.31 I-0.31 J0
G1 X71.662
G18 G3 X71.352 Z-3.89 I0 K0.31
G1 Z5
Y5.69
Z-2.9 F150
Z-4.19
G2 X71.662 Z-4.5 I0.31 K0
G1 X71.972
G17 G3 X72.282 Y6 I0 J0.31
X69.718 Y6 I-1.282 J0 F300
X72.282 Y6 I1.282 J0
X71.972 Y6.31 I-0.31 J0
G1 X71.662
G18 G3 X71.352 Z-4.19 I0 K0.31
G1 Z5
Y5.69
Z-3.2 F150
Z-4.49
G2 X71.662 Z-4.8 I0.31 K0
G1 X71.972
G17 G3 X72.282 Y6 I0 J0.31
X69.718 Y6 I-1.282 J0 F300
X72.282 Y6 I1.282 J0
X71.972 Y6.31 I-0.31 J0
G1 X71.662
G18 G3 X71.352 Z-4.49 I0 K0.31
G1 Z5
Y5.69
Z-3.5 F150
Z-4.79
G2 X71.662 Z-5.1 I0.31 K0
G1 X71.972
G17 G3 X72.282 Y6 I0 J0.31
X69.718 Y6 I-1.282 J0 F300
X72.282 Y6 I1.282 J0
X71.972 Y6.31 I-0.31 J0
G1 X71.662
G18 G3 X71.352 Z-4.79 I0 K0.31
G1 Z5
Y5.69
Z-3.8 F150
Z-5.09
G2 X71.662 Z-5.4 I0.31 K0
G1 X71.972
G17 G3 X72.282 Y6 I0 J0.31
X69.718 Y6 I-1.282 J0 F300
X72.282 Y6 I1.282 J0
X71.972 Y6.31 I-0.31 J0
G1 X71.662
G18 G3 X71.352 Z-5.09 I0 K0.31
G1 Z5
Y5.69
Z-4.1 F150
Z-5.39
G2 X71.662 Z-5.7 I0.31 K0
G1 X71.972
G17 G3 X72.282 Y6 I0 J0.31
X69.718 Y6 I-1.282 J0 F300
X72.282 Y6 I1.282 J0
X71.972 Y6.31 I-0.31 J0
G1 X71.662
G18 G3 X71.352 Z-5.39 I0 K0.31
G1 Z5
Y5.69
Z-4.4 F150
Z-5.69
G2 X71.662 Z-6 I0.31 K0
G1 X71.972
G17 G3 X72.282 Y6 I0 J0.31
X69.718 Y6 I-1.282 J0 F300
X72.282 Y6 I1.282 J0
X71.972 Y6.31 I-0.31 J0
G1 X71.662
G18 G3 X71.352 Z-5.69 I0 K0.31
G1 Z5
Y5.69
Z-4.7 F150
Z-5.99
G2 X71.662 Z-6.3 I0.31 K0
G1 X71.972
G17 G3 X72.282 Y6 I0 J0.31
X69.718 Y6 I-1.282 J0 F300
X72.282 Y6 I1.282 J0
X71.972 Y6.31 I-0.31 J0
G1 X71.662
G18 G3 X71.352 Z-5.99 I0 K0.31
G1 Z5
Y5.69
Z-5 F150
Z-6.29
G2 X71.662 Z-6.6 I0.31 K0
G1 X71.972
G17 G3 X72.282 Y6 I0 J0.31
X69.718 Y6 I-1.282 J0 F300
X72.282 Y6 I1.282 J0
X71.972 Y6.31 I-0.31 J0
G1 X71.662
G18 G3 X71.352 Z-6.29 I0 K0.31
G1 Z5
Y5.69
Z-5.3 F150
Z-6.59
G2 X71.662 Z-6.9 I0.31 K0
G1 X71.972
G17 G3 X72.282 Y6 I0 J0.31
X69.718 Y6 I-1.282 J0 F300
X72.282 Y6 I1.282 J0
X71.972 Y6.31 I-0.31 J0
G1 X71.662
G18 G3 X71.352 Z-6.59 I0 K0.31
G1 Z5
Y5.69
Z-5.6 F150
Z-6.69
G2 X71.662 Z-7 I0.31 K0
G1 X71.972
G17 G3 X72.282 Y6 I0 J0.31
X69.718 Y6 I-1.282 J0 F300
X72.282 Y6 I1.282 J0
X71.972 Y6.31 I-0.31 J0
G1 X71.662
G18 G3 X71.352 Z-6.69 I0 K0.31
G1 Z5
X91.352 Y5.69
Z1.3 F150
Z0.01
G2 X91.662 Z-0.3 I0.31 K0
G1 X91.972
G17 G3 X92.282 Y6 I0 J0.31
X89.718 Y6 I-1.282 J0 F300
X92.282 Y6 I1.282 J0
X91.972 Y6.31 I-0.31 J0
G1 X91.662
G18 G3 X91.352 Z0.01 I0 K0.31
G1 Z5
Y5.69
Z1 F150
Z-0.29
G2 X91.662 Z-0.6 I0.31 K0
G1 X91.972
G17 G3 X92.282 Y6 I0 J0.31
X89.718 Y6 I-1.282 J0 F300
X92.282 Y6 I1.282 J0
X91.972 Y6.31 I-0.31 J0
G1 X91.662
G18 G3 X91.352 Z-0.29 I0 K0.31
G1 Z5
Y5.69
Z0.7 F150
Z-0.59
G2 X91.662 Z-0.9 I0.31 K0
G1 X91.972
G17 G3 X92.282 Y6 I0 J0.31
X89.718 Y6 I-1.282 J0 F300
X92.282 Y6 I1.282 J0
X91.972 Y6.31 I-0.31 J0
G1 X91.662
G18 G3 X91.352 Z-0.59 I0 K0.31
G1 Z5
Y5.69
Z0.4 F150
Z-0.89
G2 X91.662 Z-1.2 I0.31 K0
G1 X91.972
G17 G3 X92.282 Y6 I0 J0.31
X89.718 Y6 I-1.282 J0 F300
X92.282 Y6 I1.282 J0
X91.972 Y6.31 I-0.31 J0
G1 X91.662
G18 G3 X91.352 Z-0.89 I0 K0.31
G1 Z5
Y5.69
Z0.1 F150
Z-1.19
G2 X91.662 Z-1.5 I0.31 K0
G1 X91.972
G17 G3 X92.282 Y6 I0 J0.31
X89.718 Y6 I-1.282 J0 F300
X92.282 Y6 I1.282 J0
X91.972 Y6.31 I-0.31 J0
G1 X91.662
G18 G3 X91.352 Z-1.19 I0 K0.31
G1 Z5
Y5.69
Z-0.2 F150
Z-1.49
G2 X91.662 Z-1.8 I0.31 K0
G1 X91.972
G17 G3 X92.282 Y6 I0 J0.31
X89.718 Y6 I-1.282 J0 F300
X92.282 Y6 I1.282 J0
X91.972 Y6.31 I-0.31 J0
G1 X91.662
G18 G3 X91.352 Z-1.49 I0 K0.31
G1 Z5
Y5.69
Z-0.5 F150
Z-1.79
G2 X91.662 Z-2.1 I0.31 K0
G1 X91.972
G17 G3 X92.282 Y6 I0 J0.31
X89.718 Y6 I-1.282 J0 F300
X92.282 Y6 I1.282 J0
X91.972 Y6.31 I-0.31 J0
G1 X91.662
G18 G3 X91.352 Z-1.79 I0 K0.31
G1 Z5
Y5.69
Z-0.8 F150
Z-2.09
G2 X91.662 Z-2.4 I0.31 K0
G1 X91.972
G17 G3 X92.282 Y6 I0 J0.31
X89.718 Y6 I-1.282 J0 F300
X92.282 Y6 I1.282 J0
X91.972 Y6.31 I-0.31 J0
G1 X91.662
G18 G3 X91.352 Z-2.09 I0 K0.31
G1 Z5
Y5.69
Z-1.1 F150
Z-2.39
G2 X91.662 Z-2.7 I0.31 K0
G1 X91.972
G17 G3 X92.282 Y6 I0 J0.31
X89.718 Y6 I-1.282 J0 F300
X92.282 Y6 I1.282 J0
X91.972 Y6.31 I-0.31 J0
G1 X91.662
G18 G3 X91.352 Z-2.39 I0 K0.31
G1 Z5
Y5.69
Z-1.4 F150
Z-2.69
G2 X91.662 Z-3 I0.31 K0
G1 X91.972
G17 G3 X92.282 Y6 I0 J0.31
X89.718 Y6 I-1.282 J0 F300
X92.282 Y6 I1.282 J0
X91.972 Y6.31 I-0.31 J0
G1 X91.662
G18 G3 X91.352 Z-2.69 I0 K0.31
G1 Z5
Y5.69
Z-1.7 F150
Z-2.99
G2 X91.662 Z-3.3 I0.31 K0
G1 X91.972
G17 G3 X92.282 Y6 I0 J0.31
X89.718 Y6 I-1.282 J0 F300
X92.282 Y6 I1.282 J0
X91.972 Y6.31 I-0.31 J0
G1 X91.662
G18 G3 X91.352 Z-2.99 I0 K0.31
G1 Z5
Y5.69
Z-2 F150
Z-3.29
G2 X91.662 Z-3.6 I0.31 K0
G1 X91.972
G17 G3 X92.282 Y6 I0 J0.31
X89.718 Y6 I-1.282 J0 F300
X92.282 Y6 I1.282 J0
X91.972 Y6.31 I-0.31 J0
G1 X91.662
G18 G3 X91.352 Z-3.29 I0 K0.31
G1 Z5
Y5.69
Z-2.3 F150
Z-3.59
G2 X91.662 Z-3.9 I0.31 K0
G1 X91.972
G17 G3 X92.282 Y6 I0 J0.31
X89.718 Y6 I-1.282 J0 F300
X92.282 Y6 I1.282 J0
X91.972 Y6.31 I-0.31 J0
G1 X91.662
G18 G3 X91.352 Z-3.59 I0 K0.31
G1 Z5
Y5.69
Z-2.6 F150
Z-3.89
G2 X91.662 Z-4.2 I0.31 K0
G1 X91.972
G17 G3 X92.282 Y6 I0 J0.31
X89.718 Y6 I-1.282 J0 F300
X92.282 Y6 I1.282 J0
X91.972 Y6.31 I-0.31 J0
G1 X91.662
G18 G3 X91.352 Z-3.89 I0 K0.31
G1 Z5
Y5.69
Z-2.9 F150
Z-4.19
G2 X91.662 Z-4.5 I0.31 K0
G1 X91.972
G17 G3 X92.282 Y6 I0 J0.31
X89.718 Y6 I-1.282 J0 F300
X92.282 Y6 I1.282 J0
X91.972 Y6.31 I-0.31 J0
G1 X91.662
G18 G3 X91.352 Z-4.19 I0 K0.31
G1 Z5
Y5.69
Z-3.2 F150
Z-4.49
G2 X91.662 Z-4.8 I0.31 K0
G1 X91.972
G17 G3 X92.282 Y6 I0 J0.31
X89.718 Y6 I-1.282 J0 F300
X92.282 Y6 I1.282 J0
X91.972 Y6.31 I-0.31 J0
G1 X91.662
G18 G3 X91.352 Z-4.49 I0 K0.31
G1 Z5
Y5.69
Z-3.5 F150
Z-4.79
G2 X91.662 Z-5.1 I0.31 K0
G1 X91.972
G17 G3 X92.282 Y6 I0 J0.31
X89.718 Y6 I-1.282 J0 F300
X92.282 Y6 I1.282 J0
X91.972 Y6.31 I-0.31 J0
G1 X91.662
G18 G3 X91.352 Z-4.79 I0 K0.31
G1 Z5
Y5.69
Z-3.8 F150
Z-5.09
G2 X91.662 Z-5.4 I0.31 K0
G1 X91.972
G17 G3 X92.282 Y6 I0 J0.31
X89.718 Y6 I-1.282 J0 F300
X92.282 Y6 I1.282 J0
X91.972 Y6.31 I-0.31 J0
G1 X91.662
G18 G3 X91.352 Z-5.09 I0 K0.31
G1 Z5
Y5.69
Z-4.1 F150
Z-5.39
G2 X91.662 Z-5.7 I0.31 K0
G1 X91.972
G17 G3 X92.282 Y6 I0 J0.31
X89.718 Y6 I-1.282 J0 F300
X92.282 Y6 I1.282 J0
X91.972 Y6.31 I-0.31 J0
G1 X91.662
G18 G3 X91.352 Z-5.39 I0 K0.31
G1 Z5
Y5.69
Z-4.4 F150
Z-5.69
G2 X91.662 Z-6 I0.31 K0
G1 X91.972
G17 G3 X92.282 Y6 I0 J0.31
X89.718 Y6 I-1.282 J0 F300
X92.282 Y6 I1.282 J0
X91.972 Y6.31 I-0.31 J0
G1 X91.662
G18 G3 X91.352 Z-5.69 I0 K0.31
G1 Z5
Y5.69
Z-4.7 F150
Z-5.99
G2 X91.662 Z-6.3 I0.31 K0
G1 X91.972
G17 G3 X92.282 Y6 I0 J0.31
X89.718 Y6 I-1.282 J0 F300
X92.282 Y6 I1.282 J0
X91.972 Y6.31 I-0.31 J0
G1 X91.662
G18 G3 X91.352 Z-5.99 I0 K0.31
G1 Z5
Y5.69
Z-5 F150
Z-6.29
G2 X91.662 Z-6.6 I0.31 K0
G1 X91.972
G17 G3 X92.282 Y6 I0 J0.31
X89.718 Y6 I-1.282 J0 F300
X92.282 Y6 I1.282 J0
X91.972 Y6.31 I-0.31 J0
G1 X91.662
G18 G3 X91.352 Z-6.29 I0 K0.31
G1 Z5
Y5.69
Z-5.3 F150
Z-6.59
G2 X91.662 Z-6.9 I0.31 K0
G1 X91.972
G17 G3 X92.282 Y6 I0 J0.31
X89.718 Y6 I-1.282 J0 F300
X92.282 Y6 I1.282 J0
X91.972 Y6.31 I-0.31 J0
G1 X91.662
G18 G3 X91.352 Z-6.59 I0 K0.31
G1 Z5
Y5.69
Z-5.6 F150
Z-6.69
G2 X91.662 Z-7 I0.31 K0
G1 X91.972
G17 G3 X92.282 Y6 I0 J0.31
X89.718 Y6 I-1.282 J0 F300
X92.282 Y6 I1.282 J0
X91.972 Y6.31 I-0.31 J0
G1 X91.662
G18 G3 X91.352 Z-6.69 I0 K0.31
G1 Z5
X111.352 Y5.69
Z1.3 F150
Z0.01
G2 X111.662 Z-0.3 I0.31 K0
G1 X111.972
G17 G3 X112.282 Y6 I0 J0.31
X109.718 Y6 I-1.282 J0 F300
X112.282 Y6 I1.282 J0
X111.972 Y6.31 I-0.31 J0
G1 X111.662
G18 G3 X111.352 Z0.01 I0 K0.31
G1 Z5
Y5.69
Z1 F150
Z-0.29
G2 X111.662 Z-0.6 I0.31 K0
G1 X111.972
G17 G3 X112.282 Y6 I0 J0.31
X109.718 Y6 I-1.282 J0 F300
X112.282 Y6 I1.282 J0
X111.972 Y6.31 I-0.31 J0
G1 X111.662
G18 G3 X111.352 Z-0.29 I0 K0.31
G1 Z5
Y5.69
Z0.7 F150
Z-0.59
G2 X111.662 Z-0.9 I0.31 K0
G1 X111.972
G17 G3 X112.282 Y6 I0 J0.31
X109.718 Y6 I-1.282 J0 F300
X112.282 Y6 I1.282 J0
X111.972 Y6.31 I-0.31 J0
G1 X111.662
G18 G3 X111.352 Z-0.59 I0 K0.31
G1 Z5
Y5.69
Z0.4 F150
Z-0.89
G2 X111.662 Z-1.2 I0.31 K0
G1 X111.972
G17 G3 X112.282 Y6 I0 J0.31
X109.718 Y6 I-1.282 J0 F300
X112.282 Y6 I1.282 J0
X111.972 Y6.31 I-0.31 J0
G1 X111.662
G18 G3 X111.352 Z-0.89 I0 K0.31
G1 Z5
Y5.69
Z0.1 F150
Z-1.19
G2 X111.662 Z-1.5 I0.31 K0
G1 X111.972
G17 G3 X112.282 Y6 I0 J0.31
X109.718 Y6 I-1.282 J0 F300
X112.282 Y6 I1.282 J0
X111.972 Y6.31 I-0.31 J0
G1 X111.662
G18 G3 X111.352 Z-1.19 I0 K0.31
G1 Z5
Y5.69
Z-0.2 F150
Z-1.49
G2 X111.662 Z-1.8 I0.31 K0
G1 X111.972
G17 G3 X112.282 Y6 I0 J0.31
X109.718 Y6 I-1.282 J0 F300
X112.282 Y6 I1.282 J0
X111.972 Y6.31 I-0.31 J0
G1 X111.662
G18 G3 X111.352 Z-1.49 I0 K0.31
G1 Z5
Y5.69
Z-0.5 F150
Z-1.79
G2 X111.662 Z-2.1 I0.31 K0
G1 X111.972
G17 G3 X112.282 Y6 I0 J0.31
X109.718 Y6 I-1.282 J0 F300
X112.282 Y6 I1.282 J0
X111.972 Y6.31 I-0.31 J0
G1 X111.662
G18 G3 X111.352 Z-1.79 I0 K0.31
G1 Z5
Y5.69
Z-0.8 F150
Z-2.09
G2 X111.662 Z-2.4 I0.31 K0
G1 X111.972
G17 G3 X112.282 Y6 I0 J0.31
X109.718 Y6 I-1.282 J0 F300
X112.282 Y6 I1.282 J0
X111.972 Y6.31 I-0.31 J0
G1 X111.662
G18 G3 X111.352 Z-2.09 I0 K0.31
G1 Z5
Y5.69
Z-1.1 F150
Z-2.39
G2 X111.662 Z-2.7 I0.31 K0
G1 X111.972
G17 G3 X112.282 Y6 I0 J0.31
X109.718 Y6 I-1.282 J0 F300
X112.282 Y6 I1.282 J0
X111.972 Y6.31 I-0.31 J0
G1 X111.662
G18 G3 X111.352 Z-2.39 I0 K0.31
G1 Z5
Y5.69
Z-1.4 F150
Z-2.69
G2 X111.662 Z-3 I0.31 K0
G1 X111.972
G17 G3 X112.282 Y6 I0 J0.31
X109.718 Y6 I-1.282 J0 F300
X112.282 Y6 I1.282 J0
X111.972 Y6.31 I-0.31 J0
G1 X111.662
G18 G3 X111.352 Z-2.69 I0 K0.31
G1 Z5
Y5.69
Z-1.7 F150
Z-2.99
G2 X111.662 Z-3.3 I0.31 K0
G1 X111.972
G17 G3 X112.282 Y6 I0 J0.31
X109.718 Y6 I-1.282 J0 F300
X112.282 Y6 I1.282 J0
X111.972 Y6.31 I-0.31 J0
G1 X111.662
G18 G3 X111.352 Z-2.99 I0 K0.31
G1 Z5
Y5.69
Z-2 F150
Z-3.29
G2 X111.662 Z-3.6 I0.31 K0
G1 X111.972
G17 G3 X112.282 Y6 I0 J0.31
X109.718 Y6 I-1.282 J0 F300
X112.282 Y6 I1.282 J0
X111.972 Y6.31 I-0.31 J0
G1 X111.662
G18 G3 X111.352 Z-3.29 I0 K0.31
G1 Z5
Y5.69
Z-2.3 F150
Z-3.59
G2 X111.662 Z-3.9 I0.31 K0
G1 X111.972
G17 G3 X112.282 Y6 I0 J0.31
X109.718 Y6 I-1.282 J0 F300
X112.282 Y6 I1.282 J0
X111.972 Y6.31 I-0.31 J0
G1 X111.662
G18 G3 X111.352 Z-3.59 I0 K0.31
G1 Z5
Y5.69
Z-2.6 F150
Z-3.89
G2 X111.662 Z-4.2 I0.31 K0
G1 X111.972
G17 G3 X112.282 Y6 I0 J0.31
X109.718 Y6 I-1.282 J0 F300
X112.282 Y6 I1.282 J0
X111.972 Y6.31 I-0.31 J0
G1 X111.662
G18 G3 X111.352 Z-3.89 I0 K0.31
G1 Z5
Y5.69
Z-2.9 F150
Z-4.19
G2 X111.662 Z-4.5 I0.31 K0
G1 X111.972
G17 G3 X112.282 Y6 I0 J0.31
X109.718 Y6 I-1.282 J0 F300
X112.282 Y6 I1.282 J0
X111.972 Y6.31 I-0.31 J0
G1 X111.662
G18 G3 X111.352 Z-4.19 I0 K0.31
G1 Z5
Y5.69
Z-3.2 F150
Z-4.49
G2 X111.662 Z-4.8 I0.31 K0
G1 X111.972
G17 G3 X112.282 Y6 I0 J0.31
X109.718 Y6 I-1.282 J0 F300
X112.282 Y6 I1.282 J0
X111.972 Y6.31 I-0.31 J0
G1 X111.662
G18 G3 X111.352 Z-4.49 I0 K0.31
G1 Z5
Y5.69
Z-3.5 F150
Z-4.79
G2 X111.662 Z-5.1 I0.31 K0
G1 X111.972
G17 G3 X112.282 Y6 I0 J0.31
X109.718 Y6 I-1.282 J0 F300
X112.282 Y6 I1.282 J0
X111.972 Y6.31 I-0.31 J0
G1 X111.662
G18 G3 X111.352 Z-4.79 I0 K0.31
G1 Z5
Y5.69
Z-3.8 F150
Z-5.09
G2 X111.662 Z-5.4 I0.31 K0
G1 X111.972
G17 G3 X112.282 Y6 I0 J0.31
X109.718 Y6 I-1.282 J0 F300
X112.282 Y6 I1.282 J0
X111.972 Y6.31 I-0.31 J0
G1 X111.662
G18 G3 X111.352 Z-5.09 I0 K0.31
G1 Z5
Y5.69
Z-4.1 F150
Z-5.39
G2 X111.662 Z-5.7 I0.31 K0
G1 X111.972
G17 G3 X112.282 Y6 I0 J0.31
X109.718 Y6 I-1.282 J0 F300
X112.282 Y6 I1.282 J0
X111.972 Y6.31 I-0.31 J0
G1 X111.662
G18 G3 X111.352 Z-5.39 I0 K0.31
G1 Z5
Y5.69
Z-4.4 F150
Z-5.69
G2 X111.662 Z-6 I0.31 K0
G1 X111.972
G17 G3 X112.282 Y6 I0 J0.31
X109.718 Y6 I-1.282 J0 F300
X112.282 Y6 I1.282 J0
X111.972 Y6.31 I-0.31 J0
G1 X111.662
G18 G3 X111.352 Z-5.69 I0 K0.31
G1 Z5
Y5.69
Z-4.7 F150
Z-5.99
G2 X111.662 Z-6.3 I0.31 K0
G1 X111.972
G17 G3 X112.282 Y6 I0 J0.31
X109.718 Y6 I-1.282 J0 F300
X112.282 Y6 I1.282 J0
X111.972 Y6.31 I-0.31 J0
G1 X111.662
G18 G3 X111.352 Z-5.99 I0 K0.31
G1 Z5
Y5.69
Z-5 F150
Z-6.29
G2 X111.662 Z-6.6 I0.31 K0
G1 X111.972
G17 G3 X112.282 Y6 I0 J0.31
X109.718 Y6 I-1.282 J0 F300
X112.282 Y6 I1.282 J0
X111.972 Y6.31 I-0.31 J0
G1 X111.662
G18 G3 X111.352 Z-6.29 I0 K0.31
G1 Z5
Y5.69
Z-5.3 F150
Z-6.59
G2 X111.662 Z-6.9 I0.31 K0
G1 X111.972
G17 G3 X112.282 Y6 I0 J0.31
X109.718 Y6 I-1.282 J0 F300
X112.282 Y6 I1.282 J0
X111.972 Y6.31 I-0.31 J0
G1 X111.662
G18 G3 X111.352 Z-6.59 I0 K0.31
G1 Z5
Y5.69
Z-5.6 F150
Z-6.69
G2 X111.662 Z-7 I0.31 K0
G1 X111.972
G17 G3 X112.282 Y6 I0 J0.31
X109.718 Y6 I-1.282 J0 F300
X112.282 Y6 I1.282 J0
X111.972 Y6.31 I-0.31 J0
G1 X111.662
G18 G3 X111.352 Z-6.69 I0 K0.31
G1 Z5
X80.088 Y33.04
Z1.3 F150
Z0.01
G2 X80.398 Z-0.3 I0.31 K0
G1 X80.708
G17 G3 X81.018 Y33.35 I0 J0.31
X78.782 Y33.35 I-1.118 J0 F300
X81.018 Y33.35 I1.118 J0
X80.708 Y33.66 I-0.31 J0
G1 X80.398
G18 G3 X80.088 Z0.01 I0 K0.31
G1 Z5
Y33.04
Z1 F150
Z-0.29
G2 X80.398 Z-0.6 I0.31 K0
G1 X80.708
G17 G3 X81.018 Y33.35 I0 J0.31
X78.782 Y33.35 I-1.118 J0 F300
X81.018 Y33.35 I1.118 J0
X80.708 Y33.66 I-0.31 J0
G1 X80.398
G18 G3 X80.088 Z-0.29 I0 K0.31
G1 Z5
Y33.04
Z0.7 F150
Z-0.59
G2 X80.398 Z-0.9 I0.31 K0
G1 X80.708
G17 G3 X81.018 Y33.35 I0 J0.31
X78.782 Y33.35 I-1.118 J0 F300
X81.018 Y33.35 I1.118 J0
X80.708 Y33.66 I-0.31 J0
G1 X80.398
G18 G3 X80.088 Z-0.59 I0 K0.31
G1 Z5
Y33.04
Z0.4 F150
Z-0.89
G2 X80.398 Z-1.2 I0.31 K0
G1 X80.708
G17 G3 X81.018 Y33.35 I0 J0.31
X78.782 Y33.35 I-1.118 J0 F300
X81.018 Y33.35 I1.118 J0
X80.708 Y33.66 I-0.31 J0
G1 X80.398
G18 G3 X80.088 Z-0.89 I0 K0.31
G1 Z5
Y33.04
Z0.1 F150
Z-1.19
G2 X80.398 Z-1.5 I0.31 K0
G1 X80.708
G17 G3 X81.018 Y33.35 I0 J0.31
X78.782 Y33.35 I-1.118 J0 F300
X81.018 Y33.35 I1.118 J0
X80.708 Y33.66 I-0.31 J0
G1 X80.398
G18 G3 X80.088 Z-1.19 I0 K0.31
G1 Z5
Y33.04
Z-0.2 F150
Z-1.49
G2 X80.398 Z-1.8 I0.31 K0
G1 X80.708
G17 G3 X81.018 Y33.35 I0 J0.31
X78.782 Y33.35 I-1.118 J0 F300
X81.018 Y33.35 I1.118 J0
X80.708 Y33.66 I-0.31 J0
G1 X80.398
G18 G3 X80.088 Z-1.49 I0 K0.31
G1 Z5
Y33.04
Z-0.5 F150
Z-1.79
G2 X80.398 Z-2.1 I0.31 K0
G1 X80.708
G17 G3 X81.018 Y33.35 I0 J0.31
X78.782 Y33.35 I-1.118 J0 F300
X81.018 Y33.35 I1.118 J0
X80.708 Y33.66 I-0.31 J0
G1 X80.398
G18 G3 X80.088 Z-1.79 I0 K0.31
G1 Z5
Y33.04
Z-0.8 F150
Z-2.09
G2 X80.398 Z-2.4 I0.31 K0
G1 X80.708
G17 G3 X81.018 Y33.35 I0 J0.31
X78.782 Y33.35 I-1.118 J0 F300
X81.018 Y33.35 I1.118 J0
X80.708 Y33.66 I-0.31 J0
G1 X80.398
G18 G3 X80.088 Z-2.09 I0 K0.31
G1 Z5
Y33.04
Z-1.1 F150
Z-2.39
G2 X80.398 Z-2.7 I0.31 K0
G1 X80.708
G17 G3 X81.018 Y33.35 I0 J0.31
X78.782 Y33.35 I-1.118 J0 F300
X81.018 Y33.35 I1.118 J0
X80.708 Y33.66 I-0.31 J0
G1 X80.398
G18 G3 X80.088 Z-2.39 I0 K0.31
G1 Z5
Y33.04
Z-1.4 F150
Z-2.69
G2 X80.398 Z-3 I0.31 K0
G1 X80.708
G17 G3 X81.018 Y33.35 I0 J0.31
X78.782 Y33.35 I-1.118 J0 F300
X81.018 Y33.35 I1.118 J0
X80.708 Y33.66 I-0.31 J0
G1 X80.398
G18 G3 X80.088 Z-2.69 I0 K0.31
G1 Z5
Y33.04
Z-1.7 F150
Z-2.99
G2 X80.398 Z-3.3 I0.31 K0
G1 X80.708
G17 G3 X81.018 Y33.35 I0 J0.31
X78.782 Y33.35 I-1.118 J0 F300
X81.018 Y33.35 I1.118 J0
X80.708 Y33.66 I-0.31 J0
G1 X80.398
G18 G3 X80.088 Z-2.99 I0 K0.31
G1 Z5
Y33.04
Z-2 F150
Z-3.29
G2 X80.398 Z-3.6 I0.31 K0
G1 X80.708
G17 G3 X81.018 Y33.35 I0 J0.31
X78.782 Y33.35 I-1.118 J0 F300
X81.018 Y33.35 I1.118 J0
X80.708 Y33.66 I-0.31 J0
G1 X80.398
G18 G3 X80.088 Z-3.29 I0 K0.31
G1 Z5
Y33.04
Z-2.3 F150
Z-3.59
G2 X80.398 Z-3.9 I0.31 K0
G1 X80.708
G17 G3 X81.018 Y33.35 I0 J0.31
X78.782 Y33.35 I-1.118 J0 F300
X81.018 Y33.35 I1.118 J0
X80.708 Y33.66 I-0.31 J0
G1 X80.398
G18 G3 X80.088 Z-3.59 I0 K0.31
G1 Z5
Y33.04
Z-2.6 F150
Z-3.89
G2 X80.398 Z-4.2 I0.31 K0
G1 X80.708
G17 G3 X81.018 Y33.35 I0 J0.31
X78.782 Y33.35 I-1.118 J0 F300
X81.018 Y33.35 I1.118 J0
X80.708 Y33.66 I-0.31 J0
G1 X80.398
G18 G3 X80.088 Z-3.89 I0 K0.31
G1 Z5
Y33.04
Z-2.9 F150
Z-4.19
G2 X80.398 Z-4.5 I0.31 K0
G1 X80.708
G17 G3 X81.018 Y33.35 I0 J0.31
X78.782 Y33.35 I-1.118 J0 F300
X81.018 Y33.35 I1.118 J0
X80.708 Y33.66 I-0.31 J0
G1 X80.398
G18 G3 X80.088 Z-4.19 I0 K0.31
G1 Z5
Y33.04
Z-3.2 F150
Z-4.49
G2 X80.398 Z-4.8 I0.31 K0
G1 X80.708
G17 G3 X81.018 Y33.35 I0 J0.31
X78.782 Y33.35 I-1.118 J0 F300
X81.018 Y33.35 I1.118 J0
X80.708 Y33.66 I-0.31 J0
G1 X80.398
G18 G3 X80.088 Z-4.49 I0 K0.31
G1 Z5
Y33.04
Z-3.5 F150
Z-4.79
G2 X80.398 Z-5.1 I0.31 K0
G1 X80.708
G17 G3 X81.018 Y33.35 I0 J0.31
X78.782 Y33.35 I-1.118 J0 F300
X81.018 Y33.35 I1.118 J0
X80.708 Y33.66 I-0.31 J0
G1 X80.398
G18 G3 X80.088 Z-4.79 I0 K0.31
G1 Z5
Y33.04
Z-3.8 F150
Z-5.09
G2 X80.398 Z-5.4 I0.31 K0
G1 X80.708
G17 G3 X81.018 Y33.35 I0 J0.31
X78.782 Y33.35 I-1.118 J0 F300
X81.018 Y33.35 I1.118 J0
X80.708 Y33.66 I-0.31 J0
G1 X80.398
G18 G3 X80.088 Z-5.09 I0 K0.31
G1 Z5
Y33.04
Z-4.1 F150
Z-5.39
G2 X80.398 Z-5.7 I0.31 K0
G1 X80.708
G17 G3 X81.018 Y33.35 I0 J0.31
X78.782 Y33.35 I-1.118 J0 F300
X81.018 Y33.35 I1.118 J0
X80.708 Y33.66 I-0.31 J0
G1 X80.398
G18 G3 X80.088 Z-5.39 I0 K0.31
G1 Z5
Y33.04
Z-4.4 F150
Z-5.69
G2 X80.398 Z-6 I0.31 K0
G1 X80.708
G17 G3 X81.018 Y33.35 I0 J0.31
X78.782 Y33.35 I-1.118 J0 F300
X81.018 Y33.35 I1.118 J0
X80.708 Y33.66 I-0.31 J0
G1 X80.398
G18 G3 X80.088 Z-5.69 I0 K0.31
G1 Z5
Y33.04
Z-4.7 F150
Z-5.99
G2 X80.398 Z-6.3 I0.31 K0
G1 X80.708
G17 G3 X81.018 Y33.35 I0 J0.31
X78.782 Y33.35 I-1.118 J0 F300
X81.018 Y33.35 I1.118 J0
X80.708 Y33.66 I-0.31 J0
G1 X80.398
G18 G3 X80.088 Z-5.99 I0 K0.31
G1 Z5
Y33.04
Z-5 F150
Z-6.29
G2 X80.398 Z-6.6 I0.31 K0
G1 X80.708
G17 G3 X81.018 Y33.35 I0 J0.31
X78.782 Y33.35 I-1.118 J0 F300
X81.018 Y33.35 I1.118 J0
X80.708 Y33.66 I-0.31 J0
G1 X80.398
G18 G3 X80.088 Z-6.29 I0 K0.31
G1 Z5
Y33.04
Z-5.3 F150
Z-6.59
G2 X80.398 Z-6.9 I0.31 K0
G1 X80.708
G17 G3 X81.018 Y33.35 I0 J0.31
X78.782 Y33.35 I-1.118 J0 F300
X81.018 Y33.35 I1.118 J0
X80.708 Y33.66 I-0.31 J0
G1 X80.398
G18 G3 X80.088 Z-6.59 I0 K0.31
G1 Z5
Y33.04
Z-5.6 F150
Z-6.69
G2 X80.398 Z-7 I0.31 K0
G1 X80.708
G17 G3 X81.018 Y33.35 I0 J0.31
X78.782 Y33.35 I-1.118 J0 F300
X81.018 Y33.35 I1.118 J0
X80.708 Y33.66 I-0.31 J0
G1 X80.398
G18 G3 X80.088 Z-6.69 I0 K0.31
G1 Z5
Y65.09
Z1.3 F150
Z0.01
G2 X80.398 Z-0.3 I0.31 K0
G1 X80.708
G17 G3 X81.018 Y65.4 I0 J0.31
X78.782 Y65.4 I-1.118 J0 F300
X81.018 Y65.4 I1.118 J0
X80.708 Y65.71 I-0.31 J0
G1 X80.398
G18 G3 X80.088 Z0.01 I0 K0.31
G1 Z5
Y65.09
Z1 F150
Z-0.29
G2 X80.398 Z-0.6 I0.31 K0
G1 X80.708
G17 G3 X81.018 Y65.4 I0 J0.31
X78.782 Y65.4 I-1.118 J0 F300
X81.018 Y65.4 I1.118 J0
X80.708 Y65.71 I-0.31 J0
G1 X80.398
G18 G3 X80.088 Z-0.29 I0 K0.31
G1 Z5
Y65.09
Z0.7 F150
Z-0.59
G2 X80.398 Z-0.9 I0.31 K0
G1 X80.708
G17 G3 X81.018 Y65.4 I0 J0.31
X78.782 Y65.4 I-1.118 J0 F300
X81.018 Y65.4 I1.118 J0
X80.708 Y65.71 I-0.31 J0
G1 X80.398
G18 G3 X80.088 Z-0.59 I0 K0.31
G1 Z5
Y65.09
Z0.4 F150
Z-0.89
G2 X80.398 Z-1.2 I0.31 K0
G1 X80.708
G17 G3 X81.018 Y65.4 I0 J0.31
X78.782 Y65.4 I-1.118 J0 F300
X81.018 Y65.4 I1.118 J0
X80.708 Y65.71 I-0.31 J0
G1 X80.398
G18 G3 X80.088 Z-0.89 I0 K0.31
G1 Z5
Y65.09
Z0.1 F150
Z-1.19
G2 X80.398 Z-1.5 I0.31 K0
G1 X80.708
G17 G3 X81.018 Y65.4 I0 J0.31
X78.782 Y65.4 I-1.118 J0 F300
X81.018 Y65.4 I1.118 J0
X80.708 Y65.71 I-0.31 J0
G1 X80.398
G18 G3 X80.088 Z-1.19 I0 K0.31
G1 Z5
Y65.09
Z-0.2 F150
Z-1.49
G2 X80.398 Z-1.8 I0.31 K0
G1 X80.708
G17 G3 X81.018 Y65.4 I0 J0.31
X78.782 Y65.4 I-1.118 J0 F300
X81.018 Y65.4 I1.118 J0
X80.708 Y65.71 I-0.31 J0
G1 X80.398
G18 G3 X80.088 Z-1.49 I0 K0.31
G1 Z5
Y65.09
Z-0.5 F150
Z-1.79
G2 X80.398 Z-2.1 I0.31 K0
G1 X80.708
G17 G3 X81.018 Y65.4 I0 J0.31
X78.782 Y65.4 I-1.118 J0 F300
X81.018 Y65.4 I1.118 J0
X80.708 Y65.71 I-0.31 J0
G1 X80.398
G18 G3 X80.088 Z-1.79 I0 K0.31
G1 Z5
Y65.09
Z-0.8 F150
Z-2.09
G2 X80.398 Z-2.4 I0.31 K0
G1 X80.708
G17 G3 X81.018 Y65.4 I0 J0.31
X78.782 Y65.4 I-1.118 J0 F300
X81.018 Y65.4 I1.118 J0
X80.708 Y65.71 I-0.31 J0
G1 X80.398
G18 G3 X80.088 Z-2.09 I0 K0.31
G1 Z5
Y65.09
Z-1.1 F150
Z-2.39
G2 X80.398 Z-2.7 I0.31 K0
G1 X80.708
G17 G3 X81.018 Y65.4 I0 J0.31
X78.782 Y65.4 I-1.118 J0 F300
X81.018 Y65.4 I1.118 J0
X80.708 Y65.71 I-0.31 J0
G1 X80.398
G18 G3 X80.088 Z-2.39 I0 K0.31
G1 Z5
Y65.09
Z-1.4 F150
Z-2.69
G2 X80.398 Z-3 I0.31 K0
G1 X80.708
G17 G3 X81.018 Y65.4 I0 J0.31
X78.782 Y65.4 I-1.118 J0 F300
X81.018 Y65.4 I1.118 J0
X80.708 Y65.71 I-0.31 J0
G1 X80.398
G18 G3 X80.088 Z-2.69 I0 K0.31
G1 Z5
Y65.09
Z-1.7 F150
Z-2.99
G2 X80.398 Z-3.3 I0.31 K0
G1 X80.708
G17 G3 X81.018 Y65.4 I0 J0.31
X78.782 Y65.4 I-1.118 J0 F300
X81.018 Y65.4 I1.118 J0
X80.708 Y65.71 I-0.31 J0
G1 X80.398
G18 G3 X80.088 Z-2.99 I0 K0.31
G1 Z5
Y65.09
Z-2 F150
Z-3.29
G2 X80.398 Z-3.6 I0.31 K0
G1 X80.708
G17 G3 X81.018 Y65.4 I0 J0.31
X78.782 Y65.4 I-1.118 J0 F300
X81.018 Y65.4 I1.118 J0
X80.708 Y65.71 I-0.31 J0
G1 X80.398
G18 G3 X80.088 Z-3.29 I0 K0.31
G1 Z5
Y65.09
Z-2.3 F150
Z-3.59
G2 X80.398 Z-3.9 I0.31 K0
G1 X80.708
G17 G3 X81.018 Y65.4 I0 J0.31
X78.782 Y65.4 I-1.118 J0 F300
X81.018 Y65.4 I1.118 J0
X80.708 Y65.71 I-0.31 J0
G1 X80.398
G18 G3 X80.088 Z-3.59 I0 K0.31
G1 Z5
Y65.09
Z-2.6 F150
Z-3.89
G2 X80.398 Z-4.2 I0.31 K0
G1 X80.708
G17 G3 X81.018 Y65.4 I0 J0.31
X78.782 Y65.4 I-1.118 J0 F300
X81.018 Y65.4 I1.118 J0
X80.708 Y65.71 I-0.31 J0
G1 X80.398
G18 G3 X80.088 Z-3.89 I0 K0.31
G1 Z5
Y65.09
Z-2.9 F150
Z-4.19
G2 X80.398 Z-4.5 I0.31 K0
G1 X80.708
G17 G3 X81.018 Y65.4 I0 J0.31
X78.782 Y65.4 I-1.118 J0 F300
X81.018 Y65.4 I1.118 J0
X80.708 Y65.71 I-0.31 J0
G1 X80.398
G18 G3 X80.088 Z-4.19 I0 K0.31
G1 Z5
Y65.09
Z-3.2 F150
Z-4.49
G2 X80.398 Z-4.8 I0.31 K0
G1 X80.708
G17 G3 X81.018 Y65.4 I0 J0.31
X78.782 Y65.4 I-1.118 J0 F300
X81.018 Y65.4 I1.118 J0
X80.708 Y65.71 I-0.31 J0
G1 X80.398
G18 G3 X80.088 Z-4.49 I0 K0.31
G1 Z5
Y65.09
Z-3.5 F150
Z-4.79
G2 X80.398 Z-5.1 I0.31 K0
G1 X80.708
G17 G3 X81.018 Y65.4 I0 J0.31
X78.782 Y65.4 I-1.118 J0 F300
X81.018 Y65.4 I1.118 J0
X80.708 Y65.71 I-0.31 J0
G1 X80.398
G18 G3 X80.088 Z-4.79 I0 K0.31
G1 Z5
Y65.09
Z-3.8 F150
Z-5.09
G2 X80.398 Z-5.4 I0.31 K0
G1 X80.708
G17 G3 X81.018 Y65.4 I0 J0.31
X78.782 Y65.4 I-1.118 J0 F300
X81.018 Y65.4 I1.118 J0
X80.708 Y65.71 I-0.31 J0
G1 X80.398
G18 G3 X80.088 Z-5.09 I0 K0.31
G1 Z5
Y65.09
Z-4.1 F150
Z-5.39
G2 X80.398 Z-5.7 I0.31 K0
G1 X80.708
G17 G3 X81.018 Y65.4 I0 J0.31
X78.782 Y65.4 I-1.118 J0 F300
X81.018 Y65.4 I1.118 J0
X80.708 Y65.71 I-0.31 J0
G1 X80.398
G18 G3 X80.088 Z-5.39 I0 K0.31
G1 Z5
Y65.09
Z-4.4 F150
Z-5.69
G2 X80.398 Z-6 I0.31 K0
G1 X80.708
G17 G3 X81.018 Y65.4 I0 J0.31
X78.782 Y65.4 I-1.118 J0 F300
X81.018 Y65.4 I1.118 J0
X80.708 Y65.71 I-0.31 J0
G1 X80.398
G18 G3 X80.088 Z-5.69 I0 K0.31
G1 Z5
Y65.09
Z-4.7 F150
Z-5.99
G2 X80.398 Z-6.3 I0.31 K0
G1 X80.708
G17 G3 X81.018 Y65.4 I0 J0.31
X78.782 Y65.4 I-1.118 J0 F300
X81.018 Y65.4 I1.118 J0
X80.708 Y65.71 I-0.31 J0
G1 X80.398
G18 G3 X80.088 Z-5.99 I0 K0.31
G1 Z5
Y65.09
Z-5 F150
Z-6.29
G2 X80.398 Z-6.6 I0.31 K0
G1 X80.708
G17 G3 X81.018 Y65.4 I0 J0.31
X78.782 Y65.4 I-1.118 J0 F300
X81.018 Y65.4 I1.118 J0
X80.708 Y65.71 I-0.31 J0
G1 X80.398
G18 G3 X80.088 Z-6.29 I0 K0.31
G1 Z5
Y65.09
Z-5.3 F150
Z-6.59
G2 X80.398 Z-6.9 I0.31 K0
G1 X80.708
G17 G3 X81.018 Y65.4 I0 J0.31
X78.782 Y65.4 I-1.118 J0 F300
X81.018 Y65.4 I1.118 J0
X80.708 Y65.71 I-0.31 J0
G1 X80.398
G18 G3 X80.088 Z-6.59 I0 K0.31
G1 Z5
Y65.09
Z-5.6 F150
Z-6.69
G2 X80.398 Z-7 I0.31 K0
G1 X80.708
G17 G3 X81.018 Y65.4 I0 J0.31
X78.782 Y65.4 I-1.118 J0 F300
X81.018 Y65.4 I1.118 J0
X80.708 Y65.71 I-0.31 J0
G1 X80.398
G18 G3 X80.088 Z-6.69 I0 K0.31
G1 Z5
X71.352 Y90.69
Z1.3 F150
Z0.01
G2 X71.662 Z-0.3 I0.31 K0
G1 X71.972
G17 G3 X72.282 Y91 I0 J0.31
X69.718 Y91 I-1.282 J0 F300
X72.282 Y91 I1.282 J0
X71.972 Y91.31 I-0.31 J0
G1 X71.662
G18 G3 X71.352 Z0.01 I0 K0.31
G1 Z5
Y90.69
Z1 F150
Z-0.29
G2 X71.662 Z-0.6 I0.31 K0
G1 X71.972
G17 G3 X72.282 Y91 I0 J0.31
X69.718 Y91 I-1.282 J0 F300
X72.282 Y91 I1.282 J0
X71.972 Y91.31 I-0.31 J0
G1 X71.662
G18 G3 X71.352 Z-0.29 I0 K0.31
G1 Z5
Y90.69
Z0.7 F150
Z-0.59
G2 X71.662 Z-0.9 I0.31 K0
G1 X71.972
G17 G3 X72.282 Y91 I0 J0.31
X69.718 Y91 I-1.282 J0 F300
X72.282 Y91 I1.282 J0
X71.972 Y91.31 I-0.31 J0
G1 X71.662
G18 G3 X71.352 Z-0.59 I0 K0.31
G1 Z5
Y90.69
Z0.4 F150
Z-0.89
G2 X71.662 Z-1.2 I0.31 K0
G1 X71.972
G17 G3 X72.282 Y91 I0 J0.31
X69.718 Y91 I-1.282 J0 F300
X72.282 Y91 I1.282 J0
X71.972 Y91.31 I-0.31 J0
G1 X71.662
G18 G3 X71.352 Z-0.89 I0 K0.31
G1 Z5
Y90.69
Z0.1 F150
Z-1.19
G2 X71.662 Z-1.5 I0.31 K0
G1 X71.972
G17 G3 X72.282 Y91 I0 J0.31
X69.718 Y91 I-1.282 J0 F300
X72.282 Y91 I1.282 J0
X71.972 Y91.31 I-0.31 J0
G1 X71.662
G18 G3 X71.352 Z-1.19 I0 K0.31
G1 Z5
Y90.69
Z-0.2 F150
Z-1.49
G2 X71.662 Z-1.8 I0.31 K0
G1 X71.972
G17 G3 X72.282 Y91 I0 J0.31
X69.718 Y91 I-1.282 J0 F300
X72.282 Y91 I1.282 J0
X71.972 Y91.31 I-0.31 J0
G1 X71.662
G18 G3 X71.352 Z-1.49 I0 K0.31
G1 Z5
Y90.69
Z-0.5 F150
Z-1.79
G2 X71.662 Z-2.1 I0.31 K0
G1 X71.972
G17 G3 X72.282 Y91 I0 J0.31
X69.718 Y91 I-1.282 J0 F300
X72.282 Y91 I1.282 J0
X71.972 Y91.31 I-0.31 J0
G1 X71.662
G18 G3 X71.352 Z-1.79 I0 K0.31
G1 Z5
Y90.69
Z-0.8 F150
Z-2.09
G2 X71.662 Z-2.4 I0.31 K0
G1 X71.972
G17 G3 X72.282 Y91 I0 J0.31
X69.718 Y91 I-1.282 J0 F300
X72.282 Y91 I1.282 J0
X71.972 Y91.31 I-0.31 J0
G1 X71.662
G18 G3 X71.352 Z-2.09 I0 K0.31
G1 Z5
Y90.69
Z-1.1 F150
Z-2.39
G2 X71.662 Z-2.7 I0.31 K0
G1 X71.972
G17 G3 X72.282 Y91 I0 J0.31
X69.718 Y91 I-1.282 J0 F300
X72.282 Y91 I1.282 J0
X71.972 Y91.31 I-0.31 J0
G1 X71.662
G18 G3 X71.352 Z-2.39 I0 K0.31
G1 Z5
Y90.69
Z-1.4 F150
Z-2.69
G2 X71.662 Z-3 I0.31 K0
G1 X71.972
G17 G3 X72.282 Y91 I0 J0.31
X69.718 Y91 I-1.282 J0 F300
X72.282 Y91 I1.282 J0
X71.972 Y91.31 I-0.31 J0
G1 X71.662
G18 G3 X71.352 Z-2.69 I0 K0.31
G1 Z5
Y90.69
Z-1.7 F150
Z-2.99
G2 X71.662 Z-3.3 I0.31 K0
G1 X71.972
G17 G3 X72.282 Y91 I0 J0.31
X69.718 Y91 I-1.282 J0 F300
X72.282 Y91 I1.282 J0
X71.972 Y91.31 I-0.31 J0
G1 X71.662
G18 G3 X71.352 Z-2.99 I0 K0.31
G1 Z5
Y90.69
Z-2 F150
Z-3.29
G2 X71.662 Z-3.6 I0.31 K0
G1 X71.972
G17 G3 X72.282 Y91 I0 J0.31
X69.718 Y91 I-1.282 J0 F300
X72.282 Y91 I1.282 J0
X71.972 Y91.31 I-0.31 J0
G1 X71.662
G18 G3 X71.352 Z-3.29 I0 K0.31
G1 Z5
Y90.69
Z-2.3 F150
Z-3.59
G2 X71.662 Z-3.9 I0.31 K0
G1 X71.972
G17 G3 X72.282 Y91 I0 J0.31
X69.718 Y91 I-1.282 J0 F300
X72.282 Y91 I1.282 J0
X71.972 Y91.31 I-0.31 J0
G1 X71.662
G18 G3 X71.352 Z-3.59 I0 K0.31
G1 Z5
Y90.69
Z-2.6 F150
Z-3.89
G2 X71.662 Z-4.2 I0.31 K0
G1 X71.972
G17 G3 X72.282 Y91 I0 J0.31
X69.718 Y91 I-1.282 J0 F300
X72.282 Y91 I1.282 J0
X71.972 Y91.31 I-0.31 J0
G1 X71.662
G18 G3 X71.352 Z-3.89 I0 K0.31
G1 Z5
Y90.69
Z-2.9 F150
Z-4.19
G2 X71.662 Z-4.5 I0.31 K0
G1 X71.972
G17 G3 X72.282 Y91 I0 J0.31
X69.718 Y91 I-1.282 J0 F300
X72.282 Y91 I1.282 J0
X71.972 Y91.31 I-0.31 J0
G1 X71.662
G18 G3 X71.352 Z-4.19 I0 K0.31
G1 Z5
Y90.69
Z-3.2 F150
Z-4.49
G2 X71.662 Z-4.8 I0.31 K0
G1 X71.972
G17 G3 X72.282 Y91 I0 J0.31
X69.718 Y91 I-1.282 J0 F300
X72.282 Y91 I1.282 J0
X71.972 Y91.31 I-0.31 J0
G1 X71.662
G18 G3 X71.352 Z-4.49 I0 K0.31
G1 Z5
Y90.69
Z-3.5 F150
Z-4.79
G2 X71.662 Z-5.1 I0.31 K0
G1 X71.972
G17 G3 X72.282 Y91 I0 J0.31
X69.718 Y91 I-1.282 J0 F300
X72.282 Y91 I1.282 J0
X71.972 Y91.31 I-0.31 J0
G1 X71.662
G18 G3 X71.352 Z-4.79 I0 K0.31
G1 Z5
Y90.69
Z-3.8 F150
Z-5.09
G2 X71.662 Z-5.4 I0.31 K0
G1 X71.972
G17 G3 X72.282 Y91 I0 J0.31
X69.718 Y91 I-1.282 J0 F300
X72.282 Y91 I1.282 J0
X71.972 Y91.31 I-0.31 J0
G1 X71.662
G18 G3 X71.352 Z-5.09 I0 K0.31
G1 Z5
Y90.69
Z-4.1 F150
Z-5.39
G2 X71.662 Z-5.7 I0.31 K0
G1 X71.972
G17 G3 X72.282 Y91 I0 J0.31
X69.718 Y91 I-1.282 J0 F300
X72.282 Y91 I1.282 J0
X71.972 Y91.31 I-0.31 J0
G1 X71.662
G18 G3 X71.352 Z-5.39 I0 K0.31
G1 Z5
Y90.69
Z-4.4 F150
Z-5.69
G2 X71.662 Z-6 I0.31 K0
G1 X71.972
G17 G3 X72.282 Y91 I0 J0.31
X69.718 Y91 I-1.282 J0 F300
X72.282 Y91 I1.282 J0
X71.972 Y91.31 I-0.31 J0
G1 X71.662
G18 G3 X71.352 Z-5.69 I0 K0.31
G1 Z5
Y90.69
Z-4.7 F150
Z-5.99
G2 X71.662 Z-6.3 I0.31 K0
G1 X71.972
G17 G3 X72.282 Y91 I0 J0.31
X69.718 Y91 I-1.282 J0 F300
X72.282 Y91 I1.282 J0
X71.972 Y91.31 I-0.31 J0
G1 X71.662
G18 G3 X71.352 Z-5.99 I0 K0.31
G1 Z5
Y90.69
Z-5 F150
Z-6.29
G2 X71.662 Z-6.6 I0.31 K0
G1 X71.972
G17 G3 X72.282 Y91 I0 J0.31
X69.718 Y91 I-1.282 J0 F300
X72.282 Y91 I1.282 J0
X71.972 Y91.31 I-0.31 J0
G1 X71.662
G18 G3 X71.352 Z-6.29 I0 K0.31
G1 Z5
Y90.69
Z-5.3 F150
Z-6.59
G2 X71.662 Z-6.9 I0.31 K0
G1 X71.972
G17 G3 X72.282 Y91 I0 J0.31
X69.718 Y91 I-1.282 J0 F300
X72.282 Y91 I1.282 J0
X71.972 Y91.31 I-0.31 J0
G1 X71.662
G18 G3 X71.352 Z-6.59 I0 K0.31
G1 Z5
Y90.69
Z-5.6 F150
Z-6.69
G2 X71.662 Z-7 I0.31 K0
G1 X71.972
G17 G3 X72.282 Y91 I0 J0.31
X69.718 Y91 I-1.282 J0 F300
X72.282 Y91 I1.282 J0
X71.972 Y91.31 I-0.31 J0
G1 X71.662
G18 G3 X71.352 Z-6.69 I0 K0.31
G1 Z5
X91.422 Y90.796
Z1.3 F150
Z0.01
X91.43 Y90.799 Z-0.059
X91.452 Y90.805 Z-0.125
X91.488 Y90.815 Z-0.183
X91.535 Y90.828 Z-0.232
X91.591 Y90.844 Z-0.269
X91.655 Y90.861 Z-0.292
X91.721 Y90.88 Z-0.3
X92.019 Y90.964
G17 G3 X92.234 Y91.346 I-0.084 J0.299
X89.766 Y90.654 I-1.234 J-0.346 F300
X92.234 Y91.346 I1.234 J0.346
X91.852 Y91.561 I-0.299 J-0.084
G1 X91.554 Y91.477
X91.487 Y91.458 Z-0.292
X91.424 Y91.441 Z-0.269
X91.368 Y91.425 Z-0.232
X91.32 Y91.412 Z-0.183
X91.285 Y91.402 Z-0.125
X91.263 Y91.396 Z-0.059
X91.255 Y91.393 Z0.01
Z5
X91.422 Y90.796
Z1 F150
Z-0.29
X91.43 Y90.799 Z-0.359
X91.452 Y90.805 Z-0.425
X91.488 Y90.815 Z-0.483
X91.535 Y90.828 Z-0.532
X91.591 Y90.844 Z-0.569
X91.655 Y90.861 Z-0.592
X91.721 Y90.88 Z-0.6
X92.019 Y90.964
G3 X92.234 Y91.346 I-0.084 J0.299
X89.766 Y90.654 I-1.234 J-0.346 F300
X92.234 Y91.346 I1.234 J0.346
X91.852 Y91.561 I-0.299 J-0.084
G1 X91.554 Y91.477
X91.487 Y91.458 Z-0.592
X91.424 Y91.441 Z-0.569
X91.368 Y91.425 Z-0.532
X91.32 Y91.412 Z-0.483
X91.285 Y91.402 Z-0.425
X91.263 Y91.396 Z-0.359
X91.255 Y91.393 Z-0.29
Z5
X91.422 Y90.796
Z0.7 F150
Z-0.59
X91.43 Y90.799 Z-0.659
X91.452 Y90.805 Z-0.725
X91.488 Y90.815 Z-0.783
X91.535 Y90.828 Z-0.832
X91.591 Y90.844 Z-0.869
X91.655 Y90.861 Z-0.892
X91.721 Y90.88 Z-0.9
X92.019 Y90.964
G3 X92.234 Y91.346 I-0.084 J0.299
X89.766 Y90.654 I-1.234 J-0.346 F300
X92.234 Y91.346 I1.234 J0.346
X91.852 Y91.561 I-0.299 J-0.084
G1 X91.554 Y91.477
X91.487 Y91.458 Z-0.892
X91.424 Y91.441 Z-0.869
X91.368 Y91.425 Z-0.832
X91.32 Y91.412 Z-0.783
X91.285 Y91.402 Z-0.725
X91.263 Y91.396 Z-0.659
X91.255 Y91.393 Z-0.59
Z5
X91.422 Y90.796
Z0.4 F150
Z-0.89
X91.43 Y90.799 Z-0.959
X91.452 Y90.805 Z-1.025
X91.488 Y90.815 Z-1.083
X91.535 Y90.828 Z-1.132
X91.591 Y90.844 Z-1.169
X91.655 Y90.861 Z-1.192
X91.721 Y90.88 Z-1.2
X92.019 Y90.964
G3 X92.234 Y91.346 I-0.084 J0.299
X89.766 Y90.654 I-1.234 J-0.346 F300
X92.234 Y91.346 I1.234 J0.346
X91.852 Y91.561 I-0.299 J-0.084
G1 X91.554 Y91.477
X91.487 Y91.458 Z-1.192
X91.424 Y91.441 Z-1.169
X91.368 Y91.425 Z-1.132
X91.32 Y91.412 Z-1.083
X91.285 Y91.402 Z-1.025
X91.263 Y91.396 Z-0.959
X91.255 Y91.393 Z-0.89
Z5
X91.422 Y90.796
Z0.1 F150
Z-1.19
X91.43 Y90.799 Z-1.259
X91.452 Y90.805 Z-1.325
X91.488 Y90.815 Z-1.383
X91.535 Y90.828 Z-1.432
X91.591 Y90.844 Z-1.469
X91.655 Y90.861 Z-1.492
X91.721 Y90.88 Z-1.5
X92.019 Y90.964
G3 X92.234 Y91.346 I-0.084 J0.299
X89.766 Y90.654 I-1.234 J-0.346 F300
X92.234 Y91.346 I1.234 J0.346
X91.852 Y91.561 I-0.299 J-0.084
G1 X91.554 Y91.477
X91.487 Y91.458 Z-1.492
X91.424 Y91.441 Z-1.469
X91.368 Y91.425 Z-1.432
X91.32 Y91.412 Z-1.383
X91.285 Y91.402 Z-1.325
X91.263 Y91.396 Z-1.259
X91.255 Y91.393 Z-1.19
Z5
X91.422 Y90.796
Z-0.2 F150
Z-1.49
X91.43 Y90.799 Z-1.559
X91.452 Y90.805 Z-1.625
X91.488 Y90.815 Z-1.683
X91.535 Y90.828 Z-1.732
X91.591 Y90.844 Z-1.769
X91.655 Y90.861 Z-1.792
X91.721 Y90.88 Z-1.8
X92.019 Y90.964
G3 X92.234 Y91.346 I-0.084 J0.299
X89.766 Y90.654 I-1.234 J-0.346 F300
X92.234 Y91.346 I1.234 J0.346
X91.852 Y91.561 I-0.299 J-0.084
G1 X91.554 Y91.477
X91.487 Y91.458 Z-1.792
X91.424 Y91.441 Z-1.769
X91.368 Y91.425 Z-1.732
X91.32 Y91.412 Z-1.683
X91.285 Y91.402 Z-1.625
X91.263 Y91.396 Z-1.559
X91.255 Y91.393 Z-1.49
Z5
X91.422 Y90.796
Z-0.5 F150
Z-1.79
X91.43 Y90.799 Z-1.859
X91.452 Y90.805 Z-1.925
X91.488 Y90.815 Z-1.983
X91.535 Y90.828 Z-2.032
X91.591 Y90.844 Z-2.069
X91.655 Y90.861 Z-2.092
X91.721 Y90.88 Z-2.1
X92.019 Y90.964
G3 X92.234 Y91.346 I-0.084 J0.299
X89.766 Y90.654 I-1.234 J-0.346 F300
X92.234 Y91.346 I1.234 J0.346
X91.852 Y91.561 I-0.299 J-0.084
G1 X91.554 Y91.477
X91.487 Y91.458 Z-2.092
X91.424 Y91.441 Z-2.069
X91.368 Y91.425 Z-2.032
X91.32 Y91.412 Z-1.983
X91.285 Y91.402 Z-1.925
X91.263 Y91.396 Z-1.859
X91.255 Y91.393 Z-1.79
Z5
X91.422 Y90.796
Z-0.8 F150
Z-2.09
X91.43 Y90.799 Z-2.159
X91.452 Y90.805 Z-2.225
X91.488 Y90.815 Z-2.283
X91.535 Y90.828 Z-2.332
X91.591 Y90.844 Z-2.369
X91.655 Y90.861 Z-2.392
X91.721 Y90.88 Z-2.4
X92.019 Y90.964
G3 X92.234 Y91.346 I-0.084 J0.299
X89.766 Y90.654 I-1.234 J-0.346 F300
X92.234 Y91.346 I1.234 J0.346
X91.852 Y91.561 I-0.299 J-0.084
G1 X91.554 Y91.477
X91.487 Y91.458 Z-2.392
X91.424 Y91.441 Z-2.369
X91.368 Y91.425 Z-2.332
X91.32 Y91.412 Z-2.283
X91.285 Y91.402 Z-2.225
X91.263 Y91.396 Z-2.159
X91.255 Y91.393 Z-2.09
Z5
X91.422 Y90.796
Z-1.1 F150
Z-2.39
X91.43 Y90.799 Z-2.459
X91.452 Y90.805 Z-2.525
X91.488 Y90.815 Z-2.583
X91.535 Y90.828 Z-2.632
X91.591 Y90.844 Z-2.669
X91.655 Y90.861 Z-2.692
X91.721 Y90.88 Z-2.7
X92.019 Y90.964
G3 X92.234 Y91.346 I-0.084 J0.299
X89.766 Y90.654 I-1.234 J-0.346 F300
X92.234 Y91.346 I1.234 J0.346
X91.852 Y91.561 I-0.299 J-0.084
G1 X91.554 Y91.477
X91.487 Y91.458 Z-2.692
X91.424 Y91.441 Z-2.669
X91.368 Y91.425 Z-2.632
X91.32 Y91.412 Z-2.583
X91.285 Y91.402 Z-2.525
X91.263 Y91.396 Z-2.459
X91.255 Y91.393 Z-2.39
Z5
X91.422 Y90.796
Z-1.4 F150
Z-2.69
X91.43 Y90.799 Z-2.759
X91.452 Y90.805 Z-2.825
X91.488 Y90.815 Z-2.883
X91.535 Y90.828 Z-2.932
X91.591 Y90.844 Z-2.969
X91.655 Y90.861 Z-2.992
X91.721 Y90.88 Z-3
X92.019 Y90.964
G3 X92.234 Y91.346 I-0.084 J0.299
X89.766 Y90.654 I-1.234 J-0.346 F300
X92.234 Y91.346 I1.234 J0.346
X91.852 Y91.561 I-0.299 J-0.084
G1 X91.554 Y91.477
X91.487 Y91.458 Z-2.992
X91.424 Y91.441 Z-2.969
X91.368 Y91.425 Z-2.932
X91.32 Y91.412 Z-2.883
X91.285 Y91.402 Z-2.825
X91.263 Y91.396 Z-2.759
X91.255 Y91.393 Z-2.69
Z5
X91.422 Y90.796
Z-1.7 F150
Z-2.99
X91.43 Y90.799 Z-3.059
X91.452 Y90.805 Z-3.125
X91.488 Y90.815 Z-3.183
X91.535 Y90.828 Z-3.232
X91.591 Y90.844 Z-3.269
X91.655 Y90.861 Z-3.292
X91.721 Y90.88 Z-3.3
X92.019 Y90.964
G3 X92.234 Y91.346 I-0.084 J0.299
X89.766 Y90.654 I-1.234 J-0.346 F300
X92.234 Y91.346 I1.234 J0.346
X91.852 Y91.561 I-0.299 J-0.084
G1 X91.554 Y91.477
X91.487 Y91.458 Z-3.292
X91.424 Y91.441 Z-3.269
X91.368 Y91.425 Z-3.232
X91.32 Y91.412 Z-3.183
X91.285 Y91.402 Z-3.125
X91.263 Y91.396 Z-3.059
X91.255 Y91.393 Z-2.99
Z5
X91.422 Y90.796
Z-2 F150
Z-3.29
X91.43 Y90.799 Z-3.359
X91.452 Y90.805 Z-3.425
X91.488 Y90.815 Z-3.483
X91.535 Y90.828 Z-3.532
X91.591 Y90.844 Z-3.569
X91.655 Y90.861 Z-3.592
X91.721 Y90.88 Z-3.6
X92.019 Y90.964
G3 X92.234 Y91.346 I-0.084 J0.299
X89.766 Y90.654 I-1.234 J-0.346 F300
X92.234 Y91.346 I1.234 J0.346
X91.852 Y91.561 I-0.299 J-0.084
G1 X91.554 Y91.477
X91.487 Y91.458 Z-3.592
X91.424 Y91.441 Z-3.569
X91.368 Y91.425 Z-3.532
X91.32 Y91.412 Z-3.483
X91.285 Y91.402 Z-3.425
X91.263 Y91.396 Z-3.359
X91.255 Y91.393 Z-3.29
Z5
X91.422 Y90.796
Z-2.3 F150
Z-3.59
X91.43 Y90.799 Z-3.659
X91.452 Y90.805 Z-3.725
X91.488 Y90.815 Z-3.783
X91.535 Y90.828 Z-3.832
X91.591 Y90.844 Z-3.869
X91.655 Y90.861 Z-3.892
X91.721 Y90.88 Z-3.9
X92.019 Y90.964
G3 X92.234 Y91.346 I-0.084 J0.299
X89.766 Y90.654 I-1.234 J-0.346 F300
X92.234 Y91.346 I1.234 J0.346
X91.852 Y91.561 I-0.299 J-0.084
G1 X91.554 Y91.477
X91.487 Y91.458 Z-3.892
X91.424 Y91.441 Z-3.869
X91.368 Y91.425 Z-3.832
X91.32 Y91.412 Z-3.783
X91.285 Y91.402 Z-3.725
X91.263 Y91.396 Z-3.659
X91.255 Y91.393 Z-3.59
Z5
X91.422 Y90.796
Z-2.6 F150
Z-3.89
X91.43 Y90.799 Z-3.959
X91.452 Y90.805 Z-4.025
X91.488 Y90.815 Z-4.083
X91.535 Y90.828 Z-4.132
X91.591 Y90.844 Z-4.169
X91.655 Y90.861 Z-4.192
X91.721 Y90.88 Z-4.2
X92.019 Y90.964
G3 X92.234 Y91.346 I-0.084 J0.299
X89.766 Y90.654 I-1.234 J-0.346 F300
X92.234 Y91.346 I1.234 J0.346
X91.852 Y91.561 I-0.299 J-0.084
G1 X91.554 Y91.477
X91.487 Y91.458 Z-4.192
X91.424 Y91.441 Z-4.169
X91.368 Y91.425 Z-4.132
X91.32 Y91.412 Z-4.083
X91.285 Y91.402 Z-4.025
X91.263 Y91.396 Z-3.959
X91.255 Y91.393 Z-3.89
Z5
X91.422 Y90.796
Z-2.9 F150
Z-4.19
X91.43 Y90.799 Z-4.259
X91.452 Y90.805 Z-4.325
X91.488 Y90.815 Z-4.383
X91.535 Y90.828 Z-4.432
X91.591 Y90.844 Z-4.469
X91.655 Y90.861 Z-4.492
X91.721 Y90.88 Z-4.5
X92.019 Y90.964
G3 X92.234 Y91.346 I-0.084 J0.299
X89.766 Y90.654 I-1.234 J-0.346 F300
X92.234 Y91.346 I1.234 J0.346
X91.852 Y91.561 I-0.299 J-0.084
G1 X91.554 Y91.477
X91.487 Y91.458 Z-4.492
X91.424 Y91.441 Z-4.469
X91.368 Y91.425 Z-4.432
X91.32 Y91.412 Z-4.383
X91.285 Y91.402 Z-4.325
X91.263 Y91.396 Z-4.259
X91.255 Y91.393 Z-4.19
Z5
X91.422 Y90.796
Z-3.2 F150
Z-4.49
X91.43 Y90.799 Z-4.559
X91.452 Y90.805 Z-4.625
X91.488 Y90.815 Z-4.683
X91.535 Y90.828 Z-4.732
X91.591 Y90.844 Z-4.769
X91.655 Y90.861 Z-4.792
X91.721 Y90.88 Z-4.8
X92.019 Y90.964
G3 X92.234 Y91.346 I-0.084 J0.299
X89.766 Y90.654 I-1.234 J-0.346 F300
X92.234 Y91.346 I1.234 J0.346
X91.852 Y91.561 I-0.299 J-0.084
G1 X91.554 Y91.477
X91.487 Y91.458 Z-4.792
X91.424 Y91.441 Z-4.769
X91.368 Y91.425 Z-4.732
X91.32 Y91.412 Z-4.683
X91.285 Y91.402 Z-4.625
X91.263 Y91.396 Z-4.559
X91.255 Y91.393 Z-4.49
Z5
X91.422 Y90.796
Z-3.5 F150
Z-4.79
X91.43 Y90.799 Z-4.859
X91.452 Y90.805 Z-4.925
X91.488 Y90.815 Z-4.983
X91.535 Y90.828 Z-5.032
X91.591 Y90.844 Z-5.069
X91.655 Y90.861 Z-5.092
X91.721 Y90.88 Z-5.1
X92.019 Y90.964
G3 X92.234 Y91.346 I-0.084 J0.299
X89.766 Y90.654 I-1.234 J-0.346 F300
X92.234 Y91.346 I1.234 J0.346
X91.852 Y91.561 I-0.299 J-0.084
G1 X91.554 Y91.477
X91.487 Y91.458 Z-5.092
X91.424 Y91.441 Z-5.069
X91.368 Y91.425 Z-5.032
X91.32 Y91.412 Z-4.983
X91.285 Y91.402 Z-4.925
X91.263 Y91.396 Z-4.859
X91.255 Y91.393 Z-4.79
Z5
X91.422 Y90.796
Z-3.8 F150
Z-5.09
X91.43 Y90.799 Z-5.159
X91.452 Y90.805 Z-5.225
X91.488 Y90.815 Z-5.283
X91.535 Y90.828 Z-5.332
X91.591 Y90.844 Z-5.369
X91.655 Y90.861 Z-5.392
X91.721 Y90.88 Z-5.4
X92.019 Y90.964
G3 X92.234 Y91.346 I-0.084 J0.299
X89.766 Y90.654 I-1.234 J-0.346 F300
X92.234 Y91.346 I1.234 J0.346
X91.852 Y91.561 I-0.299 J-0.084
G1 X91.554 Y91.477
X91.487 Y91.458 Z-5.392
X91.424 Y91.441 Z-5.369
X91.368 Y91.425 Z-5.332
X91.32 Y91.412 Z-5.283
X91.285 Y91.402 Z-5.225
X91.263 Y91.396 Z-5.159
X91.255 Y91.393 Z-5.09
Z5
X91.422 Y90.796
Z-4.1 F150
Z-5.39
X91.43 Y90.799 Z-5.459
X91.452 Y90.805 Z-5.525
X91.488 Y90.815 Z-5.583
X91.535 Y90.828 Z-5.632
X91.591 Y90.844 Z-5.669
X91.655 Y90.861 Z-5.692
X91.721 Y90.88 Z-5.7
X92.019 Y90.964
G3 X92.234 Y91.346 I-0.084 J0.299
X89.766 Y90.654 I-1.234 J-0.346 F300
X92.234 Y91.346 I1.234 J0.346
X91.852 Y91.561 I-0.299 J-0.084
G1 X91.554 Y91.477
X91.487 Y91.458 Z-5.692
X91.424 Y91.441 Z-5.669
X91.368 Y91.425 Z-5.632
X91.32 Y91.412 Z-5.583
X91.285 Y91.402 Z-5.525
X91.263 Y91.396 Z-5.459
X91.255 Y91.393 Z-5.39
Z5
X91.422 Y90.796
Z-4.4 F150
Z-5.69
X91.43 Y90.799 Z-5.759
X91.452 Y90.805 Z-5.825
X91.488 Y90.815 Z-5.883
X91.535 Y90.828 Z-5.932
X91.591 Y90.844 Z-5.969
X91.655 Y90.861 Z-5.992
X91.721 Y90.88 Z-6
X92.019 Y90.964
G3 X92.234 Y91.346 I-0.084 J0.299
X89.766 Y90.654 I-1.234 J-0.346 F300
X92.234 Y91.346 I1.234 J0.346
X91.852 Y91.561 I-0.299 J-0.084
G1 X91.554 Y91.477
X91.487 Y91.458 Z-5.992
X91.424 Y91.441 Z-5.969
X91.368 Y91.425 Z-5.932
X91.32 Y91.412 Z-5.883
X91.285 Y91.402 Z-5.825
X91.263 Y91.396 Z-5.759
X91.255 Y91.393 Z-5.69
Z5
X91.422 Y90.796
Z-4.7 F150
Z-5.99
X91.43 Y90.799 Z-6.059
X91.452 Y90.805 Z-6.125
X91.488 Y90.815 Z-6.183
X91.535 Y90.828 Z-6.232
X91.591 Y90.844 Z-6.269
X91.655 Y90.861 Z-6.292
X91.721 Y90.88 Z-6.3
X92.019 Y90.964
G3 X92.234 Y91.346 I-0.084 J0.299
X89.766 Y90.654 I-1.234 J-0.346 F300
X92.234 Y91.346 I1.234 J0.346
X91.852 Y91.561 I-0.299 J-0.084
G1 X91.554 Y91.477
X91.487 Y91.458 Z-6.292
X91.424 Y91.441 Z-6.269
X91.368 Y91.425 Z-6.232
X91.32 Y91.412 Z-6.183
X91.285 Y91.402 Z-6.125
X91.263 Y91.396 Z-6.059
X91.255 Y91.393 Z-5.99
Z5
X91.422 Y90.796
Z-5 F150
Z-6.29
X91.43 Y90.799 Z-6.359
X91.452 Y90.805 Z-6.425
X91.488 Y90.815 Z-6.483
X91.535 Y90.828 Z-6.532
X91.591 Y90.844 Z-6.569
X91.655 Y90.861 Z-6.592
X91.721 Y90.88 Z-6.6
X92.019 Y90.964
G3 X92.234 Y91.346 I-0.084 J0.299
X89.766 Y90.654 I-1.234 J-0.346 F300
X92.234 Y91.346 I1.234 J0.346
X91.852 Y91.561 I-0.299 J-0.084
G1 X91.554 Y91.477
X91.487 Y91.458 Z-6.592
X91.424 Y91.441 Z-6.569
X91.368 Y91.425 Z-6.532
X91.32 Y91.412 Z-6.483
X91.285 Y91.402 Z-6.425
X91.263 Y91.396 Z-6.359
X91.255 Y91.393 Z-6.29
Z5
X91.422 Y90.796
Z-5.3 F150
Z-6.59
X91.43 Y90.799 Z-6.659
X91.452 Y90.805 Z-6.725
X91.488 Y90.815 Z-6.783
X91.535 Y90.828 Z-6.832
X91.591 Y90.844 Z-6.869
X91.655 Y90.861 Z-6.892
X91.721 Y90.88 Z-6.9
X92.019 Y90.964
G3 X92.234 Y91.346 I-0.084 J0.299
X89.766 Y90.654 I-1.234 J-0.346 F300
X92.234 Y91.346 I1.234 J0.346
X91.852 Y91.561 I-0.299 J-0.084
G1 X91.554 Y91.477
X91.487 Y91.458 Z-6.892
X91.424 Y91.441 Z-6.869
X91.368 Y91.425 Z-6.832
X91.32 Y91.412 Z-6.783
X91.285 Y91.402 Z-6.725
X91.263 Y91.396 Z-6.659
X91.255 Y91.393 Z-6.59
Z5
X91.422 Y90.796
Z-5.6 F150
Z-6.69
X91.43 Y90.799 Z-6.759
X91.452 Y90.805 Z-6.825
X91.488 Y90.815 Z-6.883
X91.535 Y90.828 Z-6.932
X91.591 Y90.844 Z-6.969
X91.655 Y90.861 Z-6.992
X91.721 Y90.88 Z-7
X92.019 Y90.964
G3 X92.234 Y91.346 I-0.084 J0.299
X89.766 Y90.654 I-1.234 J-0.346 F300
X92.234 Y91.346 I1.234 J0.346
X91.852 Y91.561 I-0.299 J-0.084
G1 X91.554 Y91.477
X91.487 Y91.458 Z-6.992
X91.424 Y91.441 Z-6.969
X91.368 Y91.425 Z-6.932
X91.32 Y91.412 Z-6.883
X91.285 Y91.402 Z-6.825
X91.263 Y91.396 Z-6.759
X91.255 Y91.393 Z-6.69
Z5
X111.352 Y90.69
Z1.3 F150
Z0.01
G18 G2 X111.662 Z-0.3 I0.31 K0
G1 X111.972
G17 G3 X112.282 Y91 I0 J0.31
X109.718 Y91 I-1.282 J0 F300
X112.282 Y91 I1.282 J0
X111.972 Y91.31 I-0.31 J0
G1 X111.662
G18 G3 X111.352 Z0.01 I0 K0.31
G1 Z5
Y90.69
Z1 F150
Z-0.29
G2 X111.662 Z-0.6 I0.31 K0
G1 X111.972
G17 G3 X112.282 Y91 I0 J0.31
X109.718 Y91 I-1.282 J0 F300
X112.282 Y91 I1.282 J0
X111.972 Y91.31 I-0.31 J0
G1 X111.662
G18 G3 X111.352 Z-0.29 I0 K0.31
G1 Z5
Y90.69
Z0.7 F150
Z-0.59
G2 X111.662 Z-0.9 I0.31 K0
G1 X111.972
G17 G3 X112.282 Y91 I0 J0.31
X109.718 Y91 I-1.282 J0 F300
X112.282 Y91 I1.282 J0
X111.972 Y91.31 I-0.31 J0
G1 X111.662
G18 G3 X111.352 Z-0.59 I0 K0.31
G1 Z5
Y90.69
Z0.4 F150
Z-0.89
G2 X111.662 Z-1.2 I0.31 K0
G1 X111.972
G17 G3 X112.282 Y91 I0 J0.31
X109.718 Y91 I-1.282 J0 F300
X112.282 Y91 I1.282 J0
X111.972 Y91.31 I-0.31 J0
G1 X111.662
G18 G3 X111.352 Z-0.89 I0 K0.31
G1 Z5
Y90.69
Z0.1 F150
Z-1.19
G2 X111.662 Z-1.5 I0.31 K0
G1 X111.972
G17 G3 X112.282 Y91 I0 J0.31
X109.718 Y91 I-1.282 J0 F300
X112.282 Y91 I1.282 J0
X111.972 Y91.31 I-0.31 J0
G1 X111.662
G18 G3 X111.352 Z-1.19 I0 K0.31
G1 Z5
Y90.69
Z-0.2 F150
Z-1.49
G2 X111.662 Z-1.8 I0.31 K0
G1 X111.972
G17 G3 X112.282 Y91 I0 J0.31
X109.718 Y91 I-1.282 J0 F300
X112.282 Y91 I1.282 J0
X111.972 Y91.31 I-0.31 J0
G1 X111.662
G18 G3 X111.352 Z-1.49 I0 K0.31
G1 Z5
Y90.69
Z-0.5 F150
Z-1.79
G2 X111.662 Z-2.1 I0.31 K0
G1 X111.972
G17 G3 X112.282 Y91 I0 J0.31
X109.718 Y91 I-1.282 J0 F300
X112.282 Y91 I1.282 J0
X111.972 Y91.31 I-0.31 J0
G1 X111.662
G18 G3 X111.352 Z-1.79 I0 K0.31
G1 Z5
Y90.69
Z-0.8 F150
Z-2.09
G2 X111.662 Z-2.4 I0.31 K0
G1 X111.972
G17 G3 X112.282 Y91 I0 J0.31
X109.718 Y91 I-1.282 J0 F300
X112.282 Y91 I1.282 J0
X111.972 Y91.31 I-0.31 J0
G1 X111.662
G18 G3 X111.352 Z-2.09 I0 K0.31
G1 Z5
Y90.69
Z-1.1 F150
Z-2.39
G2 X111.662 Z-2.7 I0.31 K0
G1 X111.972
G17 G3 X112.282 Y91 I0 J0.31
X109.718 Y91 I-1.282 J0 F300
X112.282 Y91 I1.282 J0
X111.972 Y91.31 I-0.31 J0
G1 X111.662
G18 G3 X111.352 Z-2.39 I0 K0.31
G1 Z5
Y90.69
Z-1.4 F150
Z-2.69
G2 X111.662 Z-3 I0.31 K0
G1 X111.972
G17 G3 X112.282 Y91 I0 J0.31
X109.718 Y91 I-1.282 J0 F300
X112.282 Y91 I1.282 J0
X111.972 Y91.31 I-0.31 J0
G1 X111.662
G18 G3 X111.352 Z-2.69 I0 K0.31
G1 Z5
Y90.69
Z-1.7 F150
Z-2.99
G2 X111.662 Z-3.3 I0.31 K0
G1 X111.972
G17 G3 X112.282 Y91 I0 J0.31
X109.718 Y91 I-1.282 J0 F300
X112.282 Y91 I1.282 J0
X111.972 Y91.31 I-0.31 J0
G1 X111.662
G18 G3 X111.352 Z-2.99 I0 K0.31
G1 Z5
Y90.69
Z-2 F150
Z-3.29
G2 X111.662 Z-3.6 I0.31 K0
G1 X111.972
G17 G3 X112.282 Y91 I0 J0.31
X109.718 Y91 I-1.282 J0 F300
X112.282 Y91 I1.282 J0
X111.972 Y91.31 I-0.31 J0
G1 X111.662
G18 G3 X111.352 Z-3.29 I0 K0.31
G1 Z5
Y90.69
Z-2.3 F150
Z-3.59
G2 X111.662 Z-3.9 I0.31 K0
G1 X111.972
G17 G3 X112.282 Y91 I0 J0.31
X109.718 Y91 I-1.282 J0 F300
X112.282 Y91 I1.282 J0
X111.972 Y91.31 I-0.31 J0
G1 X111.662
G18 G3 X111.352 Z-3.59 I0 K0.31
G1 Z5
Y90.69
Z-2.6 F150
Z-3.89
G2 X111.662 Z-4.2 I0.31 K0
G1 X111.972
G17 G3 X112.282 Y91 I0 J0.31
X109.718 Y91 I-1.282 J0 F300
X112.282 Y91 I1.282 J0
X111.972 Y91.31 I-0.31 J0
G1 X111.662
G18 G3 X111.352 Z-3.89 I0 K0.31
G1 Z5
Y90.69
Z-2.9 F150
Z-4.19
G2 X111.662 Z-4.5 I0.31 K0
G1 X111.972
G17 G3 X112.282 Y91 I0 J0.31
X109.718 Y91 I-1.282 J0 F300
X112.282 Y91 I1.282 J0
X111.972 Y91.31 I-0.31 J0
G1 X111.662
G18 G3 X111.352 Z-4.19 I0 K0.31
G1 Z5
Y90.69
Z-3.2 F150
Z-4.49
G2 X111.662 Z-4.8 I0.31 K0
G1 X111.972
G17 G3 X112.282 Y91 I0 J0.31
X109.718 Y91 I-1.282 J0 F300
X112.282 Y91 I1.282 J0
X111.972 Y91.31 I-0.31 J0
G1 X111.662
G18 G3 X111.352 Z-4.49 I0 K0.31
G1 Z5
Y90.69
Z-3.5 F150
Z-4.79
G2 X111.662 Z-5.1 I0.31 K0
G1 X111.972
G17 G3 X112.282 Y91 I0 J0.31
X109.718 Y91 I-1.282 J0 F300
X112.282 Y91 I1.282 J0
X111.972 Y91.31 I-0.31 J0
G1 X111.662
G18 G3 X111.352 Z-4.79 I0 K0.31
G1 Z5
Y90.69
Z-3.8 F150
Z-5.09
G2 X111.662 Z-5.4 I0.31 K0
G1 X111.972
G17 G3 X112.282 Y91 I0 J0.31
X109.718 Y91 I-1.282 J0 F300
X112.282 Y91 I1.282 J0
X111.972 Y91.31 I-0.31 J0
G1 X111.662
G18 G3 X111.352 Z-5.09 I0 K0.31
G1 Z5
Y90.69
Z-4.1 F150
Z-5.39
G2 X111.662 Z-5.7 I0.31 K0
G1 X111.972
G17 G3 X112.282 Y91 I0 J0.31
X109.718 Y91 I-1.282 J0 F300
X112.282 Y91 I1.282 J0
X111.972 Y91.31 I-0.31 J0
G1 X111.662
G18 G3 X111.352 Z-5.39 I0 K0.31
G1 Z5
Y90.69
Z-4.4 F150
Z-5.69
G2 X111.662 Z-6 I0.31 K0
G1 X111.972
G17 G3 X112.282 Y91 I0 J0.31
X109.718 Y91 I-1.282 J0 F300
X112.282 Y91 I1.282 J0
X111.972 Y91.31 I-0.31 J0
G1 X111.662
G18 G3 X111.352 Z-5.69 I0 K0.31
G1 Z5
Y90.69
Z-4.7 F150
Z-5.99
G2 X111.662 Z-6.3 I0.31 K0
G1 X111.972
G17 G3 X112.282 Y91 I0 J0.31
X109.718 Y91 I-1.282 J0 F300
X112.282 Y91 I1.282 J0
X111.972 Y91.31 I-0.31 J0
G1 X111.662
G18 G3 X111.352 Z-5.99 I0 K0.31
G1 Z5
Y90.69
Z-5 F150
Z-6.29
G2 X111.662 Z-6.6 I0.31 K0
G1 X111.972
G17 G3 X112.282 Y91 I0 J0.31
X109.718 Y91 I-1.282 J0 F300
X112.282 Y91 I1.282 J0
X111.972 Y91.31 I-0.31 J0
G1 X111.662
G18 G3 X111.352 Z-6.29 I0 K0.31
G1 Z5
Y90.69
Z-5.3 F150
Z-6.59
G2 X111.662 Z-6.9 I0.31 K0
G1 X111.972
G17 G3 X112.282 Y91 I0 J0.31
X109.718 Y91 I-1.282 J0 F300
X112.282 Y91 I1.282 J0
X111.972 Y91.31 I-0.31 J0
G1 X111.662
G18 G3 X111.352 Z-6.59 I0 K0.31
G1 Z5
Y90.69
Z-5.6 F150
Z-6.69
G2 X111.662 Z-7 I0.31 K0
G1 X111.972
G17 G3 X112.282 Y91 I0 J0.31
X109.718 Y91 I-1.282 J0 F300
X112.282 Y91 I1.282 J0
X111.972 Y91.31 I-0.31 J0
G1 X111.662
G18 G3 X111.352 Z-6.69 I0 K0.31
G1 Z5
X51.352 Y90.69
Z1.3 F150
Z0.01
G2 X51.662 Z-0.3 I0.31 K0
G1 X51.972
G17 G3 X52.282 Y91 I0 J0.31
X49.718 Y91 I-1.282 J0 F300
X52.282 Y91 I1.282 J0
X51.972 Y91.31 I-0.31 J0
G1 X51.662
G18 G3 X51.352 Z0.01 I0 K0.31
G1 Z5
Y90.69
Z1 F150
Z-0.29
G2 X51.662 Z-0.6 I0.31 K0
G1 X51.972
G17 G3 X52.282 Y91 I0 J0.31
X49.718 Y91 I-1.282 J0 F300
X52.282 Y91 I1.282 J0
X51.972 Y91.31 I-0.31 J0
G1 X51.662
G18 G3 X51.352 Z-0.29 I0 K0.31
G1 Z5
Y90.69
Z0.7 F150
Z-0.59
G2 X51.662 Z-0.9 I0.31 K0
G1 X51.972
G17 G3 X52.282 Y91 I0 J0.31
X49.718 Y91 I-1.282 J0 F300
X52.282 Y91 I1.282 J0
X51.972 Y91.31 I-0.31 J0
G1 X51.662
G18 G3 X51.352 Z-0.59 I0 K0.31
G1 Z5
Y90.69
Z0.4 F150
Z-0.89
G2 X51.662 Z-1.2 I0.31 K0
G1 X51.972
G17 G3 X52.282 Y91 I0 J0.31
X49.718 Y91 I-1.282 J0 F300
X52.282 Y91 I1.282 J0
X51.972 Y91.31 I-0.31 J0
G1 X51.662
G18 G3 X51.352 Z-0.89 I0 K0.31
G1 Z5
Y90.69
Z0.1 F150
Z-1.19
G2 X51.662 Z-1.5 I0.31 K0
G1 X51.972
G17 G3 X52.282 Y91 I0 J0.31
X49.718 Y91 I-1.282 J0 F300
X52.282 Y91 I1.282 J0
X51.972 Y91.31 I-0.31 J0
G1 X51.662
G18 G3 X51.352 Z-1.19 I0 K0.31
G1 Z5
Y90.69
Z-0.2 F150
Z-1.49
G2 X51.662 Z-1.8 I0.31 K0
G1 X51.972
G17 G3 X52.282 Y91 I0 J0.31
X49.718 Y91 I-1.282 J0 F300
X52.282 Y91 I1.282 J0
X51.972 Y91.31 I-0.31 J0
G1 X51.662
G18 G3 X51.352 Z-1.49 I0 K0.31
G1 Z5
Y90.69
Z-0.5 F150
Z-1.79
G2 X51.662 Z-2.1 I0.31 K0
G1 X51.972
G17 G3 X52.282 Y91 I0 J0.31
X49.718 Y91 I-1.282 J0 F300
X52.282 Y91 I1.282 J0
X51.972 Y91.31 I-0.31 J0
G1 X51.662
G18 G3 X51.352 Z-1.79 I0 K0.31
G1 Z5
Y90.69
Z-0.8 F150
Z-2.09
G2 X51.662 Z-2.4 I0.31 K0
G1 X51.972
G17 G3 X52.282 Y91 I0 J0.31
X49.718 Y91 I-1.282 J0 F300
X52.282 Y91 I1.282 J0
X51.972 Y91.31 I-0.31 J0
G1 X51.662
G18 G3 X51.352 Z-2.09 I0 K0.31
G1 Z5
Y90.69
Z-1.1 F150
Z-2.39
G2 X51.662 Z-2.7 I0.31 K0
G1 X51.972
G17 G3 X52.282 Y91 I0 J0.31
X49.718 Y91 I-1.282 J0 F300
X52.282 Y91 I1.282 J0
X51.972 Y91.31 I-0.31 J0
G1 X51.662
G18 G3 X51.352 Z-2.39 I0 K0.31
G1 Z5
Y90.69
Z-1.4 F150
Z-2.69
G2 X51.662 Z-3 I0.31 K0
G1 X51.972
G17 G3 X52.282 Y91 I0 J0.31
X49.718 Y91 I-1.282 J0 F300
X52.282 Y91 I1.282 J0
X51.972 Y91.31 I-0.31 J0
G1 X51.662
G18 G3 X51.352 Z-2.69 I0 K0.31
G1 Z5
Y90.69
Z-1.7 F150
Z-2.99
G2 X51.662 Z-3.3 I0.31 K0
G1 X51.972
G17 G3 X52.282 Y91 I0 J0.31
X49.718 Y91 I-1.282 J0 F300
X52.282 Y91 I1.282 J0
X51.972 Y91.31 I-0.31 J0
G1 X51.662
G18 G3 X51.352 Z-2.99 I0 K0.31
G1 Z5
Y90.69
Z-2 F150
Z-3.29
G2 X51.662 Z-3.6 I0.31 K0
G1 X51.972
G17 G3 X52.282 Y91 I0 J0.31
X49.718 Y91 I-1.282 J0 F300
X52.282 Y91 I1.282 J0
X51.972 Y91.31 I-0.31 J0
G1 X51.662
G18 G3 X51.352 Z-3.29 I0 K0.31
G1 Z5
Y90.69
Z-2.3 F150
Z-3.59
G2 X51.662 Z-3.9 I0.31 K0
G1 X51.972
G17 G3 X52.282 Y91 I0 J0.31
X49.718 Y91 I-1.282 J0 F300
X52.282 Y91 I1.282 J0
X51.972 Y91.31 I-0.31 J0
G1 X51.662
G18 G3 X51.352 Z-3.59 I0 K0.31
G1 Z5
Y90.69
Z-2.6 F150
Z-3.89
G2 X51.662 Z-4.2 I0.31 K0
G1 X51.972
G17 G3 X52.282 Y91 I0 J0.31
X49.718 Y91 I-1.282 J0 F300
X52.282 Y91 I1.282 J0
X51.972 Y91.31 I-0.31 J0
G1 X51.662
G18 G3 X51.352 Z-3.89 I0 K0.31
G1 Z5
Y90.69
Z-2.9 F150
Z-4.19
G2 X51.662 Z-4.5 I0.31 K0
G1 X51.972
G17 G3 X52.282 Y91 I0 J0.31
X49.718 Y91 I-1.282 J0 F300
X52.282 Y91 I1.282 J0
X51.972 Y91.31 I-0.31 J0
G1 X51.662
G18 G3 X51.352 Z-4.19 I0 K0.31
G1 Z5
Y90.69
Z-3.2 F150
Z-4.49
G2 X51.662 Z-4.8 I0.31 K0
G1 X51.972
G17 G3 X52.282 Y91 I0 J0.31
X49.718 Y91 I-1.282 J0 F300
X52.282 Y91 I1.282 J0
X51.972 Y91.31 I-0.31 J0
G1 X51.662
G18 G3 X51.352 Z-4.49 I0 K0.31
G1 Z5
Y90.69
Z-3.5 F150
Z-4.79
G2 X51.662 Z-5.1 I0.31 K0
G1 X51.972
G17 G3 X52.282 Y91 I0 J0.31
X49.718 Y91 I-1.282 J0 F300
X52.282 Y91 I1.282 J0
X51.972 Y91.31 I-0.31 J0
G1 X51.662
G18 G3 X51.352 Z-4.79 I0 K0.31
G1 Z5
Y90.69
Z-3.8 F150
Z-5.09
G2 X51.662 Z-5.4 I0.31 K0
G1 X51.972
G17 G3 X52.282 Y91 I0 J0.31
X49.718 Y91 I-1.282 J0 F300
X52.282 Y91 I1.282 J0
X51.972 Y91.31 I-0.31 J0
G1 X51.662
G18 G3 X51.352 Z-5.09 I0 K0.31
G1 Z5
Y90.69
Z-4.1 F150
Z-5.39
G2 X51.662 Z-5.7 I0.31 K0
G1 X51.972
G17 G3 X52.282 Y91 I0 J0.31
X49.718 Y91 I-1.282 J0 F300
X52.282 Y91 I1.282 J0
X51.972 Y91.31 I-0.31 J0
G1 X51.662
G18 G3 X51.352 Z-5.39 I0 K0.31
G1 Z5
Y90.69
Z-4.4 F150
Z-5.69
G2 X51.662 Z-6 I0.31 K0
G1 X51.972
G17 G3 X52.282 Y91 I0 J0.31
X49.718 Y91 I-1.282 J0 F300
X52.282 Y91 I1.282 J0
X51.972 Y91.31 I-0.31 J0
G1 X51.662
G18 G3 X51.352 Z-5.69 I0 K0.31
G1 Z5
Y90.69
Z-4.7 F150
Z-5.99
G2 X51.662 Z-6.3 I0.31 K0
G1 X51.972
G17 G3 X52.282 Y91 I0 J0.31
X49.718 Y91 I-1.282 J0 F300
X52.282 Y91 I1.282 J0
X51.972 Y91.31 I-0.31 J0
G1 X51.662
G18 G3 X51.352 Z-5.99 I0 K0.31
G1 Z5
Y90.69
Z-5 F150
Z-6.29
G2 X51.662 Z-6.6 I0.31 K0
G1 X51.972
G17 G3 X52.282 Y91 I0 J0.31
X49.718 Y91 I-1.282 J0 F300
X52.282 Y91 I1.282 J0
X51.972 Y91.31 I-0.31 J0
G1 X51.662
G18 G3 X51.352 Z-6.29 I0 K0.31
G1 Z5
Y90.69
Z-5.3 F150
Z-6.59
G2 X51.662 Z-6.9 I0.31 K0
G1 X51.972
G17 G3 X52.282 Y91 I0 J0.31
X49.718 Y91 I-1.282 J0 F300
X52.282 Y91 I1.282 J0
X51.972 Y91.31 I-0.31 J0
G1 X51.662
G18 G3 X51.352 Z-6.59 I0 K0.31
G1 Z5
Y90.69
Z-5.6 F150
Z-6.69
G2 X51.662 Z-7 I0.31 K0
G1 X51.972
G17 G3 X52.282 Y91 I0 J0.31
X49.718 Y91 I-1.282 J0 F300
X52.282 Y91 I1.282 J0
X51.972 Y91.31 I-0.31 J0
G1 X51.662
G18 G3 X51.352 Z-6.69 I0 K0.31
G1 Z5
X31.352 Y90.69
Z1.3 F150
Z0.01
G2 X31.662 Z-0.3 I0.31 K0
G1 X31.972
G17 G3 X32.282 Y91 I0 J0.31
X29.718 Y91 I-1.282 J0 F300
X32.282 Y91 I1.282 J0
X31.972 Y91.31 I-0.31 J0
G1 X31.662
G18 G3 X31.352 Z0.01 I0 K0.31
G1 Z5
Y90.69
Z1 F150
Z-0.29
G2 X31.662 Z-0.6 I0.31 K0
G1 X31.972
G17 G3 X32.282 Y91 I0 J0.31
X29.718 Y91 I-1.282 J0 F300
X32.282 Y91 I1.282 J0
X31.972 Y91.31 I-0.31 J0
G1 X31.662
G18 G3 X31.352 Z-0.29 I0 K0.31
G1 Z5
Y90.69
Z0.7 F150
Z-0.59
G2 X31.662 Z-0.9 I0.31 K0
G1 X31.972
G17 G3 X32.282 Y91 I0 J0.31
X29.718 Y91 I-1.282 J0 F300
X32.282 Y91 I1.282 J0
X31.972 Y91.31 I-0.31 J0
G1 X31.662
G18 G3 X31.352 Z-0.59 I0 K0.31
G1 Z5
Y90.69
Z0.4 F150
Z-0.89
G2 X31.662 Z-1.2 I0.31 K0
G1 X31.972
G17 G3 X32.282 Y91 I0 J0.31
X29.718 Y91 I-1.282 J0 F300
X32.282 Y91 I1.282 J0
X31.972 Y91.31 I-0.31 J0
G1 X31.662
G18 G3 X31.352 Z-0.89 I0 K0.31
G1 Z5
Y90.69
Z0.1 F150
Z-1.19
G2 X31.662 Z-1.5 I0.31 K0
G1 X31.972
G17 G3 X32.282 Y91 I0 J0.31
X29.718 Y91 I-1.282 J0 F300
X32.282 Y91 I1.282 J0
X31.972 Y91.31 I-0.31 J0
G1 X31.662
G18 G3 X31.352 Z-1.19 I0 K0.31
G1 Z5
Y90.69
Z-0.2 F150
Z-1.49
G2 X31.662 Z-1.8 I0.31 K0
G1 X31.972
G17 G3 X32.282 Y91 I0 J0.31
X29.718 Y91 I-1.282 J0 F300
X32.282 Y91 I1.282 J0
X31.972 Y91.31 I-0.31 J0
G1 X31.662
G18 G3 X31.352 Z-1.49 I0 K0.31
G1 Z5
Y90.69
Z-0.5 F150
Z-1.79
G2 X31.662 Z-2.1 I0.31 K0
G1 X31.972
G17 G3 X32.282 Y91 I0 J0.31
X29.718 Y91 I-1.282 J0 F300
X32.282 Y91 I1.282 J0
X31.972 Y91.31 I-0.31 J0
G1 X31.662
G18 G3 X31.352 Z-1.79 I0 K0.31
G1 Z5
Y90.69
Z-0.8 F150
Z-2.09
G2 X31.662 Z-2.4 I0.31 K0
G1 X31.972
G17 G3 X32.282 Y91 I0 J0.31
X29.718 Y91 I-1.282 J0 F300
X32.282 Y91 I1.282 J0
X31.972 Y91.31 I-0.31 J0
G1 X31.662
G18 G3 X31.352 Z-2.09 I0 K0.31
G1 Z5
Y90.69
Z-1.1 F150
Z-2.39
G2 X31.662 Z-2.7 I0.31 K0
G1 X31.972
G17 G3 X32.282 Y91 I0 J0.31
X29.718 Y91 I-1.282 J0 F300
X32.282 Y91 I1.282 J0
X31.972 Y91.31 I-0.31 J0
G1 X31.662
G18 G3 X31.352 Z-2.39 I0 K0.31
G1 Z5
Y90.69
Z-1.4 F150
Z-2.69
G2 X31.662 Z-3 I0.31 K0
G1 X31.972
G17 G3 X32.282 Y91 I0 J0.31
X29.718 Y91 I-1.282 J0 F300
X32.282 Y91 I1.282 J0
X31.972 Y91.31 I-0.31 J0
G1 X31.662
G18 G3 X31.352 Z-2.69 I0 K0.31
G1 Z5
Y90.69
Z-1.7 F150
Z-2.99
G2 X31.662 Z-3.3 I0.31 K0
G1 X31.972
G17 G3 X32.282 Y91 I0 J0.31
X29.718 Y91 I-1.282 J0 F300
X32.282 Y91 I1.282 J0
X31.972 Y91.31 I-0.31 J0
G1 X31.662
G18 G3 X31.352 Z-2.99 I0 K0.31
G1 Z5
Y90.69
Z-2 F150
Z-3.29
G2 X31.662 Z-3.6 I0.31 K0
G1 X31.972
G17 G3 X32.282 Y91 I0 J0.31
X29.718 Y91 I-1.282 J0 F300
X32.282 Y91 I1.282 J0
X31.972 Y91.31 I-0.31 J0
G1 X31.662
G18 G3 X31.352 Z-3.29 I0 K0.31
G1 Z5
Y90.69
Z-2.3 F150
Z-3.59
G2 X31.662 Z-3.9 I0.31 K0
G1 X31.972
G17 G3 X32.282 Y91 I0 J0.31
X29.718 Y91 I-1.282 J0 F300
X32.282 Y91 I1.282 J0
X31.972 Y91.31 I-0.31 J0
G1 X31.662
G18 G3 X31.352 Z-3.59 I0 K0.31
G1 Z5
Y90.69
Z-2.6 F150
Z-3.89
G2 X31.662 Z-4.2 I0.31 K0
G1 X31.972
G17 G3 X32.282 Y91 I0 J0.31
X29.718 Y91 I-1.282 J0 F300
X32.282 Y91 I1.282 J0
X31.972 Y91.31 I-0.31 J0
G1 X31.662
G18 G3 X31.352 Z-3.89 I0 K0.31
G1 Z5
Y90.69
Z-2.9 F150
Z-4.19
G2 X31.662 Z-4.5 I0.31 K0
G1 X31.972
G17 G3 X32.282 Y91 I0 J0.31
X29.718 Y91 I-1.282 J0 F300
X32.282 Y91 I1.282 J0
X31.972 Y91.31 I-0.31 J0
G1 X31.662
G18 G3 X31.352 Z-4.19 I0 K0.31
G1 Z5
Y90.69
Z-3.2 F150
Z-4.49
G2 X31.662 Z-4.8 I0.31 K0
G1 X31.972
G17 G3 X32.282 Y91 I0 J0.31
X29.718 Y91 I-1.282 J0 F300
X32.282 Y91 I1.282 J0
X31.972 Y91.31 I-0.31 J0
G1 X31.662
G18 G3 X31.352 Z-4.49 I0 K0.31
G1 Z5
Y90.69
Z-3.5 F150
Z-4.79
G2 X31.662 Z-5.1 I0.31 K0
G1 X31.972
G17 G3 X32.282 Y91 I0 J0.31
X29.718 Y91 I-1.282 J0 F300
X32.282 Y91 I1.282 J0
X31.972 Y91.31 I-0.31 J0
G1 X31.662
G18 G3 X31.352 Z-4.79 I0 K0.31
G1 Z5
Y90.69
Z-3.8 F150
Z-5.09
G2 X31.662 Z-5.4 I0.31 K0
G1 X31.972
G17 G3 X32.282 Y91 I0 J0.31
X29.718 Y91 I-1.282 J0 F300
X32.282 Y91 I1.282 J0
X31.972 Y91.31 I-0.31 J0
G1 X31.662
G18 G3 X31.352 Z-5.09 I0 K0.31
G1 Z5
Y90.69
Z-4.1 F150
Z-5.39
G2 X31.662 Z-5.7 I0.31 K0
G1 X31.972
G17 G3 X32.282 Y91 I0 J0.31
X29.718 Y91 I-1.282 J0 F300
X32.282 Y91 I1.282 J0
X31.972 Y91.31 I-0.31 J0
G1 X31.662
G18 G3 X31.352 Z-5.39 I0 K0.31
G1 Z5
Y90.69
Z-4.4 F150
Z-5.69
G2 X31.662 Z-6 I0.31 K0
G1 X31.972
G17 G3 X32.282 Y91 I0 J0.31
X29.718 Y91 I-1.282 J0 F300
X32.282 Y91 I1.282 J0
X31.972 Y91.31 I-0.31 J0
G1 X31.662
G18 G3 X31.352 Z-5.69 I0 K0.31
G1 Z5
Y90.69
Z-4.7 F150
Z-5.99
G2 X31.662 Z-6.3 I0.31 K0
G1 X31.972
G17 G3 X32.282 Y91 I0 J0.31
X29.718 Y91 I-1.282 J0 F300
X32.282 Y91 I1.282 J0
X31.972 Y91.31 I-0.31 J0
G1 X31.662
G18 G3 X31.352 Z-5.99 I0 K0.31
G1 Z5
Y90.69
Z-5 F150
Z-6.29
G2 X31.662 Z-6.6 I0.31 K0
G1 X31.972
G17 G3 X32.282 Y91 I0 J0.31
X29.718 Y91 I-1.282 J0 F300
X32.282 Y91 I1.282 J0
X31.972 Y91.31 I-0.31 J0
G1 X31.662
G18 G3 X31.352 Z-6.29 I0 K0.31
G1 Z5
Y90.69
Z-5.3 F150
Z-6.59
G2 X31.662 Z-6.9 I0.31 K0
G1 X31.972
G17 G3 X32.282 Y91 I0 J0.31
X29.718 Y91 I-1.282 J0 F300
X32.282 Y91 I1.282 J0
X31.972 Y91.31 I-0.31 J0
G1 X31.662
G18 G3 X31.352 Z-6.59 I0 K0.31
G1 Z5
Y90.69
Z-5.6 F150
Z-6.69
G2 X31.662 Z-7 I0.31 K0
G1 X31.972
G17 G3 X32.282 Y91 I0 J0.31
X29.718 Y91 I-1.282 J0 F300
X32.282 Y91 I1.282 J0
X31.972 Y91.31 I-0.31 J0
G1 X31.662
G18 G3 X31.352 Z-6.69 I0 K0.31
G1 Z5
X10.702 Y90.638
Z1.3 F150
Z0.01
Y90.63 Z-0.059
X10.703 Y90.607 Z-0.125
X10.704 Y90.57 Z-0.183
X10.706 Y90.521 Z-0.232
X10.708 Y90.463 Z-0.269
X10.71 Y90.397 Z-0.292
X10.712 Y90.328 Z-0.3
X10.723 Y90.018
G17 G3 X11.043 Y89.719 I0.31 J0.01
X12.282 Y91 I-0.043 J1.281 F300
X9.718 Y91 I-1.282 J0
X11.043 Y89.719 I1.282 J0
X11.342 Y90.039 I-0.01 J0.31
G1 X11.332 Y90.349
X11.33 Y90.418 Z-0.292
X11.327 Y90.483 Z-0.269
X11.325 Y90.542 Z-0.232
X11.324 Y90.591 Z-0.183
X11.323 Y90.628 Z-0.125
X11.322 Y90.651 Z-0.059
Y90.659 Z0.01
Z5
X10.702 Y90.638
Z1 F150
Z-0.29
Y90.63 Z-0.359
X10.703 Y90.607 Z-0.425
X10.704 Y90.57 Z-0.483
X10.706 Y90.521 Z-0.532
X10.708 Y90.463 Z-0.569
X10.71 Y90.397 Z-0.592
X10.712 Y90.328 Z-0.6
X10.723 Y90.018
G3 X11.043 Y89.719 I0.31 J0.01
X12.282 Y91 I-0.043 J1.281 F300
X9.718 Y91 I-1.282 J0
X11.043 Y89.719 I1.282 J0
X11.342 Y90.039 I-0.01 J0.31
G1 X11.332 Y90.349
X11.33 Y90.418 Z-0.592
X11.327 Y90.483 Z-0.569
X11.325 Y90.542 Z-0.532
X11.324 Y90.591 Z-0.483
X11.323 Y90.628 Z-0.425
X11.322 Y90.651 Z-0.359
Y90.659 Z-0.29
Z5
X10.702 Y90.638
Z0.7 F150
Z-0.59
Y90.63 Z-0.659
X10.703 Y90.607 Z-0.725
X10.704 Y90.57 Z-0.783
X10.706 Y90.521 Z-0.832
X10.708 Y90.463 Z-0.869
X10.71 Y90.397 Z-0.892
X10.712 Y90.328 Z-0.9
X10.723 Y90.018
G3 X11.043 Y89.719 I0.31 J0.01
X12.282 Y91 I-0.043 J1.281 F300
X9.718 Y91 I-1.282 J0
X11.043 Y89.719 I1.282 J0
X11.342 Y90.039 I-0.01 J0.31
G1 X11.332 Y90.349
X11.33 Y90.418 Z-0.892
X11.327 Y90.483 Z-0.869
X11.325 Y90.542 Z-0.832
X11.324 Y90.591 Z-0.783
X11.323 Y90.628 Z-0.725
X11.322 Y90.651 Z-0.659
Y90.659 Z-0.59
Z5
X10.702 Y90.638
Z0.4 F150
Z-0.89
Y90.63 Z-0.959
X10.703 Y90.607 Z-1.025
X10.704 Y90.57 Z-1.083
X10.706 Y90.521 Z-1.132
X10.708 Y90.463 Z-1.169
X10.71 Y90.397 Z-1.192
X10.712 Y90.328 Z-1.2
X10.723 Y90.018
G3 X11.043 Y89.719 I0.31 J0.01
X12.282 Y91 I-0.043 J1.281 F300
X9.718 Y91 I-1.282 J0
X11.043 Y89.719 I1.282 J0
X11.342 Y90.039 I-0.01 J0.31
G1 X11.332 Y90.349
X11.33 Y90.418 Z-1.192
X11.327 Y90.483 Z-1.169
X11.325 Y90.542 Z-1.132
X11.324 Y90.591 Z-1.083
X11.323 Y90.628 Z-1.025
X11.322 Y90.651 Z-0.959
Y90.659 Z-0.89
Z5
X10.702 Y90.638
Z0.1 F150
Z-1.19
Y90.63 Z-1.259
X10.703 Y90.607 Z-1.325
X10.704 Y90.57 Z-1.383
X10.706 Y90.521 Z-1.432
X10.708 Y90.463 Z-1.469
X10.71 Y90.397 Z-1.492
X10.712 Y90.328 Z-1.5
X10.723 Y90.018
G3 X11.043 Y89.719 I0.31 J0.01
X12.282 Y91 I-0.043 J1.281 F300
X9.718 Y91 I-1.282 J0
X11.043 Y89.719 I1.282 J0
X11.342 Y90.039 I-0.01 J0.31
G1 X11.332 Y90.349
X11.33 Y90.418 Z-1.492
X11.327 Y90.483 Z-1.469
X11.325 Y90.542 Z-1.432
X11.324 Y90.591 Z-1.383
X11.323 Y90.628 Z-1.325
X11.322 Y90.651 Z-1.259
Y90.659 Z-1.19
Z5
X10.702 Y90.638
Z-0.2 F150
Z-1.49
Y90.63 Z-1.559
X10.703 Y90.607 Z-1.625
X10.704 Y90.57 Z-1.683
X10.706 Y90.521 Z-1.732
X10.708 Y90.463 Z-1.769
X10.71 Y90.397 Z-1.792
X10.712 Y90.328 Z-1.8
X10.723 Y90.018
G3 X11.043 Y89.719 I0.31 J0.01
X12.282 Y91 I-0.043 J1.281 F300
X9.718 Y91 I-1.282 J0
X11.043 Y89.719 I1.282 J0
X11.342 Y90.039 I-0.01 J0.31
G1 X11.332 Y90.349
X11.33 Y90.418 Z-1.792
X11.327 Y90.483 Z-1.769
X11.325 Y90.542 Z-1.732
X11.324 Y90.591 Z-1.683
X11.323 Y90.628 Z-1.625
X11.322 Y90.651 Z-1.559
Y90.659 Z-1.49
Z5
X10.702 Y90.638
Z-0.5 F150
Z-1.79
Y90.63 Z-1.859
X10.703 Y90.607 Z-1.925
X10.704 Y90.57 Z-1.983
X10.706 Y90.521 Z-2.032
X10.708 Y90.463 Z-2.069
X10.71 Y90.397 Z-2.092
X10.712 Y90.328 Z-2.1
X10.723 Y90.018
G3 X11.043 Y89.719 I0.31 J0.01
X12.282 Y91 I-0.043 J1.281 F300
X9.718 Y91 I-1.282 J0
X11.043 Y89.719 I1.282 J0
X11.342 Y90.039 I-0.01 J0.31
G1 X11.332 Y90.349
X11.33 Y90.418 Z-2.092
X11.327 Y90.483 Z-2.069
X11.325 Y90.542 Z-2.032
X11.324 Y90.591 Z-1.983
X11.323 Y90.628 Z-1.925
X11.322 Y90.651 Z-1.859
Y90.659 Z-1.79
Z5
X10.702 Y90.638
Z-0.8 F150
Z-2.09
Y90.63 Z-2.159
X10.703 Y90.607 Z-2.225
X10.704 Y90.57 Z-2.283
X10.706 Y90.521 Z-2.332
X10.708 Y90.463 Z-2.369
X10.71 Y90.397 Z-2.392
X10.712 Y90.328 Z-2.4
X10.723 Y90.018
G3 X11.043 Y89.719 I0.31 J0.01
X12.282 Y91 I-0.043 J1.281 F300
X9.718 Y91 I-1.282 J0
X11.043 Y89.719 I1.282 J0
X11.342 Y90.039 I-0.01 J0.31
G1 X11.332 Y90.349
X11.33 Y90.418 Z-2.392
X11.327 Y90.483 Z-2.369
X11.325 Y90.542 Z-2.332
X11.324 Y90.591 Z-2.283
X11.323 Y90.628 Z-2.225
X11.322 Y90.651 Z-2.159
Y90.659 Z-2.09
Z5
X10.702 Y90.638
Z-1.1 F150
Z-2.39
Y90.63 Z-2.459
X10.703 Y90.607 Z-2.525
X10.704 Y90.57 Z-2.583
X10.706 Y90.521 Z-2.632
X10.708 Y90.463 Z-2.669
X10.71 Y90.397 Z-2.692
X10.712 Y90.328 Z-2.7
X10.723 Y90.018
G3 X11.043 Y89.719 I0.31 J0.01
X12.282 Y91 I-0.043 J1.281 F300
X9.718 Y91 I-1.282 J0
X11.043 Y89.719 I1.282 J0
X11.342 Y90.039 I-0.01 J0.31
G1 X11.332 Y90.349
X11.33 Y90.418 Z-2.692
X11.327 Y90.483 Z-2.669
X11.325 Y90.542 Z-2.632
X11.324 Y90.591 Z-2.583
X11.323 Y90.628 Z-2.525
X11.322 Y90.651 Z-2.459
Y90.659 Z-2.39
Z5
X10.702 Y90.638
Z-1.4 F150
Z-2.69
Y90.63 Z-2.759
X10.703 Y90.607 Z-2.825
X10.704 Y90.57 Z-2.883
X10.706 Y90.521 Z-2.932
X10.708 Y90.463 Z-2.969
X10.71 Y90.397 Z-2.992
X10.712 Y90.328 Z-3
X10.723 Y90.018
G3 X11.043 Y89.719 I0.31 J0.01
X12.282 Y91 I-0.043 J1.281 F300
X9.718 Y91 I-1.282 J0
X11.043 Y89.719 I1.282 J0
X11.342 Y90.039 I-0.01 J0.31
G1 X11.332 Y90.349
X11.33 Y90.418 Z-2.992
X11.327 Y90.483 Z-2.969
X11.325 Y90.542 Z-2.932
X11.324 Y90.591 Z-2.883
X11.323 Y90.628 Z-2.825
X11.322 Y90.651 Z-2.759
Y90.659 Z-2.69
Z5
X10.702 Y90.638
Z-1.7 F150
Z-2.99
Y90.63 Z-3.059
X10.703 Y90.607 Z-3.125
X10.704 Y90.57 Z-3.183
X10.706 Y90.521 Z-3.232
X10.708 Y90.463 Z-3.269
X10.71 Y90.397 Z-3.292
X10.712 Y90.328 Z-3.3
X10.723 Y90.018
G3 X11.043 Y89.719 I0.31 J0.01
X12.282 Y91 I-0.043 J1.281 F300
X9.718 Y91 I-1.282 J0
X11.043 Y89.719 I1.282 J0
X11.342 Y90.039 I-0.01 J0.31
G1 X11.332 Y90.349
X11.33 Y90.418 Z-3.292
X11.327 Y90.483 Z-3.269
X11.325 Y90.542 Z-3.232
X11.324 Y90.591 Z-3.183
X11.323 Y90.628 Z-3.125
X11.322 Y90.651 Z-3.059
Y90.659 Z-2.99
Z5
X10.702 Y90.638
Z-2 F150
Z-3.29
Y90.63 Z-3.359
X10.703 Y90.607 Z-3.425
X10.704 Y90.57 Z-3.483
X10.706 Y90.521 Z-3.532
X10.708 Y90.463 Z-3.569
X10.71 Y90.397 Z-3.592
X10.712 Y90.328 Z-3.6
X10.723 Y90.018
G3 X11.043 Y89.719 I0.31 J0.01
X12.282 Y91 I-0.043 J1.281 F300
X9.718 Y91 I-1.282 J0
X11.043 Y89.719 I1.282 J0
X11.342 Y90.039 I-0.01 J0.31
G1 X11.332 Y90.349
X11.33 Y90.418 Z-3.592
X11.327 Y90.483 Z-3.569
X11.325 Y90.542 Z-3.532
X11.324 Y90.591 Z-3.483
X11.323 Y90.628 Z-3.425
X11.322 Y90.651 Z-3.359
Y90.659 Z-3.29
Z5
X10.702 Y90.638
Z-2.3 F150
Z-3.59
Y90.63 Z-3.659
X10.703 Y90.607 Z-3.725
X10.704 Y90.57 Z-3.783
X10.706 Y90.521 Z-3.832
X10.708 Y90.463 Z-3.869
X10.71 Y90.397 Z-3.892
X10.712 Y90.328 Z-3.9
X10.723 Y90.018
G3 X11.043 Y89.719 I0.31 J0.01
X12.282 Y91 I-0.043 J1.281 F300
X9.718 Y91 I-1.282 J0
X11.043 Y89.719 I1.282 J0
X11.342 Y90.039 I-0.01 J0.31
G1 X11.332 Y90.349
X11.33 Y90.418 Z-3.892
X11.327 Y90.483 Z-3.869
X11.325 Y90.542 Z-3.832
X11.324 Y90.591 Z-3.783
X11.323 Y90.628 Z-3.725
X11.322 Y90.651 Z-3.659
Y90.659 Z-3.59
Z5
X10.702 Y90.638
Z-2.6 F150
Z-3.89
Y90.63 Z-3.959
X10.703 Y90.607 Z-4.025
X10.704 Y90.57 Z-4.083
X10.706 Y90.521 Z-4.132
X10.708 Y90.463 Z-4.169
X10.71 Y90.397 Z-4.192
X10.712 Y90.328 Z-4.2
X10.723 Y90.018
G3 X11.043 Y89.719 I0.31 J0.01
X12.282 Y91 I-0.043 J1.281 F300
X9.718 Y91 I-1.282 J0
X11.043 Y89.719 I1.282 J0
X11.342 Y90.039 I-0.01 J0.31
G1 X11.332 Y90.349
X11.33 Y90.418 Z-4.192
X11.327 Y90.483 Z-4.169
X11.325 Y90.542 Z-4.132
X11.324 Y90.591 Z-4.083
X11.323 Y90.628 Z-4.025
X11.322 Y90.651 Z-3.959
Y90.659 Z-3.89
Z5
X10.702 Y90.638
Z-2.9 F150
Z-4.19
Y90.63 Z-4.259
X10.703 Y90.607 Z-4.325
X10.704 Y90.57 Z-4.383
X10.706 Y90.521 Z-4.432
X10.708 Y90.463 Z-4.469
X10.71 Y90.397 Z-4.492
X10.712 Y90.328 Z-4.5
X10.723 Y90.018
G3 X11.043 Y89.719 I0.31 J0.01
X12.282 Y91 I-0.043 J1.281 F300
X9.718 Y91 I-1.282 J0
X11.043 Y89.719 I1.282 J0
X11.342 Y90.039 I-0.01 J0.31
G1 X11.332 Y90.349
X11.33 Y90.418 Z-4.492
X11.327 Y90.483 Z-4.469
X11.325 Y90.542 Z-4.432
X11.324 Y90.591 Z-4.383
X11.323 Y90.628 Z-4.325
X11.322 Y90.651 Z-4.259
Y90.659 Z-4.19
Z5
X10.702 Y90.638
Z-3.2 F150
Z-4.49
Y90.63 Z-4.559
X10.703 Y90.607 Z-4.625
X10.704 Y90.57 Z-4.683
X10.706 Y90.521 Z-4.732
X10.708 Y90.463 Z-4.769
X10.71 Y90.397 Z-4.792
X10.712 Y90.328 Z-4.8
X10.723 Y90.018
G3 X11.043 Y89.719 I0.31 J0.01
X12.282 Y91 I-0.043 J1.281 F300
X9.718 Y91 I-1.282 J0
X11.043 Y89.719 I1.282 J0
X11.342 Y90.039 I-0.01 J0.31
G1 X11.332 Y90.349
X11.33 Y90.418 Z-4.792
X11.327 Y90.483 Z-4.769
X11.325 Y90.542 Z-4.732
X11.324 Y90.591 Z-4.683
X11.323 Y90.628 Z-4.625
X11.322 Y90.651 Z-4.559
Y90.659 Z-4.49
Z5
X10.702 Y90.638
Z-3.5 F150
Z-4.79
Y90.63 Z-4.859
X10.703 Y90.607 Z-4.925
X10.704 Y90.57 Z-4.983
X10.706 Y90.521 Z-5.032
X10.708 Y90.463 Z-5.069
X10.71 Y90.397 Z-5.092
X10.712 Y90.328 Z-5.1
X10.723 Y90.018
G3 X11.043 Y89.719 I0.31 J0.01
X12.282 Y91 I-0.043 J1.281 F300
X9.718 Y91 I-1.282 J0
X11.043 Y89.719 I1.282 J0
X11.342 Y90.039 I-0.01 J0.31
G1 X11.332 Y90.349
X11.33 Y90.418 Z-5.092
X11.327 Y90.483 Z-5.069
X11.325 Y90.542 Z-5.032
X11.324 Y90.591 Z-4.983
X11.323 Y90.628 Z-4.925
X11.322 Y90.651 Z-4.859
Y90.659 Z-4.79
Z5
X10.702 Y90.638
Z-3.8 F150
Z-5.09
Y90.63 Z-5.159
X10.703 Y90.607 Z-5.225
X10.704 Y90.57 Z-5.283
X10.706 Y90.521 Z-5.332
X10.708 Y90.463 Z-5.369
X10.71 Y90.397 Z-5.392
X10.712 Y90.328 Z-5.4
X10.723 Y90.018
G3 X11.043 Y89.719 I0.31 J0.01
X12.282 Y91 I-0.043 J1.281 F300
X9.718 Y91 I-1.282 J0
X11.043 Y89.719 I1.282 J0
X11.342 Y90.039 I-0.01 J0.31
G1 X11.332 Y90.349
X11.33 Y90.418 Z-5.392
X11.327 Y90.483 Z-5.369
X11.325 Y90.542 Z-5.332
X11.324 Y90.591 Z-5.283
X11.323 Y90.628 Z-5.225
X11.322 Y90.651 Z-5.159
Y90.659 Z-5.09
Z5
X10.702 Y90.638
Z-4.1 F150
Z-5.39
Y90.63 Z-5.459
X10.703 Y90.607 Z-5.525
X10.704 Y90.57 Z-5.583
X10.706 Y90.521 Z-5.632
X10.708 Y90.463 Z-5.669
X10.71 Y90.397 Z-5.692
X10.712 Y90.328 Z-5.7
X10.723 Y90.018
G3 X11.043 Y89.719 I0.31 J0.01
X12.282 Y91 I-0.043 J1.281 F300
X9.718 Y91 I-1.282 J0
X11.043 Y89.719 I1.282 J0
X11.342 Y90.039 I-0.01 J0.31
G1 X11.332 Y90.349
X11.33 Y90.418 Z-5.692
X11.327 Y90.483 Z-5.669
X11.325 Y90.542 Z-5.632
X11.324 Y90.591 Z-5.583
X11.323 Y90.628 Z-5.525
X11.322 Y90.651 Z-5.459
Y90.659 Z-5.39
Z5
X10.702 Y90.638
Z-4.4 F150
Z-5.69
Y90.63 Z-5.759
X10.703 Y90.607 Z-5.825
X10.704 Y90.57 Z-5.883
X10.706 Y90.521 Z-5.932
X10.708 Y90.463 Z-5.969
X10.71 Y90.397 Z-5.992
X10.712 Y90.328 Z-6
X10.723 Y90.018
G3 X11.043 Y89.719 I0.31 J0.01
X12.282 Y91 I-0.043 J1.281 F300
X9.718 Y91 I-1.282 J0
X11.043 Y89.719 I1.282 J0
X11.342 Y90.039 I-0.01 J0.31
G1 X11.332 Y90.349
X11.33 Y90.418 Z-5.992
X11.327 Y90.483 Z-5.969
X11.325 Y90.542 Z-5.932
X11.324 Y90.591 Z-5.883
X11.323 Y90.628 Z-5.825
X11.322 Y90.651 Z-5.759
Y90.659 Z-5.69
Z5
X10.702 Y90.638
Z-4.7 F150
Z-5.99
Y90.63 Z-6.059
X10.703 Y90.607 Z-6.125
X10.704 Y90.57 Z-6.183
X10.706 Y90.521 Z-6.232
X10.708 Y90.463 Z-6.269
X10.71 Y90.397 Z-6.292
X10.712 Y90.328 Z-6.3
X10.723 Y90.018
G3 X11.043 Y89.719 I0.31 J0.01
X12.282 Y91 I-0.043 J1.281 F300
X9.718 Y91 I-1.282 J0
X11.043 Y89.719 I1.282 J0
X11.342 Y90.039 I-0.01 J0.31
G1 X11.332 Y90.349
X11.33 Y90.418 Z-6.292
X11.327 Y90.483 Z-6.269
X11.325 Y90.542 Z-6.232
X11.324 Y90.591 Z-6.183
X11.323 Y90.628 Z-6.125
X11.322 Y90.651 Z-6.059
Y90.659 Z-5.99
Z5
X10.702 Y90.638
Z-5 F150
Z-6.29
Y90.63 Z-6.359
X10.703 Y90.607 Z-6.425
X10.704 Y90.57 Z-6.483
X10.706 Y90.521 Z-6.532
X10.708 Y90.463 Z-6.569
X10.71 Y90.397 Z-6.592
X10.712 Y90.328 Z-6.6
X10.723 Y90.018
G3 X11.043 Y89.719 I0.31 J0.01
X12.282 Y91 I-0.043 J1.281 F300
X9.718 Y91 I-1.282 J0
X11.043 Y89.719 I1.282 J0
X11.342 Y90.039 I-0.01 J0.31
G1 X11.332 Y90.349
X11.33 Y90.418 Z-6.592
X11.327 Y90.483 Z-6.569
X11.325 Y90.542 Z-6.532
X11.324 Y90.591 Z-6.483
X11.323 Y90.628 Z-6.425
X11.322 Y90.651 Z-6.359
Y90.659 Z-6.29
Z5
X10.702 Y90.638
Z-5.3 F150
Z-6.59
Y90.63 Z-6.659
X10.703 Y90.607 Z-6.725
X10.704 Y90.57 Z-6.783
X10.706 Y90.521 Z-6.832
X10.708 Y90.463 Z-6.869
X10.71 Y90.397 Z-6.892
X10.712 Y90.328 Z-6.9
X10.723 Y90.018
G3 X11.043 Y89.719 I0.31 J0.01
X12.282 Y91 I-0.043 J1.281 F300
X9.718 Y91 I-1.282 J0
X11.043 Y89.719 I1.282 J0
X11.342 Y90.039 I-0.01 J0.31
G1 X11.332 Y90.349
X11.33 Y90.418 Z-6.892
X11.327 Y90.483 Z-6.869
X11.325 Y90.542 Z-6.832
X11.324 Y90.591 Z-6.783
X11.323 Y90.628 Z-6.725
X11.322 Y90.651 Z-6.659
Y90.659 Z-6.59
Z5
X10.702 Y90.638
Z-5.6 F150
Z-6.69
Y90.63 Z-6.759
X10.703 Y90.607 Z-6.825
X10.704 Y90.57 Z-6.883
X10.706 Y90.521 Z-6.932
X10.708 Y90.463 Z-6.969
X10.71 Y90.397 Z-6.992
X10.712 Y90.328 Z-7
X10.723 Y90.018
G3 X11.043 Y89.719 I0.31 J0.01
X12.282 Y91 I-0.043 J1.281 F300
X9.718 Y91 I-1.282 J0
X11.043 Y89.719 I1.282 J0
X11.342 Y90.039 I-0.01 J0.31
G1 X11.332 Y90.349
X11.33 Y90.418 Z-6.992
X11.327 Y90.483 Z-6.969
X11.325 Y90.542 Z-6.932
X11.324 Y90.591 Z-6.883
X11.323 Y90.628 Z-6.825
X11.322 Y90.651 Z-6.759
Y90.659 Z-6.69
Z5
X44.088 Y65.09
Z1.3 F150
Z0.01
G18 G2 X44.398 Z-0.3 I0.31 K0
G1 X44.708
G17 G3 X45.018 Y65.4 I0 J0.31
X42.782 Y65.4 I-1.118 J0 F300
X45.018 Y65.4 I1.118 J0
X44.708 Y65.71 I-0.31 J0
G1 X44.398
G18 G3 X44.088 Z0.01 I0 K0.31
G1 Z5
Y65.09
Z1 F150
Z-0.29
G2 X44.398 Z-0.6 I0.31 K0
G1 X44.708
G17 G3 X45.018 Y65.4 I0 J0.31
X42.782 Y65.4 I-1.118 J0 F300
X45.018 Y65.4 I1.118 J0
X44.708 Y65.71 I-0.31 J0
G1 X44.398
G18 G3 X44.088 Z-0.29 I0 K0.31
G1 Z5
Y65.09
Z0.7 F150
Z-0.59
G2 X44.398 Z-0.9 I0.31 K0
G1 X44.708
G17 G3 X45.018 Y65.4 I0 J0.31
X42.782 Y65.4 I-1.118 J0 F300
X45.018 Y65.4 I1.118 J0
X44.708 Y65.71 I-0.31 J0
G1 X44.398
G18 G3 X44.088 Z-0.59 I0 K0.31
G1 Z5
Y65.09
Z0.4 F150
Z-0.89
G2 X44.398 Z-1.2 I0.31 K0
G1 X44.708
G17 G3 X45.018 Y65.4 I0 J0.31
X42.782 Y65.4 I-1.118 J0 F300
X45.018 Y65.4 I1.118 J0
X44.708 Y65.71 I-0.31 J0
G1 X44.398
G18 G3 X44.088 Z-0.89 I0 K0.31
G1 Z5
Y65.09
Z0.1 F150
Z-1.19
G2 X44.398 Z-1.5 I0.31 K0
G1 X44.708
G17 G3 X45.018 Y65.4 I0 J0.31
X42.782 Y65.4 I-1.118 J0 F300
X45.018 Y65.4 I1.118 J0
X44.708 Y65.71 I-0.31 J0
G1 X44.398
G18 G3 X44.088 Z-1.19 I0 K0.31
G1 Z5
Y65.09
Z-0.2 F150
Z-1.49
G2 X44.398 Z-1.8 I0.31 K0
G1 X44.708
G17 G3 X45.018 Y65.4 I0 J0.31
X42.782 Y65.4 I-1.118 J0 F300
X45.018 Y65.4 I1.118 J0
X44.708 Y65.71 I-0.31 J0
G1 X44.398
G18 G3 X44.088 Z-1.49 I0 K0.31
G1 Z5
Y65.09
Z-0.5 F150
Z-1.79
G2 X44.398 Z-2.1 I0.31 K0
G1 X44.708
G17 G3 X45.018 Y65.4 I0 J0.31
X42.782 Y65.4 I-1.118 J0 F300
X45.018 Y65.4 I1.118 J0
X44.708 Y65.71 I-0.31 J0
G1 X44.398
G18 G3 X44.088 Z-1.79 I0 K0.31
G1 Z5
Y65.09
Z-0.8 F150
Z-2.09
G2 X44.398 Z-2.4 I0.31 K0
G1 X44.708
G17 G3 X45.018 Y65.4 I0 J0.31
X42.782 Y65.4 I-1.118 J0 F300
X45.018 Y65.4 I1.118 J0
X44.708 Y65.71 I-0.31 J0
G1 X44.398
G18 G3 X44.088 Z-2.09 I0 K0.31
G1 Z5
Y65.09
Z-1.1 F150
Z-2.39
G2 X44.398 Z-2.7 I0.31 K0
G1 X44.708
G17 G3 X45.018 Y65.4 I0 J0.31
X42.782 Y65.4 I-1.118 J0 F300
X45.018 Y65.4 I1.118 J0
X44.708 Y65.71 I-0.31 J0
G1 X44.398
G18 G3 X44.088 Z-2.39 I0 K0.31
G1 Z5
Y65.09
Z-1.4 F150
Z-2.69
G2 X44.398 Z-3 I0.31 K0
G1 X44.708
G17 G3 X45.018 Y65.4 I0 J0.31
X42.782 Y65.4 I-1.118 J0 F300
X45.018 Y65.4 I1.118 J0
X44.708 Y65.71 I-0.31 J0
G1 X44.398
G18 G3 X44.088 Z-2.69 I0 K0.31
G1 Z5
Y65.09
Z-1.7 F150
Z-2.99
G2 X44.398 Z-3.3 I0.31 K0
G1 X44.708
G17 G3 X45.018 Y65.4 I0 J0.31
X42.782 Y65.4 I-1.118 J0 F300
X45.018 Y65.4 I1.118 J0
X44.708 Y65.71 I-0.31 J0
G1 X44.398
G18 G3 X44.088 Z-2.99 I0 K0.31
G1 Z5
Y65.09
Z-2 F150
Z-3.29
G2 X44.398 Z-3.6 I0.31 K0
G1 X44.708
G17 G3 X45.018 Y65.4 I0 J0.31
X42.782 Y65.4 I-1.118 J0 F300
X45.018 Y65.4 I1.118 J0
X44.708 Y65.71 I-0.31 J0
G1 X44.398
G18 G3 X44.088 Z-3.29 I0 K0.31
G1 Z5
Y65.09
Z-2.3 F150
Z-3.59
G2 X44.398 Z-3.9 I0.31 K0
G1 X44.708
G17 G3 X45.018 Y65.4 I0 J0.31
X42.782 Y65.4 I-1.118 J0 F300
X45.018 Y65.4 I1.118 J0
X44.708 Y65.71 I-0.31 J0
G1 X44.398
G18 G3 X44.088 Z-3.59 I0 K0.31
G1 Z5
Y65.09
Z-2.6 F150
Z-3.89
G2 X44.398 Z-4.2 I0.31 K0
G1 X44.708
G17 G3 X45.018 Y65.4 I0 J0.31
X42.782 Y65.4 I-1.118 J0 F300
X45.018 Y65.4 I1.118 J0
X44.708 Y65.71 I-0.31 J0
G1 X44.398
G18 G3 X44.088 Z-3.89 I0 K0.31
G1 Z5
Y65.09
Z-2.9 F150
Z-4.19
G2 X44.398 Z-4.5 I0.31 K0
G1 X44.708
G17 G3 X45.018 Y65.4 I0 J0.31
X42.782 Y65.4 I-1.118 J0 F300
X45.018 Y65.4 I1.118 J0
X44.708 Y65.71 I-0.31 J0
G1 X44.398
G18 G3 X44.088 Z-4.19 I0 K0.31
G1 Z5
Y65.09
Z-3.2 F150
Z-4.49
G2 X44.398 Z-4.8 I0.31 K0
G1 X44.708
G17 G3 X45.018 Y65.4 I0 J0.31
X42.782 Y65.4 I-1.118 J0 F300
X45.018 Y65.4 I1.118 J0
X44.708 Y65.71 I-0.31 J0
G1 X44.398
G18 G3 X44.088 Z-4.49 I0 K0.31
G1 Z5
Y65.09
Z-3.5 F150
Z-4.79
G2 X44.398 Z-5.1 I0.31 K0
G1 X44.708
G17 G3 X45.018 Y65.4 I0 J0.31
X42.782 Y65.4 I-1.118 J0 F300
X45.018 Y65.4 I1.118 J0
X44.708 Y65.71 I-0.31 J0
G1 X44.398
G18 G3 X44.088 Z-4.79 I0 K0.31
G1 Z5
Y65.09
Z-3.8 F150
Z-5.09
G2 X44.398 Z-5.4 I0.31 K0
G1 X44.708
G17 G3 X45.018 Y65.4 I0 J0.31
X42.782 Y65.4 I-1.118 J0 F300
X45.018 Y65.4 I1.118 J0
X44.708 Y65.71 I-0.31 J0
G1 X44.398
G18 G3 X44.088 Z-5.09 I0 K0.31
G1 Z5
Y65.09
Z-4.1 F150
Z-5.39
G2 X44.398 Z-5.7 I0.31 K0
G1 X44.708
G17 G3 X45.018 Y65.4 I0 J0.31
X42.782 Y65.4 I-1.118 J0 F300
X45.018 Y65.4 I1.118 J0
X44.708 Y65.71 I-0.31 J0
G1 X44.398
G18 G3 X44.088 Z-5.39 I0 K0.31
G1 Z5
Y65.09
Z-4.4 F150
Z-5.69
G2 X44.398 Z-6 I0.31 K0
G1 X44.708
G17 G3 X45.018 Y65.4 I0 J0.31
X42.782 Y65.4 I-1.118 J0 F300
X45.018 Y65.4 I1.118 J0
X44.708 Y65.71 I-0.31 J0
G1 X44.398
G18 G3 X44.088 Z-5.69 I0 K0.31
G1 Z5
Y65.09
Z-4.7 F150
Z-5.99
G2 X44.398 Z-6.3 I0.31 K0
G1 X44.708
G17 G3 X45.018 Y65.4 I0 J0.31
X42.782 Y65.4 I-1.118 J0 F300
X45.018 Y65.4 I1.118 J0
X44.708 Y65.71 I-0.31 J0
G1 X44.398
G18 G3 X44.088 Z-5.99 I0 K0.31
G1 Z5
Y65.09
Z-5 F150
Z-6.29
G2 X44.398 Z-6.6 I0.31 K0
G1 X44.708
G17 G3 X45.018 Y65.4 I0 J0.31
X42.782 Y65.4 I-1.118 J0 F300
X45.018 Y65.4 I1.118 J0
X44.708 Y65.71 I-0.31 J0
G1 X44.398
G18 G3 X44.088 Z-6.29 I0 K0.31
G1 Z5
Y65.09
Z-5.3 F150
Z-6.59
G2 X44.398 Z-6.9 I0.31 K0
G1 X44.708
G17 G3 X45.018 Y65.4 I0 J0.31
X42.782 Y65.4 I-1.118 J0 F300
X45.018 Y65.4 I1.118 J0
X44.708 Y65.71 I-0.31 J0
G1 X44.398
G18 G3 X44.088 Z-6.59 I0 K0.31
G1 Z5
Y65.09
Z-5.6 F150
Z-6.69
G2 X44.398 Z-7 I0.31 K0
G1 X44.708
G17 G3 X45.018 Y65.4 I0 J0.31
X42.782 Y65.4 I-1.118 J0 F300
X45.018 Y65.4 I1.118 J0
X44.708 Y65.71 I-0.31 J0
G1 X44.398
G18 G3 X44.088 Z-6.69 I0 K0.31
G1 Z5
X31.352 Y5.69
Z1.3 F150
Z0.01
