(linear_actuator_link)
(Machine)
(  vendor: Autodesk)
(  model: Generic 3-axis)
(  description: This machine has XY axis on the Table and Z axis on the Head)
(T3  D=3.1 CR=0 - ZMIN=-2.5 - flat end mill)
G90 G94
G17
G21
(When using Fusion 360 for Personal Use, the feedrate of)
(rapid moves is reduced to match the feedrate of cutting)
(moves, which can increase machining time. Unrestricted rapid)
(moves are available with a Fusion 360 Subscription.)

(2D Contour1)
S24000 M3
G54
M8
G0 X33.348 Y12.69
Z10
G1 Z5 F300
Z1.3 F150
Z0.01
G18 G2 X33.658 Z-0.3 I0.31 K0
G1 X33.968
G17 G3 X34.278 Y13 I0 J0.31
X31.722 Y13 I-1.278 J0 F300
X34.278 Y13 I1.278 J0
X33.968 Y13.31 I-0.31 J0
G1 X33.658
G18 G3 X33.348 Z0.01 I0 K0.31
G1 Z5
Y12.69
Z1 F150
Z-0.29
G2 X33.658 Z-0.6 I0.31 K0
G1 X33.968
G17 G3 X34.278 Y13 I0 J0.31
X31.722 Y13 I-1.278 J0 F300
X34.278 Y13 I1.278 J0
X33.968 Y13.31 I-0.31 J0
G1 X33.658
G18 G3 X33.348 Z-0.29 I0 K0.31
G1 Z5
Y12.69
Z0.7 F150
Z-0.59
G2 X33.658 Z-0.9 I0.31 K0
G1 X33.968
G17 G3 X34.278 Y13 I0 J0.31
X31.722 Y13 I-1.278 J0 F300
X34.278 Y13 I1.278 J0
X33.968 Y13.31 I-0.31 J0
G1 X33.658
G18 G3 X33.348 Z-0.59 I0 K0.31
G1 Z5
Y12.69
Z0.4 F150
Z-0.89
G2 X33.658 Z-1.2 I0.31 K0
G1 X33.968
G17 G3 X34.278 Y13 I0 J0.31
X31.722 Y13 I-1.278 J0 F300
X34.278 Y13 I1.278 J0
X33.968 Y13.31 I-0.31 J0
G1 X33.658
G18 G3 X33.348 Z-0.89 I0 K0.31
G1 Z5
Y12.69
Z0.1 F150
Z-1.19
G2 X33.658 Z-1.5 I0.31 K0
G1 X33.968
G17 G3 X34.278 Y13 I0 J0.31
X31.722 Y13 I-1.278 J0 F300
X34.278 Y13 I1.278 J0
X33.968 Y13.31 I-0.31 J0
G1 X33.658
G18 G3 X33.348 Z-1.19 I0 K0.31
G1 Z5
Y12.69
Z-0.2 F150
Z-1.49
G2 X33.658 Z-1.8 I0.31 K0
G1 X33.968
G17 G3 X34.278 Y13 I0 J0.31
X31.722 Y13 I-1.278 J0 F300
X34.278 Y13 I1.278 J0
X33.968 Y13.31 I-0.31 J0
G1 X33.658
G18 G3 X33.348 Z-1.49 I0 K0.31
G1 Z5
Y12.69
Z-0.5 F150
Z-1.79
G2 X33.658 Z-2.1 I0.31 K0
G1 X33.968
G17 G3 X34.278 Y13 I0 J0.31
X31.722 Y13 I-1.278 J0 F300
X34.278 Y13 I1.278 J0
X33.968 Y13.31 I-0.31 J0
G1 X33.658
G18 G3 X33.348 Z-1.79 I0 K0.31
G1 Z5
Y12.69
Z-0.8 F150
Z-2.09
G2 X33.658 Z-2.4 I0.31 K0
G1 X33.968
G17 G3 X34.278 Y13 I0 J0.31
X31.722 Y13 I-1.278 J0 F300
X34.278 Y13 I1.278 J0
X33.968 Y13.31 I-0.31 J0
G1 X33.658
G18 G3 X33.348 Z-2.09 I0 K0.31
G1 Z5
Y12.69
Z-1.1 F150
Z-2.19
G2 X33.658 Z-2.5 I0.31 K0
G1 X33.968
G17 G3 X34.278 Y13 I0 J0.31
X31.722 Y13 I-1.278 J0 F300
X34.278 Y13 I1.278 J0
X33.968 Y13.31 I-0.31 J0
G1 X33.658
G18 G3 X33.348 Z-2.19 I0 K0.31
G1 Z5
X9.31 Y13.348
Z1.3 F150
Z0.01
G19 G3 Y13.658 Z-0.3 J0.31 K0
G1 Y13.968
G17 G3 X9 Y14.278 I-0.31 J0
X7.722 Y13 I0 J-1.278 F300
X10.278 Y13 I1.278 J0
X9 Y14.278 I-1.278 J0
X8.69 Y13.968 I0 J-0.31
G1 Y13.658
G19 G2 Y13.348 Z0.01 J0 K0.31
G1 Z5
X9.31
Z1 F150
Z-0.29
G3 Y13.658 Z-0.6 J0.31 K0
G1 Y13.968
G17 G3 X9 Y14.278 I-0.31 J0
X7.722 Y13 I0 J-1.278 F300
X10.278 Y13 I1.278 J0
X9 Y14.278 I-1.278 J0
X8.69 Y13.968 I0 J-0.31
G1 Y13.658
G19 G2 Y13.348 Z-0.29 J0 K0.31
G1 Z5
X9.31
Z0.7 F150
Z-0.59
G3 Y13.658 Z-0.9 J0.31 K0
G1 Y13.968
G17 G3 X9 Y14.278 I-0.31 J0
X7.722 Y13 I0 J-1.278 F300
X10.278 Y13 I1.278 J0
X9 Y14.278 I-1.278 J0
X8.69 Y13.968 I0 J-0.31
G1 Y13.658
G19 G2 Y13.348 Z-0.59 J0 K0.31
G1 Z5
X9.31
Z0.4 F150
Z-0.89
G3 Y13.658 Z-1.2 J0.31 K0
G1 Y13.968
G17 G3 X9 Y14.278 I-0.31 J0
X7.722 Y13 I0 J-1.278 F300
X10.278 Y13 I1.278 J0
X9 Y14.278 I-1.278 J0
X8.69 Y13.968 I0 J-0.31
G1 Y13.658
G19 G2 Y13.348 Z-0.89 J0 K0.31
G1 Z5
X9.31
Z0.1 F150
Z-1.19
G3 Y13.658 Z-1.5 J0.31 K0
G1 Y13.968
G17 G3 X9 Y14.278 I-0.31 J0
X7.722 Y13 I0 J-1.278 F300
X10.278 Y13 I1.278 J0
X9 Y14.278 I-1.278 J0
X8.69 Y13.968 I0 J-0.31
G1 Y13.658
G19 G2 Y13.348 Z-1.19 J0 K0.31
G1 Z5
X9.31
Z-0.2 F150
Z-1.49
G3 Y13.658 Z-1.8 J0.31 K0
G1 Y13.968
G17 G3 X9 Y14.278 I-0.31 J0
X7.722 Y13 I0 J-1.278 F300
X10.278 Y13 I1.278 J0
X9 Y14.278 I-1.278 J0
X8.69 Y13.968 I0 J-0.31
G1 Y13.658
G19 G2 Y13.348 Z-1.49 J0 K0.31
G1 Z5
X9.31
Z-0.5 F150
Z-1.79
G3 Y13.658 Z-2.1 J0.31 K0
G1 Y13.968
G17 G3 X9 Y14.278 I-0.31 J0
X7.722 Y13 I0 J-1.278 F300
X10.278 Y13 I1.278 J0
X9 Y14.278 I-1.278 J0
X8.69 Y13.968 I0 J-0.31
G1 Y13.658
G19 G2 Y13.348 Z-1.79 J0 K0.31
G1 Z5
X9.31
Z-0.8 F150
Z-2.09
G3 Y13.658 Z-2.4 J0.31 K0
G1 Y13.968
G17 G3 X9 Y14.278 I-0.31 J0
X7.722 Y13 I0 J-1.278 F300
X10.278 Y13 I1.278 J0
X9 Y14.278 I-1.278 J0
X8.69 Y13.968 I0 J-0.31
G1 Y13.658
G19 G2 Y13.348 Z-2.09 J0 K0.31
G1 Z5
X9.31
Z-1.1 F150
Z-2.19
G3 Y13.658 Z-2.5 J0.31 K0
G1 Y13.968
G17 G3 X9 Y14.278 I-0.31 J0
X7.722 Y13 I0 J-1.278 F300
X10.278 Y13 I1.278 J0
X9 Y14.278 I-1.278 J0
X8.69 Y13.968 I0 J-0.31
G1 Y13.658
G19 G2 Y13.348 Z-2.19 J0 K0.31
G1 Z5
X9.31 Y151.348
Z1.3 F150
Z0.01
G3 Y151.658 Z-0.3 J0.31 K0
G1 Y151.968
G17 G3 X9 Y152.278 I-0.31 J0
X7.722 Y151 I0 J-1.278 F300
X10.278 Y151 I1.278 J0
X9 Y152.278 I-1.278 J0
X8.69 Y151.968 I0 J-0.31
G1 Y151.658
G19 G2 Y151.348 Z0.01 J0 K0.31
G1 Z5
X9.31
Z1 F150
Z-0.29
G3 Y151.658 Z-0.6 J0.31 K0
G1 Y151.968
G17 G3 X9 Y152.278 I-0.31 J0
X7.722 Y151 I0 J-1.278 F300
X10.278 Y151 I1.278 J0
X9 Y152.278 I-1.278 J0
X8.69 Y151.968 I0 J-0.31
G1 Y151.658
G19 G2 Y151.348 Z-0.29 J0 K0.31
G1 Z5
X9.31
Z0.7 F150
Z-0.59
G3 Y151.658 Z-0.9 J0.31 K0
G1 Y151.968
G17 G3 X9 Y152.278 I-0.31 J0
X7.722 Y151 I0 J-1.278 F300
X10.278 Y151 I1.278 J0
X9 Y152.278 I-1.278 J0
X8.69 Y151.968 I0 J-0.31
G1 Y151.658
G19 G2 Y151.348 Z-0.59 J0 K0.31
G1 Z5
X9.31
Z0.4 F150
Z-0.89
G3 Y151.658 Z-1.2 J0.31 K0
G1 Y151.968
G17 G3 X9 Y152.278 I-0.31 J0
X7.722 Y151 I0 J-1.278 F300
X10.278 Y151 I1.278 J0
X9 Y152.278 I-1.278 J0
X8.69 Y151.968 I0 J-0.31
G1 Y151.658
G19 G2 Y151.348 Z-0.89 J0 K0.31
G1 Z5
X9.31
Z0.1 F150
Z-1.19
G3 Y151.658 Z-1.5 J0.31 K0
G1 Y151.968
G17 G3 X9 Y152.278 I-0.31 J0
X7.722 Y151 I0 J-1.278 F300
X10.278 Y151 I1.278 J0
X9 Y152.278 I-1.278 J0
X8.69 Y151.968 I0 J-0.31
G1 Y151.658
G19 G2 Y151.348 Z-1.19 J0 K0.31
G1 Z5
X9.31
Z-0.2 F150
Z-1.49
G3 Y151.658 Z-1.8 J0.31 K0
G1 Y151.968
G17 G3 X9 Y152.278 I-0.31 J0
X7.722 Y151 I0 J-1.278 F300
X10.278 Y151 I1.278 J0
X9 Y152.278 I-1.278 J0
X8.69 Y151.968 I0 J-0.31
G1 Y151.658
G19 G2 Y151.348 Z-1.49 J0 K0.31
G1 Z5
X9.31
Z-0.5 F150
Z-1.79
G3 Y151.658 Z-2.1 J0.31 K0
G1 Y151.968
G17 G3 X9 Y152.278 I-0.31 J0
X7.722 Y151 I0 J-1.278 F300
X10.278 Y151 I1.278 J0
X9 Y152.278 I-1.278 J0
X8.69 Y151.968 I0 J-0.31
G1 Y151.658
G19 G2 Y151.348 Z-1.79 J0 K0.31
G1 Z5
X9.31
Z-0.8 F150
Z-2.09
G3 Y151.658 Z-2.4 J0.31 K0
G1 Y151.968
G17 G3 X9 Y152.278 I-0.31 J0
X7.722 Y151 I0 J-1.278 F300
X10.278 Y151 I1.278 J0
X9 Y152.278 I-1.278 J0
X8.69 Y151.968 I0 J-0.31
G1 Y151.658
G19 G2 Y151.348 Z-2.09 J0 K0.31
G1 Z5
X9.31
Z-1.1 F150
Z-2.19
G3 Y151.658 Z-2.5 J0.31 K0
G1 Y151.968
G17 G3 X9 Y152.278 I-0.31 J0
X7.722 Y151 I0 J-1.278 F300
X10.278 Y151 I1.278 J0
X9 Y152.278 I-1.278 J0
X8.69 Y151.968 I0 J-0.31
G1 Y151.658
G19 G2 Y151.348 Z-2.19 J0 K0.31
G1 Z5
X33.348 Y150.69
Z1.3 F150
Z0.01
G18 G2 X33.658 Z-0.3 I0.31 K0
G1 X33.968
G17 G3 X34.278 Y151 I0 J0.31
X31.722 Y151 I-1.278 J0 F300
X34.278 Y151 I1.278 J0
X33.968 Y151.31 I-0.31 J0
G1 X33.658
G18 G3 X33.348 Z0.01 I0 K0.31
G1 Z5
Y150.69
Z1 F150
Z-0.29
G2 X33.658 Z-0.6 I0.31 K0
G1 X33.968
G17 G3 X34.278 Y151 I0 J0.31
X31.722 Y151 I-1.278 J0 F300
X34.278 Y151 I1.278 J0
X33.968 Y151.31 I-0.31 J0
G1 X33.658
G18 G3 X33.348 Z-0.29 I0 K0.31
G1 Z5
Y150.69
Z0.7 F150
Z-0.59
G2 X33.658 Z-0.9 I0.31 K0
G1 X33.968
G17 G3 X34.278 Y151 I0 J0.31
X31.722 Y151 I-1.278 J0 F300
X34.278 Y151 I1.278 J0
X33.968 Y151.31 I-0.31 J0
G1 X33.658
G18 G3 X33.348 Z-0.59 I0 K0.31
G1 Z5
Y150.69
Z0.4 F150
Z-0.89
G2 X33.658 Z-1.2 I0.31 K0
G1 X33.968
G17 G3 X34.278 Y151 I0 J0.31
X31.722 Y151 I-1.278 J0 F300
X34.278 Y151 I1.278 J0
X33.968 Y151.31 I-0.31 J0
G1 X33.658
G18 G3 X33.348 Z-0.89 I0 K0.31
G1 Z5
Y150.69
Z0.1 F150
Z-1.19
G2 X33.658 Z-1.5 I0.31 K0
G1 X33.968
G17 G3 X34.278 Y151 I0 J0.31
X31.722 Y151 I-1.278 J0 F300
X34.278 Y151 I1.278 J0
X33.968 Y151.31 I-0.31 J0
G1 X33.658
G18 G3 X33.348 Z-1.19 I0 K0.31
G1 Z5
Y150.69
Z-0.2 F150
Z-1.49
G2 X33.658 Z-1.8 I0.31 K0
G1 X33.968
G17 G3 X34.278 Y151 I0 J0.31
X31.722 Y151 I-1.278 J0 F300
X34.278 Y151 I1.278 J0
X33.968 Y151.31 I-0.31 J0
G1 X33.658
G18 G3 X33.348 Z-1.49 I0 K0.31
G1 Z5
Y150.69
Z-0.5 F150
Z-1.79
G2 X33.658 Z-2.1 I0.31 K0
G1 X33.968
G17 G3 X34.278 Y151 I0 J0.31
X31.722 Y151 I-1.278 J0 F300
X34.278 Y151 I1.278 J0
X33.968 Y151.31 I-0.31 J0
G1 X33.658
G18 G3 X33.348 Z-1.79 I0 K0.31
G1 Z5
Y150.69
Z-0.8 F150
Z-2.09
G2 X33.658 Z-2.4 I0.31 K0
G1 X33.968
G17 G3 X34.278 Y151 I0 J0.31
X31.722 Y151 I-1.278 J0 F300
X34.278 Y151 I1.278 J0
X33.968 Y151.31 I-0.31 J0
G1 X33.658
G18 G3 X33.348 Z-2.09 I0 K0.31
G1 Z5
Y150.69
Z-1.1 F150
Z-2.19
G2 X33.658 Z-2.5 I0.31 K0
G1 X33.968
G17 G3 X34.278 Y151 I0 J0.31
X31.722 Y151 I-1.278 J0 F300
X34.278 Y151 I1.278 J0
X33.968 Y151.31 I-0.31 J0
G1 X33.658
G18 G3 X33.348 Z-2.19 I0 K0.31
G1 Z10
G17
(When using Fusion 360 for Personal Use, the feedrate of)
(rapid moves is reduced to match the feedrate of cutting)
(moves, which can increase machining time. Unrestricted rapid)
(moves are available with a Fusion 360 Subscription.)

(2D Contour2)
G0 X43.48 Y163.31
G1 Z10 F300
Z5
Z1.3 F150
Z0.01
G18 G3 X43.17 Z-0.3 I-0.31 K0
G1 X42.86
G17 G3 X42.55 Y163 I0 J-0.31
G1 Y1 F300
G2 X41 Y-0.55 I-1.55 J0
G1 X1
G2 X-0.55 Y1 I0 J1.55
G1 Y163
G2 X1 Y164.55 I1.55 J0
G1 X41
G2 X42.55 Y163 I0 J-1.55
G3 X42.86 Y162.69 I0.31 J0
G1 X43.17
G18 G2 X43.48 Z0.01 I0 K0.31
G1 Z5
Y163.31
Z1 F150
Z-0.29
G3 X43.17 Z-0.6 I-0.31 K0
G1 X42.86
G17 G3 X42.55 Y163 I0 J-0.31
G1 Y1 F300
G2 X41 Y-0.55 I-1.55 J0
G1 X1
G2 X-0.55 Y1 I0 J1.55
G1 Y163
G2 X1 Y164.55 I1.55 J0
G1 X41
G2 X42.55 Y163 I0 J-1.55
G3 X42.86 Y162.69 I0.31 J0
G1 X43.17
G18 G2 X43.48 Z-0.29 I0 K0.31
G1 Z5
Y163.31
Z0.7 F150
Z-0.59
G3 X43.17 Z-0.9 I-0.31 K0
G1 X42.86
G17 G3 X42.55 Y163 I0 J-0.31
G1 Y1 F300
G2 X41 Y-0.55 I-1.55 J0
G1 X1
G2 X-0.55 Y1 I0 J1.55
G1 Y163
G2 X1 Y164.55 I1.55 J0
G1 X41
G2 X42.55 Y163 I0 J-1.55
G3 X42.86 Y162.69 I0.31 J0
G1 X43.17
G18 G2 X43.48 Z-0.59 I0 K0.31
G1 Z5
Y163.31
Z0.4 F150
Z-0.89
G3 X43.17 Z-1.2 I-0.31 K0
G1 X42.86
G17 G3 X42.55 Y163 I0 J-0.31
G1 Y1 F300
G2 X41 Y-0.55 I-1.55 J0
G1 X1
G2 X-0.55 Y1 I0 J1.55
G1 Y163
G2 X1 Y164.55 I1.55 J0
G1 X41
G2 X42.55 Y163 I0 J-1.55
G3 X42.86 Y162.69 I0.31 J0
G1 X43.17
G18 G2 X43.48 Z-0.89 I0 K0.31
G1 Z5
Y163.31
Z0.1 F150
Z-1.19
G3 X43.17 Z-1.5 I-0.31 K0
G1 X42.86
G17 G3 X42.55 Y163 I0 J-0.31
G1 Y1 F300
G2 X41 Y-0.55 I-1.55 J0
G1 X1
G2 X-0.55 Y1 I0 J1.55
G1 Y163
G2 X1 Y164.55 I1.55 J0
G1 X41
G2 X42.55 Y163 I0 J-1.55
G3 X42.86 Y162.69 I0.31 J0
G1 X43.17
G18 G2 X43.48 Z-1.19 I0 K0.31
G1 Z5
Y163.31
Z-0.2 F150
Z-1.49
G3 X43.17 Z-1.8 I-0.31 K0
G1 X42.86
G17 G3 X42.55 Y163 I0 J-0.31
G1 Y1 F300
G2 X41 Y-0.55 I-1.55 J0
G1 X1
G2 X-0.55 Y1 I0 J1.55
G1 Y163
G2 X1 Y164.55 I1.55 J0
G1 X41
G2 X42.55 Y163 I0 J-1.55
G3 X42.86 Y162.69 I0.31 J0
G1 X43.17
G18 G2 X43.48 Z-1.49 I0 K0.31
G1 Z5
Y163.31
Z-0.5 F150
Z-1.79
G3 X43.17 Z-2.1 I-0.31 K0
G1 X42.86
G17 G3 X42.55 Y163 I0 J-0.31
G1 Y1 F300
G2 X41 Y-0.55 I-1.55 J0
G1 X1
G2 X-0.55 Y1 I0 J1.55
G1 Y163
G2 X1 Y164.55 I1.55 J0
G1 X41
G2 X42.55 Y163 I0 J-1.55
G3 X42.86 Y162.69 I0.31 J0
G1 X43.17
G18 G2 X43.48 Z-1.79 I0 K0.31
G1 Z5
Y163.31
Z-0.8 F150
Z-2.09
G3 X43.17 Z-2.4 I-0.31 K0
G1 X42.86
G17 G3 X42.55 Y163 I0 J-0.31
G1 Y1 F300
G2 X41 Y-0.55 I-1.55 J0
G1 X1
G2 X-0.55 Y1 I0 J1.55
G1 Y163
G2 X1 Y164.55 I1.55 J0
G1 X41
G2 X42.55 Y163 I0 J-1.55
G3 X42.86 Y162.69 I0.31 J0
G1 X43.17
G18 G2 X43.48 Z-2.09 I0 K0.31
G1 Z5
Y163.31
Z-1.1 F150
Z-2.19
G3 X43.17 Z-2.5 I-0.31 K0
G1 X42.86
G17 G3 X42.55 Y163 I0 J-0.31
G1 Y1 F300
G2 X41 Y-0.55 I-1.55 J0
G1 X1
G2 X-0.55 Y1 I0 J1.55
G1 Y163
G2 X1 Y164.55 I1.55 J0
G1 X41
G2 X42.55 Y163 I0 J-1.55
G3 X42.86 Y162.69 I0.31 J0
G1 X43.17
G18 G2 X43.48 Z-2.19 I0 K0.31
G1 Z10
G17
M9
M5
M30
