(nema17_flange_actuator)
(Machine)
(  vendor: Autodesk)
(  model: Generic 3-axis)
(  description: This machine has XY axis on the Table and Z axis on the Head)
(T3 D=3.1 CR=0 - ZMIN=-7.85 - flat end mill)
G90 G94
G17
G21
(-Attention- Property Safe Retracts is set to Clearance Height.)
(Ensure the clearance height will clear the part and or fixtures.)
(Raise the Z-axis to a safe height before starting the program.)

(Drill1)
T3
S24000 M3
G17 G90 G94
G54
M8
G0 X5.255 Y31.102
Z15
G0 Z5
Z4
Z1
G1 Z-1.3 F150
G0 Z4
Z0.7
G1 Z-1.6 F150
G0 Z4
Z0.4
G1 Z-1.9 F150
G0 Z4
Z0.1
G1 Z-2.2 F150
G0 Z4
Z-0.2
G1 Z-2.5 F150
G0 Z4
Z-0.5
G1 Z-2.8 F150
G0 Z4
Z-0.8
G1 Z-3.1 F150
G0 Z4
Z-1.1
G1 Z-3.4 F150
G0 Z4
Z-1.4
G1 Z-3.7 F150
G0 Z4
Z-1.7
G1 Z-4 F150
G0 Z4
Z-2
G1 Z-4.3 F150
G0 Z4
Z-2.3
G1 Z-4.6 F150
G0 Z4
Z-2.6
G1 Z-4.9 F150
G0 Z4
Z-2.9
G1 Z-5.2 F150
G0 Z4
Z-3.2
G1 Z-5.5 F150
G0 Z4
Z-3.5
G1 Z-5.8 F150
G0 Z4
Z-3.8
G1 Z-6.1 F150
G0 Z4
Z-4.1
G1 Z-6.4 F150
G0 Z4
Z-4.4
G1 Z-6.7 F150
G0 Z4
Z-4.7
G1 Z-7 F150
G0 Z4
Z-5
G1 Z-7.3 F150
G0 Z4
Z-5.3
G1 Z-7.6 F150
G0 Z4
Z-5.6
G1 Z-7.85 F150
G4 P1.
G0 Z5
X-5.25 Y31.093
Z4
Z1
G1 Z-1.3 F150
G0 Z4
Z0.7
G1 Z-1.6 F150
G0 Z4
Z0.4
G1 Z-1.9 F150
G0 Z4
Z0.1
G1 Z-2.2 F150
G0 Z4
Z-0.2
G1 Z-2.5 F150
G0 Z4
Z-0.5
G1 Z-2.8 F150
G0 Z4
Z-0.8
G1 Z-3.1 F150
G0 Z4
Z-1.1
G1 Z-3.4 F150
G0 Z4
Z-1.4
G1 Z-3.7 F150
G0 Z4
Z-1.7
G1 Z-4 F150
G0 Z4
Z-2
G1 Z-4.3 F150
G0 Z4
Z-2.3
G1 Z-4.6 F150
G0 Z4
Z-2.6
G1 Z-4.9 F150
G0 Z4
Z-2.9
G1 Z-5.2 F150
G0 Z4
Z-3.2
G1 Z-5.5 F150
G0 Z4
Z-3.5
G1 Z-5.8 F150
G0 Z4
Z-3.8
G1 Z-6.1 F150
G0 Z4
Z-4.1
G1 Z-6.4 F150
G0 Z4
Z-4.4
G1 Z-6.7 F150
G0 Z4
Z-4.7
G1 Z-7 F150
G0 Z4
Z-5
G1 Z-7.3 F150
G0 Z4
Z-5.3
G1 Z-7.6 F150
G0 Z4
Z-5.6
G1 Z-7.85 F150
G4 P1.
G0 Z5
X-10.5 Y21.999
Z4
Z1
G1 Z-1.3 F150
G0 Z4
Z0.7
G1 Z-1.6 F150
G0 Z4
Z0.4
G1 Z-1.9 F150
G0 Z4
Z0.1
G1 Z-2.2 F150
G0 Z4
Z-0.2
G1 Z-2.5 F150
G0 Z4
Z-0.5
G1 Z-2.8 F150
G0 Z4
Z-0.8
G1 Z-3.1 F150
G0 Z4
Z-1.1
G1 Z-3.4 F150
G0 Z4
Z-1.4
G1 Z-3.7 F150
G0 Z4
Z-1.7
G1 Z-4 F150
G0 Z4
Z-2
G1 Z-4.3 F150
G0 Z4
Z-2.3
G1 Z-4.6 F150
G0 Z4
Z-2.6
G1 Z-4.9 F150
G0 Z4
Z-2.9
G1 Z-5.2 F150
G0 Z4
Z-3.2
G1 Z-5.5 F150
G0 Z4
Z-3.5
G1 Z-5.8 F150
G0 Z4
Z-3.8
G1 Z-6.1 F150
G0 Z4
Z-4.1
G1 Z-6.4 F150
G0 Z4
Z-4.4
G1 Z-6.7 F150
G0 Z4
Z-4.7
G1 Z-7 F150
G0 Z4
Z-5
G1 Z-7.3 F150
G0 Z4
Z-5.3
G1 Z-7.6 F150
G0 Z4
Z-5.6
G1 Z-7.85 F150
G4 P1.
G0 Z5
X-5.25 Y12.903
Z4
Z1
G1 Z-1.3 F150
G0 Z4
Z0.7
G1 Z-1.6 F150
G0 Z4
Z0.4
G1 Z-1.9 F150
G0 Z4
Z0.1
G1 Z-2.2 F150
G0 Z4
Z-0.2
G1 Z-2.5 F150
G0 Z4
Z-0.5
G1 Z-2.8 F150
G0 Z4
Z-0.8
G1 Z-3.1 F150
G0 Z4
Z-1.1
G1 Z-3.4 F150
G0 Z4
Z-1.4
G1 Z-3.7 F150
G0 Z4
Z-1.7
G1 Z-4 F150
G0 Z4
Z-2
G1 Z-4.3 F150
G0 Z4
Z-2.3
G1 Z-4.6 F150
G0 Z4
Z-2.6
G1 Z-4.9 F150
G0 Z4
Z-2.9
G1 Z-5.2 F150
G0 Z4
Z-3.2
G1 Z-5.5 F150
G0 Z4
Z-3.5
G1 Z-5.8 F150
G0 Z4
Z-3.8
G1 Z-6.1 F150
G0 Z4
Z-4.1
G1 Z-6.4 F150
G0 Z4
Z-4.4
G1 Z-6.7 F150
G0 Z4
Z-4.7
G1 Z-7 F150
G0 Z4
Z-5
G1 Z-7.3 F150
G0 Z4
Z-5.3
G1 Z-7.6 F150
G0 Z4
Z-5.6
G1 Z-7.85 F150
G4 P1.
G0 Z5
X5.255 Y12.912
Z4
Z1
G1 Z-1.3 F150
G0 Z4
Z0.7
G1 Z-1.6 F150
G0 Z4
Z0.4
G1 Z-1.9 F150
G0 Z4
Z0.1
G1 Z-2.2 F150
G0 Z4
Z-0.2
G1 Z-2.5 F150
G0 Z4
Z-0.5
G1 Z-2.8 F150
G0 Z4
Z-0.8
G1 Z-3.1 F150
G0 Z4
Z-1.1
G1 Z-3.4 F150
G0 Z4
Z-1.4
G1 Z-3.7 F150
G0 Z4
Z-1.7
G1 Z-4 F150
G0 Z4
Z-2
G1 Z-4.3 F150
G0 Z4
Z-2.3
G1 Z-4.6 F150
G0 Z4
Z-2.6
G1 Z-4.9 F150
G0 Z4
Z-2.9
G1 Z-5.2 F150
G0 Z4
Z-3.2
G1 Z-5.5 F150
G0 Z4
Z-3.5
G1 Z-5.8 F150
G0 Z4
Z-3.8
G1 Z-6.1 F150
G0 Z4
Z-4.1
G1 Z-6.4 F150
G0 Z4
Z-4.4
G1 Z-6.7 F150
G0 Z4
Z-4.7
G1 Z-7 F150
G0 Z4
Z-5
G1 Z-7.3 F150
G0 Z4
Z-5.3
G1 Z-7.6 F150
G0 Z4
Z-5.6
G1 Z-7.85 F150
G4 P1.
G0 Z5
X10.5 Y22
Z4
Z1
G1 Z-1.3 F150
G0 Z4
Z0.7
G1 Z-1.6 F150
G0 Z4
Z0.4
G1 Z-1.9 F150
G0 Z4
Z0.1
G1 Z-2.2 F150
G0 Z4
Z-0.2
G1 Z-2.5 F150
G0 Z4
Z-0.5
G1 Z-2.8 F150
G0 Z4
Z-0.8
G1 Z-3.1 F150
G0 Z4
Z-1.1
G1 Z-3.4 F150
G0 Z4
Z-1.4
G1 Z-3.7 F150
G0 Z4
Z-1.7
G1 Z-4 F150
G0 Z4
Z-2
G1 Z-4.3 F150
G0 Z4
Z-2.3
G1 Z-4.6 F150
G0 Z4
Z-2.6
G1 Z-4.9 F150
G0 Z4
Z-2.9
G1 Z-5.2 F150
G0 Z4
Z-3.2
G1 Z-5.5 F150
G0 Z4
Z-3.5
G1 Z-5.8 F150
G0 Z4
Z-3.8
G1 Z-6.1 F150
G0 Z4
Z-4.1
G1 Z-6.4 F150
G0 Z4
Z-4.4
G1 Z-6.7 F150
G0 Z4
Z-4.7
G1 Z-7 F150
G0 Z4
Z-5
G1 Z-7.3 F150
G0 Z4
Z-5.3
G1 Z-7.6 F150
G0 Z4
Z-5.6
G1 Z-7.85 F150
G4 P1.
G0 Z5
X10 Y-39
Z4
Z1
G1 Z-1.3 F150
G0 Z4
Z0.7
G1 Z-1.6 F150
G0 Z4
Z0.4
G1 Z-1.9 F150
G0 Z4
Z0.1
G1 Z-2.2 F150
G0 Z4
Z-0.2
G1 Z-2.5 F150
G0 Z4
Z-0.5
G1 Z-2.8 F150
G0 Z4
Z-0.8
G1 Z-3.1 F150
G0 Z4
Z-1.1
G1 Z-3.4 F150
G0 Z4
Z-1.4
G1 Z-3.7 F150
G0 Z4
Z-1.7
G1 Z-4 F150
G0 Z4
Z-2
G1 Z-4.3 F150
G0 Z4
Z-2.3
G1 Z-4.6 F150
G0 Z4
Z-2.6
G1 Z-4.9 F150
G0 Z4
Z-2.9
G1 Z-5.2 F150
G0 Z4
Z-3.2
G1 Z-5.5 F150
G0 Z4
Z-3.5
G1 Z-5.8 F150
G0 Z4
Z-3.8
G1 Z-6.1 F150
G0 Z4
Z-4.1
G1 Z-6.4 F150
G0 Z4
Z-4.4
G1 Z-6.7 F150
G0 Z4
Z-4.7
G1 Z-7 F150
G0 Z4
Z-5
G1 Z-7.3 F150
G0 Z4
Z-5.3
G1 Z-7.6 F150
G0 Z4
Z-5.6
G1 Z-7.85 F150
G4 P1.
G0 Z5
X0
Z4
Z1
G1 Z-1.3 F150
G0 Z4
Z0.7
G1 Z-1.6 F150
G0 Z4
Z0.4
G1 Z-1.9 F150
G0 Z4
Z0.1
G1 Z-2.2 F150
G0 Z4
Z-0.2
G1 Z-2.5 F150
G0 Z4
Z-0.5
G1 Z-2.8 F150
G0 Z4
Z-0.8
G1 Z-3.1 F150
G0 Z4
Z-1.1
G1 Z-3.4 F150
G0 Z4
Z-1.4
G1 Z-3.7 F150
G0 Z4
Z-1.7
G1 Z-4 F150
G0 Z4
Z-2
G1 Z-4.3 F150
G0 Z4
Z-2.3
G1 Z-4.6 F150
G0 Z4
Z-2.6
G1 Z-4.9 F150
G0 Z4
Z-2.9
G1 Z-5.2 F150
G0 Z4
Z-3.2
G1 Z-5.5 F150
G0 Z4
Z-3.5
G1 Z-5.8 F150
G0 Z4
Z-3.8
G1 Z-6.1 F150
G0 Z4
Z-4.1
G1 Z-6.4 F150
G0 Z4
Z-4.4
G1 Z-6.7 F150
G0 Z4
Z-4.7
G1 Z-7 F150
G0 Z4
Z-5
G1 Z-7.3 F150
G0 Z4
Z-5.3
G1 Z-7.6 F150
G0 Z4
Z-5.6
G1 Z-7.85 F150
G4 P1.
G0 Z5
X-10
Z4
Z1
G1 Z-1.3 F150
G0 Z4
Z0.7
G1 Z-1.6 F150
G0 Z4
Z0.4
G1 Z-1.9 F150
G0 Z4
Z0.1
G1 Z-2.2 F150
G0 Z4
Z-0.2
G1 Z-2.5 F150
G0 Z4
Z-0.5
G1 Z-2.8 F150
G0 Z4
Z-0.8
G1 Z-3.1 F150
G0 Z4
Z-1.1
G1 Z-3.4 F150
G0 Z4
Z-1.4
G1 Z-3.7 F150
G0 Z4
Z-1.7
G1 Z-4 F150
G0 Z4
Z-2
G1 Z-4.3 F150
G0 Z4
Z-2.3
G1 Z-4.6 F150
G0 Z4
Z-2.6
G1 Z-4.9 F150
G0 Z4
Z-2.9
G1 Z-5.2 F150
G0 Z4
Z-3.2
G1 Z-5.5 F150
G0 Z4
Z-3.5
G1 Z-5.8 F150
G0 Z4
Z-3.8
G1 Z-6.1 F150
G0 Z4
Z-4.1
G1 Z-6.4 F150
G0 Z4
Z-4.4
G1 Z-6.7 F150
G0 Z4
Z-4.7
G1 Z-7 F150
G0 Z4
Z-5
G1 Z-7.3 F150
G0 Z4
Z-5.3
G1 Z-7.6 F150
G0 Z4
Z-5.6
G1 Z-7.85 F150
G4 P1.
G0 Z5
Z15
(When using Fusion for Personal Use, the feedrate of rapid)
(moves is reduced to match the feedrate of cutting moves,)
(which can increase machining time. Unrestricted rapid moves)
(are available with a Fusion Subscription.)

(2D Contour1)
G0 X-21.55 Y22
G1 Z15 F300
Z5
Z0.62 F150
Z-0.3
G2 X21.55 Y22 I21.55 J0
G1 Y-42
Z5 F300
X-21.55 Y22
Z0.32 F150
Z-0.6
G2 X21.55 Y22 I21.55 J0
G1 Y-42
Z5 F300
X-21.55 Y22
Z0.02 F150
Z-0.9
G2 X21.55 Y22 I21.55 J0
G1 Y-42
Z5 F300
X-21.55 Y22
Z-0.28 F150
Z-1.2
G2 X21.55 Y22 I21.55 J0
G1 Y-42
Z5 F300
X-21.55 Y22
Z-0.58 F150
Z-1.5
G2 X21.55 Y22 I21.55 J0
G1 Y-42
Z5 F300
X-21.55 Y22
Z-0.88 F150
Z-1.8
G2 X21.55 Y22 I21.55 J0
G1 Y-42
Z5 F300
X-21.55 Y22
Z-1.18 F150
Z-2.1
G2 X21.55 Y22 I21.55 J0
G1 Y-42
Z5 F300
X-21.55 Y22
Z-1.48 F150
Z-2.4
G2 X21.55 Y22 I21.55 J0
G1 Y-42
Z5 F300
X-21.55 Y22
Z-1.78 F150
Z-2.7
G2 X21.55 Y22 I21.55 J0
G1 Y-42
Z5 F300
X-21.55 Y22
Z-2.08 F150
Z-3
G2 X21.55 Y22 I21.55 J0
G1 Y-42
Z5 F300
X-21.55 Y22
Z-2.38 F150
Z-3.3
G2 X21.55 Y22 I21.55 J0
G1 Y-42
Z5 F300
X-21.55 Y22
Z-2.68 F150
Z-3.6
G2 X21.55 Y22 I21.55 J0
G1 Y-42
Z5 F300
X-21.55 Y22
Z-2.98 F150
Z-3.9
G2 X21.55 Y22 I21.55 J0
G1 Y-42
Z5 F300
X-21.55 Y22
Z-3.28 F150
Z-4.2
G2 X21.55 Y22 I21.55 J0
G1 Y-42
Z5 F300
X-21.55 Y22
Z-3.58 F150
Z-4.5
G2 X21.55 Y22 I21.55 J0
G1 Y-42
Z5 F300
X-21.55 Y22
Z-3.88 F150
Z-4.8
G2 X21.55 Y22 I21.55 J0
G1 Y-42
Z5 F300
X-21.55 Y22
Z-4.18 F150
Z-5.1
G2 X21.55 Y22 I21.55 J0
G1 Y-42
Z5 F300
X-21.55 Y22
Z-4.48 F150
Z-5.4
G2 X21.55 Y22 I21.55 J0
G1 Y-42
Z5 F300
X-21.55 Y22
Z-4.78 F150
Z-5.7
G2 X21.55 Y22 I21.55 J0
G1 Y-42
Z5 F300
X-21.55 Y22
Z-5.08 F150
Z-6
G2 X21.55 Y22 I21.55 J0
G1 Y-42
Z5 F300
X-21.55 Y22
Z-5.38 F150
Z-6.3
G2 X21.55 Y22 I21.55 J0
G1 Y-42
Z5 F300
X-21.55 Y22
Z-5.68 F150
Z-6.6
G2 X21.55 Y22 I21.55 J0
G1 Y-42
Z5 F300
X-21.55 Y22
Z-5.98 F150
Z-6.9
G2 X21.55 Y22 I21.55 J0
G1 Y-42
Z5 F300
X-21.55 Y22
Z-6.28 F150
Z-7.2
G2 X21.55 Y22 I21.55 J0
G1 Y-42
Z5 F300
X-21.55 Y22
Z-6.58 F150
Z-7.5
G2 X21.55 Y22 I21.55 J0
G1 Y-42
Z5 F300
X-21.55 Y22
Z-6.88 F150
Z-7.675
G2 X21.55 Y22 I21.55 J0
G1 Y-42
Z5 F300
X-21.55 Y22
Z-7.055 F150
Z-7.85
G2 X21.55 Y22 I21.55 J0
G1 Y-42
Z15 F300

M9
M5
M30
