(nema_17_mount_full)
(Machine)
(  vendor: Autodesk)
(  model: Generic 3-axis)
(  description: This machine has XY axis on the Table and Z axis on the Head)
(T3  D=3.1 CR=0 - ZMIN=-7 - flat end mill)
G90 G94
G17
G21
(When using Fusion 360 for Personal Use, the feedrate of)
(rapid moves is reduced to match the feedrate of cutting)
(moves, which can increase machining time. Unrestricted rapid)
(moves are available with a Fusion 360 Subscription.)

(2D Pocket1)
S24000 M3
G54
M8
G0 X41.628 Y30.372
Z10
G1 Z5 F300
Z1.3 F150
Z0.01
X41.633 Y30.379 Z-0.059
X41.644 Y30.398 Z-0.125
X41.664 Y30.43 Z-0.183
X41.689 Y30.472 Z-0.232
X41.72 Y30.522 Z-0.269
X41.754 Y30.578 Z-0.292
X41.79 Y30.636 Z-0.3
G3 X42.175 Y32 I-2.225 J1.364
X21.825 Y32 I-10.175 J0 F300
X42.175 Y32 I10.175 J0
G2 X43.423 Y34.007 I2.238 J0
G3 X44.327 Y36.192 I-0.793 J1.607
X19.673 Y27.808 I-12.327 J-4.192
X44.327 Y36.192 I12.327 J4.192
G2 X44.884 Y38.527 I2.133 J0.725
G3 X45.123 Y40.915 I-1.309 J1.337
X18.877 Y23.085 I-13.123 J-8.915
X45.123 Y40.915 I13.123 J8.915
G2 X45.048 Y43.341 I1.871 J1.271
G3 X44.698 Y45.741 I-1.66 J0.984
X19.302 Y18.259 I-12.698 J-13.741
X44.698 Y45.741 I12.698 J13.741
G2 X44.079 Y48.107 I1.54 J1.667
G3 X43.229 Y50.399 I-1.878 J0.608
X20.771 Y13.601 I-11.229 J-18.399
X43.229 Y50.399 I11.229 J18.399
G2 X42.137 Y52.648 I1.205 J1.975
G3 X40.85 Y54.792 I-2.026 J0.242
X23.15 Y9.208 I-8.85 J-22.792
X40.85 Y54.792 I8.85 J22.792
X38.845 Y53.393 Z-0.33 I-0.533 J-1.373 F150
G1 X39.23 Y31.973 Z-0.552
G3 X42.175 Y32 Z-0.6 I1.472 J0.027
X21.825 Y32 I-10.175 J0 F300
X42.175 Y32 I10.175 J0
G2 X43.423 Y34.007 I2.238 J0
G3 X44.327 Y36.192 I-0.793 J1.607
X19.673 Y27.808 I-12.327 J-4.192
X44.327 Y36.192 I12.327 J4.192
G2 X44.884 Y38.527 I2.133 J0.725
G3 X45.123 Y40.915 I-1.309 J1.337
X18.877 Y23.085 I-13.123 J-8.915
X45.123 Y40.915 I13.123 J8.915
G2 X45.048 Y43.341 I1.871 J1.271
G3 X44.698 Y45.741 I-1.66 J0.984
X19.302 Y18.259 I-12.698 J-13.741
X44.698 Y45.741 I12.698 J13.741
G2 X44.079 Y48.107 I1.54 J1.667
G3 X43.229 Y50.399 I-1.878 J0.608
X20.771 Y13.601 I-11.229 J-18.399
X43.229 Y50.399 I11.229 J18.399
G2 X42.137 Y52.648 I1.205 J1.975
G3 X40.85 Y54.792 I-2.026 J0.242
X23.15 Y9.208 I-8.85 J-22.792
X40.85 Y54.792 I8.85 J22.792
X38.845 Y53.393 Z-0.63 I-0.533 J-1.373 F150
G1 X39.23 Y31.973 Z-0.852
G3 X42.175 Y32 Z-0.9 I1.472 J0.027
X21.825 Y32 I-10.175 J0 F300
X42.175 Y32 I10.175 J0
G2 X43.423 Y34.007 I2.238 J0
G3 X44.327 Y36.192 I-0.793 J1.607
X19.673 Y27.808 I-12.327 J-4.192
X44.327 Y36.192 I12.327 J4.192
G2 X44.884 Y38.527 I2.133 J0.725
G3 X45.123 Y40.915 I-1.309 J1.337
X18.877 Y23.085 I-13.123 J-8.915
X45.123 Y40.915 I13.123 J8.915
G2 X45.048 Y43.341 I1.871 J1.271
G3 X44.698 Y45.741 I-1.66 J0.984
X19.302 Y18.259 I-12.698 J-13.741
X44.698 Y45.741 I12.698 J13.741
G2 X44.079 Y48.107 I1.54 J1.667
G3 X43.229 Y50.399 I-1.878 J0.608
X20.771 Y13.601 I-11.229 J-18.399
X43.229 Y50.399 I11.229 J18.399
G2 X42.137 Y52.648 I1.205 J1.975
G3 X40.85 Y54.792 I-2.026 J0.242
X23.15 Y9.208 I-8.85 J-22.792
X40.85 Y54.792 I8.85 J22.792
X38.845 Y53.393 Z-0.93 I-0.533 J-1.373 F150
G1 X39.23 Y31.973 Z-1.152
G3 X42.175 Y32 Z-1.2 I1.472 J0.027
X21.825 Y32 I-10.175 J0 F300
X42.175 Y32 I10.175 J0
G2 X43.423 Y34.007 I2.238 J0
G3 X44.327 Y36.192 I-0.793 J1.607
X19.673 Y27.808 I-12.327 J-4.192
X44.327 Y36.192 I12.327 J4.192
G2 X44.884 Y38.527 I2.133 J0.725
G3 X45.123 Y40.915 I-1.309 J1.337
X18.877 Y23.085 I-13.123 J-8.915
X45.123 Y40.915 I13.123 J8.915
G2 X45.048 Y43.341 I1.871 J1.271
G3 X44.698 Y45.741 I-1.66 J0.984
X19.302 Y18.259 I-12.698 J-13.741
X44.698 Y45.741 I12.698 J13.741
G2 X44.079 Y48.107 I1.54 J1.667
G3 X43.229 Y50.399 I-1.878 J0.608
X20.771 Y13.601 I-11.229 J-18.399
X43.229 Y50.399 I11.229 J18.399
G2 X42.137 Y52.648 I1.205 J1.975
G3 X40.85 Y54.792 I-2.026 J0.242
X23.15 Y9.208 I-8.85 J-22.792
X40.85 Y54.792 I8.85 J22.792
X38.845 Y53.393 Z-1.23 I-0.533 J-1.373 F150
G1 X39.23 Y31.973 Z-1.452
G3 X42.175 Y32 Z-1.5 I1.472 J0.027
X21.825 Y32 I-10.175 J0 F300
X42.175 Y32 I10.175 J0
G2 X43.423 Y34.007 I2.238 J0
G3 X44.327 Y36.192 I-0.793 J1.607
X19.673 Y27.808 I-12.327 J-4.192
X44.327 Y36.192 I12.327 J4.192
G2 X44.884 Y38.527 I2.133 J0.725
G3 X45.123 Y40.915 I-1.309 J1.337
X18.877 Y23.085 I-13.123 J-8.915
X45.123 Y40.915 I13.123 J8.915
G2 X45.048 Y43.341 I1.871 J1.271
G3 X44.698 Y45.741 I-1.66 J0.984
X19.302 Y18.259 I-12.698 J-13.741
X44.698 Y45.741 I12.698 J13.741
G2 X44.079 Y48.107 I1.54 J1.667
G3 X43.229 Y50.399 I-1.878 J0.608
X20.771 Y13.601 I-11.229 J-18.399
X43.229 Y50.399 I11.229 J18.399
G2 X42.137 Y52.648 I1.205 J1.975
G3 X40.85 Y54.792 I-2.026 J0.242
X23.15 Y9.208 I-8.85 J-22.792
X40.85 Y54.792 I8.85 J22.792
X38.845 Y53.393 Z-1.53 I-0.533 J-1.373 F150
G1 X39.23 Y31.973 Z-1.752
G3 X42.175 Y32 Z-1.8 I1.472 J0.027
X21.825 Y32 I-10.175 J0 F300
X42.175 Y32 I10.175 J0
G2 X43.423 Y34.007 I2.238 J0
G3 X44.327 Y36.192 I-0.793 J1.607
X19.673 Y27.808 I-12.327 J-4.192
X44.327 Y36.192 I12.327 J4.192
G2 X44.884 Y38.527 I2.133 J0.725
G3 X45.123 Y40.915 I-1.309 J1.337
X18.877 Y23.085 I-13.123 J-8.915
X45.123 Y40.915 I13.123 J8.915
G2 X45.048 Y43.341 I1.871 J1.271
G3 X44.698 Y45.741 I-1.66 J0.984
X19.302 Y18.259 I-12.698 J-13.741
X44.698 Y45.741 I12.698 J13.741
G2 X44.079 Y48.107 I1.54 J1.667
G3 X43.229 Y50.399 I-1.878 J0.608
X20.771 Y13.601 I-11.229 J-18.399
X43.229 Y50.399 I11.229 J18.399
G2 X42.137 Y52.648 I1.205 J1.975
G3 X40.85 Y54.792 I-2.026 J0.242
X23.15 Y9.208 I-8.85 J-22.792
X40.85 Y54.792 I8.85 J22.792
X38.845 Y53.393 Z-1.83 I-0.533 J-1.373 F150
G1 X39.23 Y31.973 Z-2.052
G3 X42.175 Y32 Z-2.1 I1.472 J0.027
X21.825 Y32 I-10.175 J0 F300
X42.175 Y32 I10.175 J0
G2 X43.423 Y34.007 I2.238 J0
G3 X44.327 Y36.192 I-0.793 J1.607
X19.673 Y27.808 I-12.327 J-4.192
X44.327 Y36.192 I12.327 J4.192
G2 X44.884 Y38.527 I2.133 J0.725
G3 X45.123 Y40.915 I-1.309 J1.337
X18.877 Y23.085 I-13.123 J-8.915
X45.123 Y40.915 I13.123 J8.915
G2 X45.048 Y43.341 I1.871 J1.271
G3 X44.698 Y45.741 I-1.66 J0.984
X19.302 Y18.259 I-12.698 J-13.741
X44.698 Y45.741 I12.698 J13.741
G2 X44.079 Y48.107 I1.54 J1.667
G3 X43.229 Y50.399 I-1.878 J0.608
X20.771 Y13.601 I-11.229 J-18.399
X43.229 Y50.399 I11.229 J18.399
G2 X42.137 Y52.648 I1.205 J1.975
G3 X40.85 Y54.792 I-2.026 J0.242
X23.15 Y9.208 I-8.85 J-22.792
X40.85 Y54.792 I8.85 J22.792
X38.845 Y53.393 Z-2.13 I-0.533 J-1.373 F150
G1 X39.23 Y31.973 Z-2.352
G3 X42.175 Y32 Z-2.4 I1.472 J0.027
X21.825 Y32 I-10.175 J0 F300
X42.175 Y32 I10.175 J0
G2 X43.423 Y34.007 I2.238 J0
G3 X44.327 Y36.192 I-0.793 J1.607
X19.673 Y27.808 I-12.327 J-4.192
X44.327 Y36.192 I12.327 J4.192
G2 X44.884 Y38.527 I2.133 J0.725
G3 X45.123 Y40.915 I-1.309 J1.337
X18.877 Y23.085 I-13.123 J-8.915
X45.123 Y40.915 I13.123 J8.915
G2 X45.048 Y43.341 I1.871 J1.271
G3 X44.698 Y45.741 I-1.66 J0.984
X19.302 Y18.259 I-12.698 J-13.741
X44.698 Y45.741 I12.698 J13.741
G2 X44.079 Y48.107 I1.54 J1.667
G3 X43.229 Y50.399 I-1.878 J0.608
X20.771 Y13.601 I-11.229 J-18.399
X43.229 Y50.399 I11.229 J18.399
G2 X42.137 Y52.648 I1.205 J1.975
G3 X40.85 Y54.792 I-2.026 J0.242
X23.15 Y9.208 I-8.85 J-22.792
X40.85 Y54.792 I8.85 J22.792
X38.845 Y53.393 Z-2.43 I-0.533 J-1.373 F150
G1 X39.23 Y31.973 Z-2.652
G3 X42.175 Y32 Z-2.7 I1.472 J0.027
X21.825 Y32 I-10.175 J0 F300
X42.175 Y32 I10.175 J0
G2 X43.423 Y34.007 I2.238 J0
G3 X44.327 Y36.192 I-0.793 J1.607
X19.673 Y27.808 I-12.327 J-4.192
X44.327 Y36.192 I12.327 J4.192
G2 X44.884 Y38.527 I2.133 J0.725
G3 X45.123 Y40.915 I-1.309 J1.337
X18.877 Y23.085 I-13.123 J-8.915
X45.123 Y40.915 I13.123 J8.915
G2 X45.048 Y43.341 I1.871 J1.271
G3 X44.698 Y45.741 I-1.66 J0.984
X19.302 Y18.259 I-12.698 J-13.741
X44.698 Y45.741 I12.698 J13.741
G2 X44.079 Y48.107 I1.54 J1.667
G3 X43.229 Y50.399 I-1.878 J0.608
X20.771 Y13.601 I-11.229 J-18.399
X43.229 Y50.399 I11.229 J18.399
G2 X42.137 Y52.648 I1.205 J1.975
G3 X40.85 Y54.792 I-2.026 J0.242
X23.15 Y9.208 I-8.85 J-22.792
X40.85 Y54.792 I8.85 J22.792
X38.845 Y53.393 Z-2.73 I-0.533 J-1.373 F150
G1 X39.23 Y31.973 Z-2.952
G3 X42.175 Y32 Z-3 I1.472 J0.027
X21.825 Y32 I-10.175 J0 F300
X42.175 Y32 I10.175 J0
G2 X43.423 Y34.007 I2.238 J0
G3 X44.327 Y36.192 I-0.793 J1.607
X19.673 Y27.808 I-12.327 J-4.192
X44.327 Y36.192 I12.327 J4.192
G2 X44.884 Y38.527 I2.133 J0.725
G3 X45.123 Y40.915 I-1.309 J1.337
X18.877 Y23.085 I-13.123 J-8.915
X45.123 Y40.915 I13.123 J8.915
G2 X45.048 Y43.341 I1.871 J1.271
G3 X44.698 Y45.741 I-1.66 J0.984
X19.302 Y18.259 I-12.698 J-13.741
X44.698 Y45.741 I12.698 J13.741
G2 X44.079 Y48.107 I1.54 J1.667
G3 X43.229 Y50.399 I-1.878 J0.608
X20.771 Y13.601 I-11.229 J-18.399
X43.229 Y50.399 I11.229 J18.399
G2 X42.137 Y52.648 I1.205 J1.975
G3 X40.85 Y54.792 I-2.026 J0.242
X23.15 Y9.208 I-8.85 J-22.792
X40.85 Y54.792 I8.85 J22.792
X38.845 Y53.393 Z-3.03 I-0.533 J-1.373 F150
G1 X39.23 Y31.973 Z-3.252
G3 X42.175 Y32 Z-3.3 I1.472 J0.027
X21.825 Y32 I-10.175 J0 F300
X42.175 Y32 I10.175 J0
G2 X43.423 Y34.007 I2.238 J0
G3 X44.327 Y36.192 I-0.793 J1.607
X19.673 Y27.808 I-12.327 J-4.192
X44.327 Y36.192 I12.327 J4.192
G2 X44.884 Y38.527 I2.133 J0.725
G3 X45.123 Y40.915 I-1.309 J1.337
X18.877 Y23.085 I-13.123 J-8.915
X45.123 Y40.915 I13.123 J8.915
G2 X45.048 Y43.341 I1.871 J1.271
G3 X44.698 Y45.741 I-1.66 J0.984
X19.302 Y18.259 I-12.698 J-13.741
X44.698 Y45.741 I12.698 J13.741
G2 X44.079 Y48.107 I1.54 J1.667
G3 X43.229 Y50.399 I-1.878 J0.608
X20.771 Y13.601 I-11.229 J-18.399
X43.229 Y50.399 I11.229 J18.399
G2 X42.137 Y52.648 I1.205 J1.975
G3 X40.85 Y54.792 I-2.026 J0.242
X23.15 Y9.208 I-8.85 J-22.792
X40.85 Y54.792 I8.85 J22.792
X38.845 Y53.393 Z-3.33 I-0.533 J-1.373 F150
G1 X39.23 Y31.973 Z-3.552
G3 X42.175 Y32 Z-3.6 I1.472 J0.027
X21.825 Y32 I-10.175 J0 F300
X42.175 Y32 I10.175 J0
G2 X43.423 Y34.007 I2.238 J0
G3 X44.327 Y36.192 I-0.793 J1.607
X19.673 Y27.808 I-12.327 J-4.192
X44.327 Y36.192 I12.327 J4.192
G2 X44.884 Y38.527 I2.133 J0.725
G3 X45.123 Y40.915 I-1.309 J1.337
X18.877 Y23.085 I-13.123 J-8.915
X45.123 Y40.915 I13.123 J8.915
G2 X45.048 Y43.341 I1.871 J1.271
G3 X44.698 Y45.741 I-1.66 J0.984
X19.302 Y18.259 I-12.698 J-13.741
X44.698 Y45.741 I12.698 J13.741
G2 X44.079 Y48.107 I1.54 J1.667
G3 X43.229 Y50.399 I-1.878 J0.608
X20.771 Y13.601 I-11.229 J-18.399
X43.229 Y50.399 I11.229 J18.399
G2 X42.137 Y52.648 I1.205 J1.975
G3 X40.85 Y54.792 I-2.026 J0.242
X23.15 Y9.208 I-8.85 J-22.792
X40.85 Y54.792 I8.85 J22.792
X38.845 Y53.393 Z-3.63 I-0.533 J-1.373 F150
G1 X39.23 Y31.973 Z-3.852
G3 X42.175 Y32 Z-3.9 I1.472 J0.027
X21.825 Y32 I-10.175 J0 F300
X42.175 Y32 I10.175 J0
G2 X43.423 Y34.007 I2.238 J0
G3 X44.327 Y36.192 I-0.793 J1.607
X19.673 Y27.808 I-12.327 J-4.192
X44.327 Y36.192 I12.327 J4.192
G2 X44.884 Y38.527 I2.133 J0.725
G3 X45.123 Y40.915 I-1.309 J1.337
X18.877 Y23.085 I-13.123 J-8.915
X45.123 Y40.915 I13.123 J8.915
G2 X45.048 Y43.341 I1.871 J1.271
G3 X44.698 Y45.741 I-1.66 J0.984
X19.302 Y18.259 I-12.698 J-13.741
X44.698 Y45.741 I12.698 J13.741
G2 X44.079 Y48.107 I1.54 J1.667
G3 X43.229 Y50.399 I-1.878 J0.608
X20.771 Y13.601 I-11.229 J-18.399
X43.229 Y50.399 I11.229 J18.399
G2 X42.137 Y52.648 I1.205 J1.975
G3 X40.85 Y54.792 I-2.026 J0.242
X23.15 Y9.208 I-8.85 J-22.792
X40.85 Y54.792 I8.85 J22.792
X38.845 Y53.393 Z-3.93 I-0.533 J-1.373 F150
G1 X39.23 Y31.973 Z-4.152
G3 X42.175 Y32 Z-4.2 I1.472 J0.027
X21.825 Y32 I-10.175 J0 F300
X42.175 Y32 I10.175 J0
G2 X43.423 Y34.007 I2.238 J0
G3 X44.327 Y36.192 I-0.793 J1.607
X19.673 Y27.808 I-12.327 J-4.192
X44.327 Y36.192 I12.327 J4.192
G2 X44.884 Y38.527 I2.133 J0.725
G3 X45.123 Y40.915 I-1.309 J1.337
X18.877 Y23.085 I-13.123 J-8.915
X45.123 Y40.915 I13.123 J8.915
G2 X45.048 Y43.341 I1.871 J1.271
G3 X44.698 Y45.741 I-1.66 J0.984
X19.302 Y18.259 I-12.698 J-13.741
X44.698 Y45.741 I12.698 J13.741
G2 X44.079 Y48.107 I1.54 J1.667
G3 X43.229 Y50.399 I-1.878 J0.608
X20.771 Y13.601 I-11.229 J-18.399
X43.229 Y50.399 I11.229 J18.399
G2 X42.137 Y52.648 I1.205 J1.975
G3 X40.85 Y54.792 I-2.026 J0.242
X23.15 Y9.208 I-8.85 J-22.792
X40.85 Y54.792 I8.85 J22.792
X38.845 Y53.393 Z-4.23 I-0.533 J-1.373 F150
G1 X39.23 Y31.973 Z-4.452
G3 X42.175 Y32 Z-4.5 I1.472 J0.027
X21.825 Y32 I-10.175 J0 F300
X42.175 Y32 I10.175 J0
G2 X43.423 Y34.007 I2.238 J0
G3 X44.327 Y36.192 I-0.793 J1.607
X19.673 Y27.808 I-12.327 J-4.192
X44.327 Y36.192 I12.327 J4.192
G2 X44.884 Y38.527 I2.133 J0.725
G3 X45.123 Y40.915 I-1.309 J1.337
X18.877 Y23.085 I-13.123 J-8.915
X45.123 Y40.915 I13.123 J8.915
G2 X45.048 Y43.341 I1.871 J1.271
G3 X44.698 Y45.741 I-1.66 J0.984
X19.302 Y18.259 I-12.698 J-13.741
X44.698 Y45.741 I12.698 J13.741
G2 X44.079 Y48.107 I1.54 J1.667
G3 X43.229 Y50.399 I-1.878 J0.608
X20.771 Y13.601 I-11.229 J-18.399
X43.229 Y50.399 I11.229 J18.399
G2 X42.137 Y52.648 I1.205 J1.975
G3 X40.85 Y54.792 I-2.026 J0.242
X23.15 Y9.208 I-8.85 J-22.792
X40.85 Y54.792 I8.85 J22.792
G1 X40.793 Y54.808 Z-4.488
X40.734 Y54.813 Z-4.476
X40.684 Y54.808 Z-4.443
X40.635 Y54.796 Z-4.409
X40.575 Y54.767 Z-4.309
X40.555 Y54.754 Z-4.19
Z10
(When using Fusion 360 for Personal Use, the feedrate of)
(rapid moves is reduced to match the feedrate of cutting)
(moves, which can increase machining time. Unrestricted rapid)
(moves are available with a Fusion 360 Subscription.)

(2D Contour3)
G0 X40.895 Y31.69
G1 Z7 F300
Z2
Z1.3 F150
Z0.01
G18 G2 X41.205 Z-0.3 I0.31 K0
G1 X41.515
G17 G3 X41.825 Y32 I0 J0.31
X22.175 Y32 I-9.825 J0 F300
X41.825 Y32 I9.825 J0
X41.515 Y32.31 I-0.31 J0
G1 X41.205
G18 G3 X40.895 Z0.01 I0 K0.31
G1 Z2
Y31.69
Z1 F150
Z-0.29
G2 X41.205 Z-0.6 I0.31 K0
G1 X41.515
G17 G3 X41.825 Y32 I0 J0.31
X22.175 Y32 I-9.825 J0 F300
X41.825 Y32 I9.825 J0
X41.515 Y32.31 I-0.31 J0
G1 X41.205
G18 G3 X40.895 Z-0.29 I0 K0.31
G1 Z2
Y31.69
Z0.7 F150
Z-0.59
G2 X41.205 Z-0.9 I0.31 K0
G1 X41.515
G17 G3 X41.825 Y32 I0 J0.31
X22.175 Y32 I-9.825 J0 F300
X41.825 Y32 I9.825 J0
X41.515 Y32.31 I-0.31 J0
G1 X41.205
G18 G3 X40.895 Z-0.59 I0 K0.31
G1 Z2
Y31.69
Z0.4 F150
Z-0.89
G2 X41.205 Z-1.2 I0.31 K0
G1 X41.515
G17 G3 X41.825 Y32 I0 J0.31
X22.175 Y32 I-9.825 J0 F300
X41.825 Y32 I9.825 J0
X41.515 Y32.31 I-0.31 J0
G1 X41.205
G18 G3 X40.895 Z-0.89 I0 K0.31
G1 Z2
Y31.69
Z0.1 F150
Z-1.19
G2 X41.205 Z-1.5 I0.31 K0
G1 X41.515
G17 G3 X41.825 Y32 I0 J0.31
X22.175 Y32 I-9.825 J0 F300
X41.825 Y32 I9.825 J0
X41.515 Y32.31 I-0.31 J0
G1 X41.205
G18 G3 X40.895 Z-1.19 I0 K0.31
G1 Z2
Y31.69
Z-0.2 F150
Z-1.49
G2 X41.205 Z-1.8 I0.31 K0
G1 X41.515
G17 G3 X41.825 Y32 I0 J0.31
X22.175 Y32 I-9.825 J0 F300
X41.825 Y32 I9.825 J0
X41.515 Y32.31 I-0.31 J0
G1 X41.205
G18 G3 X40.895 Z-1.49 I0 K0.31
G1 Z2
Y31.69
Z-0.5 F150
Z-1.79
G2 X41.205 Z-2.1 I0.31 K0
G1 X41.515
G17 G3 X41.825 Y32 I0 J0.31
X22.175 Y32 I-9.825 J0 F300
X41.825 Y32 I9.825 J0
X41.515 Y32.31 I-0.31 J0
G1 X41.205
G18 G3 X40.895 Z-1.79 I0 K0.31
G1 Z2
Y31.69
Z-0.8 F150
Z-2.09
G2 X41.205 Z-2.4 I0.31 K0
G1 X41.515
G17 G3 X41.825 Y32 I0 J0.31
X22.175 Y32 I-9.825 J0 F300
X41.825 Y32 I9.825 J0
X41.515 Y32.31 I-0.31 J0
G1 X41.205
G18 G3 X40.895 Z-2.09 I0 K0.31
G1 Z2
Y31.69
Z-1.1 F150
Z-2.39
G2 X41.205 Z-2.7 I0.31 K0
G1 X41.515
G17 G3 X41.825 Y32 I0 J0.31
X22.175 Y32 I-9.825 J0 F300
X41.825 Y32 I9.825 J0
X41.515 Y32.31 I-0.31 J0
G1 X41.205
G18 G3 X40.895 Z-2.39 I0 K0.31
G1 Z2
Y31.69
Z-1.4 F150
Z-2.69
G2 X41.205 Z-3 I0.31 K0
G1 X41.515
G17 G3 X41.825 Y32 I0 J0.31
X22.175 Y32 I-9.825 J0 F300
X41.825 Y32 I9.825 J0
X41.515 Y32.31 I-0.31 J0
G1 X41.205
G18 G3 X40.895 Z-2.69 I0 K0.31
G1 Z2
Y31.69
Z-1.7 F150
Z-2.99
G2 X41.205 Z-3.3 I0.31 K0
G1 X41.515
G17 G3 X41.825 Y32 I0 J0.31
X22.175 Y32 I-9.825 J0 F300
X41.825 Y32 I9.825 J0
X41.515 Y32.31 I-0.31 J0
G1 X41.205
G18 G3 X40.895 Z-2.99 I0 K0.31
G1 Z2
Y31.69
Z-2 F150
Z-3.29
G2 X41.205 Z-3.6 I0.31 K0
G1 X41.515
G17 G3 X41.825 Y32 I0 J0.31
X22.175 Y32 I-9.825 J0 F300
X41.825 Y32 I9.825 J0
X41.515 Y32.31 I-0.31 J0
G1 X41.205
G18 G3 X40.895 Z-3.29 I0 K0.31
G1 Z2
Y31.69
Z-2.3 F150
Z-3.59
G2 X41.205 Z-3.9 I0.31 K0
G1 X41.515
G17 G3 X41.825 Y32 I0 J0.31
X22.175 Y32 I-9.825 J0 F300
X41.825 Y32 I9.825 J0
X41.515 Y32.31 I-0.31 J0
G1 X41.205
G18 G3 X40.895 Z-3.59 I0 K0.31
G1 Z2
Y31.69
Z-2.6 F150
Z-3.89
G2 X41.205 Z-4.2 I0.31 K0
G1 X41.515
G17 G3 X41.825 Y32 I0 J0.31
X22.175 Y32 I-9.825 J0 F300
X41.825 Y32 I9.825 J0
X41.515 Y32.31 I-0.31 J0
G1 X41.205
G18 G3 X40.895 Z-3.89 I0 K0.31
G1 Z2
Y31.69
Z-2.9 F150
Z-4.19
G2 X41.205 Z-4.5 I0.31 K0
G1 X41.515
G17 G3 X41.825 Y32 I0 J0.31
X22.175 Y32 I-9.825 J0 F300
X41.825 Y32 I9.825 J0
X41.515 Y32.31 I-0.31 J0
G1 X41.205
G18 G3 X40.895 Z-4.19 I0 K0.31
G1 Z2
Y31.69
Z-3.2 F150
Z-4.49
G2 X41.205 Z-4.8 I0.31 K0
G1 X41.515
G17 G3 X41.825 Y32 I0 J0.31
X22.175 Y32 I-9.825 J0 F300
X41.825 Y32 I9.825 J0
X41.515 Y32.31 I-0.31 J0
G1 X41.205
G18 G3 X40.895 Z-4.49 I0 K0.31
G1 Z2
Y31.69
Z-3.5 F150
Z-4.79
G2 X41.205 Z-5.1 I0.31 K0
G1 X41.515
G17 G3 X41.825 Y32 I0 J0.31
X22.175 Y32 I-9.825 J0 F300
X41.825 Y32 I9.825 J0
X41.515 Y32.31 I-0.31 J0
G1 X41.205
G18 G3 X40.895 Z-4.79 I0 K0.31
G1 Z2
Y31.69
Z-3.8 F150
Z-5.09
G2 X41.205 Z-5.4 I0.31 K0
G1 X41.515
G17 G3 X41.825 Y32 I0 J0.31
X22.175 Y32 I-9.825 J0 F300
X41.825 Y32 I9.825 J0
X41.515 Y32.31 I-0.31 J0
G1 X41.205
G18 G3 X40.895 Z-5.09 I0 K0.31
G1 Z2
Y31.69
Z-4.1 F150
Z-5.39
G2 X41.205 Z-5.7 I0.31 K0
G1 X41.515
G17 G3 X41.825 Y32 I0 J0.31
X22.175 Y32 I-9.825 J0 F300
X41.825 Y32 I9.825 J0
X41.515 Y32.31 I-0.31 J0
G1 X41.205
G18 G3 X40.895 Z-5.39 I0 K0.31
G1 Z2
Y31.69
Z-4.4 F150
Z-5.69
G2 X41.205 Z-6 I0.31 K0
G1 X41.515
G17 G3 X41.825 Y32 I0 J0.31
X22.175 Y32 I-9.825 J0 F300
X41.825 Y32 I9.825 J0
X41.515 Y32.31 I-0.31 J0
G1 X41.205
G18 G3 X40.895 Z-5.69 I0 K0.31
G1 Z2
Y31.69
Z-4.7 F150
Z-5.99
G2 X41.205 Z-6.3 I0.31 K0
G1 X41.515
G17 G3 X41.825 Y32 I0 J0.31
X22.175 Y32 I-9.825 J0 F300
X41.825 Y32 I9.825 J0
X41.515 Y32.31 I-0.31 J0
G1 X41.205
G18 G3 X40.895 Z-5.99 I0 K0.31
G1 Z2
Y31.69
Z-5 F150
Z-6.29
G2 X41.205 Z-6.6 I0.31 K0
G1 X41.515
G17 G3 X41.825 Y32 I0 J0.31
X22.175 Y32 I-9.825 J0 F300
X41.825 Y32 I9.825 J0
X41.515 Y32.31 I-0.31 J0
G1 X41.205
G18 G3 X40.895 Z-6.29 I0 K0.31
G1 Z2
Y31.69
Z-5.3 F150
Z-6.59
G2 X41.205 Z-6.9 I0.31 K0
G1 X41.515
G17 G3 X41.825 Y32 I0 J0.31
X22.175 Y32 I-9.825 J0 F300
X41.825 Y32 I9.825 J0
X41.515 Y32.31 I-0.31 J0
G1 X41.205
G18 G3 X40.895 Z-6.59 I0 K0.31
G1 Z2
Y31.69
Z-5.6 F150
Z-6.69
G2 X41.205 Z-7 I0.31 K0
G1 X41.515
G17 G3 X41.825 Y32 I0 J0.31
X22.175 Y32 I-9.825 J0 F300
X41.825 Y32 I9.825 J0
X41.515 Y32.31 I-0.31 J0
G1 X41.205
G18 G3 X40.895 Z-6.69 I0 K0.31
G1 Z7
G17
(When using Fusion 360 for Personal Use, the feedrate of)
(rapid moves is reduced to match the feedrate of cutting)
(moves, which can increase machining time. Unrestricted rapid)
(moves are available with a Fusion 360 Subscription.)


(Drill1)
S24000 M3
G54
M8
G0 X42 Y42
Z10
Z5
Z0.5
Z-2.5
G1 Z-4.8 F150
G0 Z0.5
Z-2.8
G1 Z-5.1 F150
G0 Z0.5
Z-3.1
G1 Z-5.4 F150
G0 Z0.5
Z-3.4
G1 Z-5.7 F150
G0 Z0.5
Z-3.7
G1 Z-6 F150
G0 Z0.5
Z-4
G1 Z-6.3 F150
G0 Z0.5
Z-4.3
G1 Z-6.6 F150
G0 Z0.5
Z-4.6
G1 Z-6.9 F150
G0 Z0.5
Z-4.9
G1 Z-7 F150
G4 P1.
G0 Z5
X22
Z0.5
Z-2.5
G1 Z-4.8 F150
G0 Z0.5
Z-2.8
G1 Z-5.1 F150
G0 Z0.5
Z-3.1
G1 Z-5.4 F150
G0 Z0.5
Z-3.4
G1 Z-5.7 F150
G0 Z0.5
Z-3.7
G1 Z-6 F150
G0 Z0.5
Z-4
G1 Z-6.3 F150
G0 Z0.5
Z-4.3
G1 Z-6.6 F150
G0 Z0.5
Z-4.6
G1 Z-6.9 F150
G0 Z0.5
Z-4.9
G1 Z-7 F150
G4 P1.
G0 Z5
Y22
Z0.5
Z-2.5
G1 Z-4.8 F150
G0 Z0.5
Z-2.8
G1 Z-5.1 F150
G0 Z0.5
Z-3.1
G1 Z-5.4 F150
G0 Z0.5
Z-3.4
G1 Z-5.7 F150
G0 Z0.5
Z-3.7
G1 Z-6 F150
G0 Z0.5
Z-4
G1 Z-6.3 F150
G0 Z0.5
Z-4.3
G1 Z-6.6 F150
G0 Z0.5
Z-4.6
G1 Z-6.9 F150
G0 Z0.5
Z-4.9
G1 Z-7 F150
G4 P1.
G0 Z5
X41.951
Z0.5
Z-2.5
G1 Z-4.8 F150
G0 Z0.5
Z-2.8
G1 Z-5.1 F150
G0 Z0.5
Z-3.1
G1 Z-5.4 F150
G0 Z0.5
Z-3.4
G1 Z-5.7 F150
G0 Z0.5
Z-3.7
G1 Z-6 F150
G0 Z0.5
Z-4
G1 Z-6.3 F150
G0 Z0.5
Z-4.3
G1 Z-6.6 F150
G0 Z0.5
Z-4.6
G1 Z-6.9 F150
G0 Z0.5
Z-4.9
G1 Z-7 F150
G4 P1.
G0 Z5
Z10

(2D Contour4)
G0 Z10
X68.48 Y32.31
G1 Z5 F300
Z1.3 F150
Z0.01
G18 G3 X68.17 Z-0.3 I-0.31 K0
G1 X67.86
G17 G3 X67.55 Y32 I0 J-0.31
G1 Y1 F300
G2 X66 Y-0.55 I-1.55 J0
G1 X1
G2 X-0.55 Y1 I0 J1.55
G1 Y63
G2 X1 Y64.55 I1.55 J0
G1 X66
G2 X67.55 Y63 I0 J-1.55
G1 Y32
G3 X67.86 Y31.69 I0.31 J0
G1 X68.17
G18 G2 X68.48 Z0.01 I0 K0.31
G1 Z5
Y32.31
Z1 F150
Z-0.29
G3 X68.17 Z-0.6 I-0.31 K0
G1 X67.86
G17 G3 X67.55 Y32 I0 J-0.31
G1 Y1 F300
G2 X66 Y-0.55 I-1.55 J0
G1 X1
G2 X-0.55 Y1 I0 J1.55
G1 Y63
G2 X1 Y64.55 I1.55 J0
G1 X66
G2 X67.55 Y63 I0 J-1.55
G1 Y32
G3 X67.86 Y31.69 I0.31 J0
G1 X68.17
G18 G2 X68.48 Z-0.29 I0 K0.31
G1 Z5
Y32.31
Z0.7 F150
Z-0.59
G3 X68.17 Z-0.9 I-0.31 K0
G1 X67.86
G17 G3 X67.55 Y32 I0 J-0.31
G1 Y1 F300
G2 X66 Y-0.55 I-1.55 J0
G1 X1
G2 X-0.55 Y1 I0 J1.55
G1 Y63
G2 X1 Y64.55 I1.55 J0
G1 X66
G2 X67.55 Y63 I0 J-1.55
G1 Y32
G3 X67.86 Y31.69 I0.31 J0
G1 X68.17
G18 G2 X68.48 Z-0.59 I0 K0.31
G1 Z5
Y32.31
Z0.4 F150
Z-0.89
G3 X68.17 Z-1.2 I-0.31 K0
G1 X67.86
G17 G3 X67.55 Y32 I0 J-0.31
G1 Y1 F300
G2 X66 Y-0.55 I-1.55 J0
G1 X1
G2 X-0.55 Y1 I0 J1.55
G1 Y63
G2 X1 Y64.55 I1.55 J0
G1 X66
G2 X67.55 Y63 I0 J-1.55
G1 Y32
G3 X67.86 Y31.69 I0.31 J0
G1 X68.17
G18 G2 X68.48 Z-0.89 I0 K0.31
G1 Z5
Y32.31
Z0.1 F150
Z-1.19
G3 X68.17 Z-1.5 I-0.31 K0
G1 X67.86
G17 G3 X67.55 Y32 I0 J-0.31
G1 Y1 F300
G2 X66 Y-0.55 I-1.55 J0
G1 X1
G2 X-0.55 Y1 I0 J1.55
G1 Y63
G2 X1 Y64.55 I1.55 J0
G1 X66
G2 X67.55 Y63 I0 J-1.55
G1 Y32
G3 X67.86 Y31.69 I0.31 J0
G1 X68.17
G18 G2 X68.48 Z-1.19 I0 K0.31
G1 Z5
Y32.31
Z-0.2 F150
Z-1.49
G3 X68.17 Z-1.8 I-0.31 K0
G1 X67.86
G17 G3 X67.55 Y32 I0 J-0.31
G1 Y1 F300
G2 X66 Y-0.55 I-1.55 J0
G1 X1
G2 X-0.55 Y1 I0 J1.55
G1 Y63
G2 X1 Y64.55 I1.55 J0
G1 X66
G2 X67.55 Y63 I0 J-1.55
G1 Y32
G3 X67.86 Y31.69 I0.31 J0
G1 X68.17
G18 G2 X68.48 Z-1.49 I0 K0.31
G1 Z5
Y32.31
Z-0.5 F150
Z-1.79
G3 X68.17 Z-2.1 I-0.31 K0
G1 X67.86
G17 G3 X67.55 Y32 I0 J-0.31
G1 Y1 F300
G2 X66 Y-0.55 I-1.55 J0
G1 X1
G2 X-0.55 Y1 I0 J1.55
G1 Y63
G2 X1 Y64.55 I1.55 J0
G1 X66
G2 X67.55 Y63 I0 J-1.55
G1 Y32
G3 X67.86 Y31.69 I0.31 J0
G1 X68.17
G18 G2 X68.48 Z-1.79 I0 K0.31
G1 Z5
Y32.31
Z-0.8 F150
Z-2.09
G3 X68.17 Z-2.4 I-0.31 K0
G1 X67.86
G17 G3 X67.55 Y32 I0 J-0.31
G1 Y1 F300
G2 X66 Y-0.55 I-1.55 J0
G1 X1
G2 X-0.55 Y1 I0 J1.55
G1 Y63
G2 X1 Y64.55 I1.55 J0
G1 X66
G2 X67.55 Y63 I0 J-1.55
G1 Y32
G3 X67.86 Y31.69 I0.31 J0
G1 X68.17
G18 G2 X68.48 Z-2.09 I0 K0.31
G1 Z5
Y32.31
Z-1.1 F150
Z-2.39
G3 X68.17 Z-2.7 I-0.31 K0
G1 X67.86
G17 G3 X67.55 Y32 I0 J-0.31
G1 Y1 F300
G2 X66 Y-0.55 I-1.55 J0
G1 X1
G2 X-0.55 Y1 I0 J1.55
G1 Y63
G2 X1 Y64.55 I1.55 J0
G1 X66
G2 X67.55 Y63 I0 J-1.55
G1 Y32
G3 X67.86 Y31.69 I0.31 J0
G1 X68.17
G18 G2 X68.48 Z-2.39 I0 K0.31
G1 Z5
Y32.31
Z-1.4 F150
Z-2.69
G3 X68.17 Z-3 I-0.31 K0
G1 X67.86
G17 G3 X67.55 Y32 I0 J-0.31
G1 Y1 F300
G2 X66 Y-0.55 I-1.55 J0
G1 X1
G2 X-0.55 Y1 I0 J1.55
G1 Y63
G2 X1 Y64.55 I1.55 J0
G1 X66
G2 X67.55 Y63 I0 J-1.55
G1 Y32
G3 X67.86 Y31.69 I0.31 J0
G1 X68.17
G18 G2 X68.48 Z-2.69 I0 K0.31
G1 Z5
Y32.31
Z-1.7 F150
Z-2.99
G3 X68.17 Z-3.3 I-0.31 K0
G1 X67.86
G17 G3 X67.55 Y32 I0 J-0.31
G1 Y1 F300
G2 X66 Y-0.55 I-1.55 J0
G1 X1
G2 X-0.55 Y1 I0 J1.55
G1 Y63
G2 X1 Y64.55 I1.55 J0
G1 X66
G2 X67.55 Y63 I0 J-1.55
G1 Y32
G3 X67.86 Y31.69 I0.31 J0
G1 X68.17
G18 G2 X68.48 Z-2.99 I0 K0.31
G1 Z5
Y32.31
Z-2 F150
Z-3.29
G3 X68.17 Z-3.6 I-0.31 K0
G1 X67.86
G17 G3 X67.55 Y32 I0 J-0.31
G1 Y1 F300
G2 X66 Y-0.55 I-1.55 J0
G1 X1
G2 X-0.55 Y1 I0 J1.55
G1 Y63
G2 X1 Y64.55 I1.55 J0
G1 X66
G2 X67.55 Y63 I0 J-1.55
G1 Y32
G3 X67.86 Y31.69 I0.31 J0
G1 X68.17
G18 G2 X68.48 Z-3.29 I0 K0.31
G1 Z5
Y32.31
Z-2.3 F150
Z-3.59
G3 X68.17 Z-3.9 I-0.31 K0
G1 X67.86
G17 G3 X67.55 Y32 I0 J-0.31
G1 Y1 F300
G2 X66 Y-0.55 I-1.55 J0
G1 X1
G2 X-0.55 Y1 I0 J1.55
G1 Y63
G2 X1 Y64.55 I1.55 J0
G1 X66
G2 X67.55 Y63 I0 J-1.55
G1 Y32
G3 X67.86 Y31.69 I0.31 J0
G1 X68.17
G18 G2 X68.48 Z-3.59 I0 K0.31
G1 Z5
Y32.31
Z-2.6 F150
Z-3.89
G3 X68.17 Z-4.2 I-0.31 K0
G1 X67.86
G17 G3 X67.55 Y32 I0 J-0.31
G1 Y1 F300
G2 X66 Y-0.55 I-1.55 J0
G1 X1
G2 X-0.55 Y1 I0 J1.55
G1 Y63
G2 X1 Y64.55 I1.55 J0
G1 X66
G2 X67.55 Y63 I0 J-1.55
G1 Y32
G3 X67.86 Y31.69 I0.31 J0
G1 X68.17
G18 G2 X68.48 Z-3.89 I0 K0.31
G1 Z5
Y32.31
Z-2.9 F150
Z-4.19
G3 X68.17 Z-4.5 I-0.31 K0
G1 X67.86
G17 G3 X67.55 Y32 I0 J-0.31
G1 Y1 F300
G2 X66 Y-0.55 I-1.55 J0
G1 X1
G2 X-0.55 Y1 I0 J1.55
G1 Y63
G2 X1 Y64.55 I1.55 J0
G1 X66
G2 X67.55 Y63 I0 J-1.55
G1 Y32
G3 X67.86 Y31.69 I0.31 J0
G1 X68.17
G18 G2 X68.48 Z-4.19 I0 K0.31
G1 Z5
Y32.31
Z-3.2 F150
Z-4.49
G3 X68.17 Z-4.8 I-0.31 K0
G1 X67.86
G17 G3 X67.55 Y32 I0 J-0.31
G1 Y1 F300
G2 X66 Y-0.55 I-1.55 J0
G1 X1
G2 X-0.55 Y1 I0 J1.55
G1 Y63
G2 X1 Y64.55 I1.55 J0
G1 X66
G2 X67.55 Y63 I0 J-1.55
G1 Y32
G3 X67.86 Y31.69 I0.31 J0
G1 X68.17
G18 G2 X68.48 Z-4.49 I0 K0.31
G1 Z5
Y32.31
Z-3.5 F150
Z-4.79
G3 X68.17 Z-5.1 I-0.31 K0
G1 X67.86
G17 G3 X67.55 Y32 I0 J-0.31
G1 Y1 F300
G2 X66 Y-0.55 I-1.55 J0
G1 X1
G2 X-0.55 Y1 I0 J1.55
G1 Y63
G2 X1 Y64.55 I1.55 J0
G1 X66
G2 X67.55 Y63 I0 J-1.55
G1 Y32
G3 X67.86 Y31.69 I0.31 J0
G1 X68.17
G18 G2 X68.48 Z-4.79 I0 K0.31
G1 Z5
Y32.31
Z-3.8 F150
Z-5.09
G3 X68.17 Z-5.4 I-0.31 K0
G1 X67.86
G17 G3 X67.55 Y32 I0 J-0.31
G1 Y1 F300
G2 X66 Y-0.55 I-1.55 J0
G1 X1
G2 X-0.55 Y1 I0 J1.55
G1 Y63
G2 X1 Y64.55 I1.55 J0
G1 X66
G2 X67.55 Y63 I0 J-1.55
G1 Y32
G3 X67.86 Y31.69 I0.31 J0
G1 X68.17
G18 G2 X68.48 Z-5.09 I0 K0.31
G1 Z5
Y32.31
Z-4.1 F150
Z-5.39
G3 X68.17 Z-5.7 I-0.31 K0
G1 X67.86
G17 G3 X67.55 Y32 I0 J-0.31
G1 Y1 F300
G2 X66 Y-0.55 I-1.55 J0
G1 X1
G2 X-0.55 Y1 I0 J1.55
G1 Y63
G2 X1 Y64.55 I1.55 J0
G1 X66
G2 X67.55 Y63 I0 J-1.55
G1 Y32
G3 X67.86 Y31.69 I0.31 J0
G1 X68.17
G18 G2 X68.48 Z-5.39 I0 K0.31
G1 Z5
Y32.31
Z-4.4 F150
Z-5.69
G3 X68.17 Z-6 I-0.31 K0
G1 X67.86
G17 G3 X67.55 Y32 I0 J-0.31
G1 Y1 F300
G2 X66 Y-0.55 I-1.55 J0
G1 X1
G2 X-0.55 Y1 I0 J1.55
G1 Y63
G2 X1 Y64.55 I1.55 J0
G1 X66
G2 X67.55 Y63 I0 J-1.55
G1 Y32
G3 X67.86 Y31.69 I0.31 J0
G1 X68.17
G18 G2 X68.48 Z-5.69 I0 K0.31
G1 Z5
Y32.31
Z-4.7 F150
Z-5.99
G3 X68.17 Z-6.3 I-0.31 K0
G1 X67.86
G17 G3 X67.55 Y32 I0 J-0.31
G1 Y1 F300
G2 X66 Y-0.55 I-1.55 J0
G1 X1
G2 X-0.55 Y1 I0 J1.55
G1 Y63
G2 X1 Y64.55 I1.55 J0
G1 X66
G2 X67.55 Y63 I0 J-1.55
G1 Y32
G3 X67.86 Y31.69 I0.31 J0
G1 X68.17
G18 G2 X68.48 Z-5.99 I0 K0.31
G1 Z5
Y32.31
Z-5 F150
Z-6.29
G3 X68.17 Z-6.6 I-0.31 K0
G1 X67.86
G17 G3 X67.55 Y32 I0 J-0.31
G1 Y1 F300
G2 X66 Y-0.55 I-1.55 J0
G1 X1
G2 X-0.55 Y1 I0 J1.55
G1 Y63
G2 X1 Y64.55 I1.55 J0
G1 X66
G2 X67.55 Y63 I0 J-1.55
G1 Y32
G3 X67.86 Y31.69 I0.31 J0
G1 X68.17
G18 G2 X68.48 Z-6.29 I0 K0.31
G1 Z5
Y32.31
Z-5.3 F150
Z-6.59
G3 X68.17 Z-6.9 I-0.31 K0
G1 X67.86
G17 G3 X67.55 Y32 I0 J-0.31
G1 Y1 F300
G2 X66 Y-0.55 I-1.55 J0
G1 X1
G2 X-0.55 Y1 I0 J1.55
G1 Y63
G2 X1 Y64.55 I1.55 J0
G1 X66
G2 X67.55 Y63 I0 J-1.55
G1 Y32
G3 X67.86 Y31.69 I0.31 J0
G1 X68.17
G18 G2 X68.48 Z-6.59 I0 K0.31
G1 Z5
Y32.31
Z-5.6 F150
Z-6.69
G3 X68.17 Z-7 I-0.31 K0
G1 X67.86
G17 G3 X67.55 Y32 I0 J-0.31
G1 Y1 F300
G2 X66 Y-0.55 I-1.55 J0
G1 X1
G2 X-0.55 Y1 I0 J1.55
G1 Y63
G2 X1 Y64.55 I1.55 J0
G1 X66
G2 X67.55 Y63 I0 J-1.55
G1 Y32
G3 X67.86 Y31.69 I0.31 J0
G1 X68.17
G18 G2 X68.48 Z-6.69 I0 K0.31
G1 Z10
G17
M9
M5
M30
