(nema17_hd_mount_to_atc)
(T3  D=3.1 CR=0 - ZMIN=-7 - flat end mill)
G90 G94
G17
G21

(Drill2)
T3
S24000 M3
G54
M8
G0 X6 Y3.172
Z10
Z5
Z2
G1 Z-0.3 F150
G0 Z5
Z1.7
G1 Z-0.6 F150
G0 Z5
Z1.4
G1 Z-0.9 F150
G0 Z5
Z1.1
G1 Z-1.2 F150
G0 Z5
Z0.8
G1 Z-1.5 F150
G0 Z5
Z0.5
G1 Z-1.8 F150
G0 Z5
Z0.2
G1 Z-2.1 F150
G0 Z5
Z-0.1
G1 Z-2.4 F150
G0 Z5
Z-0.4
G1 Z-2.7 F150
G0 Z5
Z-0.7
G1 Z-3 F150
G0 Z5
Z-1
G1 Z-3.3 F150
G0 Z5
Z-1.3
G1 Z-3.6 F150
G0 Z5
Z-1.6
G1 Z-3.9 F150
G0 Z5
Z-1.9
G1 Z-4.2 F150
G0 Z5
Z-2.2
G1 Z-4.5 F150
G0 Z5
Z-2.5
G1 Z-4.8 F150
G0 Z5
Z-2.8
G1 Z-5.1 F150
G0 Z5
Z-3.1
G1 Z-5.4 F150
G0 Z5
Z-3.4
G1 Z-5.7 F150
G0 Z5
Z-3.7
G1 Z-6 F150
G0 Z5
Z-4
G1 Z-6.3 F150
G0 Z5
Z-4.3
G1 Z-6.6 F150
G0 Z5
Z-4.6
G1 Z-6.9 F150
G0 Z5
Z-4.9
G1 Z-7 F150
G4 P1.
G0 Z5
X46 Y3
Z2
G1 Z-0.3 F150
G0 Z5
Z1.7
G1 Z-0.6 F150
G0 Z5
Z1.4
G1 Z-0.9 F150
G0 Z5
Z1.1
G1 Z-1.2 F150
G0 Z5
Z0.8
G1 Z-1.5 F150
G0 Z5
Z0.5
G1 Z-1.8 F150
G0 Z5
Z0.2
G1 Z-2.1 F150
G0 Z5
Z-0.1
G1 Z-2.4 F150
G0 Z5
Z-0.4
G1 Z-2.7 F150
G0 Z5
Z-0.7
G1 Z-3 F150
G0 Z5
Z-1
G1 Z-3.3 F150
G0 Z5
Z-1.3
G1 Z-3.6 F150
G0 Z5
Z-1.6
G1 Z-3.9 F150
G0 Z5
Z-1.9
G1 Z-4.2 F150
G0 Z5
Z-2.2
G1 Z-4.5 F150
G0 Z5
Z-2.5
G1 Z-4.8 F150
G0 Z5
Z-2.8
G1 Z-5.1 F150
G0 Z5
Z-3.1
G1 Z-5.4 F150
G0 Z5
Z-3.4
G1 Z-5.7 F150
G0 Z5
Z-3.7
G1 Z-6 F150
G0 Z5
Z-4
G1 Z-6.3 F150
G0 Z5
Z-4.3
G1 Z-6.6 F150
G0 Z5
Z-4.6
G1 Z-6.9 F150
G0 Z5
Z-4.9
G1 Z-7 F150
G4 P1.
G0 Z5
Z10
(When using Fusion 360 for Personal Use, the feedrate of)
(rapid moves is reduced to match the feedrate of cutting)
(moves, which can increase machining time. Unrestricted rapid)
(moves are available with a Fusion 360 Subscription.)

(2D Contour5)
X32.495 Y19.648
G1 Z10 F300
Z5
Z1.3 F150
Z0.01
G18 G2 X32.805 Z-0.3 I0.31 K0
G1 X33.115
G17 G3 X33.425 Y19.958 I0 J0.31
X31.325 Y19.958 I-1.05 J0 F300
X33.425 Y19.958 I1.05 J0
X33.115 Y20.268 I-0.31 J0
G1 X32.805
G18 G3 X32.495 Z0.01 I0 K0.31
G1 Z5
Y19.648
Z1 F150
Z-0.29
G2 X32.805 Z-0.6 I0.31 K0
G1 X33.115
G17 G3 X33.425 Y19.958 I0 J0.31
X31.325 Y19.958 I-1.05 J0 F300
X33.425 Y19.958 I1.05 J0
X33.115 Y20.268 I-0.31 J0
G1 X32.805
G18 G3 X32.495 Z-0.29 I0 K0.31
G1 Z5
Y19.648
Z0.7 F150
Z-0.59
G2 X32.805 Z-0.9 I0.31 K0
G1 X33.115
G17 G3 X33.425 Y19.958 I0 J0.31
X31.325 Y19.958 I-1.05 J0 F300
X33.425 Y19.958 I1.05 J0
X33.115 Y20.268 I-0.31 J0
G1 X32.805
G18 G3 X32.495 Z-0.59 I0 K0.31
G1 Z5
Y19.648
Z0.4 F150
Z-0.89
G2 X32.805 Z-1.2 I0.31 K0
G1 X33.115
G17 G3 X33.425 Y19.958 I0 J0.31
X31.325 Y19.958 I-1.05 J0 F300
X33.425 Y19.958 I1.05 J0
X33.115 Y20.268 I-0.31 J0
G1 X32.805
G18 G3 X32.495 Z-0.89 I0 K0.31
G1 Z5
Y19.648
Z0.1 F150
Z-1.19
G2 X32.805 Z-1.5 I0.31 K0
G1 X33.115
G17 G3 X33.425 Y19.958 I0 J0.31
X31.325 Y19.958 I-1.05 J0 F300
X33.425 Y19.958 I1.05 J0
X33.115 Y20.268 I-0.31 J0
G1 X32.805
G18 G3 X32.495 Z-1.19 I0 K0.31
G1 Z5
Y19.648
Z-0.2 F150
Z-1.49
G2 X32.805 Z-1.8 I0.31 K0
G1 X33.115
G17 G3 X33.425 Y19.958 I0 J0.31
X31.325 Y19.958 I-1.05 J0 F300
X33.425 Y19.958 I1.05 J0
X33.115 Y20.268 I-0.31 J0
G1 X32.805
G18 G3 X32.495 Z-1.49 I0 K0.31
G1 Z5
Y19.648
Z-0.5 F150
Z-1.79
G2 X32.805 Z-2.1 I0.31 K0
G1 X33.115
G17 G3 X33.425 Y19.958 I0 J0.31
X31.325 Y19.958 I-1.05 J0 F300
X33.425 Y19.958 I1.05 J0
X33.115 Y20.268 I-0.31 J0
G1 X32.805
G18 G3 X32.495 Z-1.79 I0 K0.31
G1 Z5
Y19.648
Z-0.8 F150
Z-2.09
G2 X32.805 Z-2.4 I0.31 K0
G1 X33.115
G17 G3 X33.425 Y19.958 I0 J0.31
X31.325 Y19.958 I-1.05 J0 F300
X33.425 Y19.958 I1.05 J0
X33.115 Y20.268 I-0.31 J0
G1 X32.805
G18 G3 X32.495 Z-2.09 I0 K0.31
G1 Z5
Y19.648
Z-1.1 F150
Z-2.39
G2 X32.805 Z-2.7 I0.31 K0
G1 X33.115
G17 G3 X33.425 Y19.958 I0 J0.31
X31.325 Y19.958 I-1.05 J0 F300
X33.425 Y19.958 I1.05 J0
X33.115 Y20.268 I-0.31 J0
G1 X32.805
G18 G3 X32.495 Z-2.39 I0 K0.31
G1 Z5
Y19.648
Z-1.4 F150
Z-2.69
G2 X32.805 Z-3 I0.31 K0
G1 X33.115
G17 G3 X33.425 Y19.958 I0 J0.31
X31.325 Y19.958 I-1.05 J0 F300
X33.425 Y19.958 I1.05 J0
X33.115 Y20.268 I-0.31 J0
G1 X32.805
G18 G3 X32.495 Z-2.69 I0 K0.31
G1 Z5
Y19.648
Z-1.7 F150
Z-2.99
G2 X32.805 Z-3.3 I0.31 K0
G1 X33.115
G17 G3 X33.425 Y19.958 I0 J0.31
X31.325 Y19.958 I-1.05 J0 F300
X33.425 Y19.958 I1.05 J0
X33.115 Y20.268 I-0.31 J0
G1 X32.805
G18 G3 X32.495 Z-2.99 I0 K0.31
G1 Z5
Y19.648
Z-2 F150
Z-3.29
G2 X32.805 Z-3.6 I0.31 K0
G1 X33.115
G17 G3 X33.425 Y19.958 I0 J0.31
X31.325 Y19.958 I-1.05 J0 F300
X33.425 Y19.958 I1.05 J0
X33.115 Y20.268 I-0.31 J0
G1 X32.805
G18 G3 X32.495 Z-3.29 I0 K0.31
G1 Z5
Y19.648
Z-2.3 F150
Z-3.59
G2 X32.805 Z-3.9 I0.31 K0
G1 X33.115
G17 G3 X33.425 Y19.958 I0 J0.31
X31.325 Y19.958 I-1.05 J0 F300
X33.425 Y19.958 I1.05 J0
X33.115 Y20.268 I-0.31 J0
G1 X32.805
G18 G3 X32.495 Z-3.59 I0 K0.31
G1 Z5
Y19.648
Z-2.6 F150
Z-3.89
G2 X32.805 Z-4.2 I0.31 K0
G1 X33.115
G17 G3 X33.425 Y19.958 I0 J0.31
X31.325 Y19.958 I-1.05 J0 F300
X33.425 Y19.958 I1.05 J0
X33.115 Y20.268 I-0.31 J0
G1 X32.805
G18 G3 X32.495 Z-3.89 I0 K0.31
G1 Z5
Y19.648
Z-2.9 F150
Z-4.19
G2 X32.805 Z-4.5 I0.31 K0
G1 X33.115
G17 G3 X33.425 Y19.958 I0 J0.31
X31.325 Y19.958 I-1.05 J0 F300
X33.425 Y19.958 I1.05 J0
X33.115 Y20.268 I-0.31 J0
G1 X32.805
G18 G3 X32.495 Z-4.19 I0 K0.31
G1 Z5
Y19.648
Z-3.2 F150
Z-4.49
G2 X32.805 Z-4.8 I0.31 K0
G1 X33.115
G17 G3 X33.425 Y19.958 I0 J0.31
X31.325 Y19.958 I-1.05 J0 F300
X33.425 Y19.958 I1.05 J0
X33.115 Y20.268 I-0.31 J0
G1 X32.805
G18 G3 X32.495 Z-4.49 I0 K0.31
G1 Z5
Y19.648
Z-3.5 F150
Z-4.79
G2 X32.805 Z-5.1 I0.31 K0
G1 X33.115
G17 G3 X33.425 Y19.958 I0 J0.31
X31.325 Y19.958 I-1.05 J0 F300
X33.425 Y19.958 I1.05 J0
X33.115 Y20.268 I-0.31 J0
G1 X32.805
G18 G3 X32.495 Z-4.79 I0 K0.31
G1 Z5
Y19.648
Z-3.8 F150
Z-5.09
G2 X32.805 Z-5.4 I0.31 K0
G1 X33.115
G17 G3 X33.425 Y19.958 I0 J0.31
X31.325 Y19.958 I-1.05 J0 F300
X33.425 Y19.958 I1.05 J0
X33.115 Y20.268 I-0.31 J0
G1 X32.805
G18 G3 X32.495 Z-5.09 I0 K0.31
G1 Z5
Y19.648
Z-4.1 F150
Z-5.39
G2 X32.805 Z-5.7 I0.31 K0
G1 X33.115
G17 G3 X33.425 Y19.958 I0 J0.31
X31.325 Y19.958 I-1.05 J0 F300
X33.425 Y19.958 I1.05 J0
X33.115 Y20.268 I-0.31 J0
G1 X32.805
G18 G3 X32.495 Z-5.39 I0 K0.31
G1 Z5
Y19.648
Z-4.4 F150
Z-5.69
G2 X32.805 Z-6 I0.31 K0
G1 X33.115
G17 G3 X33.425 Y19.958 I0 J0.31
X31.325 Y19.958 I-1.05 J0 F300
X33.425 Y19.958 I1.05 J0
X33.115 Y20.268 I-0.31 J0
G1 X32.805
G18 G3 X32.495 Z-5.69 I0 K0.31
G1 Z5
Y19.648
Z-4.7 F150
Z-5.99
G2 X32.805 Z-6.3 I0.31 K0
G1 X33.115
G17 G3 X33.425 Y19.958 I0 J0.31
X31.325 Y19.958 I-1.05 J0 F300
X33.425 Y19.958 I1.05 J0
X33.115 Y20.268 I-0.31 J0
G1 X32.805
G18 G3 X32.495 Z-5.99 I0 K0.31
G1 Z5
Y19.648
Z-5 F150
Z-6.29
G2 X32.805 Z-6.6 I0.31 K0
G1 X33.115
G17 G3 X33.425 Y19.958 I0 J0.31
X31.325 Y19.958 I-1.05 J0 F300
X33.425 Y19.958 I1.05 J0
X33.115 Y20.268 I-0.31 J0
G1 X32.805
G18 G3 X32.495 Z-6.29 I0 K0.31
G1 Z5
Y19.648
Z-5.3 F150
Z-6.59
G2 X32.805 Z-6.9 I0.31 K0
G1 X33.115
G17 G3 X33.425 Y19.958 I0 J0.31
X31.325 Y19.958 I-1.05 J0 F300
X33.425 Y19.958 I1.05 J0
X33.115 Y20.268 I-0.31 J0
G1 X32.805
G18 G3 X32.495 Z-6.59 I0 K0.31
G1 Z5
Y19.648
Z-5.6 F150
Z-6.69
G2 X32.805 Z-7 I0.31 K0
G1 X33.115
G17 G3 X33.425 Y19.958 I0 J0.31
X31.325 Y19.958 I-1.05 J0 F300
X33.425 Y19.958 I1.05 J0
X33.115 Y20.268 I-0.31 J0
G1 X32.805
G18 G3 X32.495 Z-6.69 I0 K0.31
G1 Z5
X38.87 Y30.69
Z1.3 F150
Z0.01
G2 X39.18 Z-0.3 I0.31 K0
G1 X39.49
G17 G3 X39.8 Y31 I0 J0.31
X37.7 Y31 I-1.05 J0 F300
X39.8 Y31 I1.05 J0
X39.49 Y31.31 I-0.31 J0
G1 X39.18
G18 G3 X38.87 Z0.01 I0 K0.31
G1 Z5
Y30.69
Z1 F150
Z-0.29
G2 X39.18 Z-0.6 I0.31 K0
G1 X39.49
G17 G3 X39.8 Y31 I0 J0.31
X37.7 Y31 I-1.05 J0 F300
X39.8 Y31 I1.05 J0
X39.49 Y31.31 I-0.31 J0
G1 X39.18
G18 G3 X38.87 Z-0.29 I0 K0.31
G1 Z5
Y30.69
Z0.7 F150
Z-0.59
G2 X39.18 Z-0.9 I0.31 K0
G1 X39.49
G17 G3 X39.8 Y31 I0 J0.31
X37.7 Y31 I-1.05 J0 F300
X39.8 Y31 I1.05 J0
X39.49 Y31.31 I-0.31 J0
G1 X39.18
G18 G3 X38.87 Z-0.59 I0 K0.31
G1 Z5
Y30.69
Z0.4 F150
Z-0.89
G2 X39.18 Z-1.2 I0.31 K0
G1 X39.49
G17 G3 X39.8 Y31 I0 J0.31
X37.7 Y31 I-1.05 J0 F300
X39.8 Y31 I1.05 J0
X39.49 Y31.31 I-0.31 J0
G1 X39.18
G18 G3 X38.87 Z-0.89 I0 K0.31
G1 Z5
Y30.69
Z0.1 F150
Z-1.19
G2 X39.18 Z-1.5 I0.31 K0
G1 X39.49
G17 G3 X39.8 Y31 I0 J0.31
X37.7 Y31 I-1.05 J0 F300
X39.8 Y31 I1.05 J0
X39.49 Y31.31 I-0.31 J0
G1 X39.18
G18 G3 X38.87 Z-1.19 I0 K0.31
G1 Z5
Y30.69
Z-0.2 F150
Z-1.49
G2 X39.18 Z-1.8 I0.31 K0
G1 X39.49
G17 G3 X39.8 Y31 I0 J0.31
X37.7 Y31 I-1.05 J0 F300
X39.8 Y31 I1.05 J0
X39.49 Y31.31 I-0.31 J0
G1 X39.18
G18 G3 X38.87 Z-1.49 I0 K0.31
G1 Z5
Y30.69
Z-0.5 F150
Z-1.79
G2 X39.18 Z-2.1 I0.31 K0
G1 X39.49
G17 G3 X39.8 Y31 I0 J0.31
X37.7 Y31 I-1.05 J0 F300
X39.8 Y31 I1.05 J0
X39.49 Y31.31 I-0.31 J0
G1 X39.18
G18 G3 X38.87 Z-1.79 I0 K0.31
G1 Z5
Y30.69
Z-0.8 F150
Z-2.09
G2 X39.18 Z-2.4 I0.31 K0
G1 X39.49
G17 G3 X39.8 Y31 I0 J0.31
X37.7 Y31 I-1.05 J0 F300
X39.8 Y31 I1.05 J0
X39.49 Y31.31 I-0.31 J0
G1 X39.18
G18 G3 X38.87 Z-2.09 I0 K0.31
G1 Z5
Y30.69
Z-1.1 F150
Z-2.39
G2 X39.18 Z-2.7 I0.31 K0
G1 X39.49
G17 G3 X39.8 Y31 I0 J0.31
X37.7 Y31 I-1.05 J0 F300
X39.8 Y31 I1.05 J0
X39.49 Y31.31 I-0.31 J0
G1 X39.18
G18 G3 X38.87 Z-2.39 I0 K0.31
G1 Z5
Y30.69
Z-1.4 F150
Z-2.69
G2 X39.18 Z-3 I0.31 K0
G1 X39.49
G17 G3 X39.8 Y31 I0 J0.31
X37.7 Y31 I-1.05 J0 F300
X39.8 Y31 I1.05 J0
X39.49 Y31.31 I-0.31 J0
G1 X39.18
G18 G3 X38.87 Z-2.69 I0 K0.31
G1 Z5
Y30.69
Z-1.7 F150
Z-2.99
G2 X39.18 Z-3.3 I0.31 K0
G1 X39.49
G17 G3 X39.8 Y31 I0 J0.31
X37.7 Y31 I-1.05 J0 F300
X39.8 Y31 I1.05 J0
X39.49 Y31.31 I-0.31 J0
G1 X39.18
G18 G3 X38.87 Z-2.99 I0 K0.31
G1 Z5
Y30.69
Z-2 F150
Z-3.29
G2 X39.18 Z-3.6 I0.31 K0
G1 X39.49
G17 G3 X39.8 Y31 I0 J0.31
X37.7 Y31 I-1.05 J0 F300
X39.8 Y31 I1.05 J0
X39.49 Y31.31 I-0.31 J0
G1 X39.18
G18 G3 X38.87 Z-3.29 I0 K0.31
G1 Z5
Y30.69
Z-2.3 F150
Z-3.59
G2 X39.18 Z-3.9 I0.31 K0
G1 X39.49
G17 G3 X39.8 Y31 I0 J0.31
X37.7 Y31 I-1.05 J0 F300
X39.8 Y31 I1.05 J0
X39.49 Y31.31 I-0.31 J0
G1 X39.18
G18 G3 X38.87 Z-3.59 I0 K0.31
G1 Z5
Y30.69
Z-2.6 F150
Z-3.89
G2 X39.18 Z-4.2 I0.31 K0
G1 X39.49
G17 G3 X39.8 Y31 I0 J0.31
X37.7 Y31 I-1.05 J0 F300
X39.8 Y31 I1.05 J0
X39.49 Y31.31 I-0.31 J0
G1 X39.18
G18 G3 X38.87 Z-3.89 I0 K0.31
G1 Z5
Y30.69
Z-2.9 F150
Z-4.19
G2 X39.18 Z-4.5 I0.31 K0
G1 X39.49
G17 G3 X39.8 Y31 I0 J0.31
X37.7 Y31 I-1.05 J0 F300
X39.8 Y31 I1.05 J0
X39.49 Y31.31 I-0.31 J0
G1 X39.18
G18 G3 X38.87 Z-4.19 I0 K0.31
G1 Z5
Y30.69
Z-3.2 F150
Z-4.49
G2 X39.18 Z-4.8 I0.31 K0
G1 X39.49
G17 G3 X39.8 Y31 I0 J0.31
X37.7 Y31 I-1.05 J0 F300
X39.8 Y31 I1.05 J0
X39.49 Y31.31 I-0.31 J0
G1 X39.18
G18 G3 X38.87 Z-4.49 I0 K0.31
G1 Z5
Y30.69
Z-3.5 F150
Z-4.79
G2 X39.18 Z-5.1 I0.31 K0
G1 X39.49
G17 G3 X39.8 Y31 I0 J0.31
X37.7 Y31 I-1.05 J0 F300
X39.8 Y31 I1.05 J0
X39.49 Y31.31 I-0.31 J0
G1 X39.18
G18 G3 X38.87 Z-4.79 I0 K0.31
G1 Z5
Y30.69
Z-3.8 F150
Z-5.09
G2 X39.18 Z-5.4 I0.31 K0
G1 X39.49
G17 G3 X39.8 Y31 I0 J0.31
X37.7 Y31 I-1.05 J0 F300
X39.8 Y31 I1.05 J0
X39.49 Y31.31 I-0.31 J0
G1 X39.18
G18 G3 X38.87 Z-5.09 I0 K0.31
G1 Z5
Y30.69
Z-4.1 F150
Z-5.39
G2 X39.18 Z-5.7 I0.31 K0
G1 X39.49
G17 G3 X39.8 Y31 I0 J0.31
X37.7 Y31 I-1.05 J0 F300
X39.8 Y31 I1.05 J0
X39.49 Y31.31 I-0.31 J0
G1 X39.18
G18 G3 X38.87 Z-5.39 I0 K0.31
G1 Z5
Y30.69
Z-4.4 F150
Z-5.69
G2 X39.18 Z-6 I0.31 K0
G1 X39.49
G17 G3 X39.8 Y31 I0 J0.31
X37.7 Y31 I-1.05 J0 F300
X39.8 Y31 I1.05 J0
X39.49 Y31.31 I-0.31 J0
G1 X39.18
G18 G3 X38.87 Z-5.69 I0 K0.31
G1 Z5
Y30.69
Z-4.7 F150
Z-5.99
G2 X39.18 Z-6.3 I0.31 K0
G1 X39.49
G17 G3 X39.8 Y31 I0 J0.31
X37.7 Y31 I-1.05 J0 F300
X39.8 Y31 I1.05 J0
X39.49 Y31.31 I-0.31 J0
G1 X39.18
G18 G3 X38.87 Z-5.99 I0 K0.31
G1 Z5
Y30.69
Z-5 F150
Z-6.29
G2 X39.18 Z-6.6 I0.31 K0
G1 X39.49
G17 G3 X39.8 Y31 I0 J0.31
X37.7 Y31 I-1.05 J0 F300
X39.8 Y31 I1.05 J0
X39.49 Y31.31 I-0.31 J0
G1 X39.18
G18 G3 X38.87 Z-6.29 I0 K0.31
G1 Z5
Y30.69
Z-5.3 F150
Z-6.59
G2 X39.18 Z-6.9 I0.31 K0
G1 X39.49
G17 G3 X39.8 Y31 I0 J0.31
X37.7 Y31 I-1.05 J0 F300
X39.8 Y31 I1.05 J0
X39.49 Y31.31 I-0.31 J0
G1 X39.18
G18 G3 X38.87 Z-6.59 I0 K0.31
G1 Z5
Y30.69
Z-5.6 F150
Z-6.69
G2 X39.18 Z-7 I0.31 K0
G1 X39.49
G17 G3 X39.8 Y31 I0 J0.31
X37.7 Y31 I-1.05 J0 F300
X39.8 Y31 I1.05 J0
X39.49 Y31.31 I-0.31 J0
G1 X39.18
G18 G3 X38.87 Z-6.69 I0 K0.31
G1 Z5
X32.589 Y41.788
Z1.3 F150
Z0.01
X32.597 Y41.79 Z-0.059
X32.618 Y41.798 Z-0.125
X32.653 Y41.81 Z-0.183
X32.7 Y41.825 Z-0.232
X32.755 Y41.845 Z-0.269
X32.817 Y41.866 Z-0.292
X32.882 Y41.888 Z-0.3
X33.176 Y41.989
G17 G3 X33.368 Y42.383 I-0.101 J0.293
X31.382 Y41.701 I-0.993 J-0.341 F300
X33.368 Y42.383 I0.993 J0.341
X32.974 Y42.575 I-0.293 J-0.101
G1 X32.681 Y42.475
X32.616 Y42.452 Z-0.292
X32.554 Y42.431 Z-0.269
X32.498 Y42.412 Z-0.232
X32.452 Y42.396 Z-0.183
X32.417 Y42.384 Z-0.125
X32.395 Y42.376 Z-0.059
X32.388 Y42.374 Z0.01
Z5
X32.589 Y41.788
Z1 F150
Z-0.29
X32.597 Y41.79 Z-0.359
X32.618 Y41.798 Z-0.425
X32.653 Y41.81 Z-0.483
X32.7 Y41.825 Z-0.532
X32.755 Y41.845 Z-0.569
X32.817 Y41.866 Z-0.592
X32.882 Y41.888 Z-0.6
X33.176 Y41.989
G3 X33.368 Y42.383 I-0.101 J0.293
X31.382 Y41.701 I-0.993 J-0.341 F300
X33.368 Y42.383 I0.993 J0.341
X32.974 Y42.575 I-0.293 J-0.101
G1 X32.681 Y42.475
X32.616 Y42.452 Z-0.592
X32.554 Y42.431 Z-0.569
X32.498 Y42.412 Z-0.532
X32.452 Y42.396 Z-0.483
X32.417 Y42.384 Z-0.425
X32.395 Y42.376 Z-0.359
X32.388 Y42.374 Z-0.29
Z5
X32.589 Y41.788
Z0.7 F150
Z-0.59
X32.597 Y41.79 Z-0.659
X32.618 Y41.798 Z-0.725
X32.653 Y41.81 Z-0.783
X32.7 Y41.825 Z-0.832
X32.755 Y41.845 Z-0.869
X32.817 Y41.866 Z-0.892
X32.882 Y41.888 Z-0.9
X33.176 Y41.989
G3 X33.368 Y42.383 I-0.101 J0.293
X31.382 Y41.701 I-0.993 J-0.341 F300
X33.368 Y42.383 I0.993 J0.341
X32.974 Y42.575 I-0.293 J-0.101
G1 X32.681 Y42.475
X32.616 Y42.452 Z-0.892
X32.554 Y42.431 Z-0.869
X32.498 Y42.412 Z-0.832
X32.452 Y42.396 Z-0.783
X32.417 Y42.384 Z-0.725
X32.395 Y42.376 Z-0.659
X32.388 Y42.374 Z-0.59
Z5
X32.589 Y41.788
Z0.4 F150
Z-0.89
X32.597 Y41.79 Z-0.959
X32.618 Y41.798 Z-1.025
X32.653 Y41.81 Z-1.083
X32.7 Y41.825 Z-1.132
X32.755 Y41.845 Z-1.169
X32.817 Y41.866 Z-1.192
X32.882 Y41.888 Z-1.2
X33.176 Y41.989
G3 X33.368 Y42.383 I-0.101 J0.293
X31.382 Y41.701 I-0.993 J-0.341 F300
X33.368 Y42.383 I0.993 J0.341
X32.974 Y42.575 I-0.293 J-0.101
G1 X32.681 Y42.475
X32.616 Y42.452 Z-1.192
X32.554 Y42.431 Z-1.169
X32.498 Y42.412 Z-1.132
X32.452 Y42.396 Z-1.083
X32.417 Y42.384 Z-1.025
X32.395 Y42.376 Z-0.959
X32.388 Y42.374 Z-0.89
Z5
X32.589 Y41.788
Z0.1 F150
Z-1.19
X32.597 Y41.79 Z-1.259
X32.618 Y41.798 Z-1.325
X32.653 Y41.81 Z-1.383
X32.7 Y41.825 Z-1.432
X32.755 Y41.845 Z-1.469
X32.817 Y41.866 Z-1.492
X32.882 Y41.888 Z-1.5
X33.176 Y41.989
G3 X33.368 Y42.383 I-0.101 J0.293
X31.382 Y41.701 I-0.993 J-0.341 F300
X33.368 Y42.383 I0.993 J0.341
X32.974 Y42.575 I-0.293 J-0.101
G1 X32.681 Y42.475
X32.616 Y42.452 Z-1.492
X32.554 Y42.431 Z-1.469
X32.498 Y42.412 Z-1.432
X32.452 Y42.396 Z-1.383
X32.417 Y42.384 Z-1.325
X32.395 Y42.376 Z-1.259
X32.388 Y42.374 Z-1.19
Z5
X32.589 Y41.788
Z-0.2 F150
Z-1.49
X32.597 Y41.79 Z-1.559
X32.618 Y41.798 Z-1.625
X32.653 Y41.81 Z-1.683
X32.7 Y41.825 Z-1.732
X32.755 Y41.845 Z-1.769
X32.817 Y41.866 Z-1.792
X32.882 Y41.888 Z-1.8
X33.176 Y41.989
G3 X33.368 Y42.383 I-0.101 J0.293
X31.382 Y41.701 I-0.993 J-0.341 F300
X33.368 Y42.383 I0.993 J0.341
X32.974 Y42.575 I-0.293 J-0.101
G1 X32.681 Y42.475
X32.616 Y42.452 Z-1.792
X32.554 Y42.431 Z-1.769
X32.498 Y42.412 Z-1.732
X32.452 Y42.396 Z-1.683
X32.417 Y42.384 Z-1.625
X32.395 Y42.376 Z-1.559
X32.388 Y42.374 Z-1.49
Z5
X32.589 Y41.788
Z-0.5 F150
Z-1.79
X32.597 Y41.79 Z-1.859
X32.618 Y41.798 Z-1.925
X32.653 Y41.81 Z-1.983
X32.7 Y41.825 Z-2.032
X32.755 Y41.845 Z-2.069
X32.817 Y41.866 Z-2.092
X32.882 Y41.888 Z-2.1
X33.176 Y41.989
G3 X33.368 Y42.383 I-0.101 J0.293
X31.382 Y41.701 I-0.993 J-0.341 F300
X33.368 Y42.383 I0.993 J0.341
X32.974 Y42.575 I-0.293 J-0.101
G1 X32.681 Y42.475
X32.616 Y42.452 Z-2.092
X32.554 Y42.431 Z-2.069
X32.498 Y42.412 Z-2.032
X32.452 Y42.396 Z-1.983
X32.417 Y42.384 Z-1.925
X32.395 Y42.376 Z-1.859
X32.388 Y42.374 Z-1.79
Z5
X32.589 Y41.788
Z-0.8 F150
Z-2.09
X32.597 Y41.79 Z-2.159
X32.618 Y41.798 Z-2.225
X32.653 Y41.81 Z-2.283
X32.7 Y41.825 Z-2.332
X32.755 Y41.845 Z-2.369
X32.817 Y41.866 Z-2.392
X32.882 Y41.888 Z-2.4
X33.176 Y41.989
G3 X33.368 Y42.383 I-0.101 J0.293
X31.382 Y41.701 I-0.993 J-0.341 F300
X33.368 Y42.383 I0.993 J0.341
X32.974 Y42.575 I-0.293 J-0.101
G1 X32.681 Y42.475
X32.616 Y42.452 Z-2.392
X32.554 Y42.431 Z-2.369
X32.498 Y42.412 Z-2.332
X32.452 Y42.396 Z-2.283
X32.417 Y42.384 Z-2.225
X32.395 Y42.376 Z-2.159
X32.388 Y42.374 Z-2.09
Z5
X32.589 Y41.788
Z-1.1 F150
Z-2.39
X32.597 Y41.79 Z-2.459
X32.618 Y41.798 Z-2.525
X32.653 Y41.81 Z-2.583
X32.7 Y41.825 Z-2.632
X32.755 Y41.845 Z-2.669
X32.817 Y41.866 Z-2.692
X32.882 Y41.888 Z-2.7
X33.176 Y41.989
G3 X33.368 Y42.383 I-0.101 J0.293
X31.382 Y41.701 I-0.993 J-0.341 F300
X33.368 Y42.383 I0.993 J0.341
X32.974 Y42.575 I-0.293 J-0.101
G1 X32.681 Y42.475
X32.616 Y42.452 Z-2.692
X32.554 Y42.431 Z-2.669
X32.498 Y42.412 Z-2.632
X32.452 Y42.396 Z-2.583
X32.417 Y42.384 Z-2.525
X32.395 Y42.376 Z-2.459
X32.388 Y42.374 Z-2.39
Z5
X32.589 Y41.788
Z-1.4 F150
Z-2.69
X32.597 Y41.79 Z-2.759
X32.618 Y41.798 Z-2.825
X32.653 Y41.81 Z-2.883
X32.7 Y41.825 Z-2.932
X32.755 Y41.845 Z-2.969
X32.817 Y41.866 Z-2.992
X32.882 Y41.888 Z-3
X33.176 Y41.989
G3 X33.368 Y42.383 I-0.101 J0.293
X31.382 Y41.701 I-0.993 J-0.341 F300
X33.368 Y42.383 I0.993 J0.341
X32.974 Y42.575 I-0.293 J-0.101
G1 X32.681 Y42.475
X32.616 Y42.452 Z-2.992
X32.554 Y42.431 Z-2.969
X32.498 Y42.412 Z-2.932
X32.452 Y42.396 Z-2.883
X32.417 Y42.384 Z-2.825
X32.395 Y42.376 Z-2.759
X32.388 Y42.374 Z-2.69
Z5
X32.589 Y41.788
Z-1.7 F150
Z-2.99
X32.597 Y41.79 Z-3.059
X32.618 Y41.798 Z-3.125
X32.653 Y41.81 Z-3.183
X32.7 Y41.825 Z-3.232
X32.755 Y41.845 Z-3.269
X32.817 Y41.866 Z-3.292
X32.882 Y41.888 Z-3.3
X33.176 Y41.989
G3 X33.368 Y42.383 I-0.101 J0.293
X31.382 Y41.701 I-0.993 J-0.341 F300
X33.368 Y42.383 I0.993 J0.341
X32.974 Y42.575 I-0.293 J-0.101
G1 X32.681 Y42.475
X32.616 Y42.452 Z-3.292
X32.554 Y42.431 Z-3.269
X32.498 Y42.412 Z-3.232
X32.452 Y42.396 Z-3.183
X32.417 Y42.384 Z-3.125
X32.395 Y42.376 Z-3.059
X32.388 Y42.374 Z-2.99
Z5
X32.589 Y41.788
Z-2 F150
Z-3.29
X32.597 Y41.79 Z-3.359
X32.618 Y41.798 Z-3.425
X32.653 Y41.81 Z-3.483
X32.7 Y41.825 Z-3.532
X32.755 Y41.845 Z-3.569
X32.817 Y41.866 Z-3.592
X32.882 Y41.888 Z-3.6
X33.176 Y41.989
G3 X33.368 Y42.383 I-0.101 J0.293
X31.382 Y41.701 I-0.993 J-0.341 F300
X33.368 Y42.383 I0.993 J0.341
X32.974 Y42.575 I-0.293 J-0.101
G1 X32.681 Y42.475
X32.616 Y42.452 Z-3.592
X32.554 Y42.431 Z-3.569
X32.498 Y42.412 Z-3.532
X32.452 Y42.396 Z-3.483
X32.417 Y42.384 Z-3.425
X32.395 Y42.376 Z-3.359
X32.388 Y42.374 Z-3.29
Z5
X32.589 Y41.788
Z-2.3 F150
Z-3.59
X32.597 Y41.79 Z-3.659
X32.618 Y41.798 Z-3.725
X32.653 Y41.81 Z-3.783
X32.7 Y41.825 Z-3.832
X32.755 Y41.845 Z-3.869
X32.817 Y41.866 Z-3.892
X32.882 Y41.888 Z-3.9
X33.176 Y41.989
G3 X33.368 Y42.383 I-0.101 J0.293
X31.382 Y41.701 I-0.993 J-0.341 F300
X33.368 Y42.383 I0.993 J0.341
X32.974 Y42.575 I-0.293 J-0.101
G1 X32.681 Y42.475
X32.616 Y42.452 Z-3.892
X32.554 Y42.431 Z-3.869
X32.498 Y42.412 Z-3.832
X32.452 Y42.396 Z-3.783
X32.417 Y42.384 Z-3.725
X32.395 Y42.376 Z-3.659
X32.388 Y42.374 Z-3.59
Z5
X32.589 Y41.788
Z-2.6 F150
Z-3.89
X32.597 Y41.79 Z-3.959
X32.618 Y41.798 Z-4.025
X32.653 Y41.81 Z-4.083
X32.7 Y41.825 Z-4.132
X32.755 Y41.845 Z-4.169
X32.817 Y41.866 Z-4.192
X32.882 Y41.888 Z-4.2
X33.176 Y41.989
G3 X33.368 Y42.383 I-0.101 J0.293
X31.382 Y41.701 I-0.993 J-0.341 F300
X33.368 Y42.383 I0.993 J0.341
X32.974 Y42.575 I-0.293 J-0.101
G1 X32.681 Y42.475
X32.616 Y42.452 Z-4.192
X32.554 Y42.431 Z-4.169
X32.498 Y42.412 Z-4.132
X32.452 Y42.396 Z-4.083
X32.417 Y42.384 Z-4.025
X32.395 Y42.376 Z-3.959
X32.388 Y42.374 Z-3.89
Z5
X32.589 Y41.788
Z-2.9 F150
Z-4.19
X32.597 Y41.79 Z-4.259
X32.618 Y41.798 Z-4.325
X32.653 Y41.81 Z-4.383
X32.7 Y41.825 Z-4.432
X32.755 Y41.845 Z-4.469
X32.817 Y41.866 Z-4.492
X32.882 Y41.888 Z-4.5
X33.176 Y41.989
G3 X33.368 Y42.383 I-0.101 J0.293
X31.382 Y41.701 I-0.993 J-0.341 F300
X33.368 Y42.383 I0.993 J0.341
X32.974 Y42.575 I-0.293 J-0.101
G1 X32.681 Y42.475
X32.616 Y42.452 Z-4.492
X32.554 Y42.431 Z-4.469
X32.498 Y42.412 Z-4.432
X32.452 Y42.396 Z-4.383
X32.417 Y42.384 Z-4.325
X32.395 Y42.376 Z-4.259
X32.388 Y42.374 Z-4.19
Z5
X32.589 Y41.788
Z-3.2 F150
Z-4.49
X32.597 Y41.79 Z-4.559
X32.618 Y41.798 Z-4.625
X32.653 Y41.81 Z-4.683
X32.7 Y41.825 Z-4.732
X32.755 Y41.845 Z-4.769
X32.817 Y41.866 Z-4.792
X32.882 Y41.888 Z-4.8
X33.176 Y41.989
G3 X33.368 Y42.383 I-0.101 J0.293
X31.382 Y41.701 I-0.993 J-0.341 F300
X33.368 Y42.383 I0.993 J0.341
X32.974 Y42.575 I-0.293 J-0.101
G1 X32.681 Y42.475
X32.616 Y42.452 Z-4.792
X32.554 Y42.431 Z-4.769
X32.498 Y42.412 Z-4.732
X32.452 Y42.396 Z-4.683
X32.417 Y42.384 Z-4.625
X32.395 Y42.376 Z-4.559
X32.388 Y42.374 Z-4.49
Z5
X32.589 Y41.788
Z-3.5 F150
Z-4.79
X32.597 Y41.79 Z-4.859
X32.618 Y41.798 Z-4.925
X32.653 Y41.81 Z-4.983
X32.7 Y41.825 Z-5.032
X32.755 Y41.845 Z-5.069
X32.817 Y41.866 Z-5.092
X32.882 Y41.888 Z-5.1
X33.176 Y41.989
G3 X33.368 Y42.383 I-0.101 J0.293
X31.382 Y41.701 I-0.993 J-0.341 F300
X33.368 Y42.383 I0.993 J0.341
X32.974 Y42.575 I-0.293 J-0.101
G1 X32.681 Y42.475
X32.616 Y42.452 Z-5.092
X32.554 Y42.431 Z-5.069
X32.498 Y42.412 Z-5.032
X32.452 Y42.396 Z-4.983
X32.417 Y42.384 Z-4.925
X32.395 Y42.376 Z-4.859
X32.388 Y42.374 Z-4.79
Z5
X32.589 Y41.788
Z-3.8 F150
Z-5.09
X32.597 Y41.79 Z-5.159
X32.618 Y41.798 Z-5.225
X32.653 Y41.81 Z-5.283
X32.7 Y41.825 Z-5.332
X32.755 Y41.845 Z-5.369
X32.817 Y41.866 Z-5.392
X32.882 Y41.888 Z-5.4
X33.176 Y41.989
G3 X33.368 Y42.383 I-0.101 J0.293
X31.382 Y41.701 I-0.993 J-0.341 F300
X33.368 Y42.383 I0.993 J0.341
X32.974 Y42.575 I-0.293 J-0.101
G1 X32.681 Y42.475
X32.616 Y42.452 Z-5.392
X32.554 Y42.431 Z-5.369
X32.498 Y42.412 Z-5.332
X32.452 Y42.396 Z-5.283
X32.417 Y42.384 Z-5.225
X32.395 Y42.376 Z-5.159
X32.388 Y42.374 Z-5.09
Z5
X32.589 Y41.788
Z-4.1 F150
Z-5.39
X32.597 Y41.79 Z-5.459
X32.618 Y41.798 Z-5.525
X32.653 Y41.81 Z-5.583
X32.7 Y41.825 Z-5.632
X32.755 Y41.845 Z-5.669
X32.817 Y41.866 Z-5.692
X32.882 Y41.888 Z-5.7
X33.176 Y41.989
G3 X33.368 Y42.383 I-0.101 J0.293
X31.382 Y41.701 I-0.993 J-0.341 F300
X33.368 Y42.383 I0.993 J0.341
X32.974 Y42.575 I-0.293 J-0.101
G1 X32.681 Y42.475
X32.616 Y42.452 Z-5.692
X32.554 Y42.431 Z-5.669
X32.498 Y42.412 Z-5.632
X32.452 Y42.396 Z-5.583
X32.417 Y42.384 Z-5.525
X32.395 Y42.376 Z-5.459
X32.388 Y42.374 Z-5.39
Z5
X32.589 Y41.788
Z-4.4 F150
Z-5.69
X32.597 Y41.79 Z-5.759
X32.618 Y41.798 Z-5.825
X32.653 Y41.81 Z-5.883
X32.7 Y41.825 Z-5.932
X32.755 Y41.845 Z-5.969
X32.817 Y41.866 Z-5.992
X32.882 Y41.888 Z-6
X33.176 Y41.989
G3 X33.368 Y42.383 I-0.101 J0.293
X31.382 Y41.701 I-0.993 J-0.341 F300
X33.368 Y42.383 I0.993 J0.341
X32.974 Y42.575 I-0.293 J-0.101
G1 X32.681 Y42.475
X32.616 Y42.452 Z-5.992
X32.554 Y42.431 Z-5.969
X32.498 Y42.412 Z-5.932
X32.452 Y42.396 Z-5.883
X32.417 Y42.384 Z-5.825
X32.395 Y42.376 Z-5.759
X32.388 Y42.374 Z-5.69
Z5
X32.589 Y41.788
Z-4.7 F150
Z-5.99
X32.597 Y41.79 Z-6.059
X32.618 Y41.798 Z-6.125
X32.653 Y41.81 Z-6.183
X32.7 Y41.825 Z-6.232
X32.755 Y41.845 Z-6.269
X32.817 Y41.866 Z-6.292
X32.882 Y41.888 Z-6.3
X33.176 Y41.989
G3 X33.368 Y42.383 I-0.101 J0.293
X31.382 Y41.701 I-0.993 J-0.341 F300
X33.368 Y42.383 I0.993 J0.341
X32.974 Y42.575 I-0.293 J-0.101
G1 X32.681 Y42.475
X32.616 Y42.452 Z-6.292
X32.554 Y42.431 Z-6.269
X32.498 Y42.412 Z-6.232
X32.452 Y42.396 Z-6.183
X32.417 Y42.384 Z-6.125
X32.395 Y42.376 Z-6.059
X32.388 Y42.374 Z-5.99
Z5
X32.589 Y41.788
Z-5 F150
Z-6.29
X32.597 Y41.79 Z-6.359
X32.618 Y41.798 Z-6.425
X32.653 Y41.81 Z-6.483
X32.7 Y41.825 Z-6.532
X32.755 Y41.845 Z-6.569
X32.817 Y41.866 Z-6.592
X32.882 Y41.888 Z-6.6
X33.176 Y41.989
G3 X33.368 Y42.383 I-0.101 J0.293
X31.382 Y41.701 I-0.993 J-0.341 F300
X33.368 Y42.383 I0.993 J0.341
X32.974 Y42.575 I-0.293 J-0.101
G1 X32.681 Y42.475
X32.616 Y42.452 Z-6.592
X32.554 Y42.431 Z-6.569
X32.498 Y42.412 Z-6.532
X32.452 Y42.396 Z-6.483
X32.417 Y42.384 Z-6.425
X32.395 Y42.376 Z-6.359
X32.388 Y42.374 Z-6.29
Z5
X32.589 Y41.788
Z-5.3 F150
Z-6.59
X32.597 Y41.79 Z-6.659
X32.618 Y41.798 Z-6.725
X32.653 Y41.81 Z-6.783
X32.7 Y41.825 Z-6.832
X32.755 Y41.845 Z-6.869
X32.817 Y41.866 Z-6.892
X32.882 Y41.888 Z-6.9
X33.176 Y41.989
G3 X33.368 Y42.383 I-0.101 J0.293
X31.382 Y41.701 I-0.993 J-0.341 F300
X33.368 Y42.383 I0.993 J0.341
X32.974 Y42.575 I-0.293 J-0.101
G1 X32.681 Y42.475
X32.616 Y42.452 Z-6.892
X32.554 Y42.431 Z-6.869
X32.498 Y42.412 Z-6.832
X32.452 Y42.396 Z-6.783
X32.417 Y42.384 Z-6.725
X32.395 Y42.376 Z-6.659
X32.388 Y42.374 Z-6.59
Z5
X32.589 Y41.788
Z-5.6 F150
Z-6.69
X32.597 Y41.79 Z-6.759
X32.618 Y41.798 Z-6.825
X32.653 Y41.81 Z-6.883
X32.7 Y41.825 Z-6.932
X32.755 Y41.845 Z-6.969
X32.817 Y41.866 Z-6.992
X32.882 Y41.888 Z-7
X33.176 Y41.989
G3 X33.368 Y42.383 I-0.101 J0.293
X31.382 Y41.701 I-0.993 J-0.341 F300
X33.368 Y42.383 I0.993 J0.341
X32.974 Y42.575 I-0.293 J-0.101
G1 X32.681 Y42.475
X32.616 Y42.452 Z-6.992
X32.554 Y42.431 Z-6.969
X32.498 Y42.412 Z-6.932
X32.452 Y42.396 Z-6.883
X32.417 Y42.384 Z-6.825
X32.395 Y42.376 Z-6.759
X32.388 Y42.374 Z-6.69
Z5
X19.839 Y41.788
Z1.3 F150
Z0.01
X19.847 Y41.79 Z-0.059
X19.868 Y41.798 Z-0.125
X19.903 Y41.81 Z-0.183
X19.95 Y41.825 Z-0.232
X20.005 Y41.845 Z-0.269
X20.067 Y41.866 Z-0.292
X20.132 Y41.888 Z-0.3
X20.426 Y41.989
G3 X20.618 Y42.383 I-0.101 J0.293
X18.632 Y41.701 I-0.993 J-0.341 F300
X20.618 Y42.383 I0.993 J0.341
X20.224 Y42.575 I-0.293 J-0.101
G1 X19.931 Y42.475
X19.866 Y42.452 Z-0.292
X19.804 Y42.431 Z-0.269
X19.748 Y42.412 Z-0.232
X19.702 Y42.396 Z-0.183
X19.667 Y42.384 Z-0.125
X19.645 Y42.376 Z-0.059
X19.638 Y42.374 Z0.01
Z5
X19.839 Y41.788
Z1 F150
Z-0.29
X19.847 Y41.79 Z-0.359
X19.868 Y41.798 Z-0.425
X19.903 Y41.81 Z-0.483
X19.95 Y41.825 Z-0.532
X20.005 Y41.845 Z-0.569
X20.067 Y41.866 Z-0.592
X20.132 Y41.888 Z-0.6
X20.426 Y41.989
G3 X20.618 Y42.383 I-0.101 J0.293
X18.632 Y41.701 I-0.993 J-0.341 F300
X20.618 Y42.383 I0.993 J0.341
X20.224 Y42.575 I-0.293 J-0.101
G1 X19.931 Y42.475
X19.866 Y42.452 Z-0.592
X19.804 Y42.431 Z-0.569
X19.748 Y42.412 Z-0.532
X19.702 Y42.396 Z-0.483
X19.667 Y42.384 Z-0.425
X19.645 Y42.376 Z-0.359
X19.638 Y42.374 Z-0.29
Z5
X19.839 Y41.788
Z0.7 F150
Z-0.59
X19.847 Y41.79 Z-0.659
X19.868 Y41.798 Z-0.725
X19.903 Y41.81 Z-0.783
X19.95 Y41.825 Z-0.832
X20.005 Y41.845 Z-0.869
X20.067 Y41.866 Z-0.892
X20.132 Y41.888 Z-0.9
X20.426 Y41.989
G3 X20.618 Y42.383 I-0.101 J0.293
X18.632 Y41.701 I-0.993 J-0.341 F300
X20.618 Y42.383 I0.993 J0.341
X20.224 Y42.575 I-0.293 J-0.101
G1 X19.931 Y42.475
X19.866 Y42.452 Z-0.892
X19.804 Y42.431 Z-0.869
X19.748 Y42.412 Z-0.832
X19.702 Y42.396 Z-0.783
X19.667 Y42.384 Z-0.725
X19.645 Y42.376 Z-0.659
X19.638 Y42.374 Z-0.59
Z5
X19.839 Y41.788
Z0.4 F150
Z-0.89
X19.847 Y41.79 Z-0.959
X19.868 Y41.798 Z-1.025
X19.903 Y41.81 Z-1.083
X19.95 Y41.825 Z-1.132
X20.005 Y41.845 Z-1.169
X20.067 Y41.866 Z-1.192
X20.132 Y41.888 Z-1.2
X20.426 Y41.989
G3 X20.618 Y42.383 I-0.101 J0.293
X18.632 Y41.701 I-0.993 J-0.341 F300
X20.618 Y42.383 I0.993 J0.341
X20.224 Y42.575 I-0.293 J-0.101
G1 X19.931 Y42.475
X19.866 Y42.452 Z-1.192
X19.804 Y42.431 Z-1.169
X19.748 Y42.412 Z-1.132
X19.702 Y42.396 Z-1.083
X19.667 Y42.384 Z-1.025
X19.645 Y42.376 Z-0.959
X19.638 Y42.374 Z-0.89
Z5
X19.839 Y41.788
Z0.1 F150
Z-1.19
X19.847 Y41.79 Z-1.259
X19.868 Y41.798 Z-1.325
X19.903 Y41.81 Z-1.383
X19.95 Y41.825 Z-1.432
X20.005 Y41.845 Z-1.469
X20.067 Y41.866 Z-1.492
X20.132 Y41.888 Z-1.5
X20.426 Y41.989
G3 X20.618 Y42.383 I-0.101 J0.293
X18.632 Y41.701 I-0.993 J-0.341 F300
X20.618 Y42.383 I0.993 J0.341
X20.224 Y42.575 I-0.293 J-0.101
G1 X19.931 Y42.475
X19.866 Y42.452 Z-1.492
X19.804 Y42.431 Z-1.469
X19.748 Y42.412 Z-1.432
X19.702 Y42.396 Z-1.383
X19.667 Y42.384 Z-1.325
X19.645 Y42.376 Z-1.259
X19.638 Y42.374 Z-1.19
Z5
X19.839 Y41.788
Z-0.2 F150
Z-1.49
X19.847 Y41.79 Z-1.559
X19.868 Y41.798 Z-1.625
X19.903 Y41.81 Z-1.683
X19.95 Y41.825 Z-1.732
X20.005 Y41.845 Z-1.769
X20.067 Y41.866 Z-1.792
X20.132 Y41.888 Z-1.8
X20.426 Y41.989
G3 X20.618 Y42.383 I-0.101 J0.293
X18.632 Y41.701 I-0.993 J-0.341 F300
X20.618 Y42.383 I0.993 J0.341
X20.224 Y42.575 I-0.293 J-0.101
G1 X19.931 Y42.475
X19.866 Y42.452 Z-1.792
X19.804 Y42.431 Z-1.769
X19.748 Y42.412 Z-1.732
X19.702 Y42.396 Z-1.683
X19.667 Y42.384 Z-1.625
X19.645 Y42.376 Z-1.559
X19.638 Y42.374 Z-1.49
Z5
X19.839 Y41.788
Z-0.5 F150
Z-1.79
X19.847 Y41.79 Z-1.859
X19.868 Y41.798 Z-1.925
X19.903 Y41.81 Z-1.983
X19.95 Y41.825 Z-2.032
X20.005 Y41.845 Z-2.069
X20.067 Y41.866 Z-2.092
X20.132 Y41.888 Z-2.1
X20.426 Y41.989
G3 X20.618 Y42.383 I-0.101 J0.293
X18.632 Y41.701 I-0.993 J-0.341 F300
X20.618 Y42.383 I0.993 J0.341
X20.224 Y42.575 I-0.293 J-0.101
G1 X19.931 Y42.475
X19.866 Y42.452 Z-2.092
X19.804 Y42.431 Z-2.069
X19.748 Y42.412 Z-2.032
X19.702 Y42.396 Z-1.983
X19.667 Y42.384 Z-1.925
X19.645 Y42.376 Z-1.859
X19.638 Y42.374 Z-1.79
Z5
X19.839 Y41.788
Z-0.8 F150
Z-2.09
X19.847 Y41.79 Z-2.159
X19.868 Y41.798 Z-2.225
X19.903 Y41.81 Z-2.283
X19.95 Y41.825 Z-2.332
X20.005 Y41.845 Z-2.369
X20.067 Y41.866 Z-2.392
X20.132 Y41.888 Z-2.4
X20.426 Y41.989
G3 X20.618 Y42.383 I-0.101 J0.293
X18.632 Y41.701 I-0.993 J-0.341 F300
X20.618 Y42.383 I0.993 J0.341
X20.224 Y42.575 I-0.293 J-0.101
G1 X19.931 Y42.475
X19.866 Y42.452 Z-2.392
X19.804 Y42.431 Z-2.369
X19.748 Y42.412 Z-2.332
X19.702 Y42.396 Z-2.283
X19.667 Y42.384 Z-2.225
X19.645 Y42.376 Z-2.159
X19.638 Y42.374 Z-2.09
Z5
X19.839 Y41.788
Z-1.1 F150
Z-2.39
X19.847 Y41.79 Z-2.459
X19.868 Y41.798 Z-2.525
X19.903 Y41.81 Z-2.583
X19.95 Y41.825 Z-2.632
X20.005 Y41.845 Z-2.669
X20.067 Y41.866 Z-2.692
X20.132 Y41.888 Z-2.7
X20.426 Y41.989
G3 X20.618 Y42.383 I-0.101 J0.293
X18.632 Y41.701 I-0.993 J-0.341 F300
X20.618 Y42.383 I0.993 J0.341
X20.224 Y42.575 I-0.293 J-0.101
G1 X19.931 Y42.475
X19.866 Y42.452 Z-2.692
X19.804 Y42.431 Z-2.669
X19.748 Y42.412 Z-2.632
X19.702 Y42.396 Z-2.583
X19.667 Y42.384 Z-2.525
X19.645 Y42.376 Z-2.459
X19.638 Y42.374 Z-2.39
Z5
X19.839 Y41.788
Z-1.4 F150
Z-2.69
X19.847 Y41.79 Z-2.759
X19.868 Y41.798 Z-2.825
X19.903 Y41.81 Z-2.883
X19.95 Y41.825 Z-2.932
X20.005 Y41.845 Z-2.969
X20.067 Y41.866 Z-2.992
X20.132 Y41.888 Z-3
X20.426 Y41.989
G3 X20.618 Y42.383 I-0.101 J0.293
X18.632 Y41.701 I-0.993 J-0.341 F300
X20.618 Y42.383 I0.993 J0.341
X20.224 Y42.575 I-0.293 J-0.101
G1 X19.931 Y42.475
X19.866 Y42.452 Z-2.992
X19.804 Y42.431 Z-2.969
X19.748 Y42.412 Z-2.932
X19.702 Y42.396 Z-2.883
X19.667 Y42.384 Z-2.825
X19.645 Y42.376 Z-2.759
X19.638 Y42.374 Z-2.69
Z5
X19.839 Y41.788
Z-1.7 F150
Z-2.99
X19.847 Y41.79 Z-3.059
X19.868 Y41.798 Z-3.125
X19.903 Y41.81 Z-3.183
X19.95 Y41.825 Z-3.232
X20.005 Y41.845 Z-3.269
X20.067 Y41.866 Z-3.292
X20.132 Y41.888 Z-3.3
X20.426 Y41.989
G3 X20.618 Y42.383 I-0.101 J0.293
X18.632 Y41.701 I-0.993 J-0.341 F300
X20.618 Y42.383 I0.993 J0.341
X20.224 Y42.575 I-0.293 J-0.101
G1 X19.931 Y42.475
X19.866 Y42.452 Z-3.292
X19.804 Y42.431 Z-3.269
X19.748 Y42.412 Z-3.232
X19.702 Y42.396 Z-3.183
X19.667 Y42.384 Z-3.125
X19.645 Y42.376 Z-3.059
X19.638 Y42.374 Z-2.99
Z5
X19.839 Y41.788
Z-2 F150
Z-3.29
X19.847 Y41.79 Z-3.359
X19.868 Y41.798 Z-3.425
X19.903 Y41.81 Z-3.483
X19.95 Y41.825 Z-3.532
X20.005 Y41.845 Z-3.569
X20.067 Y41.866 Z-3.592
X20.132 Y41.888 Z-3.6
X20.426 Y41.989
G3 X20.618 Y42.383 I-0.101 J0.293
X18.632 Y41.701 I-0.993 J-0.341 F300
X20.618 Y42.383 I0.993 J0.341
X20.224 Y42.575 I-0.293 J-0.101
G1 X19.931 Y42.475
X19.866 Y42.452 Z-3.592
X19.804 Y42.431 Z-3.569
X19.748 Y42.412 Z-3.532
X19.702 Y42.396 Z-3.483
X19.667 Y42.384 Z-3.425
X19.645 Y42.376 Z-3.359
X19.638 Y42.374 Z-3.29
Z5
X19.839 Y41.788
Z-2.3 F150
Z-3.59
X19.847 Y41.79 Z-3.659
X19.868 Y41.798 Z-3.725
X19.903 Y41.81 Z-3.783
X19.95 Y41.825 Z-3.832
X20.005 Y41.845 Z-3.869
X20.067 Y41.866 Z-3.892
X20.132 Y41.888 Z-3.9
X20.426 Y41.989
G3 X20.618 Y42.383 I-0.101 J0.293
X18.632 Y41.701 I-0.993 J-0.341 F300
X20.618 Y42.383 I0.993 J0.341
X20.224 Y42.575 I-0.293 J-0.101
G1 X19.931 Y42.475
X19.866 Y42.452 Z-3.892
X19.804 Y42.431 Z-3.869
X19.748 Y42.412 Z-3.832
X19.702 Y42.396 Z-3.783
X19.667 Y42.384 Z-3.725
X19.645 Y42.376 Z-3.659
X19.638 Y42.374 Z-3.59
Z5
X19.839 Y41.788
Z-2.6 F150
Z-3.89
X19.847 Y41.79 Z-3.959
X19.868 Y41.798 Z-4.025
X19.903 Y41.81 Z-4.083
X19.95 Y41.825 Z-4.132
X20.005 Y41.845 Z-4.169
X20.067 Y41.866 Z-4.192
X20.132 Y41.888 Z-4.2
X20.426 Y41.989
G3 X20.618 Y42.383 I-0.101 J0.293
X18.632 Y41.701 I-0.993 J-0.341 F300
X20.618 Y42.383 I0.993 J0.341
X20.224 Y42.575 I-0.293 J-0.101
G1 X19.931 Y42.475
X19.866 Y42.452 Z-4.192
X19.804 Y42.431 Z-4.169
X19.748 Y42.412 Z-4.132
X19.702 Y42.396 Z-4.083
X19.667 Y42.384 Z-4.025
X19.645 Y42.376 Z-3.959
X19.638 Y42.374 Z-3.89
Z5
X19.839 Y41.788
Z-2.9 F150
Z-4.19
X19.847 Y41.79 Z-4.259
X19.868 Y41.798 Z-4.325
X19.903 Y41.81 Z-4.383
X19.95 Y41.825 Z-4.432
X20.005 Y41.845 Z-4.469
X20.067 Y41.866 Z-4.492
X20.132 Y41.888 Z-4.5
X20.426 Y41.989
G3 X20.618 Y42.383 I-0.101 J0.293
X18.632 Y41.701 I-0.993 J-0.341 F300
X20.618 Y42.383 I0.993 J0.341
X20.224 Y42.575 I-0.293 J-0.101
G1 X19.931 Y42.475
X19.866 Y42.452 Z-4.492
X19.804 Y42.431 Z-4.469
X19.748 Y42.412 Z-4.432
X19.702 Y42.396 Z-4.383
X19.667 Y42.384 Z-4.325
X19.645 Y42.376 Z-4.259
X19.638 Y42.374 Z-4.19
Z5
X19.839 Y41.788
Z-3.2 F150
Z-4.49
X19.847 Y41.79 Z-4.559
X19.868 Y41.798 Z-4.625
X19.903 Y41.81 Z-4.683
X19.95 Y41.825 Z-4.732
X20.005 Y41.845 Z-4.769
X20.067 Y41.866 Z-4.792
X20.132 Y41.888 Z-4.8
X20.426 Y41.989
G3 X20.618 Y42.383 I-0.101 J0.293
X18.632 Y41.701 I-0.993 J-0.341 F300
X20.618 Y42.383 I0.993 J0.341
X20.224 Y42.575 I-0.293 J-0.101
G1 X19.931 Y42.475
X19.866 Y42.452 Z-4.792
X19.804 Y42.431 Z-4.769
X19.748 Y42.412 Z-4.732
X19.702 Y42.396 Z-4.683
X19.667 Y42.384 Z-4.625
X19.645 Y42.376 Z-4.559
X19.638 Y42.374 Z-4.49
Z5
X19.839 Y41.788
Z-3.5 F150
Z-4.79
X19.847 Y41.79 Z-4.859
X19.868 Y41.798 Z-4.925
X19.903 Y41.81 Z-4.983
X19.95 Y41.825 Z-5.032
X20.005 Y41.845 Z-5.069
X20.067 Y41.866 Z-5.092
X20.132 Y41.888 Z-5.1
X20.426 Y41.989
G3 X20.618 Y42.383 I-0.101 J0.293
X18.632 Y41.701 I-0.993 J-0.341 F300
X20.618 Y42.383 I0.993 J0.341
X20.224 Y42.575 I-0.293 J-0.101
G1 X19.931 Y42.475
X19.866 Y42.452 Z-5.092
X19.804 Y42.431 Z-5.069
X19.748 Y42.412 Z-5.032
X19.702 Y42.396 Z-4.983
X19.667 Y42.384 Z-4.925
X19.645 Y42.376 Z-4.859
X19.638 Y42.374 Z-4.79
Z5
X19.839 Y41.788
Z-3.8 F150
Z-5.09
X19.847 Y41.79 Z-5.159
X19.868 Y41.798 Z-5.225
X19.903 Y41.81 Z-5.283
X19.95 Y41.825 Z-5.332
X20.005 Y41.845 Z-5.369
X20.067 Y41.866 Z-5.392
X20.132 Y41.888 Z-5.4
X20.426 Y41.989
G3 X20.618 Y42.383 I-0.101 J0.293
X18.632 Y41.701 I-0.993 J-0.341 F300
X20.618 Y42.383 I0.993 J0.341
X20.224 Y42.575 I-0.293 J-0.101
G1 X19.931 Y42.475
X19.866 Y42.452 Z-5.392
X19.804 Y42.431 Z-5.369
X19.748 Y42.412 Z-5.332
X19.702 Y42.396 Z-5.283
X19.667 Y42.384 Z-5.225
X19.645 Y42.376 Z-5.159
X19.638 Y42.374 Z-5.09
Z5
X19.839 Y41.788
Z-4.1 F150
Z-5.39
X19.847 Y41.79 Z-5.459
X19.868 Y41.798 Z-5.525
X19.903 Y41.81 Z-5.583
X19.95 Y41.825 Z-5.632
X20.005 Y41.845 Z-5.669
X20.067 Y41.866 Z-5.692
X20.132 Y41.888 Z-5.7
X20.426 Y41.989
G3 X20.618 Y42.383 I-0.101 J0.293
X18.632 Y41.701 I-0.993 J-0.341 F300
X20.618 Y42.383 I0.993 J0.341
X20.224 Y42.575 I-0.293 J-0.101
G1 X19.931 Y42.475
X19.866 Y42.452 Z-5.692
X19.804 Y42.431 Z-5.669
X19.748 Y42.412 Z-5.632
X19.702 Y42.396 Z-5.583
X19.667 Y42.384 Z-5.525
X19.645 Y42.376 Z-5.459
X19.638 Y42.374 Z-5.39
Z5
X19.839 Y41.788
Z-4.4 F150
Z-5.69
X19.847 Y41.79 Z-5.759
X19.868 Y41.798 Z-5.825
X19.903 Y41.81 Z-5.883
X19.95 Y41.825 Z-5.932
X20.005 Y41.845 Z-5.969
X20.067 Y41.866 Z-5.992
X20.132 Y41.888 Z-6
X20.426 Y41.989
G3 X20.618 Y42.383 I-0.101 J0.293
X18.632 Y41.701 I-0.993 J-0.341 F300
X20.618 Y42.383 I0.993 J0.341
X20.224 Y42.575 I-0.293 J-0.101
G1 X19.931 Y42.475
X19.866 Y42.452 Z-5.992
X19.804 Y42.431 Z-5.969
X19.748 Y42.412 Z-5.932
X19.702 Y42.396 Z-5.883
X19.667 Y42.384 Z-5.825
X19.645 Y42.376 Z-5.759
X19.638 Y42.374 Z-5.69
Z5
X19.839 Y41.788
Z-4.7 F150
Z-5.99
X19.847 Y41.79 Z-6.059
X19.868 Y41.798 Z-6.125
X19.903 Y41.81 Z-6.183
X19.95 Y41.825 Z-6.232
X20.005 Y41.845 Z-6.269
X20.067 Y41.866 Z-6.292
X20.132 Y41.888 Z-6.3
X20.426 Y41.989
G3 X20.618 Y42.383 I-0.101 J0.293
X18.632 Y41.701 I-0.993 J-0.341 F300
X20.618 Y42.383 I0.993 J0.341
X20.224 Y42.575 I-0.293 J-0.101
G1 X19.931 Y42.475
X19.866 Y42.452 Z-6.292
X19.804 Y42.431 Z-6.269
X19.748 Y42.412 Z-6.232
X19.702 Y42.396 Z-6.183
X19.667 Y42.384 Z-6.125
X19.645 Y42.376 Z-6.059
X19.638 Y42.374 Z-5.99
Z5
X19.839 Y41.788
Z-5 F150
Z-6.29
X19.847 Y41.79 Z-6.359
X19.868 Y41.798 Z-6.425
X19.903 Y41.81 Z-6.483
X19.95 Y41.825 Z-6.532
X20.005 Y41.845 Z-6.569
X20.067 Y41.866 Z-6.592
X20.132 Y41.888 Z-6.6
X20.426 Y41.989
G3 X20.618 Y42.383 I-0.101 J0.293
X18.632 Y41.701 I-0.993 J-0.341 F300
X20.618 Y42.383 I0.993 J0.341
X20.224 Y42.575 I-0.293 J-0.101
G1 X19.931 Y42.475
X19.866 Y42.452 Z-6.592
X19.804 Y42.431 Z-6.569
X19.748 Y42.412 Z-6.532
X19.702 Y42.396 Z-6.483
X19.667 Y42.384 Z-6.425
X19.645 Y42.376 Z-6.359
X19.638 Y42.374 Z-6.29
Z5
X19.839 Y41.788
Z-5.3 F150
Z-6.59
X19.847 Y41.79 Z-6.659
X19.868 Y41.798 Z-6.725
X19.903 Y41.81 Z-6.783
X19.95 Y41.825 Z-6.832
X20.005 Y41.845 Z-6.869
X20.067 Y41.866 Z-6.892
X20.132 Y41.888 Z-6.9
X20.426 Y41.989
G3 X20.618 Y42.383 I-0.101 J0.293
X18.632 Y41.701 I-0.993 J-0.341 F300
X20.618 Y42.383 I0.993 J0.341
X20.224 Y42.575 I-0.293 J-0.101
G1 X19.931 Y42.475
X19.866 Y42.452 Z-6.892
X19.804 Y42.431 Z-6.869
X19.748 Y42.412 Z-6.832
X19.702 Y42.396 Z-6.783
X19.667 Y42.384 Z-6.725
X19.645 Y42.376 Z-6.659
X19.638 Y42.374 Z-6.59
Z5
X19.839 Y41.788
Z-5.6 F150
Z-6.69
X19.847 Y41.79 Z-6.759
X19.868 Y41.798 Z-6.825
X19.903 Y41.81 Z-6.883
X19.95 Y41.825 Z-6.932
X20.005 Y41.845 Z-6.969
X20.067 Y41.866 Z-6.992
X20.132 Y41.888 Z-7
X20.426 Y41.989
G3 X20.618 Y42.383 I-0.101 J0.293
X18.632 Y41.701 I-0.993 J-0.341 F300
X20.618 Y42.383 I0.993 J0.341
X20.224 Y42.575 I-0.293 J-0.101
G1 X19.931 Y42.475
X19.866 Y42.452 Z-6.992
X19.804 Y42.431 Z-6.969
X19.748 Y42.412 Z-6.932
X19.702 Y42.396 Z-6.883
X19.667 Y42.384 Z-6.825
X19.645 Y42.376 Z-6.759
X19.638 Y42.374 Z-6.69
Z5
X13.37 Y30.69
Z1.3 F150
Z0.01
G18 G2 X13.68 Z-0.3 I0.31 K0
G1 X13.99
G17 G3 X14.3 Y31 I0 J0.31
X12.2 Y31 I-1.05 J0 F300
X14.3 Y31 I1.05 J0
X13.99 Y31.31 I-0.31 J0
G1 X13.68
G18 G3 X13.37 Z0.01 I0 K0.31
G1 Z5
Y30.69
Z1 F150
Z-0.29
G2 X13.68 Z-0.6 I0.31 K0
G1 X13.99
G17 G3 X14.3 Y31 I0 J0.31
X12.2 Y31 I-1.05 J0 F300
X14.3 Y31 I1.05 J0
X13.99 Y31.31 I-0.31 J0
G1 X13.68
G18 G3 X13.37 Z-0.29 I0 K0.31
G1 Z5
Y30.69
Z0.7 F150
Z-0.59
G2 X13.68 Z-0.9 I0.31 K0
G1 X13.99
G17 G3 X14.3 Y31 I0 J0.31
X12.2 Y31 I-1.05 J0 F300
X14.3 Y31 I1.05 J0
X13.99 Y31.31 I-0.31 J0
G1 X13.68
G18 G3 X13.37 Z-0.59 I0 K0.31
G1 Z5
Y30.69
Z0.4 F150
Z-0.89
G2 X13.68 Z-1.2 I0.31 K0
G1 X13.99
G17 G3 X14.3 Y31 I0 J0.31
X12.2 Y31 I-1.05 J0 F300
X14.3 Y31 I1.05 J0
X13.99 Y31.31 I-0.31 J0
G1 X13.68
G18 G3 X13.37 Z-0.89 I0 K0.31
G1 Z5
Y30.69
Z0.1 F150
Z-1.19
G2 X13.68 Z-1.5 I0.31 K0
G1 X13.99
G17 G3 X14.3 Y31 I0 J0.31
X12.2 Y31 I-1.05 J0 F300
X14.3 Y31 I1.05 J0
X13.99 Y31.31 I-0.31 J0
G1 X13.68
G18 G3 X13.37 Z-1.19 I0 K0.31
G1 Z5
Y30.69
Z-0.2 F150
Z-1.49
G2 X13.68 Z-1.8 I0.31 K0
G1 X13.99
G17 G3 X14.3 Y31 I0 J0.31
X12.2 Y31 I-1.05 J0 F300
X14.3 Y31 I1.05 J0
X13.99 Y31.31 I-0.31 J0
G1 X13.68
G18 G3 X13.37 Z-1.49 I0 K0.31
G1 Z5
Y30.69
Z-0.5 F150
Z-1.79
G2 X13.68 Z-2.1 I0.31 K0
G1 X13.99
G17 G3 X14.3 Y31 I0 J0.31
X12.2 Y31 I-1.05 J0 F300
X14.3 Y31 I1.05 J0
X13.99 Y31.31 I-0.31 J0
G1 X13.68
G18 G3 X13.37 Z-1.79 I0 K0.31
G1 Z5
Y30.69
Z-0.8 F150
Z-2.09
G2 X13.68 Z-2.4 I0.31 K0
G1 X13.99
G17 G3 X14.3 Y31 I0 J0.31
X12.2 Y31 I-1.05 J0 F300
X14.3 Y31 I1.05 J0
X13.99 Y31.31 I-0.31 J0
G1 X13.68
G18 G3 X13.37 Z-2.09 I0 K0.31
G1 Z5
Y30.69
Z-1.1 F150
Z-2.39
G2 X13.68 Z-2.7 I0.31 K0
G1 X13.99
G17 G3 X14.3 Y31 I0 J0.31
X12.2 Y31 I-1.05 J0 F300
X14.3 Y31 I1.05 J0
X13.99 Y31.31 I-0.31 J0
G1 X13.68
G18 G3 X13.37 Z-2.39 I0 K0.31
G1 Z5
Y30.69
Z-1.4 F150
Z-2.69
G2 X13.68 Z-3 I0.31 K0
G1 X13.99
G17 G3 X14.3 Y31 I0 J0.31
X12.2 Y31 I-1.05 J0 F300
X14.3 Y31 I1.05 J0
X13.99 Y31.31 I-0.31 J0
G1 X13.68
G18 G3 X13.37 Z-2.69 I0 K0.31
G1 Z5
Y30.69
Z-1.7 F150
Z-2.99
G2 X13.68 Z-3.3 I0.31 K0
G1 X13.99
G17 G3 X14.3 Y31 I0 J0.31
X12.2 Y31 I-1.05 J0 F300
X14.3 Y31 I1.05 J0
X13.99 Y31.31 I-0.31 J0
G1 X13.68
G18 G3 X13.37 Z-2.99 I0 K0.31
G1 Z5
Y30.69
Z-2 F150
Z-3.29
G2 X13.68 Z-3.6 I0.31 K0
G1 X13.99
G17 G3 X14.3 Y31 I0 J0.31
X12.2 Y31 I-1.05 J0 F300
X14.3 Y31 I1.05 J0
X13.99 Y31.31 I-0.31 J0
G1 X13.68
G18 G3 X13.37 Z-3.29 I0 K0.31
G1 Z5
Y30.69
Z-2.3 F150
Z-3.59
G2 X13.68 Z-3.9 I0.31 K0
G1 X13.99
G17 G3 X14.3 Y31 I0 J0.31
X12.2 Y31 I-1.05 J0 F300
X14.3 Y31 I1.05 J0
X13.99 Y31.31 I-0.31 J0
G1 X13.68
G18 G3 X13.37 Z-3.59 I0 K0.31
G1 Z5
Y30.69
Z-2.6 F150
Z-3.89
G2 X13.68 Z-4.2 I0.31 K0
G1 X13.99
G17 G3 X14.3 Y31 I0 J0.31
X12.2 Y31 I-1.05 J0 F300
X14.3 Y31 I1.05 J0
X13.99 Y31.31 I-0.31 J0
G1 X13.68
G18 G3 X13.37 Z-3.89 I0 K0.31
G1 Z5
Y30.69
Z-2.9 F150
Z-4.19
G2 X13.68 Z-4.5 I0.31 K0
G1 X13.99
G17 G3 X14.3 Y31 I0 J0.31
X12.2 Y31 I-1.05 J0 F300
X14.3 Y31 I1.05 J0
X13.99 Y31.31 I-0.31 J0
G1 X13.68
G18 G3 X13.37 Z-4.19 I0 K0.31
G1 Z5
Y30.69
Z-3.2 F150
Z-4.49
G2 X13.68 Z-4.8 I0.31 K0
G1 X13.99
G17 G3 X14.3 Y31 I0 J0.31
X12.2 Y31 I-1.05 J0 F300
X14.3 Y31 I1.05 J0
X13.99 Y31.31 I-0.31 J0
G1 X13.68
G18 G3 X13.37 Z-4.49 I0 K0.31
G1 Z5
Y30.69
Z-3.5 F150
Z-4.79
G2 X13.68 Z-5.1 I0.31 K0
G1 X13.99
G17 G3 X14.3 Y31 I0 J0.31
X12.2 Y31 I-1.05 J0 F300
X14.3 Y31 I1.05 J0
X13.99 Y31.31 I-0.31 J0
G1 X13.68
G18 G3 X13.37 Z-4.79 I0 K0.31
G1 Z5
Y30.69
Z-3.8 F150
Z-5.09
G2 X13.68 Z-5.4 I0.31 K0
G1 X13.99
G17 G3 X14.3 Y31 I0 J0.31
X12.2 Y31 I-1.05 J0 F300
X14.3 Y31 I1.05 J0
X13.99 Y31.31 I-0.31 J0
G1 X13.68
G18 G3 X13.37 Z-5.09 I0 K0.31
G1 Z5
Y30.69
Z-4.1 F150
Z-5.39
G2 X13.68 Z-5.7 I0.31 K0
G1 X13.99
G17 G3 X14.3 Y31 I0 J0.31
X12.2 Y31 I-1.05 J0 F300
X14.3 Y31 I1.05 J0
X13.99 Y31.31 I-0.31 J0
G1 X13.68
G18 G3 X13.37 Z-5.39 I0 K0.31
G1 Z5
Y30.69
Z-4.4 F150
Z-5.69
G2 X13.68 Z-6 I0.31 K0
G1 X13.99
G17 G3 X14.3 Y31 I0 J0.31
X12.2 Y31 I-1.05 J0 F300
X14.3 Y31 I1.05 J0
X13.99 Y31.31 I-0.31 J0
G1 X13.68
G18 G3 X13.37 Z-5.69 I0 K0.31
G1 Z5
Y30.69
Z-4.7 F150
Z-5.99
G2 X13.68 Z-6.3 I0.31 K0
G1 X13.99
G17 G3 X14.3 Y31 I0 J0.31
X12.2 Y31 I-1.05 J0 F300
X14.3 Y31 I1.05 J0
X13.99 Y31.31 I-0.31 J0
G1 X13.68
G18 G3 X13.37 Z-5.99 I0 K0.31
G1 Z5
Y30.69
Z-5 F150
Z-6.29
G2 X13.68 Z-6.6 I0.31 K0
G1 X13.99
G17 G3 X14.3 Y31 I0 J0.31
X12.2 Y31 I-1.05 J0 F300
X14.3 Y31 I1.05 J0
X13.99 Y31.31 I-0.31 J0
G1 X13.68
G18 G3 X13.37 Z-6.29 I0 K0.31
G1 Z5
Y30.69
Z-5.3 F150
Z-6.59
G2 X13.68 Z-6.9 I0.31 K0
G1 X13.99
G17 G3 X14.3 Y31 I0 J0.31
X12.2 Y31 I-1.05 J0 F300
X14.3 Y31 I1.05 J0
X13.99 Y31.31 I-0.31 J0
G1 X13.68
G18 G3 X13.37 Z-6.59 I0 K0.31
G1 Z5
Y30.69
Z-5.6 F150
Z-6.69
G2 X13.68 Z-7 I0.31 K0
G1 X13.99
G17 G3 X14.3 Y31 I0 J0.31
X12.2 Y31 I-1.05 J0 F300
X14.3 Y31 I1.05 J0
X13.99 Y31.31 I-0.31 J0
G1 X13.68
G18 G3 X13.37 Z-6.69 I0 K0.31
G1 Z5
X19.745 Y19.648
Z1.3 F150
Z0.01
G2 X20.055 Z-0.3 I0.31 K0
G1 X20.365
G17 G3 X20.675 Y19.958 I0 J0.31
X18.575 Y19.958 I-1.05 J0 F300
X20.675 Y19.958 I1.05 J0
X20.365 Y20.268 I-0.31 J0
G1 X20.055
G18 G3 X19.745 Z0.01 I0 K0.31
G1 Z5
Y19.648
Z1 F150
Z-0.29
G2 X20.055 Z-0.6 I0.31 K0
G1 X20.365
G17 G3 X20.675 Y19.958 I0 J0.31
X18.575 Y19.958 I-1.05 J0 F300
X20.675 Y19.958 I1.05 J0
X20.365 Y20.268 I-0.31 J0
G1 X20.055
G18 G3 X19.745 Z-0.29 I0 K0.31
G1 Z5
Y19.648
Z0.7 F150
Z-0.59
G2 X20.055 Z-0.9 I0.31 K0
G1 X20.365
G17 G3 X20.675 Y19.958 I0 J0.31
X18.575 Y19.958 I-1.05 J0 F300
X20.675 Y19.958 I1.05 J0
X20.365 Y20.268 I-0.31 J0
G1 X20.055
G18 G3 X19.745 Z-0.59 I0 K0.31
G1 Z5
Y19.648
Z0.4 F150
Z-0.89
G2 X20.055 Z-1.2 I0.31 K0
G1 X20.365
G17 G3 X20.675 Y19.958 I0 J0.31
X18.575 Y19.958 I-1.05 J0 F300
X20.675 Y19.958 I1.05 J0
X20.365 Y20.268 I-0.31 J0
G1 X20.055
G18 G3 X19.745 Z-0.89 I0 K0.31
G1 Z5
Y19.648
Z0.1 F150
Z-1.19
G2 X20.055 Z-1.5 I0.31 K0
G1 X20.365
G17 G3 X20.675 Y19.958 I0 J0.31
X18.575 Y19.958 I-1.05 J0 F300
X20.675 Y19.958 I1.05 J0
X20.365 Y20.268 I-0.31 J0
G1 X20.055
G18 G3 X19.745 Z-1.19 I0 K0.31
G1 Z5
Y19.648
Z-0.2 F150
Z-1.49
G2 X20.055 Z-1.8 I0.31 K0
G1 X20.365
G17 G3 X20.675 Y19.958 I0 J0.31
X18.575 Y19.958 I-1.05 J0 F300
X20.675 Y19.958 I1.05 J0
X20.365 Y20.268 I-0.31 J0
G1 X20.055
G18 G3 X19.745 Z-1.49 I0 K0.31
G1 Z5
Y19.648
Z-0.5 F150
Z-1.79
G2 X20.055 Z-2.1 I0.31 K0
G1 X20.365
G17 G3 X20.675 Y19.958 I0 J0.31
X18.575 Y19.958 I-1.05 J0 F300
X20.675 Y19.958 I1.05 J0
X20.365 Y20.268 I-0.31 J0
G1 X20.055
G18 G3 X19.745 Z-1.79 I0 K0.31
G1 Z5
Y19.648
Z-0.8 F150
Z-2.09
G2 X20.055 Z-2.4 I0.31 K0
G1 X20.365
G17 G3 X20.675 Y19.958 I0 J0.31
X18.575 Y19.958 I-1.05 J0 F300
X20.675 Y19.958 I1.05 J0
X20.365 Y20.268 I-0.31 J0
G1 X20.055
G18 G3 X19.745 Z-2.09 I0 K0.31
G1 Z5
Y19.648
Z-1.1 F150
Z-2.39
G2 X20.055 Z-2.7 I0.31 K0
G1 X20.365
G17 G3 X20.675 Y19.958 I0 J0.31
X18.575 Y19.958 I-1.05 J0 F300
X20.675 Y19.958 I1.05 J0
X20.365 Y20.268 I-0.31 J0
G1 X20.055
G18 G3 X19.745 Z-2.39 I0 K0.31
G1 Z5
Y19.648
Z-1.4 F150
Z-2.69
G2 X20.055 Z-3 I0.31 K0
G1 X20.365
G17 G3 X20.675 Y19.958 I0 J0.31
X18.575 Y19.958 I-1.05 J0 F300
X20.675 Y19.958 I1.05 J0
X20.365 Y20.268 I-0.31 J0
G1 X20.055
G18 G3 X19.745 Z-2.69 I0 K0.31
G1 Z5
Y19.648
Z-1.7 F150
Z-2.99
G2 X20.055 Z-3.3 I0.31 K0
G1 X20.365
G17 G3 X20.675 Y19.958 I0 J0.31
X18.575 Y19.958 I-1.05 J0 F300
X20.675 Y19.958 I1.05 J0
X20.365 Y20.268 I-0.31 J0
G1 X20.055
G18 G3 X19.745 Z-2.99 I0 K0.31
G1 Z5
Y19.648
Z-2 F150
Z-3.29
G2 X20.055 Z-3.6 I0.31 K0
G1 X20.365
G17 G3 X20.675 Y19.958 I0 J0.31
X18.575 Y19.958 I-1.05 J0 F300
X20.675 Y19.958 I1.05 J0
X20.365 Y20.268 I-0.31 J0
G1 X20.055
G18 G3 X19.745 Z-3.29 I0 K0.31
G1 Z5
Y19.648
Z-2.3 F150
Z-3.59
G2 X20.055 Z-3.9 I0.31 K0
G1 X20.365
G17 G3 X20.675 Y19.958 I0 J0.31
X18.575 Y19.958 I-1.05 J0 F300
X20.675 Y19.958 I1.05 J0
X20.365 Y20.268 I-0.31 J0
G1 X20.055
G18 G3 X19.745 Z-3.59 I0 K0.31
G1 Z5
Y19.648
Z-2.6 F150
Z-3.89
G2 X20.055 Z-4.2 I0.31 K0
G1 X20.365
G17 G3 X20.675 Y19.958 I0 J0.31
X18.575 Y19.958 I-1.05 J0 F300
X20.675 Y19.958 I1.05 J0
X20.365 Y20.268 I-0.31 J0
G1 X20.055
G18 G3 X19.745 Z-3.89 I0 K0.31
G1 Z5
Y19.648
Z-2.9 F150
Z-4.19
G2 X20.055 Z-4.5 I0.31 K0
G1 X20.365
G17 G3 X20.675 Y19.958 I0 J0.31
X18.575 Y19.958 I-1.05 J0 F300
X20.675 Y19.958 I1.05 J0
X20.365 Y20.268 I-0.31 J0
G1 X20.055
G18 G3 X19.745 Z-4.19 I0 K0.31
G1 Z5
Y19.648
Z-3.2 F150
Z-4.49
G2 X20.055 Z-4.8 I0.31 K0
G1 X20.365
G17 G3 X20.675 Y19.958 I0 J0.31
X18.575 Y19.958 I-1.05 J0 F300
X20.675 Y19.958 I1.05 J0
X20.365 Y20.268 I-0.31 J0
G1 X20.055
G18 G3 X19.745 Z-4.49 I0 K0.31
G1 Z5
Y19.648
Z-3.5 F150
Z-4.79
G2 X20.055 Z-5.1 I0.31 K0
G1 X20.365
G17 G3 X20.675 Y19.958 I0 J0.31
X18.575 Y19.958 I-1.05 J0 F300
X20.675 Y19.958 I1.05 J0
X20.365 Y20.268 I-0.31 J0
G1 X20.055
G18 G3 X19.745 Z-4.79 I0 K0.31
G1 Z5
Y19.648
Z-3.8 F150
Z-5.09
G2 X20.055 Z-5.4 I0.31 K0
G1 X20.365
G17 G3 X20.675 Y19.958 I0 J0.31
X18.575 Y19.958 I-1.05 J0 F300
X20.675 Y19.958 I1.05 J0
X20.365 Y20.268 I-0.31 J0
G1 X20.055
G18 G3 X19.745 Z-5.09 I0 K0.31
G1 Z5
Y19.648
Z-4.1 F150
Z-5.39
G2 X20.055 Z-5.7 I0.31 K0
G1 X20.365
G17 G3 X20.675 Y19.958 I0 J0.31
X18.575 Y19.958 I-1.05 J0 F300
X20.675 Y19.958 I1.05 J0
X20.365 Y20.268 I-0.31 J0
G1 X20.055
G18 G3 X19.745 Z-5.39 I0 K0.31
G1 Z5
Y19.648
Z-4.4 F150
Z-5.69
G2 X20.055 Z-6 I0.31 K0
G1 X20.365
G17 G3 X20.675 Y19.958 I0 J0.31
X18.575 Y19.958 I-1.05 J0 F300
X20.675 Y19.958 I1.05 J0
X20.365 Y20.268 I-0.31 J0
G1 X20.055
G18 G3 X19.745 Z-5.69 I0 K0.31
G1 Z5
Y19.648
Z-4.7 F150
Z-5.99
G2 X20.055 Z-6.3 I0.31 K0
G1 X20.365
G17 G3 X20.675 Y19.958 I0 J0.31
X18.575 Y19.958 I-1.05 J0 F300
X20.675 Y19.958 I1.05 J0
X20.365 Y20.268 I-0.31 J0
G1 X20.055
G18 G3 X19.745 Z-5.99 I0 K0.31
G1 Z5
Y19.648
Z-5 F150
Z-6.29
G2 X20.055 Z-6.6 I0.31 K0
G1 X20.365
G17 G3 X20.675 Y19.958 I0 J0.31
X18.575 Y19.958 I-1.05 J0 F300
X20.675 Y19.958 I1.05 J0
X20.365 Y20.268 I-0.31 J0
G1 X20.055
G18 G3 X19.745 Z-6.29 I0 K0.31
G1 Z5
Y19.648
Z-5.3 F150
Z-6.59
G2 X20.055 Z-6.9 I0.31 K0
G1 X20.365
G17 G3 X20.675 Y19.958 I0 J0.31
X18.575 Y19.958 I-1.05 J0 F300
X20.675 Y19.958 I1.05 J0
X20.365 Y20.268 I-0.31 J0
G1 X20.055
G18 G3 X19.745 Z-6.59 I0 K0.31
G1 Z5
Y19.648
Z-5.6 F150
Z-6.69
G2 X20.055 Z-7 I0.31 K0
G1 X20.365
G17 G3 X20.675 Y19.958 I0 J0.31
X18.575 Y19.958 I-1.05 J0 F300
X20.675 Y19.958 I1.05 J0
X20.365 Y20.268 I-0.31 J0
G1 X20.055
G18 G3 X19.745 Z-6.69 I0 K0.31
G1 Z5
X26.31 Y-2.48
Z1.3 F150
Z0.01
G19 G3 Y-2.17 Z-0.3 J0.31 K0
G1 Y-1.86
G17 G3 X26 Y-1.55 I-0.31 J0
G1 X0 F300
G2 X-1.55 Y0 I0 J1.55
G1 Y31.876
G2 X53.55 Y31.876 I27.55 J0
G1 Y0
G2 X52 Y-1.55 I-1.55 J0
G1 X26
G3 X25.69 Y-1.86 I0 J-0.31
G1 Y-2.17
G19 G2 Y-2.48 Z0.01 J0 K0.31
G1 Z5
X26.31
Z1 F150
Z-0.29
G3 Y-2.17 Z-0.6 J0.31 K0
G1 Y-1.86
G17 G3 X26 Y-1.55 I-0.31 J0
G1 X0 F300
G2 X-1.55 Y0 I0 J1.55
G1 Y31.876
G2 X53.55 Y31.876 I27.55 J0
G1 Y0
G2 X52 Y-1.55 I-1.55 J0
G1 X26
G3 X25.69 Y-1.86 I0 J-0.31
G1 Y-2.17
G19 G2 Y-2.48 Z-0.29 J0 K0.31
G1 Z5
X26.31
Z0.7 F150
Z-0.59
G3 Y-2.17 Z-0.9 J0.31 K0
G1 Y-1.86
G17 G3 X26 Y-1.55 I-0.31 J0
G1 X0 F300
G2 X-1.55 Y0 I0 J1.55
G1 Y31.876
G2 X53.55 Y31.876 I27.55 J0
G1 Y0
G2 X52 Y-1.55 I-1.55 J0
G1 X26
G3 X25.69 Y-1.86 I0 J-0.31
G1 Y-2.17
G19 G2 Y-2.48 Z-0.59 J0 K0.31
G1 Z5
X26.31
Z0.4 F150
Z-0.89
G3 Y-2.17 Z-1.2 J0.31 K0
G1 Y-1.86
G17 G3 X26 Y-1.55 I-0.31 J0
G1 X0 F300
G2 X-1.55 Y0 I0 J1.55
G1 Y31.876
G2 X53.55 Y31.876 I27.55 J0
G1 Y0
G2 X52 Y-1.55 I-1.55 J0
G1 X26
G3 X25.69 Y-1.86 I0 J-0.31
G1 Y-2.17
G19 G2 Y-2.48 Z-0.89 J0 K0.31
G1 Z5
X26.31
Z0.1 F150
Z-1.19
G3 Y-2.17 Z-1.5 J0.31 K0
G1 Y-1.86
G17 G3 X26 Y-1.55 I-0.31 J0
G1 X0 F300
G2 X-1.55 Y0 I0 J1.55
G1 Y31.876
G2 X53.55 Y31.876 I27.55 J0
G1 Y0
G2 X52 Y-1.55 I-1.55 J0
G1 X26
G3 X25.69 Y-1.86 I0 J-0.31
G1 Y-2.17
G19 G2 Y-2.48 Z-1.19 J0 K0.31
G1 Z5
X26.31
Z-0.2 F150
Z-1.49
G3 Y-2.17 Z-1.8 J0.31 K0
G1 Y-1.86
G17 G3 X26 Y-1.55 I-0.31 J0
G1 X0 F300
G2 X-1.55 Y0 I0 J1.55
G1 Y31.876
G2 X53.55 Y31.876 I27.55 J0
G1 Y0
G2 X52 Y-1.55 I-1.55 J0
G1 X26
G3 X25.69 Y-1.86 I0 J-0.31
G1 Y-2.17
G19 G2 Y-2.48 Z-1.49 J0 K0.31
G1 Z5
X26.31
Z-0.5 F150
Z-1.79
G3 Y-2.17 Z-2.1 J0.31 K0
G1 Y-1.86
G17 G3 X26 Y-1.55 I-0.31 J0
G1 X0 F300
G2 X-1.55 Y0 I0 J1.55
G1 Y31.876
G2 X53.55 Y31.876 I27.55 J0
G1 Y0
G2 X52 Y-1.55 I-1.55 J0
G1 X26
G3 X25.69 Y-1.86 I0 J-0.31
G1 Y-2.17
G19 G2 Y-2.48 Z-1.79 J0 K0.31
G1 Z5
X26.31
Z-0.8 F150
Z-2.09
G3 Y-2.17 Z-2.4 J0.31 K0
G1 Y-1.86
G17 G3 X26 Y-1.55 I-0.31 J0
G1 X0 F300
G2 X-1.55 Y0 I0 J1.55
G1 Y31.876
G2 X53.55 Y31.876 I27.55 J0
G1 Y0
G2 X52 Y-1.55 I-1.55 J0
G1 X26
G3 X25.69 Y-1.86 I0 J-0.31
G1 Y-2.17
G19 G2 Y-2.48 Z-2.09 J0 K0.31
G1 Z5
X26.31
Z-1.1 F150
Z-2.39
G3 Y-2.17 Z-2.7 J0.31 K0
G1 Y-1.86
G17 G3 X26 Y-1.55 I-0.31 J0
G1 X0 F300
G2 X-1.55 Y0 I0 J1.55
G1 Y31.876
G2 X53.55 Y31.876 I27.55 J0
G1 Y0
G2 X52 Y-1.55 I-1.55 J0
G1 X26
G3 X25.69 Y-1.86 I0 J-0.31
G1 Y-2.17
G19 G2 Y-2.48 Z-2.39 J0 K0.31
G1 Z5
X26.31
Z-1.4 F150
Z-2.69
G3 Y-2.17 Z-3 J0.31 K0
G1 Y-1.86
G17 G3 X26 Y-1.55 I-0.31 J0
G1 X0 F300
G2 X-1.55 Y0 I0 J1.55
G1 Y31.876
G2 X53.55 Y31.876 I27.55 J0
G1 Y0
G2 X52 Y-1.55 I-1.55 J0
G1 X26
G3 X25.69 Y-1.86 I0 J-0.31
G1 Y-2.17
G19 G2 Y-2.48 Z-2.69 J0 K0.31
G1 Z5
X26.31
Z-1.7 F150
Z-2.99
G3 Y-2.17 Z-3.3 J0.31 K0
G1 Y-1.86
G17 G3 X26 Y-1.55 I-0.31 J0
G1 X0 F300
G2 X-1.55 Y0 I0 J1.55
G1 Y31.876
G2 X53.55 Y31.876 I27.55 J0
G1 Y0
G2 X52 Y-1.55 I-1.55 J0
G1 X26
G3 X25.69 Y-1.86 I0 J-0.31
G1 Y-2.17
G19 G2 Y-2.48 Z-2.99 J0 K0.31
G1 Z5
X26.31
Z-2 F150
Z-3.29
G3 Y-2.17 Z-3.6 J0.31 K0
G1 Y-1.86
G17 G3 X26 Y-1.55 I-0.31 J0
G1 X0 F300
G2 X-1.55 Y0 I0 J1.55
G1 Y31.876
G2 X53.55 Y31.876 I27.55 J0
G1 Y0
G2 X52 Y-1.55 I-1.55 J0
G1 X26
G3 X25.69 Y-1.86 I0 J-0.31
G1 Y-2.17
G19 G2 Y-2.48 Z-3.29 J0 K0.31
G1 Z5
X26.31
Z-2.3 F150
Z-3.59
G3 Y-2.17 Z-3.9 J0.31 K0
G1 Y-1.86
G17 G3 X26 Y-1.55 I-0.31 J0
G1 X0 F300
G2 X-1.55 Y0 I0 J1.55
G1 Y31.876
G2 X53.55 Y31.876 I27.55 J0
G1 Y0
G2 X52 Y-1.55 I-1.55 J0
G1 X26
G3 X25.69 Y-1.86 I0 J-0.31
G1 Y-2.17
G19 G2 Y-2.48 Z-3.59 J0 K0.31
G1 Z5
X26.31
Z-2.6 F150
Z-3.89
G3 Y-2.17 Z-4.2 J0.31 K0
G1 Y-1.86
G17 G3 X26 Y-1.55 I-0.31 J0
G1 X0 F300
G2 X-1.55 Y0 I0 J1.55
G1 Y31.876
G2 X53.55 Y31.876 I27.55 J0
G1 Y0
G2 X52 Y-1.55 I-1.55 J0
G1 X26
G3 X25.69 Y-1.86 I0 J-0.31
G1 Y-2.17
G19 G2 Y-2.48 Z-3.89 J0 K0.31
G1 Z5
X26.31
Z-2.9 F150
Z-4.19
G3 Y-2.17 Z-4.5 J0.31 K0
G1 Y-1.86
G17 G3 X26 Y-1.55 I-0.31 J0
G1 X0 F300
G2 X-1.55 Y0 I0 J1.55
G1 Y31.876
G2 X53.55 Y31.876 I27.55 J0
G1 Y0
G2 X52 Y-1.55 I-1.55 J0
G1 X26
G3 X25.69 Y-1.86 I0 J-0.31
G1 Y-2.17
G19 G2 Y-2.48 Z-4.19 J0 K0.31
G1 Z5
X26.31
Z-3.2 F150
Z-4.49
G3 Y-2.17 Z-4.8 J0.31 K0
G1 Y-1.86
G17 G3 X26 Y-1.55 I-0.31 J0
G1 X0 F300
G2 X-1.55 Y0 I0 J1.55
G1 Y31.876
G2 X53.55 Y31.876 I27.55 J0
G1 Y0
G2 X52 Y-1.55 I-1.55 J0
G1 X26
G3 X25.69 Y-1.86 I0 J-0.31
G1 Y-2.17
G19 G2 Y-2.48 Z-4.49 J0 K0.31
G1 Z5
X26.31
Z-3.5 F150
Z-4.79
G3 Y-2.17 Z-5.1 J0.31 K0
G1 Y-1.86
G17 G3 X26 Y-1.55 I-0.31 J0
G1 X0 F300
G2 X-1.55 Y0 I0 J1.55
G1 Y31.876
G2 X53.55 Y31.876 I27.55 J0
G1 Y0
G2 X52 Y-1.55 I-1.55 J0
G1 X26
G3 X25.69 Y-1.86 I0 J-0.31
G1 Y-2.17
G19 G2 Y-2.48 Z-4.79 J0 K0.31
G1 Z5
X26.31
Z-3.8 F150
Z-5.09
G3 Y-2.17 Z-5.4 J0.31 K0
G1 Y-1.86
G17 G3 X26 Y-1.55 I-0.31 J0
G1 X0 F300
G2 X-1.55 Y0 I0 J1.55
G1 Y31.876
G2 X53.55 Y31.876 I27.55 J0
G1 Y0
G2 X52 Y-1.55 I-1.55 J0
G1 X26
G3 X25.69 Y-1.86 I0 J-0.31
G1 Y-2.17
G19 G2 Y-2.48 Z-5.09 J0 K0.31
G1 Z5
X26.31
Z-4.1 F150
Z-5.39
G3 Y-2.17 Z-5.7 J0.31 K0
G1 Y-1.86
G17 G3 X26 Y-1.55 I-0.31 J0
G1 X0 F300
G2 X-1.55 Y0 I0 J1.55
G1 Y31.876
G2 X53.55 Y31.876 I27.55 J0
G1 Y0
G2 X52 Y-1.55 I-1.55 J0
G1 X26
G3 X25.69 Y-1.86 I0 J-0.31
G1 Y-2.17
G19 G2 Y-2.48 Z-5.39 J0 K0.31
G1 Z5
X26.31
Z-4.4 F150
Z-5.69
G3 Y-2.17 Z-6 J0.31 K0
G1 Y-1.86
G17 G3 X26 Y-1.55 I-0.31 J0
G1 X0 F300
G2 X-1.55 Y0 I0 J1.55
G1 Y31.876
G2 X53.55 Y31.876 I27.55 J0
G1 Y0
G2 X52 Y-1.55 I-1.55 J0
G1 X26
G3 X25.69 Y-1.86 I0 J-0.31
G1 Y-2.17
G19 G2 Y-2.48 Z-5.69 J0 K0.31
G1 Z5
X26.31
Z-4.7 F150
Z-5.99
G3 Y-2.17 Z-6.3 J0.31 K0
G1 Y-1.86
G17 G3 X26 Y-1.55 I-0.31 J0
G1 X0 F300
G2 X-1.55 Y0 I0 J1.55
G1 Y31.876
G2 X53.55 Y31.876 I27.55 J0
G1 Y0
G2 X52 Y-1.55 I-1.55 J0
G1 X26
G3 X25.69 Y-1.86 I0 J-0.31
G1 Y-2.17
G19 G2 Y-2.48 Z-5.99 J0 K0.31
G1 Z5
X26.31
Z-5 F150
Z-6.29
G3 Y-2.17 Z-6.6 J0.31 K0
G1 Y-1.86
G17 G3 X26 Y-1.55 I-0.31 J0
G1 X0 F300
G2 X-1.55 Y0 I0 J1.55
G1 Y31.876
G2 X53.55 Y31.876 I27.55 J0
G1 Y0
G2 X52 Y-1.55 I-1.55 J0
G1 X26
G3 X25.69 Y-1.86 I0 J-0.31
G1 Y-2.17
G19 G2 Y-2.48 Z-6.29 J0 K0.31
G1 Z5
X26.31
Z-5.3 F150
Z-6.59
G3 Y-2.17 Z-6.9 J0.31 K0
G1 Y-1.86
G17 G3 X26 Y-1.55 I-0.31 J0
G1 X0 F300
G2 X-1.55 Y0 I0 J1.55
G1 Y31.876
G2 X53.55 Y31.876 I27.55 J0
G1 Y0
G2 X52 Y-1.55 I-1.55 J0
G1 X26
G3 X25.69 Y-1.86 I0 J-0.31
G1 Y-2.17
G19 G2 Y-2.48 Z-6.59 J0 K0.31
G1 Z5
X26.31
Z-5.6 F150
Z-6.69
G3 Y-2.17 Z-7 J0.31 K0
G1 Y-1.86
G17 G3 X26 Y-1.55 I-0.31 J0
G1 X0 F300
G2 X-1.55 Y0 I0 J1.55
G1 Y31.876
G2 X53.55 Y31.876 I27.55 J0
G1 Y0
G2 X52 Y-1.55 I-1.55 J0
G1 X26
G3 X25.69 Y-1.86 I0 J-0.31
G1 Y-2.17
G19 G2 Y-2.48 Z-6.69 J0 K0.31
G1 Z10
G17
M9
M5
M30
