(nema_17_mount_full)
(Machine)
(  vendor: Autodesk)
(  model: Generic 3-axis)
(  description: This machine has XY axis on the Table and Z axis on the Head)
(T3  D=3.1 CR=0 - ZMIN=-8 - flat end mill)
G90 G94
G17
G21
(When using Fusion 360 for Personal Use, the feedrate of)
(rapid moves is reduced to match the feedrate of cutting)
(moves, which can increase machining time. Unrestricted rapid)
(moves are available with a Fusion 360 Subscription.)

(2D Pocket1)
S24000 M3
G54
M8
G0 X27.45 Y40.503
Z10
G1 Z5 F300
Z1.3 F150
Z0.01
X27.442 Y40.506 Z-0.059
X27.421 Y40.514 Z-0.125
X27.387 Y40.528 Z-0.183
X27.341 Y40.546 Z-0.232
X27.287 Y40.568 Z-0.269
X27.226 Y40.592 Z-0.292
X27.162 Y40.617 Z-0.3
G3 X25.685 Y40.42 I-0.562 J-1.417
X38.315 Y23.58 I6.315 J-8.42 F300
X25.685 Y40.42 I-6.315 J8.42
G2 X23.325 Y40.215 I-1.344 J1.792
G3 X21.027 Y39.638 I-0.818 J-1.607
X42.973 Y24.362 I10.973 J-7.638
X21.027 Y39.638 I-10.973 J7.638
G2 X18.813 Y38.702 I-1.85 J1.288
G3 X16.74 Y37.482 I-0.304 J-1.855
X47.26 Y26.518 I15.26 J-5.482
X16.74 Y37.482 I-15.26 J5.482
G2 X14.821 Y35.994 I-2.13 J0.765
G3 X13.08 Y34.301 I0.18 J-1.927
X50.92 Y29.699 I18.92 J-2.301
X13.08 Y34.301 I-18.92 J2.301
G2 X11.522 Y32.414 I-2.253 J0.274
G3 X10.155 Y30.385 I0.606 J-1.883
X53.845 Y33.615 I21.845 J1.615
X10.155 Y30.385 I-21.845 J-1.615
G2 X8.961 Y28.186 I-2.308 J-0.171
G3 X7.965 Y25.891 I0.984 J-1.791
X56.035 Y38.109 I24.035 J6.109
X7.965 Y25.891 I-24.035 J-6.109
X9.655 Y24.804 Z-0.318 I1.427 J0.363 F150
G1 X41.315 Y30.551 Z-0.583
G3 X42.525 Y32 Z-0.6 I-0.263 J1.449
X21.475 Y32 I-10.525 J0 F300
X42.525 Y32 I10.525 J0
G2 X43.777 Y34.011 I2.241 J0
G3 X44.694 Y36.195 I-0.795 J1.619
X19.306 Y27.805 I-12.694 J-4.195
X44.694 Y36.195 I12.694 J4.195
G2 X45.274 Y38.529 I2.14 J0.707
G3 X45.542 Y40.918 I-1.301 J1.356
X18.458 Y23.082 I-13.542 J-8.918
X45.542 Y40.918 I13.542 J8.918
G2 X45.503 Y43.347 I1.89 J1.245
G3 X45.193 Y45.756 I-1.65 J1.012
X18.807 Y18.244 I-13.193 J-13.756
X45.193 Y45.756 I13.193 J13.756
G2 X44.618 Y48.134 I1.571 J1.638
G3 X43.815 Y50.445 I-1.871 J0.645
X20.185 Y13.555 I-11.815 J-18.445
X43.815 Y50.445 I11.815 J18.445
G2 X42.772 Y52.72 I1.248 J1.949
G3 X41.534 Y54.894 I-2.024 J0.287
X22.466 Y9.106 I-9.534 J-22.894
X41.534 Y54.894 I9.534 J22.894
X39.495 Y53.529 Z-0.63 I-0.566 J-1.359 F150
G1 X39.58 Y31.994 Z-0.852
G3 X42.525 Y32 Z-0.9 I1.472 J0.006
X21.475 Y32 I-10.525 J0 F300
X42.525 Y32 I10.525 J0
G2 X43.777 Y34.011 I2.241 J0
G3 X44.694 Y36.195 I-0.795 J1.619
X19.306 Y27.805 I-12.694 J-4.195
X44.694 Y36.195 I12.694 J4.195
G2 X45.274 Y38.529 I2.14 J0.707
G3 X45.542 Y40.918 I-1.301 J1.356
X18.458 Y23.082 I-13.542 J-8.918
X45.542 Y40.918 I13.542 J8.918
G2 X45.503 Y43.347 I1.89 J1.245
G3 X45.193 Y45.756 I-1.65 J1.012
X18.807 Y18.244 I-13.193 J-13.756
X45.193 Y45.756 I13.193 J13.756
G2 X44.618 Y48.134 I1.571 J1.638
G3 X43.815 Y50.445 I-1.871 J0.645
X20.185 Y13.555 I-11.815 J-18.445
X43.815 Y50.445 I11.815 J18.445
G2 X42.772 Y52.72 I1.248 J1.949
G3 X41.534 Y54.894 I-2.024 J0.287
X22.466 Y9.106 I-9.534 J-22.894
X41.534 Y54.894 I9.534 J22.894
X39.495 Y53.529 Z-0.93 I-0.566 J-1.359 F150
G1 X39.58 Y31.994 Z-1.152
G3 X42.525 Y32 Z-1.2 I1.472 J0.006
X21.475 Y32 I-10.525 J0 F300
X42.525 Y32 I10.525 J0
G2 X43.777 Y34.011 I2.241 J0
G3 X44.694 Y36.195 I-0.795 J1.619
X19.306 Y27.805 I-12.694 J-4.195
X44.694 Y36.195 I12.694 J4.195
G2 X45.274 Y38.529 I2.14 J0.707
G3 X45.542 Y40.918 I-1.301 J1.356
X18.458 Y23.082 I-13.542 J-8.918
X45.542 Y40.918 I13.542 J8.918
G2 X45.503 Y43.347 I1.89 J1.245
G3 X45.193 Y45.756 I-1.65 J1.012
X18.807 Y18.244 I-13.193 J-13.756
X45.193 Y45.756 I13.193 J13.756
G2 X44.618 Y48.134 I1.571 J1.638
G3 X43.815 Y50.445 I-1.871 J0.645
X20.185 Y13.555 I-11.815 J-18.445
X43.815 Y50.445 I11.815 J18.445
G2 X42.772 Y52.72 I1.248 J1.949
G3 X41.534 Y54.894 I-2.024 J0.287
X22.466 Y9.106 I-9.534 J-22.894
X41.534 Y54.894 I9.534 J22.894
X39.495 Y53.529 Z-1.23 I-0.566 J-1.359 F150
G1 X39.58 Y31.994 Z-1.452
G3 X42.525 Y32 Z-1.5 I1.472 J0.006
X21.475 Y32 I-10.525 J0 F300
X42.525 Y32 I10.525 J0
G2 X43.777 Y34.011 I2.241 J0
G3 X44.694 Y36.195 I-0.795 J1.619
X19.306 Y27.805 I-12.694 J-4.195
X44.694 Y36.195 I12.694 J4.195
G2 X45.274 Y38.529 I2.14 J0.707
G3 X45.542 Y40.918 I-1.301 J1.356
X18.458 Y23.082 I-13.542 J-8.918
X45.542 Y40.918 I13.542 J8.918
G2 X45.503 Y43.347 I1.89 J1.245
G3 X45.193 Y45.756 I-1.65 J1.012
X18.807 Y18.244 I-13.193 J-13.756
X45.193 Y45.756 I13.193 J13.756
G2 X44.618 Y48.134 I1.571 J1.638
G3 X43.815 Y50.445 I-1.871 J0.645
X20.185 Y13.555 I-11.815 J-18.445
X43.815 Y50.445 I11.815 J18.445
G2 X42.772 Y52.72 I1.248 J1.949
G3 X41.534 Y54.894 I-2.024 J0.287
X22.466 Y9.106 I-9.534 J-22.894
X41.534 Y54.894 I9.534 J22.894
X39.495 Y53.529 Z-1.53 I-0.566 J-1.359 F150
G1 X39.58 Y31.994 Z-1.752
G3 X42.525 Y32 Z-1.8 I1.472 J0.006
X21.475 Y32 I-10.525 J0 F300
X42.525 Y32 I10.525 J0
G2 X43.777 Y34.011 I2.241 J0
G3 X44.694 Y36.195 I-0.795 J1.619
X19.306 Y27.805 I-12.694 J-4.195
X44.694 Y36.195 I12.694 J4.195
G2 X45.274 Y38.529 I2.14 J0.707
G3 X45.542 Y40.918 I-1.301 J1.356
X18.458 Y23.082 I-13.542 J-8.918
X45.542 Y40.918 I13.542 J8.918
G2 X45.503 Y43.347 I1.89 J1.245
G3 X45.193 Y45.756 I-1.65 J1.012
X18.807 Y18.244 I-13.193 J-13.756
X45.193 Y45.756 I13.193 J13.756
G2 X44.618 Y48.134 I1.571 J1.638
G3 X43.815 Y50.445 I-1.871 J0.645
X20.185 Y13.555 I-11.815 J-18.445
X43.815 Y50.445 I11.815 J18.445
G2 X42.772 Y52.72 I1.248 J1.949
G3 X41.534 Y54.894 I-2.024 J0.287
X22.466 Y9.106 I-9.534 J-22.894
X41.534 Y54.894 I9.534 J22.894
X39.495 Y53.529 Z-1.83 I-0.566 J-1.359 F150
G1 X39.58 Y31.994 Z-2.052
G3 X42.525 Y32 Z-2.1 I1.472 J0.006
X21.475 Y32 I-10.525 J0 F300
X42.525 Y32 I10.525 J0
G2 X43.777 Y34.011 I2.241 J0
G3 X44.694 Y36.195 I-0.795 J1.619
X19.306 Y27.805 I-12.694 J-4.195
X44.694 Y36.195 I12.694 J4.195
G2 X45.274 Y38.529 I2.14 J0.707
G3 X45.542 Y40.918 I-1.301 J1.356
X18.458 Y23.082 I-13.542 J-8.918
X45.542 Y40.918 I13.542 J8.918
G2 X45.503 Y43.347 I1.89 J1.245
G3 X45.193 Y45.756 I-1.65 J1.012
X18.807 Y18.244 I-13.193 J-13.756
X45.193 Y45.756 I13.193 J13.756
G2 X44.618 Y48.134 I1.571 J1.638
G3 X43.815 Y50.445 I-1.871 J0.645
X20.185 Y13.555 I-11.815 J-18.445
X43.815 Y50.445 I11.815 J18.445
G2 X42.772 Y52.72 I1.248 J1.949
G3 X41.534 Y54.894 I-2.024 J0.287
X22.466 Y9.106 I-9.534 J-22.894
X41.534 Y54.894 I9.534 J22.894
X39.495 Y53.529 Z-2.13 I-0.566 J-1.359 F150
G1 X39.58 Y31.994 Z-2.352
G3 X42.525 Y32 Z-2.4 I1.472 J0.006
X21.475 Y32 I-10.525 J0 F300
X42.525 Y32 I10.525 J0
G2 X43.777 Y34.011 I2.241 J0
G3 X44.694 Y36.195 I-0.795 J1.619
X19.306 Y27.805 I-12.694 J-4.195
X44.694 Y36.195 I12.694 J4.195
G2 X45.274 Y38.529 I2.14 J0.707
G3 X45.542 Y40.918 I-1.301 J1.356
X18.458 Y23.082 I-13.542 J-8.918
X45.542 Y40.918 I13.542 J8.918
G2 X45.503 Y43.347 I1.89 J1.245
G3 X45.193 Y45.756 I-1.65 J1.012
X18.807 Y18.244 I-13.193 J-13.756
X45.193 Y45.756 I13.193 J13.756
G2 X44.618 Y48.134 I1.571 J1.638
G3 X43.815 Y50.445 I-1.871 J0.645
X20.185 Y13.555 I-11.815 J-18.445
X43.815 Y50.445 I11.815 J18.445
G2 X42.772 Y52.72 I1.248 J1.949
G3 X41.534 Y54.894 I-2.024 J0.287
X22.466 Y9.106 I-9.534 J-22.894
X41.534 Y54.894 I9.534 J22.894
X39.495 Y53.529 Z-2.43 I-0.566 J-1.359 F150
G1 X39.58 Y31.994 Z-2.652
G3 X42.525 Y32 Z-2.7 I1.472 J0.006
X21.475 Y32 I-10.525 J0 F300
X42.525 Y32 I10.525 J0
G2 X43.777 Y34.011 I2.241 J0
G3 X44.694 Y36.195 I-0.795 J1.619
X19.306 Y27.805 I-12.694 J-4.195
X44.694 Y36.195 I12.694 J4.195
G2 X45.274 Y38.529 I2.14 J0.707
G3 X45.542 Y40.918 I-1.301 J1.356
X18.458 Y23.082 I-13.542 J-8.918
X45.542 Y40.918 I13.542 J8.918
G2 X45.503 Y43.347 I1.89 J1.245
G3 X45.193 Y45.756 I-1.65 J1.012
X18.807 Y18.244 I-13.193 J-13.756
X45.193 Y45.756 I13.193 J13.756
G2 X44.618 Y48.134 I1.571 J1.638
G3 X43.815 Y50.445 I-1.871 J0.645
X20.185 Y13.555 I-11.815 J-18.445
X43.815 Y50.445 I11.815 J18.445
G2 X42.772 Y52.72 I1.248 J1.949
G3 X41.534 Y54.894 I-2.024 J0.287
X22.466 Y9.106 I-9.534 J-22.894
X41.534 Y54.894 I9.534 J22.894
X39.495 Y53.529 Z-2.73 I-0.566 J-1.359 F150
G1 X39.58 Y31.994 Z-2.952
G3 X42.525 Y32 Z-3 I1.472 J0.006
X21.475 Y32 I-10.525 J0 F300
X42.525 Y32 I10.525 J0
G2 X43.777 Y34.011 I2.241 J0
G3 X44.694 Y36.195 I-0.795 J1.619
X19.306 Y27.805 I-12.694 J-4.195
X44.694 Y36.195 I12.694 J4.195
G2 X45.274 Y38.529 I2.14 J0.707
G3 X45.542 Y40.918 I-1.301 J1.356
X18.458 Y23.082 I-13.542 J-8.918
X45.542 Y40.918 I13.542 J8.918
G2 X45.503 Y43.347 I1.89 J1.245
G3 X45.193 Y45.756 I-1.65 J1.012
X18.807 Y18.244 I-13.193 J-13.756
X45.193 Y45.756 I13.193 J13.756
G2 X44.618 Y48.134 I1.571 J1.638
G3 X43.815 Y50.445 I-1.871 J0.645
X20.185 Y13.555 I-11.815 J-18.445
X43.815 Y50.445 I11.815 J18.445
G2 X42.772 Y52.72 I1.248 J1.949
G3 X41.534 Y54.894 I-2.024 J0.287
X22.466 Y9.106 I-9.534 J-22.894
X41.534 Y54.894 I9.534 J22.894
X39.495 Y53.529 Z-3.03 I-0.566 J-1.359 F150
G1 X39.58 Y31.994 Z-3.252
G3 X42.525 Y32 Z-3.3 I1.472 J0.006
X21.475 Y32 I-10.525 J0 F300
X42.525 Y32 I10.525 J0
G2 X43.777 Y34.011 I2.241 J0
G3 X44.694 Y36.195 I-0.795 J1.619
X19.306 Y27.805 I-12.694 J-4.195
X44.694 Y36.195 I12.694 J4.195
G2 X45.274 Y38.529 I2.14 J0.707
G3 X45.542 Y40.918 I-1.301 J1.356
X18.458 Y23.082 I-13.542 J-8.918
X45.542 Y40.918 I13.542 J8.918
G2 X45.503 Y43.347 I1.89 J1.245
G3 X45.193 Y45.756 I-1.65 J1.012
X18.807 Y18.244 I-13.193 J-13.756
X45.193 Y45.756 I13.193 J13.756
G2 X44.618 Y48.134 I1.571 J1.638
G3 X43.815 Y50.445 I-1.871 J0.645
X20.185 Y13.555 I-11.815 J-18.445
X43.815 Y50.445 I11.815 J18.445
G2 X42.772 Y52.72 I1.248 J1.949
G3 X41.534 Y54.894 I-2.024 J0.287
X22.466 Y9.106 I-9.534 J-22.894
X41.534 Y54.894 I9.534 J22.894
X39.495 Y53.529 Z-3.33 I-0.566 J-1.359 F150
G1 X39.58 Y31.994 Z-3.552
G3 X42.525 Y32 Z-3.6 I1.472 J0.006
X21.475 Y32 I-10.525 J0 F300
X42.525 Y32 I10.525 J0
G2 X43.777 Y34.011 I2.241 J0
G3 X44.694 Y36.195 I-0.795 J1.619
X19.306 Y27.805 I-12.694 J-4.195
X44.694 Y36.195 I12.694 J4.195
G2 X45.274 Y38.529 I2.14 J0.707
G3 X45.542 Y40.918 I-1.301 J1.356
X18.458 Y23.082 I-13.542 J-8.918
X45.542 Y40.918 I13.542 J8.918
G2 X45.503 Y43.347 I1.89 J1.245
G3 X45.193 Y45.756 I-1.65 J1.012
X18.807 Y18.244 I-13.193 J-13.756
X45.193 Y45.756 I13.193 J13.756
G2 X44.618 Y48.134 I1.571 J1.638
G3 X43.815 Y50.445 I-1.871 J0.645
X20.185 Y13.555 I-11.815 J-18.445
X43.815 Y50.445 I11.815 J18.445
G2 X42.772 Y52.72 I1.248 J1.949
G3 X41.534 Y54.894 I-2.024 J0.287
X22.466 Y9.106 I-9.534 J-22.894
X41.534 Y54.894 I9.534 J22.894
X39.495 Y53.529 Z-3.63 I-0.566 J-1.359 F150
G1 X39.58 Y31.994 Z-3.852
G3 X42.525 Y32 Z-3.9 I1.472 J0.006
X21.475 Y32 I-10.525 J0 F300
X42.525 Y32 I10.525 J0
G2 X43.777 Y34.011 I2.241 J0
G3 X44.694 Y36.195 I-0.795 J1.619
X19.306 Y27.805 I-12.694 J-4.195
X44.694 Y36.195 I12.694 J4.195
G2 X45.274 Y38.529 I2.14 J0.707
G3 X45.542 Y40.918 I-1.301 J1.356
X18.458 Y23.082 I-13.542 J-8.918
X45.542 Y40.918 I13.542 J8.918
G2 X45.503 Y43.347 I1.89 J1.245
G3 X45.193 Y45.756 I-1.65 J1.012
X18.807 Y18.244 I-13.193 J-13.756
X45.193 Y45.756 I13.193 J13.756
G2 X44.618 Y48.134 I1.571 J1.638
G3 X43.815 Y50.445 I-1.871 J0.645
X20.185 Y13.555 I-11.815 J-18.445
X43.815 Y50.445 I11.815 J18.445
G2 X42.772 Y52.72 I1.248 J1.949
G3 X41.534 Y54.894 I-2.024 J0.287
X22.466 Y9.106 I-9.534 J-22.894
X41.534 Y54.894 I9.534 J22.894
X39.495 Y53.529 Z-3.93 I-0.566 J-1.359 F150
G1 X39.58 Y31.994 Z-4.152
G3 X42.525 Y32 Z-4.2 I1.472 J0.006
X21.475 Y32 I-10.525 J0 F300
X42.525 Y32 I10.525 J0
G2 X43.777 Y34.011 I2.241 J0
G3 X44.694 Y36.195 I-0.795 J1.619
X19.306 Y27.805 I-12.694 J-4.195
X44.694 Y36.195 I12.694 J4.195
G2 X45.274 Y38.529 I2.14 J0.707
G3 X45.542 Y40.918 I-1.301 J1.356
X18.458 Y23.082 I-13.542 J-8.918
X45.542 Y40.918 I13.542 J8.918
G2 X45.503 Y43.347 I1.89 J1.245
G3 X45.193 Y45.756 I-1.65 J1.012
X18.807 Y18.244 I-13.193 J-13.756
X45.193 Y45.756 I13.193 J13.756
G2 X44.618 Y48.134 I1.571 J1.638
G3 X43.815 Y50.445 I-1.871 J0.645
X20.185 Y13.555 I-11.815 J-18.445
X43.815 Y50.445 I11.815 J18.445
G2 X42.772 Y52.72 I1.248 J1.949
G3 X41.534 Y54.894 I-2.024 J0.287
X22.466 Y9.106 I-9.534 J-22.894
X41.534 Y54.894 I9.534 J22.894
X39.495 Y53.529 Z-4.23 I-0.566 J-1.359 F150
G1 X39.58 Y31.994 Z-4.452
G3 X42.525 Y32 Z-4.5 I1.472 J0.006
X21.475 Y32 I-10.525 J0 F300
X42.525 Y32 I10.525 J0
G2 X43.777 Y34.011 I2.241 J0
G3 X44.694 Y36.195 I-0.795 J1.619
X19.306 Y27.805 I-12.694 J-4.195
X44.694 Y36.195 I12.694 J4.195
G2 X45.274 Y38.529 I2.14 J0.707
G3 X45.542 Y40.918 I-1.301 J1.356
X18.458 Y23.082 I-13.542 J-8.918
X45.542 Y40.918 I13.542 J8.918
G2 X45.503 Y43.347 I1.89 J1.245
G3 X45.193 Y45.756 I-1.65 J1.012
X18.807 Y18.244 I-13.193 J-13.756
X45.193 Y45.756 I13.193 J13.756
G2 X44.618 Y48.134 I1.571 J1.638
G3 X43.815 Y50.445 I-1.871 J0.645
X20.185 Y13.555 I-11.815 J-18.445
X43.815 Y50.445 I11.815 J18.445
G2 X42.772 Y52.72 I1.248 J1.949
G3 X41.534 Y54.894 I-2.024 J0.287
X22.466 Y9.106 I-9.534 J-22.894
X41.534 Y54.894 I9.534 J22.894
G1 X41.477 Y54.911 Z-4.488
X41.418 Y54.918 Z-4.476
X41.368 Y54.914 Z-4.443
X41.319 Y54.903 Z-4.409
X41.258 Y54.875 Z-4.309
X41.238 Y54.863 Z-4.19
Z10
(When using Fusion 360 for Personal Use, the feedrate of)
(rapid moves is reduced to match the feedrate of cutting)
(moves, which can increase machining time. Unrestricted rapid)
(moves are available with a Fusion 360 Subscription.)

(2D Contour3)
G0 X40.895 Y31.69
G1 Z4 F300
Z2
Z1.3 F150
Z0.01
G18 G2 X41.205 Z-0.3 I0.31 K0
G1 X41.515
G17 G3 X41.825 Y32 I0 J0.31
X22.175 Y32 I-9.825 J0 F300
X41.825 Y32 I9.825 J0
X41.515 Y32.31 I-0.31 J0
G1 X41.205
G18 G3 X40.895 Z0.01 I0 K0.31
G1 Z2
Y31.69
Z1 F150
Z-0.29
G2 X41.205 Z-0.6 I0.31 K0
G1 X41.515
G17 G3 X41.825 Y32 I0 J0.31
X22.175 Y32 I-9.825 J0 F300
X41.825 Y32 I9.825 J0
X41.515 Y32.31 I-0.31 J0
G1 X41.205
G18 G3 X40.895 Z-0.29 I0 K0.31
G1 Z2
Y31.69
Z0.7 F150
Z-0.59
G2 X41.205 Z-0.9 I0.31 K0
G1 X41.515
G17 G3 X41.825 Y32 I0 J0.31
X22.175 Y32 I-9.825 J0 F300
X41.825 Y32 I9.825 J0
X41.515 Y32.31 I-0.31 J0
G1 X41.205
G18 G3 X40.895 Z-0.59 I0 K0.31
G1 Z2
Y31.69
Z0.4 F150
Z-0.89
G2 X41.205 Z-1.2 I0.31 K0
G1 X41.515
G17 G3 X41.825 Y32 I0 J0.31
X22.175 Y32 I-9.825 J0 F300
X41.825 Y32 I9.825 J0
X41.515 Y32.31 I-0.31 J0
G1 X41.205
G18 G3 X40.895 Z-0.89 I0 K0.31
G1 Z2
Y31.69
Z0.1 F150
Z-1.19
G2 X41.205 Z-1.5 I0.31 K0
G1 X41.515
G17 G3 X41.825 Y32 I0 J0.31
X22.175 Y32 I-9.825 J0 F300
X41.825 Y32 I9.825 J0
X41.515 Y32.31 I-0.31 J0
G1 X41.205
G18 G3 X40.895 Z-1.19 I0 K0.31
G1 Z2
Y31.69
Z-0.2 F150
Z-1.49
G2 X41.205 Z-1.8 I0.31 K0
G1 X41.515
G17 G3 X41.825 Y32 I0 J0.31
X22.175 Y32 I-9.825 J0 F300
X41.825 Y32 I9.825 J0
X41.515 Y32.31 I-0.31 J0
G1 X41.205
G18 G3 X40.895 Z-1.49 I0 K0.31
G1 Z2
Y31.69
Z-0.5 F150
Z-1.79
G2 X41.205 Z-2.1 I0.31 K0
G1 X41.515
G17 G3 X41.825 Y32 I0 J0.31
X22.175 Y32 I-9.825 J0 F300
X41.825 Y32 I9.825 J0
X41.515 Y32.31 I-0.31 J0
G1 X41.205
G18 G3 X40.895 Z-1.79 I0 K0.31
G1 Z2
Y31.69
Z-0.8 F150
Z-2.09
G2 X41.205 Z-2.4 I0.31 K0
G1 X41.515
G17 G3 X41.825 Y32 I0 J0.31
X22.175 Y32 I-9.825 J0 F300
X41.825 Y32 I9.825 J0
X41.515 Y32.31 I-0.31 J0
G1 X41.205
G18 G3 X40.895 Z-2.09 I0 K0.31
G1 Z2
Y31.69
Z-1.1 F150
Z-2.39
G2 X41.205 Z-2.7 I0.31 K0
G1 X41.515
G17 G3 X41.825 Y32 I0 J0.31
X22.175 Y32 I-9.825 J0 F300
X41.825 Y32 I9.825 J0
X41.515 Y32.31 I-0.31 J0
G1 X41.205
G18 G3 X40.895 Z-2.39 I0 K0.31
G1 Z2
Y31.69
Z-1.4 F150
Z-2.69
G2 X41.205 Z-3 I0.31 K0
G1 X41.515
G17 G3 X41.825 Y32 I0 J0.31
X22.175 Y32 I-9.825 J0 F300
X41.825 Y32 I9.825 J0
X41.515 Y32.31 I-0.31 J0
G1 X41.205
G18 G3 X40.895 Z-2.69 I0 K0.31
G1 Z2
Y31.69
Z-1.7 F150
Z-2.99
G2 X41.205 Z-3.3 I0.31 K0
G1 X41.515
G17 G3 X41.825 Y32 I0 J0.31
X22.175 Y32 I-9.825 J0 F300
X41.825 Y32 I9.825 J0
X41.515 Y32.31 I-0.31 J0
G1 X41.205
G18 G3 X40.895 Z-2.99 I0 K0.31
G1 Z2
Y31.69
Z-2 F150
Z-3.29
G2 X41.205 Z-3.6 I0.31 K0
G1 X41.515
G17 G3 X41.825 Y32 I0 J0.31
X22.175 Y32 I-9.825 J0 F300
X41.825 Y32 I9.825 J0
X41.515 Y32.31 I-0.31 J0
G1 X41.205
G18 G3 X40.895 Z-3.29 I0 K0.31
G1 Z2
Y31.69
Z-2.3 F150
Z-3.59
G2 X41.205 Z-3.9 I0.31 K0
G1 X41.515
G17 G3 X41.825 Y32 I0 J0.31
X22.175 Y32 I-9.825 J0 F300
X41.825 Y32 I9.825 J0
X41.515 Y32.31 I-0.31 J0
G1 X41.205
G18 G3 X40.895 Z-3.59 I0 K0.31
G1 Z2
Y31.69
Z-2.6 F150
Z-3.89
G2 X41.205 Z-4.2 I0.31 K0
G1 X41.515
G17 G3 X41.825 Y32 I0 J0.31
X22.175 Y32 I-9.825 J0 F300
X41.825 Y32 I9.825 J0
X41.515 Y32.31 I-0.31 J0
G1 X41.205
G18 G3 X40.895 Z-3.89 I0 K0.31
G1 Z2
Y31.69
Z-2.9 F150
Z-4.19
G2 X41.205 Z-4.5 I0.31 K0
G1 X41.515
G17 G3 X41.825 Y32 I0 J0.31
X22.175 Y32 I-9.825 J0 F300
X41.825 Y32 I9.825 J0
X41.515 Y32.31 I-0.31 J0
G1 X41.205
G18 G3 X40.895 Z-4.19 I0 K0.31
G1 Z2
Y31.69
Z-3.2 F150
Z-4.49
G2 X41.205 Z-4.8 I0.31 K0
G1 X41.515
G17 G3 X41.825 Y32 I0 J0.31
X22.175 Y32 I-9.825 J0 F300
X41.825 Y32 I9.825 J0
X41.515 Y32.31 I-0.31 J0
G1 X41.205
G18 G3 X40.895 Z-4.49 I0 K0.31
G1 Z2
Y31.69
Z-3.5 F150
Z-4.79
G2 X41.205 Z-5.1 I0.31 K0
G1 X41.515
G17 G3 X41.825 Y32 I0 J0.31
X22.175 Y32 I-9.825 J0 F300
X41.825 Y32 I9.825 J0
X41.515 Y32.31 I-0.31 J0
G1 X41.205
G18 G3 X40.895 Z-4.79 I0 K0.31
G1 Z2
Y31.69
Z-3.8 F150
Z-5.09
G2 X41.205 Z-5.4 I0.31 K0
G1 X41.515
G17 G3 X41.825 Y32 I0 J0.31
X22.175 Y32 I-9.825 J0 F300
X41.825 Y32 I9.825 J0
X41.515 Y32.31 I-0.31 J0
G1 X41.205
G18 G3 X40.895 Z-5.09 I0 K0.31
G1 Z2
Y31.69
Z-4.1 F150
Z-5.39
G2 X41.205 Z-5.7 I0.31 K0
G1 X41.515
G17 G3 X41.825 Y32 I0 J0.31
X22.175 Y32 I-9.825 J0 F300
X41.825 Y32 I9.825 J0
X41.515 Y32.31 I-0.31 J0
G1 X41.205
G18 G3 X40.895 Z-5.39 I0 K0.31
G1 Z2
Y31.69
Z-4.4 F150
Z-5.69
G2 X41.205 Z-6 I0.31 K0
G1 X41.515
G17 G3 X41.825 Y32 I0 J0.31
X22.175 Y32 I-9.825 J0 F300
X41.825 Y32 I9.825 J0
X41.515 Y32.31 I-0.31 J0
G1 X41.205
G18 G3 X40.895 Z-5.69 I0 K0.31
G1 Z2
Y31.69
Z-4.7 F150
Z-5.99
G2 X41.205 Z-6.3 I0.31 K0
G1 X41.515
G17 G3 X41.825 Y32 I0 J0.31
X22.175 Y32 I-9.825 J0 F300
X41.825 Y32 I9.825 J0
X41.515 Y32.31 I-0.31 J0
G1 X41.205
G18 G3 X40.895 Z-5.99 I0 K0.31
G1 Z2
Y31.69
Z-5 F150
Z-6.29
G2 X41.205 Z-6.6 I0.31 K0
G1 X41.515
G17 G3 X41.825 Y32 I0 J0.31
X22.175 Y32 I-9.825 J0 F300
X41.825 Y32 I9.825 J0
X41.515 Y32.31 I-0.31 J0
G1 X41.205
G18 G3 X40.895 Z-6.29 I0 K0.31
G1 Z2
Y31.69
Z-5.3 F150
Z-6.59
G2 X41.205 Z-6.9 I0.31 K0
G1 X41.515
G17 G3 X41.825 Y32 I0 J0.31
X22.175 Y32 I-9.825 J0 F300
X41.825 Y32 I9.825 J0
X41.515 Y32.31 I-0.31 J0
G1 X41.205
G18 G3 X40.895 Z-6.59 I0 K0.31
G1 Z2
Y31.69
Z-5.6 F150
Z-6.89
G2 X41.205 Z-7.2 I0.31 K0
G1 X41.515
G17 G3 X41.825 Y32 I0 J0.31
X22.175 Y32 I-9.825 J0 F300
X41.825 Y32 I9.825 J0
X41.515 Y32.31 I-0.31 J0
G1 X41.205
G18 G3 X40.895 Z-6.89 I0 K0.31
G1 Z2
Y31.69
Z-5.9 F150
Z-7.19
G2 X41.205 Z-7.5 I0.31 K0
G1 X41.515
G17 G3 X41.825 Y32 I0 J0.31
X22.175 Y32 I-9.825 J0 F300
X41.825 Y32 I9.825 J0
X41.515 Y32.31 I-0.31 J0
G1 X41.205
G18 G3 X40.895 Z-7.19 I0 K0.31
G1 Z2
Y31.69
Z-6.2 F150
Z-7.49
G2 X41.205 Z-7.8 I0.31 K0
G1 X41.515
G17 G3 X41.825 Y32 I0 J0.31
X22.175 Y32 I-9.825 J0 F300
X41.825 Y32 I9.825 J0
X41.515 Y32.31 I-0.31 J0
G1 X41.205
G18 G3 X40.895 Z-7.49 I0 K0.31
G1 Z2
Y31.69
Z-6.5 F150
Z-7.69
G2 X41.205 Z-8 I0.31 K0
G1 X41.515
G17 G3 X41.825 Y32 I0 J0.31
X22.175 Y32 I-9.825 J0 F300
X41.825 Y32 I9.825 J0
X41.515 Y32.31 I-0.31 J0
G1 X41.205
G18 G3 X40.895 Z-7.69 I0 K0.31
G1 Z4
G17
(When using Fusion 360 for Personal Use, the feedrate of)
(rapid moves is reduced to match the feedrate of cutting)
(moves, which can increase machining time. Unrestricted rapid)
(moves are available with a Fusion 360 Subscription.)


(Drill1)
S24000 M3
G54
M8
G0 X42 Y42
Z10
Z5
Z0.5
Z-2.5
G1 Z-4.8 F150
G0 Z0.5
Z-2.8
G1 Z-5.1 F150
G0 Z0.5
Z-3.1
G1 Z-5.4 F150
G0 Z0.5
Z-3.4
G1 Z-5.7 F150
G0 Z0.5
Z-3.7
G1 Z-6 F150
G0 Z0.5
Z-4
G1 Z-6.3 F150
G0 Z0.5
Z-4.3
G1 Z-6.6 F150
G0 Z0.5
Z-4.6
G1 Z-6.9 F150
G0 Z0.5
Z-4.9
G1 Z-7 F150
G4 P1.
G0 Z5
X22
Z0.5
Z-2.5
G1 Z-4.8 F150
G0 Z0.5
Z-2.8
G1 Z-5.1 F150
G0 Z0.5
Z-3.1
G1 Z-5.4 F150
G0 Z0.5
Z-3.4
G1 Z-5.7 F150
G0 Z0.5
Z-3.7
G1 Z-6 F150
G0 Z0.5
Z-4
G1 Z-6.3 F150
G0 Z0.5
Z-4.3
G1 Z-6.6 F150
G0 Z0.5
Z-4.6
G1 Z-6.9 F150
G0 Z0.5
Z-4.9
G1 Z-7 F150
G4 P1.
G0 Z5
Y22
Z0.5
Z-2.5
G1 Z-4.8 F150
G0 Z0.5
Z-2.8
G1 Z-5.1 F150
G0 Z0.5
Z-3.1
G1 Z-5.4 F150
G0 Z0.5
Z-3.4
G1 Z-5.7 F150
G0 Z0.5
Z-3.7
G1 Z-6 F150
G0 Z0.5
Z-4
G1 Z-6.3 F150
G0 Z0.5
Z-4.3
G1 Z-6.6 F150
G0 Z0.5
Z-4.6
G1 Z-6.9 F150
G0 Z0.5
Z-4.9
G1 Z-7 F150
G4 P1.
G0 Z5
X41.951
Z0.5
Z-2.5
G1 Z-4.8 F150
G0 Z0.5
Z-2.8
G1 Z-5.1 F150
G0 Z0.5
Z-3.1
G1 Z-5.4 F150
G0 Z0.5
Z-3.4
G1 Z-5.7 F150
G0 Z0.5
Z-3.7
G1 Z-6 F150
G0 Z0.5
Z-4
G1 Z-6.3 F150
G0 Z0.5
Z-4.3
G1 Z-6.6 F150
G0 Z0.5
Z-4.6
G1 Z-6.9 F150
G0 Z0.5
Z-4.9
G1 Z-7 F150
G4 P1.
G0 Z5
Z10


(2D Contour4)
G0 Z10
X68.48 Y32.31
G1 Z5 F300
Z1.3 F150
Z0.01
G18 G3 X68.17 Z-0.3 I-0.31 K0
G1 X67.86
G17 G3 X67.55 Y32 I0 J-0.31
G1 Y1 F300
G2 X66 Y-0.55 I-1.55 J0
G1 X1
G2 X-0.55 Y1 I0 J1.55
G1 Y63
G2 X1 Y64.55 I1.55 J0
G1 X66
G2 X67.55 Y63 I0 J-1.55
G1 Y32
G3 X67.86 Y31.69 I0.31 J0
G1 X68.17
G18 G2 X68.48 Z0.01 I0 K0.31
G1 Z5
Y32.31
Z1 F150
Z-0.29
G3 X68.17 Z-0.6 I-0.31 K0
G1 X67.86
G17 G3 X67.55 Y32 I0 J-0.31
G1 Y1 F300
G2 X66 Y-0.55 I-1.55 J0
G1 X1
G2 X-0.55 Y1 I0 J1.55
G1 Y63
G2 X1 Y64.55 I1.55 J0
G1 X66
G2 X67.55 Y63 I0 J-1.55
G1 Y32
G3 X67.86 Y31.69 I0.31 J0
G1 X68.17
G18 G2 X68.48 Z-0.29 I0 K0.31
G1 Z5
Y32.31
Z0.7 F150
Z-0.59
G3 X68.17 Z-0.9 I-0.31 K0
G1 X67.86
G17 G3 X67.55 Y32 I0 J-0.31
G1 Y1 F300
G2 X66 Y-0.55 I-1.55 J0
G1 X1
G2 X-0.55 Y1 I0 J1.55
G1 Y63
G2 X1 Y64.55 I1.55 J0
G1 X66
G2 X67.55 Y63 I0 J-1.55
G1 Y32
G3 X67.86 Y31.69 I0.31 J0
G1 X68.17
G18 G2 X68.48 Z-0.59 I0 K0.31
G1 Z5
Y32.31
Z0.4 F150
Z-0.89
G3 X68.17 Z-1.2 I-0.31 K0
G1 X67.86
G17 G3 X67.55 Y32 I0 J-0.31
G1 Y1 F300
G2 X66 Y-0.55 I-1.55 J0
G1 X1
G2 X-0.55 Y1 I0 J1.55
G1 Y63
G2 X1 Y64.55 I1.55 J0
G1 X66
G2 X67.55 Y63 I0 J-1.55
G1 Y32
G3 X67.86 Y31.69 I0.31 J0
G1 X68.17
G18 G2 X68.48 Z-0.89 I0 K0.31
G1 Z5
Y32.31
Z0.1 F150
Z-1.19
G3 X68.17 Z-1.5 I-0.31 K0
G1 X67.86
G17 G3 X67.55 Y32 I0 J-0.31
G1 Y1 F300
G2 X66 Y-0.55 I-1.55 J0
G1 X1
G2 X-0.55 Y1 I0 J1.55
G1 Y63
G2 X1 Y64.55 I1.55 J0
G1 X66
G2 X67.55 Y63 I0 J-1.55
G1 Y32
G3 X67.86 Y31.69 I0.31 J0
G1 X68.17
G18 G2 X68.48 Z-1.19 I0 K0.31
G1 Z5
Y32.31
Z-0.2 F150
Z-1.49
G3 X68.17 Z-1.8 I-0.31 K0
G1 X67.86
G17 G3 X67.55 Y32 I0 J-0.31
G1 Y1 F300
G2 X66 Y-0.55 I-1.55 J0
G1 X1
G2 X-0.55 Y1 I0 J1.55
G1 Y63
G2 X1 Y64.55 I1.55 J0
G1 X66
G2 X67.55 Y63 I0 J-1.55
G1 Y32
G3 X67.86 Y31.69 I0.31 J0
G1 X68.17
G18 G2 X68.48 Z-1.49 I0 K0.31
G1 Z5
Y32.31
Z-0.5 F150
Z-1.79
G3 X68.17 Z-2.1 I-0.31 K0
G1 X67.86
G17 G3 X67.55 Y32 I0 J-0.31
G1 Y1 F300
G2 X66 Y-0.55 I-1.55 J0
G1 X1
G2 X-0.55 Y1 I0 J1.55
G1 Y63
G2 X1 Y64.55 I1.55 J0
G1 X66
G2 X67.55 Y63 I0 J-1.55
G1 Y32
G3 X67.86 Y31.69 I0.31 J0
G1 X68.17
G18 G2 X68.48 Z-1.79 I0 K0.31
G1 Z5
Y32.31
Z-0.8 F150
Z-2.09
G3 X68.17 Z-2.4 I-0.31 K0
G1 X67.86
G17 G3 X67.55 Y32 I0 J-0.31
G1 Y1 F300
G2 X66 Y-0.55 I-1.55 J0
G1 X1
G2 X-0.55 Y1 I0 J1.55
G1 Y63
G2 X1 Y64.55 I1.55 J0
G1 X66
G2 X67.55 Y63 I0 J-1.55
G1 Y32
G3 X67.86 Y31.69 I0.31 J0
G1 X68.17
G18 G2 X68.48 Z-2.09 I0 K0.31
G1 Z5
Y32.31
Z-1.1 F150
Z-2.39
G3 X68.17 Z-2.7 I-0.31 K0
G1 X67.86
G17 G3 X67.55 Y32 I0 J-0.31
G1 Y1 F300
G2 X66 Y-0.55 I-1.55 J0
G1 X1
G2 X-0.55 Y1 I0 J1.55
G1 Y63
G2 X1 Y64.55 I1.55 J0
G1 X66
G2 X67.55 Y63 I0 J-1.55
G1 Y32
G3 X67.86 Y31.69 I0.31 J0
G1 X68.17
G18 G2 X68.48 Z-2.39 I0 K0.31
G1 Z5
Y32.31
Z-1.4 F150
Z-2.69
G3 X68.17 Z-3 I-0.31 K0
G1 X67.86
G17 G3 X67.55 Y32 I0 J-0.31
G1 Y1 F300
G2 X66 Y-0.55 I-1.55 J0
G1 X1
G2 X-0.55 Y1 I0 J1.55
G1 Y63
G2 X1 Y64.55 I1.55 J0
G1 X66
G2 X67.55 Y63 I0 J-1.55
G1 Y32
G3 X67.86 Y31.69 I0.31 J0
G1 X68.17
G18 G2 X68.48 Z-2.69 I0 K0.31
G1 Z5
Y32.31
Z-1.7 F150
Z-2.99
G3 X68.17 Z-3.3 I-0.31 K0
G1 X67.86
G17 G3 X67.55 Y32 I0 J-0.31
G1 Y1 F300
G2 X66 Y-0.55 I-1.55 J0
G1 X1
G2 X-0.55 Y1 I0 J1.55
G1 Y63
G2 X1 Y64.55 I1.55 J0
G1 X66
G2 X67.55 Y63 I0 J-1.55
G1 Y32
G3 X67.86 Y31.69 I0.31 J0
G1 X68.17
G18 G2 X68.48 Z-2.99 I0 K0.31
G1 Z5
Y32.31
Z-2 F150
Z-3.29
G3 X68.17 Z-3.6 I-0.31 K0
G1 X67.86
G17 G3 X67.55 Y32 I0 J-0.31
G1 Y1 F300
G2 X66 Y-0.55 I-1.55 J0
G1 X1
G2 X-0.55 Y1 I0 J1.55
G1 Y63
G2 X1 Y64.55 I1.55 J0
G1 X66
G2 X67.55 Y63 I0 J-1.55
G1 Y32
G3 X67.86 Y31.69 I0.31 J0
G1 X68.17
G18 G2 X68.48 Z-3.29 I0 K0.31
G1 Z5
Y32.31
Z-2.3 F150
Z-3.59
G3 X68.17 Z-3.9 I-0.31 K0
G1 X67.86
G17 G3 X67.55 Y32 I0 J-0.31
G1 Y1 F300
G2 X66 Y-0.55 I-1.55 J0
G1 X1
G2 X-0.55 Y1 I0 J1.55
G1 Y63
G2 X1 Y64.55 I1.55 J0
G1 X66
G2 X67.55 Y63 I0 J-1.55
G1 Y32
G3 X67.86 Y31.69 I0.31 J0
G1 X68.17
G18 G2 X68.48 Z-3.59 I0 K0.31
G1 Z5
Y32.31
Z-2.6 F150
Z-3.89
G3 X68.17 Z-4.2 I-0.31 K0
G1 X67.86
G17 G3 X67.55 Y32 I0 J-0.31
G1 Y1 F300
G2 X66 Y-0.55 I-1.55 J0
G1 X1
G2 X-0.55 Y1 I0 J1.55
G1 Y63
G2 X1 Y64.55 I1.55 J0
G1 X66
G2 X67.55 Y63 I0 J-1.55
G1 Y32
G3 X67.86 Y31.69 I0.31 J0
G1 X68.17
G18 G2 X68.48 Z-3.89 I0 K0.31
G1 Z5
Y32.31
Z-2.9 F150
Z-4.19
G3 X68.17 Z-4.5 I-0.31 K0
G1 X67.86
G17 G3 X67.55 Y32 I0 J-0.31
G1 Y1 F300
G2 X66 Y-0.55 I-1.55 J0
G1 X1
G2 X-0.55 Y1 I0 J1.55
G1 Y63
G2 X1 Y64.55 I1.55 J0
G1 X66
G2 X67.55 Y63 I0 J-1.55
G1 Y32
G3 X67.86 Y31.69 I0.31 J0
G1 X68.17
G18 G2 X68.48 Z-4.19 I0 K0.31
G1 Z5
Y32.31
Z-3.2 F150
Z-4.49
G3 X68.17 Z-4.8 I-0.31 K0
G1 X67.86
G17 G3 X67.55 Y32 I0 J-0.31
G1 Y1 F300
G2 X66 Y-0.55 I-1.55 J0
G1 X1
G2 X-0.55 Y1 I0 J1.55
G1 Y63
G2 X1 Y64.55 I1.55 J0
G1 X66
G2 X67.55 Y63 I0 J-1.55
G1 Y32
G3 X67.86 Y31.69 I0.31 J0
G1 X68.17
G18 G2 X68.48 Z-4.49 I0 K0.31
G1 Z5
Y32.31
Z-3.5 F150
Z-4.79
G3 X68.17 Z-5.1 I-0.31 K0
G1 X67.86
G17 G3 X67.55 Y32 I0 J-0.31
G1 Y1 F300
G2 X66 Y-0.55 I-1.55 J0
G1 X1
G2 X-0.55 Y1 I0 J1.55
G1 Y63
G2 X1 Y64.55 I1.55 J0
G1 X66
G2 X67.55 Y63 I0 J-1.55
G1 Y32
G3 X67.86 Y31.69 I0.31 J0
G1 X68.17
G18 G2 X68.48 Z-4.79 I0 K0.31
G1 Z5
Y32.31
Z-3.8 F150
Z-5.09
G3 X68.17 Z-5.4 I-0.31 K0
G1 X67.86
G17 G3 X67.55 Y32 I0 J-0.31
G1 Y1 F300
G2 X66 Y-0.55 I-1.55 J0
G1 X1
G2 X-0.55 Y1 I0 J1.55
G1 Y63
G2 X1 Y64.55 I1.55 J0
G1 X66
G2 X67.55 Y63 I0 J-1.55
G1 Y32
G3 X67.86 Y31.69 I0.31 J0
G1 X68.17
G18 G2 X68.48 Z-5.09 I0 K0.31
G1 Z5
Y32.31
Z-4.1 F150
Z-5.39
G3 X68.17 Z-5.7 I-0.31 K0
G1 X67.86
G17 G3 X67.55 Y32 I0 J-0.31
G1 Y1 F300
G2 X66 Y-0.55 I-1.55 J0
G1 X1
G2 X-0.55 Y1 I0 J1.55
G1 Y63
G2 X1 Y64.55 I1.55 J0
G1 X66
G2 X67.55 Y63 I0 J-1.55
G1 Y32
G3 X67.86 Y31.69 I0.31 J0
G1 X68.17
G18 G2 X68.48 Z-5.39 I0 K0.31
G1 Z5
Y32.31
Z-4.4 F150
Z-5.69
G3 X68.17 Z-6 I-0.31 K0
G1 X67.86
G17 G3 X67.55 Y32 I0 J-0.31
G1 Y1 F300
G2 X66 Y-0.55 I-1.55 J0
G1 X1
G2 X-0.55 Y1 I0 J1.55
G1 Y63
G2 X1 Y64.55 I1.55 J0
G1 X66
G2 X67.55 Y63 I0 J-1.55
G1 Y32
G3 X67.86 Y31.69 I0.31 J0
G1 X68.17
G18 G2 X68.48 Z-5.69 I0 K0.31
G1 Z5
Y32.31
Z-4.7 F150
Z-5.99
G3 X68.17 Z-6.3 I-0.31 K0
G1 X67.86
G17 G3 X67.55 Y32 I0 J-0.31
G1 Y1 F300
G2 X66 Y-0.55 I-1.55 J0
G1 X1
G2 X-0.55 Y1 I0 J1.55
G1 Y63
G2 X1 Y64.55 I1.55 J0
G1 X66
G2 X67.55 Y63 I0 J-1.55
G1 Y32
G3 X67.86 Y31.69 I0.31 J0
G1 X68.17
G18 G2 X68.48 Z-5.99 I0 K0.31
G1 Z5
Y32.31
Z-5 F150
Z-6.29
G3 X68.17 Z-6.6 I-0.31 K0
G1 X67.86
G17 G3 X67.55 Y32 I0 J-0.31
G1 Y1 F300
G2 X66 Y-0.55 I-1.55 J0
G1 X1
G2 X-0.55 Y1 I0 J1.55
G1 Y63
G2 X1 Y64.55 I1.55 J0
G1 X66
G2 X67.55 Y63 I0 J-1.55
G1 Y32
G3 X67.86 Y31.69 I0.31 J0
G1 X68.17
G18 G2 X68.48 Z-6.29 I0 K0.31
G1 Z5
Y32.31
Z-5.3 F150
Z-6.59
G3 X68.17 Z-6.9 I-0.31 K0
G1 X67.86
G17 G3 X67.55 Y32 I0 J-0.31
G1 Y1 F300
G2 X66 Y-0.55 I-1.55 J0
G1 X1
G2 X-0.55 Y1 I0 J1.55
G1 Y63
G2 X1 Y64.55 I1.55 J0
G1 X66
G2 X67.55 Y63 I0 J-1.55
G1 Y32
G3 X67.86 Y31.69 I0.31 J0
G1 X68.17
G18 G2 X68.48 Z-6.59 I0 K0.31
G1 Z5
Y32.31
Z-5.6 F150
Z-6.69
G3 X68.17 Z-7 I-0.31 K0
G1 X67.86
G17 G3 X67.55 Y32 I0 J-0.31
G1 Y1 F300
G2 X66 Y-0.55 I-1.55 J0
G1 X1
G2 X-0.55 Y1 I0 J1.55
G1 Y63
G2 X1 Y64.55 I1.55 J0
G1 X66
G2 X67.55 Y63 I0 J-1.55
G1 Y32
G3 X67.86 Y31.69 I0.31 J0
G1 X68.17
G18 G2 X68.48 Z-6.69 I0 K0.31
G1 Z10
G17
M9
M5
M30
