(nema17_harmonic_mount)
(T3  D=3.1 CR=0 - ZMIN=-7 - flat end mill)
G90 G94
G17
G21
(When using Fusion 360 for Personal Use, the feedrate of)
(rapid moves is reduced to match the feedrate of cutting)
(moves, which can increase machining time. Unrestricted rapid)
(moves are available with a Fusion 360 Subscription.)

(Circular1)
T3
S24000 M3
G54
M8
G0 X48.163 Y68.31
Z10
G1 Z1.7 F300
Z0.01 F150
G18 G3 X47.853 Z-0.3 I-0.31 K0
G1 X47.698
G17 G3 X47.388 Y68 I0 J-0.31
X50.612 Y68 I1.612 J0 F300
X47.388 Y68 I-1.612 J0
X47.698 Y67.69 I0.31 J0
G1 X47.853
G18 G2 X48.163 Z0.01 I0 K0.31
G1 Z5
Y68.31
Z1.4
Z-0.29 F150
G3 X47.853 Z-0.6 I-0.31 K0
G1 X47.698
G17 G3 X47.388 Y68 I0 J-0.31
X50.612 Y68 I1.612 J0 F300
X47.388 Y68 I-1.612 J0
X47.698 Y67.69 I0.31 J0
G1 X47.853
G18 G2 X48.163 Z-0.29 I0 K0.31
G1 Z5
Y68.31
Z1.1
Z-0.59 F150
G3 X47.853 Z-0.9 I-0.31 K0
G1 X47.698
G17 G3 X47.388 Y68 I0 J-0.31
X50.612 Y68 I1.612 J0 F300
X47.388 Y68 I-1.612 J0
X47.698 Y67.69 I0.31 J0
G1 X47.853
G18 G2 X48.163 Z-0.59 I0 K0.31
G1 Z5
Y68.31
Z0.8
Z-0.89 F150
G3 X47.853 Z-1.2 I-0.31 K0
G1 X47.698
G17 G3 X47.388 Y68 I0 J-0.31
X50.612 Y68 I1.612 J0 F300
X47.388 Y68 I-1.612 J0
X47.698 Y67.69 I0.31 J0
G1 X47.853
G18 G2 X48.163 Z-0.89 I0 K0.31
G1 Z5
Y68.31
Z0.5
Z-1.19 F150
G3 X47.853 Z-1.5 I-0.31 K0
G1 X47.698
G17 G3 X47.388 Y68 I0 J-0.31
X50.612 Y68 I1.612 J0 F300
X47.388 Y68 I-1.612 J0
X47.698 Y67.69 I0.31 J0
G1 X47.853
G18 G2 X48.163 Z-1.19 I0 K0.31
G1 Z5
Y68.31
Z0.2
Z-1.49 F150
G3 X47.853 Z-1.8 I-0.31 K0
G1 X47.698
G17 G3 X47.388 Y68 I0 J-0.31
X50.612 Y68 I1.612 J0 F300
X47.388 Y68 I-1.612 J0
X47.698 Y67.69 I0.31 J0
G1 X47.853
G18 G2 X48.163 Z-1.49 I0 K0.31
G1 Z5
Y68.31
Z-0.1
Z-1.79 F150
G3 X47.853 Z-2.1 I-0.31 K0
G1 X47.698
G17 G3 X47.388 Y68 I0 J-0.31
X50.612 Y68 I1.612 J0 F300
X47.388 Y68 I-1.612 J0
X47.698 Y67.69 I0.31 J0
G1 X47.853
G18 G2 X48.163 Z-1.79 I0 K0.31
G1 Z5
Y68.31
Z-0.4
Z-2.09 F150
G3 X47.853 Z-2.4 I-0.31 K0
G1 X47.698
G17 G3 X47.388 Y68 I0 J-0.31
X50.612 Y68 I1.612 J0 F300
X47.388 Y68 I-1.612 J0
X47.698 Y67.69 I0.31 J0
G1 X47.853
G18 G2 X48.163 Z-2.09 I0 K0.31
G1 Z5
Y68.31
Z-0.7
Z-2.39 F150
G3 X47.853 Z-2.7 I-0.31 K0
G1 X47.698
G17 G3 X47.388 Y68 I0 J-0.31
X50.612 Y68 I1.612 J0 F300
X47.388 Y68 I-1.612 J0
X47.698 Y67.69 I0.31 J0
G1 X47.853
G18 G2 X48.163 Z-2.39 I0 K0.31
G1 Z5
Y68.31
Z-1
Z-2.69 F150
G3 X47.853 Z-3 I-0.31 K0
G1 X47.698
G17 G3 X47.388 Y68 I0 J-0.31
X50.612 Y68 I1.612 J0 F300
X47.388 Y68 I-1.612 J0
X47.698 Y67.69 I0.31 J0
G1 X47.853
G18 G2 X48.163 Z-2.69 I0 K0.31
G1 Z5
Y68.31
Z-1.3
Z-2.99 F150
G3 X47.853 Z-3.3 I-0.31 K0
G1 X47.698
G17 G3 X47.388 Y68 I0 J-0.31
X50.612 Y68 I1.612 J0 F300
X47.388 Y68 I-1.612 J0
X47.698 Y67.69 I0.31 J0
G1 X47.853
G18 G2 X48.163 Z-2.99 I0 K0.31
G1 Z5
Y68.31
Z-1.6
Z-3.29 F150
G3 X47.853 Z-3.6 I-0.31 K0
G1 X47.698
G17 G3 X47.388 Y68 I0 J-0.31
X50.612 Y68 I1.612 J0 F300
X47.388 Y68 I-1.612 J0
X47.698 Y67.69 I0.31 J0
G1 X47.853
G18 G2 X48.163 Z-3.29 I0 K0.31
G1 Z5
Y68.31
Z-1.9
Z-3.59 F150
G3 X47.853 Z-3.9 I-0.31 K0
G1 X47.698
G17 G3 X47.388 Y68 I0 J-0.31
X50.612 Y68 I1.612 J0 F300
X47.388 Y68 I-1.612 J0
X47.698 Y67.69 I0.31 J0
G1 X47.853
G18 G2 X48.163 Z-3.59 I0 K0.31
G1 Z5
Y68.31
Z-2.2
Z-3.89 F150
G3 X47.853 Z-4.2 I-0.31 K0
G1 X47.698
G17 G3 X47.388 Y68 I0 J-0.31
X50.612 Y68 I1.612 J0 F300
X47.388 Y68 I-1.612 J0
X47.698 Y67.69 I0.31 J0
G1 X47.853
G18 G2 X48.163 Z-3.89 I0 K0.31
G1 Z5
Y68.31
Z-2.5
Z-4.19 F150
G3 X47.853 Z-4.5 I-0.31 K0
G1 X47.698
G17 G3 X47.388 Y68 I0 J-0.31
X50.612 Y68 I1.612 J0 F300
X47.388 Y68 I-1.612 J0
X47.698 Y67.69 I0.31 J0
G1 X47.853
G18 G2 X48.163 Z-4.19 I0 K0.31
G1 Z5
Y68.31
Z-2.8
Z-4.49 F150
G3 X47.853 Z-4.8 I-0.31 K0
G1 X47.698
G17 G3 X47.388 Y68 I0 J-0.31
X50.612 Y68 I1.612 J0 F300
X47.388 Y68 I-1.612 J0
X47.698 Y67.69 I0.31 J0
G1 X47.853
G18 G2 X48.163 Z-4.49 I0 K0.31
G1 Z5
Y68.31
Z-3.1
Z-4.79 F150
G3 X47.853 Z-5.1 I-0.31 K0
G1 X47.698
G17 G3 X47.388 Y68 I0 J-0.31
X50.612 Y68 I1.612 J0 F300
X47.388 Y68 I-1.612 J0
X47.698 Y67.69 I0.31 J0
G1 X47.853
G18 G2 X48.163 Z-4.79 I0 K0.31
G1 Z5
Y68.31
Z-3.4
Z-5.09 F150
G3 X47.853 Z-5.4 I-0.31 K0
G1 X47.698
G17 G3 X47.388 Y68 I0 J-0.31
X50.612 Y68 I1.612 J0 F300
X47.388 Y68 I-1.612 J0
X47.698 Y67.69 I0.31 J0
G1 X47.853
G18 G2 X48.163 Z-5.09 I0 K0.31
G1 Z5
Y68.31
Z-3.7
Z-5.39 F150
G3 X47.853 Z-5.7 I-0.31 K0
G1 X47.698
G17 G3 X47.388 Y68 I0 J-0.31
X50.612 Y68 I1.612 J0 F300
X47.388 Y68 I-1.612 J0
X47.698 Y67.69 I0.31 J0
G1 X47.853
G18 G2 X48.163 Z-5.39 I0 K0.31
G1 Z5
Y68.31
Z-4
Z-5.69 F150
G3 X47.853 Z-6 I-0.31 K0
G1 X47.698
G17 G3 X47.388 Y68 I0 J-0.31
X50.612 Y68 I1.612 J0 F300
X47.388 Y68 I-1.612 J0
X47.698 Y67.69 I0.31 J0
G1 X47.853
G18 G2 X48.163 Z-5.69 I0 K0.31
G1 Z5
Y68.31
Z-4.3
Z-5.99 F150
G3 X47.853 Z-6.3 I-0.31 K0
G1 X47.698
G17 G3 X47.388 Y68 I0 J-0.31
X50.612 Y68 I1.612 J0 F300
X47.388 Y68 I-1.612 J0
X47.698 Y67.69 I0.31 J0
G1 X47.853
G18 G2 X48.163 Z-5.99 I0 K0.31
G1 Z5
Y68.31
Z-4.6
Z-6.29 F150
G3 X47.853 Z-6.6 I-0.31 K0
G1 X47.698
G17 G3 X47.388 Y68 I0 J-0.31
X50.612 Y68 I1.612 J0 F300
X47.388 Y68 I-1.612 J0
X47.698 Y67.69 I0.31 J0
G1 X47.853
G18 G2 X48.163 Z-6.29 I0 K0.31
G1 Z5
Y68.31
Z-4.8
Z-6.49 F150
G3 X47.853 Z-6.8 I-0.31 K0
G1 X47.698
G17 G3 X47.388 Y68 I0 J-0.31
X50.612 Y68 I1.612 J0 F300
X47.388 Y68 I-1.612 J0
X47.698 Y67.69 I0.31 J0
G1 X47.853
G18 G2 X48.163 Z-6.49 I0 K0.31
G1 Z5
Y68.31
Z-5
Z-6.69 F150
G3 X47.853 Z-7 I-0.31 K0
G1 X47.698
G17 G3 X47.388 Y68 I0 J-0.31
X50.612 Y68 I1.612 J0 F300
X47.388 Y68 I-1.612 J0
X47.698 Y67.69 I0.31 J0
G1 X47.853
G18 G2 X48.163 Z-6.69 I0 K0.31
G1 Z5
X5.089 Y68.31
Z1.7
Z0.01 F150
G3 X4.779 Z-0.3 I-0.31 K0
G1 X4.624
G17 G3 X4.314 Y68 I0 J-0.31
X5.686 Y68 I0.686 J0 F300
X4.314 Y68 I-0.686 J0
X4.624 Y67.69 I0.31 J0
G1 X4.779
G18 G2 X5.089 Z0.01 I0 K0.31
G1 Z5
Y68.31
Z1.4
Z-0.29 F150
G3 X4.779 Z-0.6 I-0.31 K0
G1 X4.624
G17 G3 X4.314 Y68 I0 J-0.31
X5.686 Y68 I0.686 J0 F300
X4.314 Y68 I-0.686 J0
X4.624 Y67.69 I0.31 J0
G1 X4.779
G18 G2 X5.089 Z-0.29 I0 K0.31
G1 Z5
Y68.31
Z1.1
Z-0.59 F150
G3 X4.779 Z-0.9 I-0.31 K0
G1 X4.624
G17 G3 X4.314 Y68 I0 J-0.31
X5.686 Y68 I0.686 J0 F300
X4.314 Y68 I-0.686 J0
X4.624 Y67.69 I0.31 J0
G1 X4.779
G18 G2 X5.089 Z-0.59 I0 K0.31
G1 Z5
Y68.31
Z0.8
Z-0.89 F150
G3 X4.779 Z-1.2 I-0.31 K0
G1 X4.624
G17 G3 X4.314 Y68 I0 J-0.31
X5.686 Y68 I0.686 J0 F300
X4.314 Y68 I-0.686 J0
X4.624 Y67.69 I0.31 J0
G1 X4.779
G18 G2 X5.089 Z-0.89 I0 K0.31
G1 Z5
Y68.31
Z0.5
Z-1.19 F150
G3 X4.779 Z-1.5 I-0.31 K0
G1 X4.624
G17 G3 X4.314 Y68 I0 J-0.31
X5.686 Y68 I0.686 J0 F300
X4.314 Y68 I-0.686 J0
X4.624 Y67.69 I0.31 J0
G1 X4.779
G18 G2 X5.089 Z-1.19 I0 K0.31
G1 Z5
Y68.31
Z0.2
Z-1.49 F150
G3 X4.779 Z-1.8 I-0.31 K0
G1 X4.624
G17 G3 X4.314 Y68 I0 J-0.31
X5.686 Y68 I0.686 J0 F300
X4.314 Y68 I-0.686 J0
X4.624 Y67.69 I0.31 J0
G1 X4.779
G18 G2 X5.089 Z-1.49 I0 K0.31
G1 Z5
Y68.31
Z-0.1
Z-1.79 F150
G3 X4.779 Z-2.1 I-0.31 K0
G1 X4.624
G17 G3 X4.314 Y68 I0 J-0.31
X5.686 Y68 I0.686 J0 F300
X4.314 Y68 I-0.686 J0
X4.624 Y67.69 I0.31 J0
G1 X4.779
G18 G2 X5.089 Z-1.79 I0 K0.31
G1 Z5
Y68.31
Z-0.4
Z-2.09 F150
G3 X4.779 Z-2.4 I-0.31 K0
G1 X4.624
G17 G3 X4.314 Y68 I0 J-0.31
X5.686 Y68 I0.686 J0 F300
X4.314 Y68 I-0.686 J0
X4.624 Y67.69 I0.31 J0
G1 X4.779
G18 G2 X5.089 Z-2.09 I0 K0.31
G1 Z5
Y68.31
Z-0.7
Z-2.39 F150
G3 X4.779 Z-2.7 I-0.31 K0
G1 X4.624
G17 G3 X4.314 Y68 I0 J-0.31
X5.686 Y68 I0.686 J0 F300
X4.314 Y68 I-0.686 J0
X4.624 Y67.69 I0.31 J0
G1 X4.779
G18 G2 X5.089 Z-2.39 I0 K0.31
G1 Z5
Y68.31
Z-1
Z-2.69 F150
G3 X4.779 Z-3 I-0.31 K0
G1 X4.624
G17 G3 X4.314 Y68 I0 J-0.31
X5.686 Y68 I0.686 J0 F300
X4.314 Y68 I-0.686 J0
X4.624 Y67.69 I0.31 J0
G1 X4.779
G18 G2 X5.089 Z-2.69 I0 K0.31
G1 Z5
Y68.31
Z-1.3
Z-2.99 F150
G3 X4.779 Z-3.3 I-0.31 K0
G1 X4.624
G17 G3 X4.314 Y68 I0 J-0.31
X5.686 Y68 I0.686 J0 F300
X4.314 Y68 I-0.686 J0
X4.624 Y67.69 I0.31 J0
G1 X4.779
G18 G2 X5.089 Z-2.99 I0 K0.31
G1 Z5
Y68.31
Z-1.6
Z-3.29 F150
G3 X4.779 Z-3.6 I-0.31 K0
G1 X4.624
G17 G3 X4.314 Y68 I0 J-0.31
X5.686 Y68 I0.686 J0 F300
X4.314 Y68 I-0.686 J0
X4.624 Y67.69 I0.31 J0
G1 X4.779
G18 G2 X5.089 Z-3.29 I0 K0.31
G1 Z5
Y68.31
Z-1.9
Z-3.59 F150
G3 X4.779 Z-3.9 I-0.31 K0
G1 X4.624
G17 G3 X4.314 Y68 I0 J-0.31
X5.686 Y68 I0.686 J0 F300
X4.314 Y68 I-0.686 J0
X4.624 Y67.69 I0.31 J0
G1 X4.779
G18 G2 X5.089 Z-3.59 I0 K0.31
G1 Z5
Y68.31
Z-2.2
Z-3.89 F150
G3 X4.779 Z-4.2 I-0.31 K0
G1 X4.624
G17 G3 X4.314 Y68 I0 J-0.31
X5.686 Y68 I0.686 J0 F300
X4.314 Y68 I-0.686 J0
X4.624 Y67.69 I0.31 J0
G1 X4.779
G18 G2 X5.089 Z-3.89 I0 K0.31
G1 Z5
Y68.31
Z-2.5
Z-4.19 F150
G3 X4.779 Z-4.5 I-0.31 K0
G1 X4.624
G17 G3 X4.314 Y68 I0 J-0.31
X5.686 Y68 I0.686 J0 F300
X4.314 Y68 I-0.686 J0
X4.624 Y67.69 I0.31 J0
G1 X4.779
G18 G2 X5.089 Z-4.19 I0 K0.31
G1 Z5
Y68.31
Z-2.8
Z-4.49 F150
G3 X4.779 Z-4.8 I-0.31 K0
G1 X4.624
G17 G3 X4.314 Y68 I0 J-0.31
X5.686 Y68 I0.686 J0 F300
X4.314 Y68 I-0.686 J0
X4.624 Y67.69 I0.31 J0
G1 X4.779
G18 G2 X5.089 Z-4.49 I0 K0.31
G1 Z5
Y68.31
Z-3.1
Z-4.79 F150
G3 X4.779 Z-5.1 I-0.31 K0
G1 X4.624
G17 G3 X4.314 Y68 I0 J-0.31
X5.686 Y68 I0.686 J0 F300
X4.314 Y68 I-0.686 J0
X4.624 Y67.69 I0.31 J0
G1 X4.779
G18 G2 X5.089 Z-4.79 I0 K0.31
G1 Z5
Y68.31
Z-3.4
Z-5.09 F150
G3 X4.779 Z-5.4 I-0.31 K0
G1 X4.624
G17 G3 X4.314 Y68 I0 J-0.31
X5.686 Y68 I0.686 J0 F300
X4.314 Y68 I-0.686 J0
X4.624 Y67.69 I0.31 J0
G1 X4.779
G18 G2 X5.089 Z-5.09 I0 K0.31
G1 Z5
Y68.31
Z-3.7
Z-5.39 F150
G3 X4.779 Z-5.7 I-0.31 K0
G1 X4.624
G17 G3 X4.314 Y68 I0 J-0.31
X5.686 Y68 I0.686 J0 F300
X4.314 Y68 I-0.686 J0
X4.624 Y67.69 I0.31 J0
G1 X4.779
G18 G2 X5.089 Z-5.39 I0 K0.31
G1 Z5
Y68.31
Z-4
Z-5.69 F150
G3 X4.779 Z-6 I-0.31 K0
G1 X4.624
G17 G3 X4.314 Y68 I0 J-0.31
X5.686 Y68 I0.686 J0 F300
X4.314 Y68 I-0.686 J0
X4.624 Y67.69 I0.31 J0
G1 X4.779
G18 G2 X5.089 Z-5.69 I0 K0.31
G1 Z5
Y68.31
Z-4.3
Z-5.99 F150
G3 X4.779 Z-6.3 I-0.31 K0
G1 X4.624
G17 G3 X4.314 Y68 I0 J-0.31
X5.686 Y68 I0.686 J0 F300
X4.314 Y68 I-0.686 J0
X4.624 Y67.69 I0.31 J0
G1 X4.779
G18 G2 X5.089 Z-5.99 I0 K0.31
G1 Z5
Y68.31
Z-4.6
Z-6.29 F150
G3 X4.779 Z-6.6 I-0.31 K0
G1 X4.624
G17 G3 X4.314 Y68 I0 J-0.31
X5.686 Y68 I0.686 J0 F300
X4.314 Y68 I-0.686 J0
X4.624 Y67.69 I0.31 J0
G1 X4.779
G18 G2 X5.089 Z-6.29 I0 K0.31
G1 Z5
Y68.31
Z-4.8
Z-6.49 F150
G3 X4.779 Z-6.8 I-0.31 K0
G1 X4.624
G17 G3 X4.314 Y68 I0 J-0.31
X5.686 Y68 I0.686 J0 F300
X4.314 Y68 I-0.686 J0
X4.624 Y67.69 I0.31 J0
G1 X4.779
G18 G2 X5.089 Z-6.49 I0 K0.31
G1 Z5
Y68.31
Z-5
Z-6.69 F150
G3 X4.779 Z-7 I-0.31 K0
G1 X4.624
G17 G3 X4.314 Y68 I0 J-0.31
X5.686 Y68 I0.686 J0 F300
X4.314 Y68 I-0.686 J0
X4.624 Y67.69 I0.31 J0
G1 X4.779
G18 G2 X5.089 Z-6.69 I0 K0.31
G1 Z5
X4.163 Y24.31
Z1.7
Z0.01 F150
G3 X3.853 Z-0.3 I-0.31 K0
G1 X3.698
G17 G3 X3.388 Y24 I0 J-0.31
X6.612 Y24 I1.612 J0 F300
X3.388 Y24 I-1.612 J0
X3.698 Y23.69 I0.31 J0
G1 X3.853
G18 G2 X4.163 Z0.01 I0 K0.31
G1 Z5
Y24.31
Z1.4
Z-0.29 F150
G3 X3.853 Z-0.6 I-0.31 K0
G1 X3.698
G17 G3 X3.388 Y24 I0 J-0.31
X6.612 Y24 I1.612 J0 F300
X3.388 Y24 I-1.612 J0
X3.698 Y23.69 I0.31 J0
G1 X3.853
G18 G2 X4.163 Z-0.29 I0 K0.31
G1 Z5
Y24.31
Z1.1
Z-0.59 F150
G3 X3.853 Z-0.9 I-0.31 K0
G1 X3.698
G17 G3 X3.388 Y24 I0 J-0.31
X6.612 Y24 I1.612 J0 F300
X3.388 Y24 I-1.612 J0
X3.698 Y23.69 I0.31 J0
G1 X3.853
G18 G2 X4.163 Z-0.59 I0 K0.31
G1 Z5
Y24.31
Z0.8
Z-0.89 F150
G3 X3.853 Z-1.2 I-0.31 K0
G1 X3.698
G17 G3 X3.388 Y24 I0 J-0.31
X6.612 Y24 I1.612 J0 F300
X3.388 Y24 I-1.612 J0
X3.698 Y23.69 I0.31 J0
G1 X3.853
G18 G2 X4.163 Z-0.89 I0 K0.31
G1 Z5
Y24.31
Z0.5
Z-1.19 F150
G3 X3.853 Z-1.5 I-0.31 K0
G1 X3.698
G17 G3 X3.388 Y24 I0 J-0.31
X6.612 Y24 I1.612 J0 F300
X3.388 Y24 I-1.612 J0
X3.698 Y23.69 I0.31 J0
G1 X3.853
G18 G2 X4.163 Z-1.19 I0 K0.31
G1 Z5
Y24.31
Z0.2
Z-1.49 F150
G3 X3.853 Z-1.8 I-0.31 K0
G1 X3.698
G17 G3 X3.388 Y24 I0 J-0.31
X6.612 Y24 I1.612 J0 F300
X3.388 Y24 I-1.612 J0
X3.698 Y23.69 I0.31 J0
G1 X3.853
G18 G2 X4.163 Z-1.49 I0 K0.31
G1 Z5
Y24.31
Z-0.1
Z-1.79 F150
G3 X3.853 Z-2.1 I-0.31 K0
G1 X3.698
G17 G3 X3.388 Y24 I0 J-0.31
X6.612 Y24 I1.612 J0 F300
X3.388 Y24 I-1.612 J0
X3.698 Y23.69 I0.31 J0
G1 X3.853
G18 G2 X4.163 Z-1.79 I0 K0.31
G1 Z5
Y24.31
Z-0.4
Z-2.09 F150
G3 X3.853 Z-2.4 I-0.31 K0
G1 X3.698
G17 G3 X3.388 Y24 I0 J-0.31
X6.612 Y24 I1.612 J0 F300
X3.388 Y24 I-1.612 J0
X3.698 Y23.69 I0.31 J0
G1 X3.853
G18 G2 X4.163 Z-2.09 I0 K0.31
G1 Z5
Y24.31
Z-0.7
Z-2.39 F150
G3 X3.853 Z-2.7 I-0.31 K0
G1 X3.698
G17 G3 X3.388 Y24 I0 J-0.31
X6.612 Y24 I1.612 J0 F300
X3.388 Y24 I-1.612 J0
X3.698 Y23.69 I0.31 J0
G1 X3.853
G18 G2 X4.163 Z-2.39 I0 K0.31
G1 Z5
Y24.31
Z-1
Z-2.69 F150
G3 X3.853 Z-3 I-0.31 K0
G1 X3.698
G17 G3 X3.388 Y24 I0 J-0.31
X6.612 Y24 I1.612 J0 F300
X3.388 Y24 I-1.612 J0
X3.698 Y23.69 I0.31 J0
G1 X3.853
G18 G2 X4.163 Z-2.69 I0 K0.31
G1 Z5
Y24.31
Z-1.3
Z-2.99 F150
G3 X3.853 Z-3.3 I-0.31 K0
G1 X3.698
G17 G3 X3.388 Y24 I0 J-0.31
X6.612 Y24 I1.612 J0 F300
X3.388 Y24 I-1.612 J0
X3.698 Y23.69 I0.31 J0
G1 X3.853
G18 G2 X4.163 Z-2.99 I0 K0.31
G1 Z5
Y24.31
Z-1.6
Z-3.29 F150
G3 X3.853 Z-3.6 I-0.31 K0
G1 X3.698
G17 G3 X3.388 Y24 I0 J-0.31
X6.612 Y24 I1.612 J0 F300
X3.388 Y24 I-1.612 J0
X3.698 Y23.69 I0.31 J0
G1 X3.853
G18 G2 X4.163 Z-3.29 I0 K0.31
G1 Z5
Y24.31
Z-1.9
Z-3.59 F150
G3 X3.853 Z-3.9 I-0.31 K0
G1 X3.698
G17 G3 X3.388 Y24 I0 J-0.31
X6.612 Y24 I1.612 J0 F300
X3.388 Y24 I-1.612 J0
X3.698 Y23.69 I0.31 J0
G1 X3.853
G18 G2 X4.163 Z-3.59 I0 K0.31
G1 Z5
Y24.31
Z-2.2
Z-3.89 F150
G3 X3.853 Z-4.2 I-0.31 K0
G1 X3.698
G17 G3 X3.388 Y24 I0 J-0.31
X6.612 Y24 I1.612 J0 F300
X3.388 Y24 I-1.612 J0
X3.698 Y23.69 I0.31 J0
G1 X3.853
G18 G2 X4.163 Z-3.89 I0 K0.31
G1 Z5
Y24.31
Z-2.5
Z-4.19 F150
G3 X3.853 Z-4.5 I-0.31 K0
G1 X3.698
G17 G3 X3.388 Y24 I0 J-0.31
X6.612 Y24 I1.612 J0 F300
X3.388 Y24 I-1.612 J0
X3.698 Y23.69 I0.31 J0
G1 X3.853
G18 G2 X4.163 Z-4.19 I0 K0.31
G1 Z5
Y24.31
Z-2.8
Z-4.49 F150
G3 X3.853 Z-4.8 I-0.31 K0
G1 X3.698
G17 G3 X3.388 Y24 I0 J-0.31
X6.612 Y24 I1.612 J0 F300
X3.388 Y24 I-1.612 J0
X3.698 Y23.69 I0.31 J0
G1 X3.853
G18 G2 X4.163 Z-4.49 I0 K0.31
G1 Z5
Y24.31
Z-3.1
Z-4.79 F150
G3 X3.853 Z-5.1 I-0.31 K0
G1 X3.698
G17 G3 X3.388 Y24 I0 J-0.31
X6.612 Y24 I1.612 J0 F300
X3.388 Y24 I-1.612 J0
X3.698 Y23.69 I0.31 J0
G1 X3.853
G18 G2 X4.163 Z-4.79 I0 K0.31
G1 Z5
Y24.31
Z-3.4
Z-5.09 F150
G3 X3.853 Z-5.4 I-0.31 K0
G1 X3.698
G17 G3 X3.388 Y24 I0 J-0.31
X6.612 Y24 I1.612 J0 F300
X3.388 Y24 I-1.612 J0
X3.698 Y23.69 I0.31 J0
G1 X3.853
G18 G2 X4.163 Z-5.09 I0 K0.31
G1 Z5
Y24.31
Z-3.7
Z-5.39 F150
G3 X3.853 Z-5.7 I-0.31 K0
G1 X3.698
G17 G3 X3.388 Y24 I0 J-0.31
X6.612 Y24 I1.612 J0 F300
X3.388 Y24 I-1.612 J0
X3.698 Y23.69 I0.31 J0
G1 X3.853
G18 G2 X4.163 Z-5.39 I0 K0.31
G1 Z5
Y24.31
Z-4
Z-5.69 F150
G3 X3.853 Z-6 I-0.31 K0
G1 X3.698
G17 G3 X3.388 Y24 I0 J-0.31
X6.612 Y24 I1.612 J0 F300
X3.388 Y24 I-1.612 J0
X3.698 Y23.69 I0.31 J0
G1 X3.853
G18 G2 X4.163 Z-5.69 I0 K0.31
G1 Z5
Y24.31
Z-4.3
Z-5.99 F150
G3 X3.853 Z-6.3 I-0.31 K0
G1 X3.698
G17 G3 X3.388 Y24 I0 J-0.31
X6.612 Y24 I1.612 J0 F300
X3.388 Y24 I-1.612 J0
X3.698 Y23.69 I0.31 J0
G1 X3.853
G18 G2 X4.163 Z-5.99 I0 K0.31
G1 Z5
Y24.31
Z-4.6
Z-6.29 F150
G3 X3.853 Z-6.6 I-0.31 K0
G1 X3.698
G17 G3 X3.388 Y24 I0 J-0.31
X6.612 Y24 I1.612 J0 F300
X3.388 Y24 I-1.612 J0
X3.698 Y23.69 I0.31 J0
G1 X3.853
G18 G2 X4.163 Z-6.29 I0 K0.31
G1 Z5
Y24.31
Z-4.8
Z-6.49 F150
G3 X3.853 Z-6.8 I-0.31 K0
G1 X3.698
G17 G3 X3.388 Y24 I0 J-0.31
X6.612 Y24 I1.612 J0 F300
X3.388 Y24 I-1.612 J0
X3.698 Y23.69 I0.31 J0
G1 X3.853
G18 G2 X4.163 Z-6.49 I0 K0.31
G1 Z5
Y24.31
Z-5
Z-6.69 F150
G3 X3.853 Z-7 I-0.31 K0
G1 X3.698
G17 G3 X3.388 Y24 I0 J-0.31
X6.612 Y24 I1.612 J0 F300
X3.388 Y24 I-1.612 J0
X3.698 Y23.69 I0.31 J0
G1 X3.853
G18 G2 X4.163 Z-6.69 I0 K0.31
G1 Z5
X6.497 Y11.31
Z1.7
Z0.01 F150
G3 X6.187 Z-0.3 I-0.31 K0
G1 X6.032
G17 G3 X5.722 Y11 I0 J-0.31
X8.278 Y11 I1.278 J0 F300
X5.722 Y11 I-1.278 J0
X6.032 Y10.69 I0.31 J0
G1 X6.187
G18 G2 X6.497 Z0.01 I0 K0.31
G1 Z5
Y11.31
Z1.4
Z-0.29 F150
G3 X6.187 Z-0.6 I-0.31 K0
G1 X6.032
G17 G3 X5.722 Y11 I0 J-0.31
X8.278 Y11 I1.278 J0 F300
X5.722 Y11 I-1.278 J0
X6.032 Y10.69 I0.31 J0
G1 X6.187
G18 G2 X6.497 Z-0.29 I0 K0.31
G1 Z5
Y11.31
Z1.1
Z-0.59 F150
G3 X6.187 Z-0.9 I-0.31 K0
G1 X6.032
G17 G3 X5.722 Y11 I0 J-0.31
X8.278 Y11 I1.278 J0 F300
X5.722 Y11 I-1.278 J0
X6.032 Y10.69 I0.31 J0
G1 X6.187
G18 G2 X6.497 Z-0.59 I0 K0.31
G1 Z5
Y11.31
Z0.8
Z-0.89 F150
G3 X6.187 Z-1.2 I-0.31 K0
G1 X6.032
G17 G3 X5.722 Y11 I0 J-0.31
X8.278 Y11 I1.278 J0 F300
X5.722 Y11 I-1.278 J0
X6.032 Y10.69 I0.31 J0
G1 X6.187
G18 G2 X6.497 Z-0.89 I0 K0.31
G1 Z5
Y11.31
Z0.5
Z-1.19 F150
G3 X6.187 Z-1.5 I-0.31 K0
G1 X6.032
G17 G3 X5.722 Y11 I0 J-0.31
X8.278 Y11 I1.278 J0 F300
X5.722 Y11 I-1.278 J0
X6.032 Y10.69 I0.31 J0
G1 X6.187
G18 G2 X6.497 Z-1.19 I0 K0.31
G1 Z5
Y11.31
Z0.2
Z-1.49 F150
G3 X6.187 Z-1.8 I-0.31 K0
G1 X6.032
G17 G3 X5.722 Y11 I0 J-0.31
X8.278 Y11 I1.278 J0 F300
X5.722 Y11 I-1.278 J0
X6.032 Y10.69 I0.31 J0
G1 X6.187
G18 G2 X6.497 Z-1.49 I0 K0.31
G1 Z5
Y11.31
Z-0.1
Z-1.79 F150
G3 X6.187 Z-2.1 I-0.31 K0
G1 X6.032
G17 G3 X5.722 Y11 I0 J-0.31
X8.278 Y11 I1.278 J0 F300
X5.722 Y11 I-1.278 J0
X6.032 Y10.69 I0.31 J0
G1 X6.187
G18 G2 X6.497 Z-1.79 I0 K0.31
G1 Z5
Y11.31
Z-0.4
Z-2.09 F150
G3 X6.187 Z-2.4 I-0.31 K0
G1 X6.032
G17 G3 X5.722 Y11 I0 J-0.31
X8.278 Y11 I1.278 J0 F300
X5.722 Y11 I-1.278 J0
X6.032 Y10.69 I0.31 J0
G1 X6.187
G18 G2 X6.497 Z-2.09 I0 K0.31
G1 Z5
Y11.31
Z-0.7
Z-2.39 F150
G3 X6.187 Z-2.7 I-0.31 K0
G1 X6.032
G17 G3 X5.722 Y11 I0 J-0.31
X8.278 Y11 I1.278 J0 F300
X5.722 Y11 I-1.278 J0
X6.032 Y10.69 I0.31 J0
G1 X6.187
G18 G2 X6.497 Z-2.39 I0 K0.31
G1 Z5
Y11.31
Z-1
Z-2.69 F150
G3 X6.187 Z-3 I-0.31 K0
G1 X6.032
G17 G3 X5.722 Y11 I0 J-0.31
X8.278 Y11 I1.278 J0 F300
X5.722 Y11 I-1.278 J0
X6.032 Y10.69 I0.31 J0
G1 X6.187
G18 G2 X6.497 Z-2.69 I0 K0.31
G1 Z5
Y11.31
Z-1.3
Z-2.99 F150
G3 X6.187 Z-3.3 I-0.31 K0
G1 X6.032
G17 G3 X5.722 Y11 I0 J-0.31
X8.278 Y11 I1.278 J0 F300
X5.722 Y11 I-1.278 J0
X6.032 Y10.69 I0.31 J0
G1 X6.187
G18 G2 X6.497 Z-2.99 I0 K0.31
G1 Z5
Y11.31
Z-1.6
Z-3.29 F150
G3 X6.187 Z-3.6 I-0.31 K0
G1 X6.032
G17 G3 X5.722 Y11 I0 J-0.31
X8.278 Y11 I1.278 J0 F300
X5.722 Y11 I-1.278 J0
X6.032 Y10.69 I0.31 J0
G1 X6.187
G18 G2 X6.497 Z-3.29 I0 K0.31
G1 Z5
Y11.31
Z-1.9
Z-3.59 F150
G3 X6.187 Z-3.9 I-0.31 K0
G1 X6.032
G17 G3 X5.722 Y11 I0 J-0.31
X8.278 Y11 I1.278 J0 F300
X5.722 Y11 I-1.278 J0
X6.032 Y10.69 I0.31 J0
G1 X6.187
G18 G2 X6.497 Z-3.59 I0 K0.31
G1 Z5
Y11.31
Z-2.2
Z-3.89 F150
G3 X6.187 Z-4.2 I-0.31 K0
G1 X6.032
G17 G3 X5.722 Y11 I0 J-0.31
X8.278 Y11 I1.278 J0 F300
X5.722 Y11 I-1.278 J0
X6.032 Y10.69 I0.31 J0
G1 X6.187
G18 G2 X6.497 Z-3.89 I0 K0.31
G1 Z5
Y11.31
Z-2.5
Z-4.19 F150
G3 X6.187 Z-4.5 I-0.31 K0
G1 X6.032
G17 G3 X5.722 Y11 I0 J-0.31
X8.278 Y11 I1.278 J0 F300
X5.722 Y11 I-1.278 J0
X6.032 Y10.69 I0.31 J0
G1 X6.187
G18 G2 X6.497 Z-4.19 I0 K0.31
G1 Z5
Y11.31
Z-2.8
Z-4.49 F150
G3 X6.187 Z-4.8 I-0.31 K0
G1 X6.032
G17 G3 X5.722 Y11 I0 J-0.31
X8.278 Y11 I1.278 J0 F300
X5.722 Y11 I-1.278 J0
X6.032 Y10.69 I0.31 J0
G1 X6.187
G18 G2 X6.497 Z-4.49 I0 K0.31
G1 Z5
Y11.31
Z-3.1
Z-4.79 F150
G3 X6.187 Z-5.1 I-0.31 K0
G1 X6.032
G17 G3 X5.722 Y11 I0 J-0.31
X8.278 Y11 I1.278 J0 F300
X5.722 Y11 I-1.278 J0
X6.032 Y10.69 I0.31 J0
G1 X6.187
G18 G2 X6.497 Z-4.79 I0 K0.31
G1 Z5
Y11.31
Z-3.4
Z-5.09 F150
G3 X6.187 Z-5.4 I-0.31 K0
G1 X6.032
G17 G3 X5.722 Y11 I0 J-0.31
X8.278 Y11 I1.278 J0 F300
X5.722 Y11 I-1.278 J0
X6.032 Y10.69 I0.31 J0
G1 X6.187
G18 G2 X6.497 Z-5.09 I0 K0.31
G1 Z5
Y11.31
Z-3.7
Z-5.39 F150
G3 X6.187 Z-5.7 I-0.31 K0
G1 X6.032
G17 G3 X5.722 Y11 I0 J-0.31
X8.278 Y11 I1.278 J0 F300
X5.722 Y11 I-1.278 J0
X6.032 Y10.69 I0.31 J0
G1 X6.187
G18 G2 X6.497 Z-5.39 I0 K0.31
G1 Z5
Y11.31
Z-4
Z-5.69 F150
G3 X6.187 Z-6 I-0.31 K0
G1 X6.032
G17 G3 X5.722 Y11 I0 J-0.31
X8.278 Y11 I1.278 J0 F300
X5.722 Y11 I-1.278 J0
X6.032 Y10.69 I0.31 J0
G1 X6.187
G18 G2 X6.497 Z-5.69 I0 K0.31
G1 Z5
Y11.31
Z-4.3
Z-5.99 F150
G3 X6.187 Z-6.3 I-0.31 K0
G1 X6.032
G17 G3 X5.722 Y11 I0 J-0.31
X8.278 Y11 I1.278 J0 F300
X5.722 Y11 I-1.278 J0
X6.032 Y10.69 I0.31 J0
G1 X6.187
G18 G2 X6.497 Z-5.99 I0 K0.31
G1 Z5
Y11.31
Z-4.6
Z-6.29 F150
G3 X6.187 Z-6.6 I-0.31 K0
G1 X6.032
G17 G3 X5.722 Y11 I0 J-0.31
X8.278 Y11 I1.278 J0 F300
X5.722 Y11 I-1.278 J0
X6.032 Y10.69 I0.31 J0
G1 X6.187
G18 G2 X6.497 Z-6.29 I0 K0.31
G1 Z5
Y11.31
Z-4.8
Z-6.49 F150
G3 X6.187 Z-6.8 I-0.31 K0
G1 X6.032
G17 G3 X5.722 Y11 I0 J-0.31
X8.278 Y11 I1.278 J0 F300
X5.722 Y11 I-1.278 J0
X6.032 Y10.69 I0.31 J0
G1 X6.187
G18 G2 X6.497 Z-6.49 I0 K0.31
G1 Z5
Y11.31
Z-5
Z-6.69 F150
G3 X6.187 Z-7 I-0.31 K0
G1 X6.032
G17 G3 X5.722 Y11 I0 J-0.31
X8.278 Y11 I1.278 J0 F300
X5.722 Y11 I-1.278 J0
X6.032 Y10.69 I0.31 J0
G1 X6.187
G18 G2 X6.497 Z-6.69 I0 K0.31
G1 Z5
X21.497 Y11.31
Z1.7
Z0.01 F150
G3 X21.187 Z-0.3 I-0.31 K0
G1 X21.032
G17 G3 X20.722 Y11 I0 J-0.31
X23.278 Y11 I1.278 J0 F300
X20.722 Y11 I-1.278 J0
X21.032 Y10.69 I0.31 J0
G1 X21.187
G18 G2 X21.497 Z0.01 I0 K0.31
G1 Z5
Y11.31
Z1.4
Z-0.29 F150
G3 X21.187 Z-0.6 I-0.31 K0
G1 X21.032
G17 G3 X20.722 Y11 I0 J-0.31
X23.278 Y11 I1.278 J0 F300
X20.722 Y11 I-1.278 J0
X21.032 Y10.69 I0.31 J0
G1 X21.187
G18 G2 X21.497 Z-0.29 I0 K0.31
G1 Z5
Y11.31
Z1.1
Z-0.59 F150
G3 X21.187 Z-0.9 I-0.31 K0
G1 X21.032
G17 G3 X20.722 Y11 I0 J-0.31
X23.278 Y11 I1.278 J0 F300
X20.722 Y11 I-1.278 J0
X21.032 Y10.69 I0.31 J0
G1 X21.187
G18 G2 X21.497 Z-0.59 I0 K0.31
G1 Z5
Y11.31
Z0.8
Z-0.89 F150
G3 X21.187 Z-1.2 I-0.31 K0
G1 X21.032
G17 G3 X20.722 Y11 I0 J-0.31
X23.278 Y11 I1.278 J0 F300
X20.722 Y11 I-1.278 J0
X21.032 Y10.69 I0.31 J0
G1 X21.187
G18 G2 X21.497 Z-0.89 I0 K0.31
G1 Z5
Y11.31
Z0.5
Z-1.19 F150
G3 X21.187 Z-1.5 I-0.31 K0
G1 X21.032
G17 G3 X20.722 Y11 I0 J-0.31
X23.278 Y11 I1.278 J0 F300
X20.722 Y11 I-1.278 J0
X21.032 Y10.69 I0.31 J0
G1 X21.187
G18 G2 X21.497 Z-1.19 I0 K0.31
G1 Z5
Y11.31
Z0.2
Z-1.49 F150
G3 X21.187 Z-1.8 I-0.31 K0
G1 X21.032
G17 G3 X20.722 Y11 I0 J-0.31
X23.278 Y11 I1.278 J0 F300
X20.722 Y11 I-1.278 J0
X21.032 Y10.69 I0.31 J0
G1 X21.187
G18 G2 X21.497 Z-1.49 I0 K0.31
G1 Z5
Y11.31
Z-0.1
Z-1.79 F150
G3 X21.187 Z-2.1 I-0.31 K0
G1 X21.032
G17 G3 X20.722 Y11 I0 J-0.31
X23.278 Y11 I1.278 J0 F300
X20.722 Y11 I-1.278 J0
X21.032 Y10.69 I0.31 J0
G1 X21.187
G18 G2 X21.497 Z-1.79 I0 K0.31
G1 Z5
Y11.31
Z-0.4
Z-2.09 F150
G3 X21.187 Z-2.4 I-0.31 K0
G1 X21.032
G17 G3 X20.722 Y11 I0 J-0.31
X23.278 Y11 I1.278 J0 F300
X20.722 Y11 I-1.278 J0
X21.032 Y10.69 I0.31 J0
G1 X21.187
G18 G2 X21.497 Z-2.09 I0 K0.31
G1 Z5
Y11.31
Z-0.7
Z-2.39 F150
G3 X21.187 Z-2.7 I-0.31 K0
G1 X21.032
G17 G3 X20.722 Y11 I0 J-0.31
X23.278 Y11 I1.278 J0 F300
X20.722 Y11 I-1.278 J0
X21.032 Y10.69 I0.31 J0
G1 X21.187
G18 G2 X21.497 Z-2.39 I0 K0.31
G1 Z5
Y11.31
Z-1
Z-2.69 F150
G3 X21.187 Z-3 I-0.31 K0
G1 X21.032
G17 G3 X20.722 Y11 I0 J-0.31
X23.278 Y11 I1.278 J0 F300
X20.722 Y11 I-1.278 J0
X21.032 Y10.69 I0.31 J0
G1 X21.187
G18 G2 X21.497 Z-2.69 I0 K0.31
G1 Z5
Y11.31
Z-1.3
Z-2.99 F150
G3 X21.187 Z-3.3 I-0.31 K0
G1 X21.032
G17 G3 X20.722 Y11 I0 J-0.31
X23.278 Y11 I1.278 J0 F300
X20.722 Y11 I-1.278 J0
X21.032 Y10.69 I0.31 J0
G1 X21.187
G18 G2 X21.497 Z-2.99 I0 K0.31
G1 Z5
Y11.31
Z-1.6
Z-3.29 F150
G3 X21.187 Z-3.6 I-0.31 K0
G1 X21.032
G17 G3 X20.722 Y11 I0 J-0.31
X23.278 Y11 I1.278 J0 F300
X20.722 Y11 I-1.278 J0
X21.032 Y10.69 I0.31 J0
G1 X21.187
G18 G2 X21.497 Z-3.29 I0 K0.31
G1 Z5
Y11.31
Z-1.9
Z-3.59 F150
G3 X21.187 Z-3.9 I-0.31 K0
G1 X21.032
G17 G3 X20.722 Y11 I0 J-0.31
X23.278 Y11 I1.278 J0 F300
X20.722 Y11 I-1.278 J0
X21.032 Y10.69 I0.31 J0
G1 X21.187
G18 G2 X21.497 Z-3.59 I0 K0.31
G1 Z5
Y11.31
Z-2.2
Z-3.89 F150
G3 X21.187 Z-4.2 I-0.31 K0
G1 X21.032
G17 G3 X20.722 Y11 I0 J-0.31
X23.278 Y11 I1.278 J0 F300
X20.722 Y11 I-1.278 J0
X21.032 Y10.69 I0.31 J0
G1 X21.187
G18 G2 X21.497 Z-3.89 I0 K0.31
G1 Z5
Y11.31
Z-2.5
Z-4.19 F150
G3 X21.187 Z-4.5 I-0.31 K0
G1 X21.032
G17 G3 X20.722 Y11 I0 J-0.31
X23.278 Y11 I1.278 J0 F300
X20.722 Y11 I-1.278 J0
X21.032 Y10.69 I0.31 J0
G1 X21.187
G18 G2 X21.497 Z-4.19 I0 K0.31
G1 Z5
Y11.31
Z-2.8
Z-4.49 F150
G3 X21.187 Z-4.8 I-0.31 K0
G1 X21.032
G17 G3 X20.722 Y11 I0 J-0.31
X23.278 Y11 I1.278 J0 F300
X20.722 Y11 I-1.278 J0
X21.032 Y10.69 I0.31 J0
G1 X21.187
G18 G2 X21.497 Z-4.49 I0 K0.31
G1 Z5
Y11.31
Z-3.1
Z-4.79 F150
G3 X21.187 Z-5.1 I-0.31 K0
G1 X21.032
G17 G3 X20.722 Y11 I0 J-0.31
X23.278 Y11 I1.278 J0 F300
X20.722 Y11 I-1.278 J0
X21.032 Y10.69 I0.31 J0
G1 X21.187
G18 G2 X21.497 Z-4.79 I0 K0.31
G1 Z5
Y11.31
Z-3.4
Z-5.09 F150
G3 X21.187 Z-5.4 I-0.31 K0
G1 X21.032
G17 G3 X20.722 Y11 I0 J-0.31
X23.278 Y11 I1.278 J0 F300
X20.722 Y11 I-1.278 J0
X21.032 Y10.69 I0.31 J0
G1 X21.187
G18 G2 X21.497 Z-5.09 I0 K0.31
G1 Z5
Y11.31
Z-3.7
Z-5.39 F150
G3 X21.187 Z-5.7 I-0.31 K0
G1 X21.032
G17 G3 X20.722 Y11 I0 J-0.31
X23.278 Y11 I1.278 J0 F300
X20.722 Y11 I-1.278 J0
X21.032 Y10.69 I0.31 J0
G1 X21.187
G18 G2 X21.497 Z-5.39 I0 K0.31
G1 Z5
Y11.31
Z-4
Z-5.69 F150
G3 X21.187 Z-6 I-0.31 K0
G1 X21.032
G17 G3 X20.722 Y11 I0 J-0.31
X23.278 Y11 I1.278 J0 F300
X20.722 Y11 I-1.278 J0
X21.032 Y10.69 I0.31 J0
G1 X21.187
G18 G2 X21.497 Z-5.69 I0 K0.31
G1 Z5
Y11.31
Z-4.3
Z-5.99 F150
G3 X21.187 Z-6.3 I-0.31 K0
G1 X21.032
G17 G3 X20.722 Y11 I0 J-0.31
X23.278 Y11 I1.278 J0 F300
X20.722 Y11 I-1.278 J0
X21.032 Y10.69 I0.31 J0
G1 X21.187
G18 G2 X21.497 Z-5.99 I0 K0.31
G1 Z5
Y11.31
Z-4.6
Z-6.29 F150
G3 X21.187 Z-6.6 I-0.31 K0
G1 X21.032
G17 G3 X20.722 Y11 I0 J-0.31
X23.278 Y11 I1.278 J0 F300
X20.722 Y11 I-1.278 J0
X21.032 Y10.69 I0.31 J0
G1 X21.187
G18 G2 X21.497 Z-6.29 I0 K0.31
G1 Z5
Y11.31
Z-4.8
Z-6.49 F150
G3 X21.187 Z-6.8 I-0.31 K0
G1 X21.032
G17 G3 X20.722 Y11 I0 J-0.31
X23.278 Y11 I1.278 J0 F300
X20.722 Y11 I-1.278 J0
X21.032 Y10.69 I0.31 J0
G1 X21.187
G18 G2 X21.497 Z-6.49 I0 K0.31
G1 Z5
Y11.31
Z-5
Z-6.69 F150
G3 X21.187 Z-7 I-0.31 K0
G1 X21.032
G17 G3 X20.722 Y11 I0 J-0.31
X23.278 Y11 I1.278 J0 F300
X20.722 Y11 I-1.278 J0
X21.032 Y10.69 I0.31 J0
G1 X21.187
G18 G2 X21.497 Z-6.69 I0 K0.31
G1 Z5
X31.497 Y11.31
Z1.7
Z0.01 F150
G3 X31.187 Z-0.3 I-0.31 K0
G1 X31.032
G17 G3 X30.722 Y11 I0 J-0.31
X33.278 Y11 I1.278 J0 F300
X30.722 Y11 I-1.278 J0
X31.032 Y10.69 I0.31 J0
G1 X31.187
G18 G2 X31.497 Z0.01 I0 K0.31
G1 Z5
Y11.31
Z1.4
Z-0.29 F150
G3 X31.187 Z-0.6 I-0.31 K0
G1 X31.032
G17 G3 X30.722 Y11 I0 J-0.31
X33.278 Y11 I1.278 J0 F300
X30.722 Y11 I-1.278 J0
X31.032 Y10.69 I0.31 J0
G1 X31.187
G18 G2 X31.497 Z-0.29 I0 K0.31
G1 Z5
Y11.31
Z1.1
Z-0.59 F150
G3 X31.187 Z-0.9 I-0.31 K0
G1 X31.032
G17 G3 X30.722 Y11 I0 J-0.31
X33.278 Y11 I1.278 J0 F300
X30.722 Y11 I-1.278 J0
X31.032 Y10.69 I0.31 J0
G1 X31.187
G18 G2 X31.497 Z-0.59 I0 K0.31
G1 Z5
Y11.31
Z0.8
Z-0.89 F150
G3 X31.187 Z-1.2 I-0.31 K0
G1 X31.032
G17 G3 X30.722 Y11 I0 J-0.31
X33.278 Y11 I1.278 J0 F300
X30.722 Y11 I-1.278 J0
X31.032 Y10.69 I0.31 J0
G1 X31.187
G18 G2 X31.497 Z-0.89 I0 K0.31
G1 Z5
Y11.31
Z0.5
Z-1.19 F150
G3 X31.187 Z-1.5 I-0.31 K0
G1 X31.032
G17 G3 X30.722 Y11 I0 J-0.31
X33.278 Y11 I1.278 J0 F300
X30.722 Y11 I-1.278 J0
X31.032 Y10.69 I0.31 J0
G1 X31.187
G18 G2 X31.497 Z-1.19 I0 K0.31
G1 Z5
Y11.31
Z0.2
Z-1.49 F150
G3 X31.187 Z-1.8 I-0.31 K0
G1 X31.032
G17 G3 X30.722 Y11 I0 J-0.31
X33.278 Y11 I1.278 J0 F300
X30.722 Y11 I-1.278 J0
X31.032 Y10.69 I0.31 J0
G1 X31.187
G18 G2 X31.497 Z-1.49 I0 K0.31
G1 Z5
Y11.31
Z-0.1
Z-1.79 F150
G3 X31.187 Z-2.1 I-0.31 K0
G1 X31.032
G17 G3 X30.722 Y11 I0 J-0.31
X33.278 Y11 I1.278 J0 F300
X30.722 Y11 I-1.278 J0
X31.032 Y10.69 I0.31 J0
G1 X31.187
G18 G2 X31.497 Z-1.79 I0 K0.31
G1 Z5
Y11.31
Z-0.4
Z-2.09 F150
G3 X31.187 Z-2.4 I-0.31 K0
G1 X31.032
G17 G3 X30.722 Y11 I0 J-0.31
X33.278 Y11 I1.278 J0 F300
X30.722 Y11 I-1.278 J0
X31.032 Y10.69 I0.31 J0
G1 X31.187
G18 G2 X31.497 Z-2.09 I0 K0.31
G1 Z5
Y11.31
Z-0.7
Z-2.39 F150
G3 X31.187 Z-2.7 I-0.31 K0
G1 X31.032
G17 G3 X30.722 Y11 I0 J-0.31
X33.278 Y11 I1.278 J0 F300
X30.722 Y11 I-1.278 J0
X31.032 Y10.69 I0.31 J0
G1 X31.187
G18 G2 X31.497 Z-2.39 I0 K0.31
G1 Z5
Y11.31
Z-1
Z-2.69 F150
G3 X31.187 Z-3 I-0.31 K0
G1 X31.032
G17 G3 X30.722 Y11 I0 J-0.31
X33.278 Y11 I1.278 J0 F300
X30.722 Y11 I-1.278 J0
X31.032 Y10.69 I0.31 J0
G1 X31.187
G18 G2 X31.497 Z-2.69 I0 K0.31
G1 Z5
Y11.31
Z-1.3
Z-2.99 F150
G3 X31.187 Z-3.3 I-0.31 K0
G1 X31.032
G17 G3 X30.722 Y11 I0 J-0.31
X33.278 Y11 I1.278 J0 F300
X30.722 Y11 I-1.278 J0
X31.032 Y10.69 I0.31 J0
G1 X31.187
G18 G2 X31.497 Z-2.99 I0 K0.31
G1 Z5
Y11.31
Z-1.6
Z-3.29 F150
G3 X31.187 Z-3.6 I-0.31 K0
G1 X31.032
G17 G3 X30.722 Y11 I0 J-0.31
X33.278 Y11 I1.278 J0 F300
X30.722 Y11 I-1.278 J0
X31.032 Y10.69 I0.31 J0
G1 X31.187
G18 G2 X31.497 Z-3.29 I0 K0.31
G1 Z5
Y11.31
Z-1.9
Z-3.59 F150
G3 X31.187 Z-3.9 I-0.31 K0
G1 X31.032
G17 G3 X30.722 Y11 I0 J-0.31
X33.278 Y11 I1.278 J0 F300
X30.722 Y11 I-1.278 J0
X31.032 Y10.69 I0.31 J0
G1 X31.187
G18 G2 X31.497 Z-3.59 I0 K0.31
G1 Z5
Y11.31
Z-2.2
Z-3.89 F150
G3 X31.187 Z-4.2 I-0.31 K0
G1 X31.032
G17 G3 X30.722 Y11 I0 J-0.31
X33.278 Y11 I1.278 J0 F300
X30.722 Y11 I-1.278 J0
X31.032 Y10.69 I0.31 J0
G1 X31.187
G18 G2 X31.497 Z-3.89 I0 K0.31
G1 Z5
Y11.31
Z-2.5
Z-4.19 F150
G3 X31.187 Z-4.5 I-0.31 K0
G1 X31.032
G17 G3 X30.722 Y11 I0 J-0.31
X33.278 Y11 I1.278 J0 F300
X30.722 Y11 I-1.278 J0
X31.032 Y10.69 I0.31 J0
G1 X31.187
G18 G2 X31.497 Z-4.19 I0 K0.31
G1 Z5
Y11.31
Z-2.8
Z-4.49 F150
G3 X31.187 Z-4.8 I-0.31 K0
G1 X31.032
G17 G3 X30.722 Y11 I0 J-0.31
X33.278 Y11 I1.278 J0 F300
X30.722 Y11 I-1.278 J0
X31.032 Y10.69 I0.31 J0
G1 X31.187
G18 G2 X31.497 Z-4.49 I0 K0.31
G1 Z5
Y11.31
Z-3.1
Z-4.79 F150
G3 X31.187 Z-5.1 I-0.31 K0
G1 X31.032
G17 G3 X30.722 Y11 I0 J-0.31
X33.278 Y11 I1.278 J0 F300
X30.722 Y11 I-1.278 J0
X31.032 Y10.69 I0.31 J0
G1 X31.187
G18 G2 X31.497 Z-4.79 I0 K0.31
G1 Z5
Y11.31
Z-3.4
Z-5.09 F150
G3 X31.187 Z-5.4 I-0.31 K0
G1 X31.032
G17 G3 X30.722 Y11 I0 J-0.31
X33.278 Y11 I1.278 J0 F300
X30.722 Y11 I-1.278 J0
X31.032 Y10.69 I0.31 J0
G1 X31.187
G18 G2 X31.497 Z-5.09 I0 K0.31
G1 Z5
Y11.31
Z-3.7
Z-5.39 F150
G3 X31.187 Z-5.7 I-0.31 K0
G1 X31.032
G17 G3 X30.722 Y11 I0 J-0.31
X33.278 Y11 I1.278 J0 F300
X30.722 Y11 I-1.278 J0
X31.032 Y10.69 I0.31 J0
G1 X31.187
G18 G2 X31.497 Z-5.39 I0 K0.31
G1 Z5
Y11.31
Z-4
Z-5.69 F150
G3 X31.187 Z-6 I-0.31 K0
G1 X31.032
G17 G3 X30.722 Y11 I0 J-0.31
X33.278 Y11 I1.278 J0 F300
X30.722 Y11 I-1.278 J0
X31.032 Y10.69 I0.31 J0
G1 X31.187
G18 G2 X31.497 Z-5.69 I0 K0.31
G1 Z5
Y11.31
Z-4.3
Z-5.99 F150
G3 X31.187 Z-6.3 I-0.31 K0
G1 X31.032
G17 G3 X30.722 Y11 I0 J-0.31
X33.278 Y11 I1.278 J0 F300
X30.722 Y11 I-1.278 J0
X31.032 Y10.69 I0.31 J0
G1 X31.187
G18 G2 X31.497 Z-5.99 I0 K0.31
G1 Z5
Y11.31
Z-4.6
Z-6.29 F150
G3 X31.187 Z-6.6 I-0.31 K0
G1 X31.032
G17 G3 X30.722 Y11 I0 J-0.31
X33.278 Y11 I1.278 J0 F300
X30.722 Y11 I-1.278 J0
X31.032 Y10.69 I0.31 J0
G1 X31.187
G18 G2 X31.497 Z-6.29 I0 K0.31
G1 Z5
Y11.31
Z-4.8
Z-6.49 F150
G3 X31.187 Z-6.8 I-0.31 K0
G1 X31.032
G17 G3 X30.722 Y11 I0 J-0.31
X33.278 Y11 I1.278 J0 F300
X30.722 Y11 I-1.278 J0
X31.032 Y10.69 I0.31 J0
G1 X31.187
G18 G2 X31.497 Z-6.49 I0 K0.31
G1 Z5
Y11.31
Z-5
Z-6.69 F150
G3 X31.187 Z-7 I-0.31 K0
G1 X31.032
G17 G3 X30.722 Y11 I0 J-0.31
X33.278 Y11 I1.278 J0 F300
X30.722 Y11 I-1.278 J0
X31.032 Y10.69 I0.31 J0
G1 X31.187
G18 G2 X31.497 Z-6.69 I0 K0.31
G1 Z5
X46.497 Y11.31
Z1.7
Z0.01 F150
G3 X46.187 Z-0.3 I-0.31 K0
G1 X46.032
G17 G3 X45.722 Y11 I0 J-0.31
X48.278 Y11 I1.278 J0 F300
X45.722 Y11 I-1.278 J0
X46.032 Y10.69 I0.31 J0
G1 X46.187
G18 G2 X46.497 Z0.01 I0 K0.31
G1 Z5
Y11.31
Z1.4
Z-0.29 F150
G3 X46.187 Z-0.6 I-0.31 K0
G1 X46.032
G17 G3 X45.722 Y11 I0 J-0.31
X48.278 Y11 I1.278 J0 F300
X45.722 Y11 I-1.278 J0
X46.032 Y10.69 I0.31 J0
G1 X46.187
G18 G2 X46.497 Z-0.29 I0 K0.31
G1 Z5
Y11.31
Z1.1
Z-0.59 F150
G3 X46.187 Z-0.9 I-0.31 K0
G1 X46.032
G17 G3 X45.722 Y11 I0 J-0.31
X48.278 Y11 I1.278 J0 F300
X45.722 Y11 I-1.278 J0
X46.032 Y10.69 I0.31 J0
G1 X46.187
G18 G2 X46.497 Z-0.59 I0 K0.31
G1 Z5
Y11.31
Z0.8
Z-0.89 F150
G3 X46.187 Z-1.2 I-0.31 K0
G1 X46.032
G17 G3 X45.722 Y11 I0 J-0.31
X48.278 Y11 I1.278 J0 F300
X45.722 Y11 I-1.278 J0
X46.032 Y10.69 I0.31 J0
G1 X46.187
G18 G2 X46.497 Z-0.89 I0 K0.31
G1 Z5
Y11.31
Z0.5
Z-1.19 F150
G3 X46.187 Z-1.5 I-0.31 K0
G1 X46.032
G17 G3 X45.722 Y11 I0 J-0.31
X48.278 Y11 I1.278 J0 F300
X45.722 Y11 I-1.278 J0
X46.032 Y10.69 I0.31 J0
G1 X46.187
G18 G2 X46.497 Z-1.19 I0 K0.31
G1 Z5
Y11.31
Z0.2
Z-1.49 F150
G3 X46.187 Z-1.8 I-0.31 K0
G1 X46.032
G17 G3 X45.722 Y11 I0 J-0.31
X48.278 Y11 I1.278 J0 F300
X45.722 Y11 I-1.278 J0
X46.032 Y10.69 I0.31 J0
G1 X46.187
G18 G2 X46.497 Z-1.49 I0 K0.31
G1 Z5
Y11.31
Z-0.1
Z-1.79 F150
G3 X46.187 Z-2.1 I-0.31 K0
G1 X46.032
G17 G3 X45.722 Y11 I0 J-0.31
X48.278 Y11 I1.278 J0 F300
X45.722 Y11 I-1.278 J0
X46.032 Y10.69 I0.31 J0
G1 X46.187
G18 G2 X46.497 Z-1.79 I0 K0.31
G1 Z5
Y11.31
Z-0.4
Z-2.09 F150
G3 X46.187 Z-2.4 I-0.31 K0
G1 X46.032
G17 G3 X45.722 Y11 I0 J-0.31
X48.278 Y11 I1.278 J0 F300
X45.722 Y11 I-1.278 J0
X46.032 Y10.69 I0.31 J0
G1 X46.187
G18 G2 X46.497 Z-2.09 I0 K0.31
G1 Z5
Y11.31
Z-0.7
Z-2.39 F150
G3 X46.187 Z-2.7 I-0.31 K0
G1 X46.032
G17 G3 X45.722 Y11 I0 J-0.31
X48.278 Y11 I1.278 J0 F300
X45.722 Y11 I-1.278 J0
X46.032 Y10.69 I0.31 J0
G1 X46.187
G18 G2 X46.497 Z-2.39 I0 K0.31
G1 Z5
Y11.31
Z-1
Z-2.69 F150
G3 X46.187 Z-3 I-0.31 K0
G1 X46.032
G17 G3 X45.722 Y11 I0 J-0.31
X48.278 Y11 I1.278 J0 F300
X45.722 Y11 I-1.278 J0
X46.032 Y10.69 I0.31 J0
G1 X46.187
G18 G2 X46.497 Z-2.69 I0 K0.31
G1 Z5
Y11.31
Z-1.3
Z-2.99 F150
G3 X46.187 Z-3.3 I-0.31 K0
G1 X46.032
G17 G3 X45.722 Y11 I0 J-0.31
X48.278 Y11 I1.278 J0 F300
X45.722 Y11 I-1.278 J0
X46.032 Y10.69 I0.31 J0
G1 X46.187
G18 G2 X46.497 Z-2.99 I0 K0.31
G1 Z5
Y11.31
Z-1.6
Z-3.29 F150
G3 X46.187 Z-3.6 I-0.31 K0
G1 X46.032
G17 G3 X45.722 Y11 I0 J-0.31
X48.278 Y11 I1.278 J0 F300
X45.722 Y11 I-1.278 J0
X46.032 Y10.69 I0.31 J0
G1 X46.187
G18 G2 X46.497 Z-3.29 I0 K0.31
G1 Z5
Y11.31
Z-1.9
Z-3.59 F150
G3 X46.187 Z-3.9 I-0.31 K0
G1 X46.032
G17 G3 X45.722 Y11 I0 J-0.31
X48.278 Y11 I1.278 J0 F300
X45.722 Y11 I-1.278 J0
X46.032 Y10.69 I0.31 J0
G1 X46.187
G18 G2 X46.497 Z-3.59 I0 K0.31
G1 Z5
Y11.31
Z-2.2
Z-3.89 F150
G3 X46.187 Z-4.2 I-0.31 K0
G1 X46.032
G17 G3 X45.722 Y11 I0 J-0.31
X48.278 Y11 I1.278 J0 F300
X45.722 Y11 I-1.278 J0
X46.032 Y10.69 I0.31 J0
G1 X46.187
G18 G2 X46.497 Z-3.89 I0 K0.31
G1 Z5
Y11.31
Z-2.5
Z-4.19 F150
G3 X46.187 Z-4.5 I-0.31 K0
G1 X46.032
G17 G3 X45.722 Y11 I0 J-0.31
X48.278 Y11 I1.278 J0 F300
X45.722 Y11 I-1.278 J0
X46.032 Y10.69 I0.31 J0
G1 X46.187
G18 G2 X46.497 Z-4.19 I0 K0.31
G1 Z5
Y11.31
Z-2.8
Z-4.49 F150
G3 X46.187 Z-4.8 I-0.31 K0
G1 X46.032
G17 G3 X45.722 Y11 I0 J-0.31
X48.278 Y11 I1.278 J0 F300
X45.722 Y11 I-1.278 J0
X46.032 Y10.69 I0.31 J0
G1 X46.187
G18 G2 X46.497 Z-4.49 I0 K0.31
G1 Z5
Y11.31
Z-3.1
Z-4.79 F150
G3 X46.187 Z-5.1 I-0.31 K0
G1 X46.032
G17 G3 X45.722 Y11 I0 J-0.31
X48.278 Y11 I1.278 J0 F300
X45.722 Y11 I-1.278 J0
X46.032 Y10.69 I0.31 J0
G1 X46.187
G18 G2 X46.497 Z-4.79 I0 K0.31
G1 Z5
Y11.31
Z-3.4
Z-5.09 F150
G3 X46.187 Z-5.4 I-0.31 K0
G1 X46.032
G17 G3 X45.722 Y11 I0 J-0.31
X48.278 Y11 I1.278 J0 F300
X45.722 Y11 I-1.278 J0
X46.032 Y10.69 I0.31 J0
G1 X46.187
G18 G2 X46.497 Z-5.09 I0 K0.31
G1 Z5
Y11.31
Z-3.7
Z-5.39 F150
G3 X46.187 Z-5.7 I-0.31 K0
G1 X46.032
G17 G3 X45.722 Y11 I0 J-0.31
X48.278 Y11 I1.278 J0 F300
X45.722 Y11 I-1.278 J0
X46.032 Y10.69 I0.31 J0
G1 X46.187
G18 G2 X46.497 Z-5.39 I0 K0.31
G1 Z5
Y11.31
Z-4
Z-5.69 F150
G3 X46.187 Z-6 I-0.31 K0
G1 X46.032
G17 G3 X45.722 Y11 I0 J-0.31
X48.278 Y11 I1.278 J0 F300
X45.722 Y11 I-1.278 J0
X46.032 Y10.69 I0.31 J0
G1 X46.187
G18 G2 X46.497 Z-5.69 I0 K0.31
G1 Z5
Y11.31
Z-4.3
Z-5.99 F150
G3 X46.187 Z-6.3 I-0.31 K0
G1 X46.032
G17 G3 X45.722 Y11 I0 J-0.31
X48.278 Y11 I1.278 J0 F300
X45.722 Y11 I-1.278 J0
X46.032 Y10.69 I0.31 J0
G1 X46.187
G18 G2 X46.497 Z-5.99 I0 K0.31
G1 Z5
Y11.31
Z-4.6
Z-6.29 F150
G3 X46.187 Z-6.6 I-0.31 K0
G1 X46.032
G17 G3 X45.722 Y11 I0 J-0.31
X48.278 Y11 I1.278 J0 F300
X45.722 Y11 I-1.278 J0
X46.032 Y10.69 I0.31 J0
G1 X46.187
G18 G2 X46.497 Z-6.29 I0 K0.31
G1 Z5
Y11.31
Z-4.8
Z-6.49 F150
G3 X46.187 Z-6.8 I-0.31 K0
G1 X46.032
G17 G3 X45.722 Y11 I0 J-0.31
X48.278 Y11 I1.278 J0 F300
X45.722 Y11 I-1.278 J0
X46.032 Y10.69 I0.31 J0
G1 X46.187
G18 G2 X46.497 Z-6.49 I0 K0.31
G1 Z5
Y11.31
Z-5
Z-6.69 F150
G3 X46.187 Z-7 I-0.31 K0
G1 X46.032
G17 G3 X45.722 Y11 I0 J-0.31
X48.278 Y11 I1.278 J0 F300
X45.722 Y11 I-1.278 J0
X46.032 Y10.69 I0.31 J0
G1 X46.187
G18 G2 X46.497 Z-6.69 I0 K0.31
G1 Z5
X49.089 Y24.31
Z1.7
Z0.01 F150
G3 X48.779 Z-0.3 I-0.31 K0
G1 X48.624
G17 G3 X48.314 Y24 I0 J-0.31
X49.686 Y24 I0.686 J0 F300
X48.314 Y24 I-0.686 J0
X48.624 Y23.69 I0.31 J0
G1 X48.779
G18 G2 X49.089 Z0.01 I0 K0.31
G1 Z5
Y24.31
Z1.4
Z-0.29 F150
G3 X48.779 Z-0.6 I-0.31 K0
G1 X48.624
G17 G3 X48.314 Y24 I0 J-0.31
X49.686 Y24 I0.686 J0 F300
X48.314 Y24 I-0.686 J0
X48.624 Y23.69 I0.31 J0
G1 X48.779
G18 G2 X49.089 Z-0.29 I0 K0.31
G1 Z5
Y24.31
Z1.1
Z-0.59 F150
G3 X48.779 Z-0.9 I-0.31 K0
G1 X48.624
G17 G3 X48.314 Y24 I0 J-0.31
X49.686 Y24 I0.686 J0 F300
X48.314 Y24 I-0.686 J0
X48.624 Y23.69 I0.31 J0
G1 X48.779
G18 G2 X49.089 Z-0.59 I0 K0.31
G1 Z5
Y24.31
Z0.8
Z-0.89 F150
G3 X48.779 Z-1.2 I-0.31 K0
G1 X48.624
G17 G3 X48.314 Y24 I0 J-0.31
X49.686 Y24 I0.686 J0 F300
X48.314 Y24 I-0.686 J0
X48.624 Y23.69 I0.31 J0
G1 X48.779
G18 G2 X49.089 Z-0.89 I0 K0.31
G1 Z5
Y24.31
Z0.5
Z-1.19 F150
G3 X48.779 Z-1.5 I-0.31 K0
G1 X48.624
G17 G3 X48.314 Y24 I0 J-0.31
X49.686 Y24 I0.686 J0 F300
X48.314 Y24 I-0.686 J0
X48.624 Y23.69 I0.31 J0
G1 X48.779
G18 G2 X49.089 Z-1.19 I0 K0.31
G1 Z5
Y24.31
Z0.2
Z-1.49 F150
G3 X48.779 Z-1.8 I-0.31 K0
G1 X48.624
G17 G3 X48.314 Y24 I0 J-0.31
X49.686 Y24 I0.686 J0 F300
X48.314 Y24 I-0.686 J0
X48.624 Y23.69 I0.31 J0
G1 X48.779
G18 G2 X49.089 Z-1.49 I0 K0.31
G1 Z5
Y24.31
Z-0.1
Z-1.79 F150
G3 X48.779 Z-2.1 I-0.31 K0
G1 X48.624
G17 G3 X48.314 Y24 I0 J-0.31
X49.686 Y24 I0.686 J0 F300
X48.314 Y24 I-0.686 J0
X48.624 Y23.69 I0.31 J0
G1 X48.779
G18 G2 X49.089 Z-1.79 I0 K0.31
G1 Z5
Y24.31
Z-0.4
Z-2.09 F150
G3 X48.779 Z-2.4 I-0.31 K0
G1 X48.624
G17 G3 X48.314 Y24 I0 J-0.31
X49.686 Y24 I0.686 J0 F300
X48.314 Y24 I-0.686 J0
X48.624 Y23.69 I0.31 J0
G1 X48.779
G18 G2 X49.089 Z-2.09 I0 K0.31
G1 Z5
Y24.31
Z-0.7
Z-2.39 F150
G3 X48.779 Z-2.7 I-0.31 K0
G1 X48.624
G17 G3 X48.314 Y24 I0 J-0.31
X49.686 Y24 I0.686 J0 F300
X48.314 Y24 I-0.686 J0
X48.624 Y23.69 I0.31 J0
G1 X48.779
G18 G2 X49.089 Z-2.39 I0 K0.31
G1 Z5
Y24.31
Z-1
Z-2.69 F150
G3 X48.779 Z-3 I-0.31 K0
G1 X48.624
G17 G3 X48.314 Y24 I0 J-0.31
X49.686 Y24 I0.686 J0 F300
X48.314 Y24 I-0.686 J0
X48.624 Y23.69 I0.31 J0
G1 X48.779
G18 G2 X49.089 Z-2.69 I0 K0.31
G1 Z5
Y24.31
Z-1.3
Z-2.99 F150
G3 X48.779 Z-3.3 I-0.31 K0
G1 X48.624
G17 G3 X48.314 Y24 I0 J-0.31
X49.686 Y24 I0.686 J0 F300
X48.314 Y24 I-0.686 J0
X48.624 Y23.69 I0.31 J0
G1 X48.779
G18 G2 X49.089 Z-2.99 I0 K0.31
G1 Z5
Y24.31
Z-1.6
Z-3.29 F150
G3 X48.779 Z-3.6 I-0.31 K0
G1 X48.624
G17 G3 X48.314 Y24 I0 J-0.31
X49.686 Y24 I0.686 J0 F300
X48.314 Y24 I-0.686 J0
X48.624 Y23.69 I0.31 J0
G1 X48.779
G18 G2 X49.089 Z-3.29 I0 K0.31
G1 Z5
Y24.31
Z-1.9
Z-3.59 F150
G3 X48.779 Z-3.9 I-0.31 K0
G1 X48.624
G17 G3 X48.314 Y24 I0 J-0.31
X49.686 Y24 I0.686 J0 F300
X48.314 Y24 I-0.686 J0
X48.624 Y23.69 I0.31 J0
G1 X48.779
G18 G2 X49.089 Z-3.59 I0 K0.31
G1 Z5
Y24.31
Z-2.2
Z-3.89 F150
G3 X48.779 Z-4.2 I-0.31 K0
G1 X48.624
G17 G3 X48.314 Y24 I0 J-0.31
X49.686 Y24 I0.686 J0 F300
X48.314 Y24 I-0.686 J0
X48.624 Y23.69 I0.31 J0
G1 X48.779
G18 G2 X49.089 Z-3.89 I0 K0.31
G1 Z5
Y24.31
Z-2.5
Z-4.19 F150
G3 X48.779 Z-4.5 I-0.31 K0
G1 X48.624
G17 G3 X48.314 Y24 I0 J-0.31
X49.686 Y24 I0.686 J0 F300
X48.314 Y24 I-0.686 J0
X48.624 Y23.69 I0.31 J0
G1 X48.779
G18 G2 X49.089 Z-4.19 I0 K0.31
G1 Z5
Y24.31
Z-2.8
Z-4.49 F150
G3 X48.779 Z-4.8 I-0.31 K0
G1 X48.624
G17 G3 X48.314 Y24 I0 J-0.31
X49.686 Y24 I0.686 J0 F300
X48.314 Y24 I-0.686 J0
X48.624 Y23.69 I0.31 J0
G1 X48.779
G18 G2 X49.089 Z-4.49 I0 K0.31
G1 Z5
Y24.31
Z-3.1
Z-4.79 F150
G3 X48.779 Z-5.1 I-0.31 K0
G1 X48.624
G17 G3 X48.314 Y24 I0 J-0.31
X49.686 Y24 I0.686 J0 F300
X48.314 Y24 I-0.686 J0
X48.624 Y23.69 I0.31 J0
G1 X48.779
G18 G2 X49.089 Z-4.79 I0 K0.31
G1 Z5
Y24.31
Z-3.4
Z-5.09 F150
G3 X48.779 Z-5.4 I-0.31 K0
G1 X48.624
G17 G3 X48.314 Y24 I0 J-0.31
X49.686 Y24 I0.686 J0 F300
X48.314 Y24 I-0.686 J0
X48.624 Y23.69 I0.31 J0
G1 X48.779
G18 G2 X49.089 Z-5.09 I0 K0.31
G1 Z5
Y24.31
Z-3.7
Z-5.39 F150
G3 X48.779 Z-5.7 I-0.31 K0
G1 X48.624
G17 G3 X48.314 Y24 I0 J-0.31
X49.686 Y24 I0.686 J0 F300
X48.314 Y24 I-0.686 J0
X48.624 Y23.69 I0.31 J0
G1 X48.779
G18 G2 X49.089 Z-5.39 I0 K0.31
G1 Z5
Y24.31
Z-4
Z-5.69 F150
G3 X48.779 Z-6 I-0.31 K0
G1 X48.624
G17 G3 X48.314 Y24 I0 J-0.31
X49.686 Y24 I0.686 J0 F300
X48.314 Y24 I-0.686 J0
X48.624 Y23.69 I0.31 J0
G1 X48.779
G18 G2 X49.089 Z-5.69 I0 K0.31
G1 Z5
Y24.31
Z-4.3
Z-5.99 F150
G3 X48.779 Z-6.3 I-0.31 K0
G1 X48.624
G17 G3 X48.314 Y24 I0 J-0.31
X49.686 Y24 I0.686 J0 F300
X48.314 Y24 I-0.686 J0
X48.624 Y23.69 I0.31 J0
G1 X48.779
G18 G2 X49.089 Z-5.99 I0 K0.31
G1 Z5
Y24.31
Z-4.6
Z-6.29 F150
G3 X48.779 Z-6.6 I-0.31 K0
G1 X48.624
G17 G3 X48.314 Y24 I0 J-0.31
X49.686 Y24 I0.686 J0 F300
X48.314 Y24 I-0.686 J0
X48.624 Y23.69 I0.31 J0
G1 X48.779
G18 G2 X49.089 Z-6.29 I0 K0.31
G1 Z5
Y24.31
Z-4.8
Z-6.49 F150
G3 X48.779 Z-6.8 I-0.31 K0
G1 X48.624
G17 G3 X48.314 Y24 I0 J-0.31
X49.686 Y24 I0.686 J0 F300
X48.314 Y24 I-0.686 J0
X48.624 Y23.69 I0.31 J0
G1 X48.779
G18 G2 X49.089 Z-6.49 I0 K0.31
G1 Z5
Y24.31
Z-5
Z-6.69 F150
G3 X48.779 Z-7 I-0.31 K0
G1 X48.624
G17 G3 X48.314 Y24 I0 J-0.31
X49.686 Y24 I0.686 J0 F300
X48.314 Y24 I-0.686 J0
X48.624 Y23.69 I0.31 J0
G1 X48.779
G18 G2 X49.089 Z-6.69 I0 K0.31
G1 Z10
G17
(When using Fusion 360 for Personal Use, the feedrate of)
(rapid moves is reduced to match the feedrate of cutting)
(moves, which can increase machining time. Unrestricted rapid)
(moves are available with a Fusion 360 Subscription.)

(2D Contour1)
G0 X35.15 Y45.69
G1 Z10 F300
Z5
Z0.01 F150
G18 G2 X35.46 Z-0.3 I0.31 K0
G1 X35.77
G17 G3 X36.08 Y46 I0 J0.31
X17.92 Y46 I-9.08 J0 F300
X36.08 Y46 I9.08 J0
X35.77 Y46.31 I-0.31 J0
G1 X35.46
G18 G3 X35.15 Z0.01 I0 K0.31
G1 Z5
Y45.69
Z4.7 F150
Z-0.29
G2 X35.46 Z-0.6 I0.31 K0
G1 X35.77
G17 G3 X36.08 Y46 I0 J0.31
X17.92 Y46 I-9.08 J0 F300
X36.08 Y46 I9.08 J0
X35.77 Y46.31 I-0.31 J0
G1 X35.46
G18 G3 X35.15 Z-0.29 I0 K0.31
G1 Z5
Y45.69
Z4.4 F150
Z-0.59
G2 X35.46 Z-0.9 I0.31 K0
G1 X35.77
G17 G3 X36.08 Y46 I0 J0.31
X17.92 Y46 I-9.08 J0 F300
X36.08 Y46 I9.08 J0
X35.77 Y46.31 I-0.31 J0
G1 X35.46
G18 G3 X35.15 Z-0.59 I0 K0.31
G1 Z5
Y45.69
Z4.1 F150
Z-0.89
G2 X35.46 Z-1.2 I0.31 K0
G1 X35.77
G17 G3 X36.08 Y46 I0 J0.31
X17.92 Y46 I-9.08 J0 F300
X36.08 Y46 I9.08 J0
X35.77 Y46.31 I-0.31 J0
G1 X35.46
G18 G3 X35.15 Z-0.89 I0 K0.31
G1 Z5
Y45.69
Z3.8 F150
Z-1.19
G2 X35.46 Z-1.5 I0.31 K0
G1 X35.77
G17 G3 X36.08 Y46 I0 J0.31
X17.92 Y46 I-9.08 J0 F300
X36.08 Y46 I9.08 J0
X35.77 Y46.31 I-0.31 J0
G1 X35.46
G18 G3 X35.15 Z-1.19 I0 K0.31
G1 Z5
Y45.69
Z3.5 F150
Z-1.49
G2 X35.46 Z-1.8 I0.31 K0
G1 X35.77
G17 G3 X36.08 Y46 I0 J0.31
X17.92 Y46 I-9.08 J0 F300
X36.08 Y46 I9.08 J0
X35.77 Y46.31 I-0.31 J0
G1 X35.46
G18 G3 X35.15 Z-1.49 I0 K0.31
G1 Z5
Y45.69
Z3.2 F150
Z-1.79
G2 X35.46 Z-2.1 I0.31 K0
G1 X35.77
G17 G3 X36.08 Y46 I0 J0.31
X17.92 Y46 I-9.08 J0 F300
X36.08 Y46 I9.08 J0
X35.77 Y46.31 I-0.31 J0
G1 X35.46
G18 G3 X35.15 Z-1.79 I0 K0.31
G1 Z5
Y45.69
Z2.9 F150
Z-2.09
G2 X35.46 Z-2.4 I0.31 K0
G1 X35.77
G17 G3 X36.08 Y46 I0 J0.31
X17.92 Y46 I-9.08 J0 F300
X36.08 Y46 I9.08 J0
X35.77 Y46.31 I-0.31 J0
G1 X35.46
G18 G3 X35.15 Z-2.09 I0 K0.31
G1 Z5
Y45.69
Z2.6 F150
Z-2.39
G2 X35.46 Z-2.7 I0.31 K0
G1 X35.77
G17 G3 X36.08 Y46 I0 J0.31
X17.92 Y46 I-9.08 J0 F300
X36.08 Y46 I9.08 J0
X35.77 Y46.31 I-0.31 J0
G1 X35.46
G18 G3 X35.15 Z-2.39 I0 K0.31
G1 Z5
Y45.69
Z2.3 F150
Z-2.69
G2 X35.46 Z-3 I0.31 K0
G1 X35.77
G17 G3 X36.08 Y46 I0 J0.31
X17.92 Y46 I-9.08 J0 F300
X36.08 Y46 I9.08 J0
X35.77 Y46.31 I-0.31 J0
G1 X35.46
G18 G3 X35.15 Z-2.69 I0 K0.31
G1 Z5
Y45.69
Z2 F150
Z-2.99
G2 X35.46 Z-3.3 I0.31 K0
G1 X35.77
G17 G3 X36.08 Y46 I0 J0.31
X17.92 Y46 I-9.08 J0 F300
X36.08 Y46 I9.08 J0
X35.77 Y46.31 I-0.31 J0
G1 X35.46
G18 G3 X35.15 Z-2.99 I0 K0.31
G1 Z5
Y45.69
Z1.7 F150
Z-3.29
G2 X35.46 Z-3.6 I0.31 K0
G1 X35.77
G17 G3 X36.08 Y46 I0 J0.31
X17.92 Y46 I-9.08 J0 F300
X36.08 Y46 I9.08 J0
X35.77 Y46.31 I-0.31 J0
G1 X35.46
G18 G3 X35.15 Z-3.29 I0 K0.31
G1 Z5
Y45.69
Z1.4 F150
Z-3.59
G2 X35.46 Z-3.9 I0.31 K0
G1 X35.77
G17 G3 X36.08 Y46 I0 J0.31
X17.92 Y46 I-9.08 J0 F300
X36.08 Y46 I9.08 J0
X35.77 Y46.31 I-0.31 J0
G1 X35.46
G18 G3 X35.15 Z-3.59 I0 K0.31
G1 Z5
Y45.69
Z1.1 F150
Z-3.89
G2 X35.46 Z-4.2 I0.31 K0
G1 X35.77
G17 G3 X36.08 Y46 I0 J0.31
X17.92 Y46 I-9.08 J0 F300
X36.08 Y46 I9.08 J0
X35.77 Y46.31 I-0.31 J0
G1 X35.46
G18 G3 X35.15 Z-3.89 I0 K0.31
G1 Z5
Y45.69
Z0.8 F150
Z-4.19
G2 X35.46 Z-4.5 I0.31 K0
G1 X35.77
G17 G3 X36.08 Y46 I0 J0.31
X17.92 Y46 I-9.08 J0 F300
X36.08 Y46 I9.08 J0
X35.77 Y46.31 I-0.31 J0
G1 X35.46
G18 G3 X35.15 Z-4.19 I0 K0.31
G1 Z5
Y45.69
Z0.5 F150
Z-4.49
G2 X35.46 Z-4.8 I0.31 K0
G1 X35.77
G17 G3 X36.08 Y46 I0 J0.31
X17.92 Y46 I-9.08 J0 F300
X36.08 Y46 I9.08 J0
X35.77 Y46.31 I-0.31 J0
G1 X35.46
G18 G3 X35.15 Z-4.49 I0 K0.31
G1 Z5
Y45.69
Z0.2 F150
Z-4.79
G2 X35.46 Z-5.1 I0.31 K0
G1 X35.77
G17 G3 X36.08 Y46 I0 J0.31
X17.92 Y46 I-9.08 J0 F300
X36.08 Y46 I9.08 J0
X35.77 Y46.31 I-0.31 J0
G1 X35.46
G18 G3 X35.15 Z-4.79 I0 K0.31
G1 Z5
Y45.69
Z-0.1 F150
Z-5.09
G2 X35.46 Z-5.4 I0.31 K0
G1 X35.77
G17 G3 X36.08 Y46 I0 J0.31
X17.92 Y46 I-9.08 J0 F300
X36.08 Y46 I9.08 J0
X35.77 Y46.31 I-0.31 J0
G1 X35.46
G18 G3 X35.15 Z-5.09 I0 K0.31
G1 Z5
Y45.69
Z-0.4 F150
Z-5.39
G2 X35.46 Z-5.7 I0.31 K0
G1 X35.77
G17 G3 X36.08 Y46 I0 J0.31
X17.92 Y46 I-9.08 J0 F300
X36.08 Y46 I9.08 J0
X35.77 Y46.31 I-0.31 J0
G1 X35.46
G18 G3 X35.15 Z-5.39 I0 K0.31
G1 Z5
Y45.69
Z-0.7 F150
Z-5.69
G2 X35.46 Z-6 I0.31 K0
G1 X35.77
G17 G3 X36.08 Y46 I0 J0.31
X17.92 Y46 I-9.08 J0 F300
X36.08 Y46 I9.08 J0
X35.77 Y46.31 I-0.31 J0
G1 X35.46
G18 G3 X35.15 Z-5.69 I0 K0.31
G1 Z5
Y45.69
Z-1 F150
Z-5.99
G2 X35.46 Z-6.3 I0.31 K0
G1 X35.77
G17 G3 X36.08 Y46 I0 J0.31
X17.92 Y46 I-9.08 J0 F300
X36.08 Y46 I9.08 J0
X35.77 Y46.31 I-0.31 J0
G1 X35.46
G18 G3 X35.15 Z-5.99 I0 K0.31
G1 Z5
Y45.69
Z-1.3 F150
Z-6.29
G2 X35.46 Z-6.6 I0.31 K0
G1 X35.77
G17 G3 X36.08 Y46 I0 J0.31
X17.92 Y46 I-9.08 J0 F300
X36.08 Y46 I9.08 J0
X35.77 Y46.31 I-0.31 J0
G1 X35.46
G18 G3 X35.15 Z-6.29 I0 K0.31
G1 Z5
Y45.69
Z-1.6 F150
Z-6.59
G2 X35.46 Z-6.9 I0.31 K0
G1 X35.77
G17 G3 X36.08 Y46 I0 J0.31
X17.92 Y46 I-9.08 J0 F300
X36.08 Y46 I9.08 J0
X35.77 Y46.31 I-0.31 J0
G1 X35.46
G18 G3 X35.15 Z-6.59 I0 K0.31
G1 Z5
Y45.69
Z-1.9 F150
Z-6.69
G2 X35.46 Z-7 I0.31 K0
G1 X35.77
G17 G3 X36.08 Y46 I0 J0.31
X17.92 Y46 I-9.08 J0 F300
X36.08 Y46 I9.08 J0
X35.77 Y46.31 I-0.31 J0
G1 X35.46
G18 G3 X35.15 Z-6.69 I0 K0.31
G1 Z10
G17
(When using Fusion 360 for Personal Use, the feedrate of)
(rapid moves is reduced to match the feedrate of cutting)
(moves, which can increase machining time. Unrestricted rapid)
(moves are available with a Fusion 360 Subscription.)

(2D Pocket1)
G0 X44.216 Y61.603
G1 Z10 F300
Z5
Z2.81 F150
X44.22 Y61.625 Z2.694
X44.231 Y61.689 Z2.594
X44.242 Y61.785 Z2.527
X44.247 Y61.9 Z2.5
G3 X41.302 Y61.911 Z2.338 I-1.472 J0.006
X44.247 Y61.9 Z2.177 I1.472 J-0.006
X41.302 Y61.911 Z2.015 I-1.472 J0.006
X44.247 Y61.9 Z1.854 I1.472 J-0.006
X41.302 Y61.911 Z1.692 I-1.472 J0.006
X44.247 Y61.9 Z1.531 I1.472 J-0.006
X41.302 Y61.911 Z1.369 I-1.472 J0.006
X44.247 Y61.9 Z1.208 I1.472 J-0.006
X41.302 Y61.911 Z1.046 I-1.472 J0.006
X44.247 Y61.9 Z0.885 I1.472 J-0.006
X41.302 Y61.911 Z0.723 I-1.472 J0.006
X44.247 Y61.9 Z0.561 I1.472 J-0.006
X41.302 Y61.911 Z0.4 I-1.472 J0.006
X44.247 Y61.9 Z0.238 I1.472 J-0.006
X41.302 Y61.911 Z0.077 I-1.472 J0.006
X44.247 Y61.9 Z-0.085 I1.472 J-0.006
X41.302 Y61.911 Z-0.246 I-1.472 J0.006
X41.891 Y60.728 Z-0.294 I1.472 J-0.006
X43.049 Y62.272 I0.579 J0.772 F300
X41.891 Y60.728 I-0.579 J-0.772
G2 X42.406 Y59.617 I-0.776 J-1.034
G3 X43.382 Y58.879 I0.735 J-0.044
X45.246 Y61.5 I-0.912 J2.621
X39.695 Y61.5 I-2.775 J0
X43.382 Y58.879 I2.775 J0
X44.367 Y60.38 Z-0.354 I-0.484 J1.391 F150
G1 X44.243 Y62.017 Z-0.405
G3 X41.306 Y61.795 Z-0.549 I-1.468 J-0.111
X41.891 Y60.728 Z-0.588 I1.468 J0.111
X43.049 Y62.272 I0.579 J0.772 F300
X41.891 Y60.728 I-0.579 J-0.772
G2 X42.406 Y59.617 I-0.776 J-1.034
G3 X43.382 Y58.879 I0.735 J-0.044
X45.246 Y61.5 I-0.912 J2.621
X39.695 Y61.5 I-2.775 J0
X43.382 Y58.879 I2.775 J0
X44.367 Y60.38 Z-0.648 I-0.484 J1.391 F150
G1 X44.243 Y62.017 Z-0.699
G3 X41.306 Y61.795 Z-0.843 I-1.468 J-0.111
X41.891 Y60.728 Z-0.882 I1.468 J0.111
X43.049 Y62.272 I0.579 J0.772 F300
X41.891 Y60.728 I-0.579 J-0.772
G2 X42.406 Y59.617 I-0.776 J-1.034
G3 X43.382 Y58.879 I0.735 J-0.044
X45.246 Y61.5 I-0.912 J2.621
X39.695 Y61.5 I-2.775 J0
X43.382 Y58.879 I2.775 J0
X44.367 Y60.38 Z-0.942 I-0.484 J1.391 F150
G1 X44.243 Y62.017 Z-0.994
G3 X41.306 Y61.795 Z-1.137 I-1.468 J-0.111
X41.891 Y60.728 Z-1.176 I1.468 J0.111
X43.049 Y62.272 I0.579 J0.772 F300
X41.891 Y60.728 I-0.579 J-0.772
G2 X42.406 Y59.617 I-0.776 J-1.034
G3 X43.382 Y58.879 I0.735 J-0.044
X45.246 Y61.5 I-0.912 J2.621
X39.695 Y61.5 I-2.775 J0
X43.382 Y58.879 I2.775 J0
X44.367 Y60.38 Z-1.237 I-0.484 J1.391 F150
G1 X44.243 Y62.017 Z-1.288
G3 X41.306 Y61.795 Z-1.432 I-1.468 J-0.111
X41.891 Y60.728 Z-1.471 I1.468 J0.111
X43.049 Y62.272 I0.579 J0.772 F300
X41.891 Y60.728 I-0.579 J-0.772
G2 X42.406 Y59.617 I-0.776 J-1.034
G3 X43.382 Y58.879 I0.735 J-0.044
X45.246 Y61.5 I-0.912 J2.621
X39.695 Y61.5 I-2.775 J0
X43.382 Y58.879 I2.775 J0
X44.367 Y60.38 Z-1.531 I-0.484 J1.391 F150
G1 X44.243 Y62.017 Z-1.582
G3 X41.306 Y61.795 Z-1.726 I-1.468 J-0.111
X41.891 Y60.728 Z-1.765 I1.468 J0.111
X43.049 Y62.272 I0.579 J0.772 F300
X41.891 Y60.728 I-0.579 J-0.772
G2 X42.406 Y59.617 I-0.776 J-1.034
G3 X43.382 Y58.879 I0.735 J-0.044
X45.246 Y61.5 I-0.912 J2.621
X39.695 Y61.5 I-2.775 J0
X43.382 Y58.879 I2.775 J0
X44.367 Y60.38 Z-1.825 I-0.484 J1.391 F150
G1 X44.243 Y62.017 Z-1.876
G3 X41.306 Y61.795 Z-2.02 I-1.468 J-0.111
X41.891 Y60.728 Z-2.059 I1.468 J0.111
X43.049 Y62.272 I0.579 J0.772 F300
X41.891 Y60.728 I-0.579 J-0.772
G2 X42.406 Y59.617 I-0.776 J-1.034
G3 X43.382 Y58.879 I0.735 J-0.044
X45.246 Y61.5 I-0.912 J2.621
X39.695 Y61.5 I-2.775 J0
X43.382 Y58.879 I2.775 J0
X44.367 Y60.38 Z-2.119 I-0.484 J1.391 F150
G1 X44.243 Y62.017 Z-2.17
G3 X41.306 Y61.795 Z-2.314 I-1.468 J-0.111
X41.891 Y60.728 Z-2.353 I1.468 J0.111
X43.049 Y62.272 I0.579 J0.772 F300
X41.891 Y60.728 I-0.579 J-0.772
G2 X42.406 Y59.617 I-0.776 J-1.034
G3 X43.382 Y58.879 I0.735 J-0.044
X45.246 Y61.5 I-0.912 J2.621
X39.695 Y61.5 I-2.775 J0
X43.382 Y58.879 I2.775 J0
X44.367 Y60.38 Z-2.413 I-0.484 J1.391 F150
G1 X44.243 Y62.017 Z-2.464
G3 X41.306 Y61.795 Z-2.608 I-1.468 J-0.111
X41.891 Y60.728 Z-2.647 I1.468 J0.111
X43.049 Y62.272 I0.579 J0.772 F300
X41.891 Y60.728 I-0.579 J-0.772
G2 X42.406 Y59.617 I-0.776 J-1.034
G3 X43.382 Y58.879 I0.735 J-0.044
X45.246 Y61.5 I-0.912 J2.621
X39.695 Y61.5 I-2.775 J0
X43.382 Y58.879 I2.775 J0
X44.367 Y60.38 Z-2.707 I-0.484 J1.391 F150
G1 X44.243 Y62.017 Z-2.758
G3 X41.306 Y61.795 Z-2.902 I-1.468 J-0.111
X41.891 Y60.728 Z-2.941 I1.468 J0.111
X43.049 Y62.272 I0.579 J0.772 F300
X41.891 Y60.728 I-0.579 J-0.772
G2 X42.406 Y59.617 I-0.776 J-1.034
G3 X43.382 Y58.879 I0.735 J-0.044
X45.246 Y61.5 I-0.912 J2.621
X39.695 Y61.5 I-2.775 J0
X43.382 Y58.879 I2.775 J0
X44.367 Y60.38 Z-3.001 I-0.484 J1.391 F150
G1 X44.243 Y62.017 Z-3.052
G3 X41.306 Y61.795 Z-3.196 I-1.468 J-0.111
X41.891 Y60.728 Z-3.235 I1.468 J0.111
X43.049 Y62.272 I0.579 J0.772 F300
X41.891 Y60.728 I-0.579 J-0.772
G2 X42.406 Y59.617 I-0.776 J-1.034
G3 X43.382 Y58.879 I0.735 J-0.044
X45.246 Y61.5 I-0.912 J2.621
X39.695 Y61.5 I-2.775 J0
X43.382 Y58.879 I2.775 J0
X44.367 Y60.38 Z-3.295 I-0.484 J1.391 F150
G1 X44.243 Y62.017 Z-3.346
G3 X41.306 Y61.795 Z-3.49 I-1.468 J-0.111
X41.891 Y60.728 Z-3.529 I1.468 J0.111
X43.049 Y62.272 I0.579 J0.772 F300
X41.891 Y60.728 I-0.579 J-0.772
G2 X42.406 Y59.617 I-0.776 J-1.034
G3 X43.382 Y58.879 I0.735 J-0.044
X45.246 Y61.5 I-0.912 J2.621
X39.695 Y61.5 I-2.775 J0
X43.382 Y58.879 I2.775 J0
X44.367 Y60.38 Z-3.59 I-0.484 J1.391 F150
G1 X44.243 Y62.017 Z-3.641
G3 X41.306 Y61.795 Z-3.785 I-1.468 J-0.111
X41.891 Y60.728 Z-3.824 I1.468 J0.111
X43.049 Y62.272 I0.579 J0.772 F300
X41.891 Y60.728 I-0.579 J-0.772
G2 X42.406 Y59.617 I-0.776 J-1.034
G3 X43.382 Y58.879 I0.735 J-0.044
X45.246 Y61.5 I-0.912 J2.621
X39.695 Y61.5 I-2.775 J0
X43.382 Y58.879 I2.775 J0
X44.367 Y60.38 Z-3.884 I-0.484 J1.391 F150
G1 X44.243 Y62.017 Z-3.935
G3 X41.306 Y61.795 Z-4.079 I-1.468 J-0.111
X41.891 Y60.728 Z-4.118 I1.468 J0.111
X43.049 Y62.272 I0.579 J0.772 F300
X41.891 Y60.728 I-0.579 J-0.772
G2 X42.406 Y59.617 I-0.776 J-1.034
G3 X43.382 Y58.879 I0.735 J-0.044
X45.246 Y61.5 I-0.912 J2.621
X39.695 Y61.5 I-2.775 J0
X43.382 Y58.879 I2.775 J0
X44.367 Y60.38 Z-4.178 I-0.484 J1.391 F150
G1 X44.243 Y62.017 Z-4.229
G3 X41.306 Y61.795 Z-4.373 I-1.468 J-0.111
X41.891 Y60.728 Z-4.412 I1.468 J0.111
X43.049 Y62.272 I0.579 J0.772 F300
X41.891 Y60.728 I-0.579 J-0.772
G2 X42.406 Y59.617 I-0.776 J-1.034
G3 X43.382 Y58.879 I0.735 J-0.044
X45.246 Y61.5 I-0.912 J2.621
X39.695 Y61.5 I-2.775 J0
X43.382 Y58.879 I2.775 J0
X44.367 Y60.38 Z-4.472 I-0.484 J1.391 F150
G1 X44.243 Y62.017 Z-4.523
G3 X41.306 Y61.795 Z-4.667 I-1.468 J-0.111
X41.891 Y60.728 Z-4.706 I1.468 J0.111
X43.049 Y62.272 I0.579 J0.772 F300
X41.891 Y60.728 I-0.579 J-0.772
G2 X42.406 Y59.617 I-0.776 J-1.034
G3 X43.382 Y58.879 I0.735 J-0.044
X45.246 Y61.5 I-0.912 J2.621
X39.695 Y61.5 I-2.775 J0
X43.382 Y58.879 I2.775 J0
X44.367 Y60.38 Z-4.766 I-0.484 J1.391 F150
G1 X44.243 Y62.017 Z-4.817
G3 X41.306 Y61.795 Z-4.961 I-1.468 J-0.111
X41.891 Y60.728 Z-5 I1.468 J0.111
X43.049 Y62.272 I0.579 J0.772 F300
X41.891 Y60.728 I-0.579 J-0.772
G2 X42.406 Y59.617 I-0.776 J-1.034
G3 X43.382 Y58.879 I0.735 J-0.044
X45.246 Y61.5 I-0.912 J2.621
X39.695 Y61.5 I-2.775 J0
X43.382 Y58.879 I2.775 J0
G1 X43.436 Y58.903 Z-4.988
X43.484 Y58.938 Z-4.976
X43.519 Y58.974 Z-4.943
X43.548 Y59.015 Z-4.909
X43.575 Y59.076 Z-4.809
X43.582 Y59.099 Z-4.69
Z10
X10.346 Y62.834
Z5
Z2.81 F150
X10.326 Y62.825 Z2.694
X10.268 Y62.795 Z2.594
X10.185 Y62.747 Z2.527
X10.09 Y62.681 Z2.5
G3 X11.848 Y60.319 Z2.338 I0.879 J-1.181
X10.09 Y62.681 Z2.177 I-0.879 J1.181
X11.848 Y60.319 Z2.015 I0.879 J-1.181
X10.09 Y62.681 Z1.854 I-0.879 J1.181
X11.848 Y60.319 Z1.692 I0.879 J-1.181
X10.09 Y62.681 Z1.531 I-0.879 J1.181
X11.848 Y60.319 Z1.369 I0.879 J-1.181
X10.09 Y62.681 Z1.208 I-0.879 J1.181
X11.848 Y60.319 Z1.046 I0.879 J-1.181
X10.09 Y62.681 Z0.885 I-0.879 J1.181
X11.848 Y60.319 Z0.723 I0.879 J-1.181
X10.09 Y62.681 Z0.561 I-0.879 J1.181
X11.848 Y60.319 Z0.4 I0.879 J-1.181
X10.09 Y62.681 Z0.238 I-0.879 J1.181
X11.848 Y60.319 Z0.077 I0.879 J-1.181
X10.09 Y62.681 Z-0.085 I-0.879 J1.181
X11.848 Y60.319 Z-0.246 I0.879 J-1.181
X12.441 Y61.5 Z-0.294 I-0.879 J1.181
X10.559 Y61.5 I-0.941 J0 F300
X12.441 Y61.5 I0.941 J0
G2 X13.018 Y62.575 I1.29 J0
G3 X13.017 Y63.795 I-0.405 J0.61
X8.749 Y61.5 I-1.517 J-2.295
X14.251 Y61.5 I2.751 J0
X13.017 Y63.795 I-2.751 J0
X11.243 Y63.682 Z-0.354 I-0.812 J-1.229 F150
G1 X10.007 Y62.615 Z-0.405
G3 X11.931 Y60.385 Z-0.549 I0.962 J-1.115
X12.441 Y61.5 Z-0.588 I-0.962 J1.115
X10.559 Y61.5 I-0.941 J0 F300
X12.441 Y61.5 I0.941 J0
G2 X13.018 Y62.575 I1.29 J0
G3 X13.017 Y63.795 I-0.405 J0.61
X8.749 Y61.5 I-1.517 J-2.295
X14.251 Y61.5 I2.751 J0
X13.017 Y63.795 I-2.751 J0
X11.243 Y63.682 Z-0.648 I-0.812 J-1.229 F150
G1 X10.007 Y62.615 Z-0.699
G3 X11.931 Y60.385 Z-0.843 I0.962 J-1.115
X12.441 Y61.5 Z-0.882 I-0.962 J1.115
X10.559 Y61.5 I-0.941 J0 F300
X12.441 Y61.5 I0.941 J0
G2 X13.018 Y62.575 I1.29 J0
G3 X13.017 Y63.795 I-0.405 J0.61
X8.749 Y61.5 I-1.517 J-2.295
X14.251 Y61.5 I2.751 J0
X13.017 Y63.795 I-2.751 J0
X11.243 Y63.682 Z-0.942 I-0.812 J-1.229 F150
G1 X10.007 Y62.615 Z-0.993
G3 X11.931 Y60.385 Z-1.137 I0.962 J-1.115
X12.441 Y61.5 Z-1.176 I-0.962 J1.115
X10.559 Y61.5 I-0.941 J0 F300
X12.441 Y61.5 I0.941 J0
G2 X13.018 Y62.575 I1.29 J0
G3 X13.017 Y63.795 I-0.405 J0.61
X8.749 Y61.5 I-1.517 J-2.295
X14.251 Y61.5 I2.751 J0
X13.017 Y63.795 I-2.751 J0
X11.243 Y63.682 Z-1.236 I-0.812 J-1.229 F150
G1 X10.007 Y62.615 Z-1.287
G3 X11.931 Y60.385 Z-1.431 I0.962 J-1.115
X12.441 Y61.5 Z-1.471 I-0.962 J1.115
X10.559 Y61.5 I-0.941 J0 F300
X12.441 Y61.5 I0.941 J0
G2 X13.018 Y62.575 I1.29 J0
G3 X13.017 Y63.795 I-0.405 J0.61
X8.749 Y61.5 I-1.517 J-2.295
X14.251 Y61.5 I2.751 J0
X13.017 Y63.795 I-2.751 J0
X11.243 Y63.682 Z-1.53 I-0.812 J-1.229 F150
G1 X10.007 Y62.615 Z-1.581
G3 X11.931 Y60.385 Z-1.725 I0.962 J-1.115
X12.441 Y61.5 Z-1.765 I-0.962 J1.115
X10.559 Y61.5 I-0.941 J0 F300
X12.441 Y61.5 I0.941 J0
G2 X13.018 Y62.575 I1.29 J0
G3 X13.017 Y63.795 I-0.405 J0.61
X8.749 Y61.5 I-1.517 J-2.295
X14.251 Y61.5 I2.751 J0
X13.017 Y63.795 I-2.751 J0
X11.243 Y63.682 Z-1.824 I-0.812 J-1.229 F150
G1 X10.007 Y62.615 Z-1.875
G3 X11.931 Y60.385 Z-2.019 I0.962 J-1.115
X12.441 Y61.5 Z-2.059 I-0.962 J1.115
X10.559 Y61.5 I-0.941 J0 F300
X12.441 Y61.5 I0.941 J0
G2 X13.018 Y62.575 I1.29 J0
G3 X13.017 Y63.795 I-0.405 J0.61
X8.749 Y61.5 I-1.517 J-2.295
X14.251 Y61.5 I2.751 J0
X13.017 Y63.795 I-2.751 J0
X11.243 Y63.682 Z-2.118 I-0.812 J-1.229 F150
G1 X10.007 Y62.615 Z-2.169
G3 X11.931 Y60.385 Z-2.314 I0.962 J-1.115
X12.441 Y61.5 Z-2.353 I-0.962 J1.115
X10.559 Y61.5 I-0.941 J0 F300
X12.441 Y61.5 I0.941 J0
G2 X13.018 Y62.575 I1.29 J0
G3 X13.017 Y63.795 I-0.405 J0.61
X8.749 Y61.5 I-1.517 J-2.295
X14.251 Y61.5 I2.751 J0
X13.017 Y63.795 I-2.751 J0
X11.243 Y63.682 Z-2.412 I-0.812 J-1.229 F150
G1 X10.007 Y62.615 Z-2.463
G3 X11.931 Y60.385 Z-2.608 I0.962 J-1.115
X12.441 Y61.5 Z-2.647 I-0.962 J1.115
X10.559 Y61.5 I-0.941 J0 F300
X12.441 Y61.5 I0.941 J0
G2 X13.018 Y62.575 I1.29 J0
G3 X13.017 Y63.795 I-0.405 J0.61
X8.749 Y61.5 I-1.517 J-2.295
X14.251 Y61.5 I2.751 J0
X13.017 Y63.795 I-2.751 J0
X11.243 Y63.682 Z-2.707 I-0.812 J-1.229 F150
G1 X10.007 Y62.615 Z-2.757
G3 X11.931 Y60.385 Z-2.902 I0.962 J-1.115
X12.441 Y61.5 Z-2.941 I-0.962 J1.115
X10.559 Y61.5 I-0.941 J0 F300
X12.441 Y61.5 I0.941 J0
G2 X13.018 Y62.575 I1.29 J0
G3 X13.017 Y63.795 I-0.405 J0.61
X8.749 Y61.5 I-1.517 J-2.295
X14.251 Y61.5 I2.751 J0
X13.017 Y63.795 I-2.751 J0
X11.243 Y63.682 Z-3.001 I-0.812 J-1.229 F150
G1 X10.007 Y62.615 Z-3.052
G3 X11.931 Y60.385 Z-3.196 I0.962 J-1.115
X12.441 Y61.5 Z-3.235 I-0.962 J1.115
X10.559 Y61.5 I-0.941 J0 F300
X12.441 Y61.5 I0.941 J0
G2 X13.018 Y62.575 I1.29 J0
G3 X13.017 Y63.795 I-0.405 J0.61
X8.749 Y61.5 I-1.517 J-2.295
X14.251 Y61.5 I2.751 J0
X13.017 Y63.795 I-2.751 J0
X11.243 Y63.682 Z-3.295 I-0.812 J-1.229 F150
G1 X10.007 Y62.615 Z-3.346
G3 X11.931 Y60.385 Z-3.49 I0.962 J-1.115
X12.441 Y61.5 Z-3.529 I-0.962 J1.115
X10.559 Y61.5 I-0.941 J0 F300
X12.441 Y61.5 I0.941 J0
G2 X13.018 Y62.575 I1.29 J0
G3 X13.017 Y63.795 I-0.405 J0.61
X8.749 Y61.5 I-1.517 J-2.295
X14.251 Y61.5 I2.751 J0
X13.017 Y63.795 I-2.751 J0
X11.243 Y63.682 Z-3.589 I-0.812 J-1.229 F150
G1 X10.007 Y62.615 Z-3.64
G3 X11.931 Y60.385 Z-3.784 I0.962 J-1.115
X12.441 Y61.5 Z-3.824 I-0.962 J1.115
X10.559 Y61.5 I-0.941 J0 F300
X12.441 Y61.5 I0.941 J0
G2 X13.018 Y62.575 I1.29 J0
G3 X13.017 Y63.795 I-0.405 J0.61
X8.749 Y61.5 I-1.517 J-2.295
X14.251 Y61.5 I2.751 J0
X13.017 Y63.795 I-2.751 J0
X11.243 Y63.682 Z-3.883 I-0.812 J-1.229 F150
G1 X10.007 Y62.615 Z-3.934
G3 X11.931 Y60.385 Z-4.078 I0.962 J-1.115
X12.441 Y61.5 Z-4.118 I-0.962 J1.115
X10.559 Y61.5 I-0.941 J0 F300
X12.441 Y61.5 I0.941 J0
G2 X13.018 Y62.575 I1.29 J0
G3 X13.017 Y63.795 I-0.405 J0.61
X8.749 Y61.5 I-1.517 J-2.295
X14.251 Y61.5 I2.751 J0
X13.017 Y63.795 I-2.751 J0
X11.243 Y63.682 Z-4.177 I-0.812 J-1.229 F150
G1 X10.007 Y62.615 Z-4.228
G3 X11.931 Y60.385 Z-4.372 I0.962 J-1.115
X12.441 Y61.5 Z-4.412 I-0.962 J1.115
X10.559 Y61.5 I-0.941 J0 F300
X12.441 Y61.5 I0.941 J0
G2 X13.018 Y62.575 I1.29 J0
G3 X13.017 Y63.795 I-0.405 J0.61
X8.749 Y61.5 I-1.517 J-2.295
X14.251 Y61.5 I2.751 J0
X13.017 Y63.795 I-2.751 J0
X11.243 Y63.682 Z-4.471 I-0.812 J-1.229 F150
G1 X10.007 Y62.615 Z-4.522
G3 X11.931 Y60.385 Z-4.666 I0.962 J-1.115
X12.441 Y61.5 Z-4.706 I-0.962 J1.115
X10.559 Y61.5 I-0.941 J0 F300
X12.441 Y61.5 I0.941 J0
G2 X13.018 Y62.575 I1.29 J0
G3 X13.017 Y63.795 I-0.405 J0.61
X8.749 Y61.5 I-1.517 J-2.295
X14.251 Y61.5 I2.751 J0
X13.017 Y63.795 I-2.751 J0
X11.243 Y63.682 Z-4.765 I-0.812 J-1.229 F150
G1 X10.007 Y62.615 Z-4.816
G3 X11.931 Y60.385 Z-4.961 I0.962 J-1.115
X12.441 Y61.5 Z-5 I-0.962 J1.115
X10.559 Y61.5 I-0.941 J0 F300
X12.441 Y61.5 I0.941 J0
G2 X13.018 Y62.575 I1.29 J0
G3 X13.017 Y63.795 I-0.405 J0.61
X8.749 Y61.5 I-1.517 J-2.295
X14.251 Y61.5 I2.751 J0
X13.017 Y63.795 I-2.751 J0
G1 X12.964 Y63.823 Z-4.988
X12.908 Y63.84 Z-4.976
X12.858 Y63.846 Z-4.943
X12.808 Y63.844 Z-4.909
X12.742 Y63.829 Z-4.809
X12.721 Y63.82 Z-4.69
Z10
X10.317 Y31.8
Z5
Z2.81 F150
X10.296 Y31.79 Z2.694
X10.239 Y31.761 Z2.594
X10.155 Y31.712 Z2.527
X10.06 Y31.647 Z2.5
G3 X11.818 Y29.284 Z2.338 I0.879 J-1.181
X10.06 Y31.647 Z2.177 I-0.879 J1.181
X11.818 Y29.284 Z2.015 I0.879 J-1.181
X10.06 Y31.647 Z1.854 I-0.879 J1.181
X11.818 Y29.284 Z1.692 I0.879 J-1.181
X10.06 Y31.647 Z1.531 I-0.879 J1.181
X11.818 Y29.284 Z1.369 I0.879 J-1.181
X10.06 Y31.647 Z1.208 I-0.879 J1.181
X11.818 Y29.284 Z1.046 I0.879 J-1.181
X10.06 Y31.647 Z0.885 I-0.879 J1.181
X11.818 Y29.284 Z0.723 I0.879 J-1.181
X10.06 Y31.647 Z0.561 I-0.879 J1.181
X11.818 Y29.284 Z0.4 I0.879 J-1.181
X10.06 Y31.647 Z0.238 I-0.879 J1.181
X11.818 Y29.284 Z0.077 I0.879 J-1.181
X10.06 Y31.647 Z-0.085 I-0.879 J1.181
X11.818 Y29.284 Z-0.246 I0.879 J-1.181
X12.411 Y30.465 Z-0.294 I-0.879 J1.181
X10.588 Y30.465 I-0.912 J0 F300
X14.271 Y30.465 I1.842 J0
X8.728 Y30.465 I-2.772 J0
X14.271 Y30.465 I2.772 J0
X12.799 Y31.938 Z-0.355 I-1.472 J0 F150
G1 X10.939 Z-0.405
G3 X10.939 Y28.993 Z-0.527 I0 J-1.472
X12.411 Y30.465 Z-0.588 I0 J1.472
X10.588 Y30.465 I-0.912 J0 F300
X14.271 Y30.465 I1.842 J0
X8.728 Y30.465 I-2.772 J0
X14.271 Y30.465 I2.772 J0
X12.799 Y31.938 Z-0.649 I-1.472 J0 F150
G1 X10.939 Z-0.699
G3 X10.939 Y28.993 Z-0.821 I0 J-1.472
X12.411 Y30.465 Z-0.882 I0 J1.472
X10.588 Y30.465 I-0.912 J0 F300
X14.271 Y30.465 I1.842 J0
X8.728 Y30.465 I-2.772 J0
X14.271 Y30.465 I2.772 J0
X12.799 Y31.938 Z-0.944 I-1.472 J0 F150
G1 X10.939 Z-0.993
G3 X10.939 Y28.993 Z-1.115 I0 J-1.472
X12.411 Y30.465 Z-1.176 I0 J1.472
X10.588 Y30.465 I-0.912 J0 F300
X14.271 Y30.465 I1.842 J0
X8.728 Y30.465 I-2.772 J0
X14.271 Y30.465 I2.772 J0
X12.799 Y31.938 Z-1.238 I-1.472 J0 F150
G1 X10.939 Z-1.287
G3 X10.939 Y28.993 Z-1.409 I0 J-1.472
X12.411 Y30.465 Z-1.471 I0 J1.472
X10.588 Y30.465 I-0.912 J0 F300
X14.271 Y30.465 I1.842 J0
X8.728 Y30.465 I-2.772 J0
X14.271 Y30.465 I2.772 J0
X12.799 Y31.938 Z-1.532 I-1.472 J0 F150
G1 X10.939 Z-1.581
G3 X10.939 Y28.993 Z-1.703 I0 J-1.472
X12.411 Y30.465 Z-1.765 I0 J1.472
X10.588 Y30.465 I-0.912 J0 F300
X14.271 Y30.465 I1.842 J0
X8.728 Y30.465 I-2.772 J0
X14.271 Y30.465 I2.772 J0
X12.799 Y31.938 Z-1.826 I-1.472 J0 F150
G1 X10.939 Z-1.875
G3 X10.939 Y28.993 Z-1.998 I0 J-1.472
X12.411 Y30.465 Z-2.059 I0 J1.472
X10.588 Y30.465 I-0.912 J0 F300
X14.271 Y30.465 I1.842 J0
X8.728 Y30.465 I-2.772 J0
X14.271 Y30.465 I2.772 J0
X12.799 Y31.938 Z-2.12 I-1.472 J0 F150
G1 X10.939 Z-2.169
G3 X10.939 Y28.993 Z-2.292 I0 J-1.472
X12.411 Y30.465 Z-2.353 I0 J1.472
X10.588 Y30.465 I-0.912 J0 F300
X14.271 Y30.465 I1.842 J0
X8.728 Y30.465 I-2.772 J0
X14.271 Y30.465 I2.772 J0
X12.799 Y31.938 Z-2.414 I-1.472 J0 F150
G1 X10.939 Z-2.463
G3 X10.939 Y28.993 Z-2.586 I0 J-1.472
X12.411 Y30.465 Z-2.647 I0 J1.472
X10.588 Y30.465 I-0.912 J0 F300
X14.271 Y30.465 I1.842 J0
X8.728 Y30.465 I-2.772 J0
X14.271 Y30.465 I2.772 J0
X12.799 Y31.938 Z-2.708 I-1.472 J0 F150
G1 X10.939 Z-2.758
G3 X10.939 Y28.993 Z-2.88 I0 J-1.472
X12.411 Y30.465 Z-2.941 I0 J1.472
X10.588 Y30.465 I-0.912 J0 F300
X14.271 Y30.465 I1.842 J0
X8.728 Y30.465 I-2.772 J0
X14.271 Y30.465 I2.772 J0
X12.799 Y31.938 Z-3.002 I-1.472 J0 F150
G1 X10.939 Z-3.052
G3 X10.939 Y28.993 Z-3.174 I0 J-1.472
X12.411 Y30.465 Z-3.235 I0 J1.472
X10.588 Y30.465 I-0.912 J0 F300
X14.271 Y30.465 I1.842 J0
X8.728 Y30.465 I-2.772 J0
X14.271 Y30.465 I2.772 J0
X12.799 Y31.938 Z-3.297 I-1.472 J0 F150
G1 X10.939 Z-3.346
G3 X10.939 Y28.993 Z-3.468 I0 J-1.472
X12.411 Y30.465 Z-3.529 I0 J1.472
X10.588 Y30.465 I-0.912 J0 F300
X14.271 Y30.465 I1.842 J0
X8.728 Y30.465 I-2.772 J0
X14.271 Y30.465 I2.772 J0
X12.799 Y31.938 Z-3.591 I-1.472 J0 F150
G1 X10.939 Z-3.64
G3 X10.939 Y28.993 Z-3.762 I0 J-1.472
X12.411 Y30.465 Z-3.824 I0 J1.472
X10.588 Y30.465 I-0.912 J0 F300
X14.271 Y30.465 I1.842 J0
X8.728 Y30.465 I-2.772 J0
X14.271 Y30.465 I2.772 J0
X12.799 Y31.938 Z-3.885 I-1.472 J0 F150
G1 X10.939 Z-3.934
G3 X10.939 Y28.993 Z-4.056 I0 J-1.472
X12.411 Y30.465 Z-4.118 I0 J1.472
X10.588 Y30.465 I-0.912 J0 F300
X14.271 Y30.465 I1.842 J0
X8.728 Y30.465 I-2.772 J0
X14.271 Y30.465 I2.772 J0
X12.799 Y31.938 Z-4.179 I-1.472 J0 F150
G1 X10.939 Z-4.228
G3 X10.939 Y28.993 Z-4.351 I0 J-1.472
X12.411 Y30.465 Z-4.412 I0 J1.472
X10.588 Y30.465 I-0.912 J0 F300
X14.271 Y30.465 I1.842 J0
X8.728 Y30.465 I-2.772 J0
X14.271 Y30.465 I2.772 J0
X12.799 Y31.938 Z-4.473 I-1.472 J0 F150
G1 X10.939 Z-4.522
G3 X10.939 Y28.993 Z-4.645 I0 J-1.472
X12.411 Y30.465 Z-4.706 I0 J1.472
X10.588 Y30.465 I-0.912 J0 F300
X14.271 Y30.465 I1.842 J0
X8.728 Y30.465 I-2.772 J0
X14.271 Y30.465 I2.772 J0
X12.799 Y31.938 Z-4.767 I-1.472 J0 F150
G1 X10.939 Z-4.816
G3 X10.939 Y28.993 Z-4.939 I0 J-1.472
X12.411 Y30.465 Z-5 I0 J1.472
X10.588 Y30.465 I-0.912 J0 F300
X14.271 Y30.465 I1.842 J0
X8.728 Y30.465 I-2.772 J0
X14.271 Y30.465 I2.772 J0
G1 X14.266 Y30.524 Z-4.988
X14.249 Y30.581 Z-4.976
X14.227 Y30.626 Z-4.943
X14.197 Y30.667 Z-4.909
X14.148 Y30.713 Z-4.809
X14.129 Y30.726 Z-4.69
Z10
X44.203 Y30.552
Z5
Z2.81 F150
X44.208 Y30.574 Z2.694
X44.219 Y30.638 Z2.594
X44.23 Y30.734 Z2.527
X44.235 Y30.849 Z2.5
G3 X41.29 Y30.86 Z2.338 I-1.472 J0.006
X44.235 Y30.849 Z2.177 I1.472 J-0.006
X41.29 Y30.86 Z2.015 I-1.472 J0.006
X44.235 Y30.849 Z1.854 I1.472 J-0.006
X41.29 Y30.86 Z1.692 I-1.472 J0.006
X44.235 Y30.849 Z1.531 I1.472 J-0.006
X41.29 Y30.86 Z1.369 I-1.472 J0.006
X44.235 Y30.849 Z1.208 I1.472 J-0.006
X41.29 Y30.86 Z1.046 I-1.472 J0.006
X44.235 Y30.849 Z0.885 I1.472 J-0.006
X41.29 Y30.86 Z0.723 I-1.472 J0.006
X44.235 Y30.849 Z0.561 I1.472 J-0.006
X41.29 Y30.86 Z0.4 I-1.472 J0.006
X44.235 Y30.849 Z0.238 I1.472 J-0.006
X41.29 Y30.86 Z0.077 I-1.472 J0.006
X44.235 Y30.849 Z-0.085 I1.472 J-0.006
X41.29 Y30.86 Z-0.246 I-1.472 J0.006
X41.879 Y29.677 Z-0.294 I1.472 J-0.006
X43.062 Y31.254 I0.591 J0.788 F300
X41.879 Y29.677 I-0.591 J-0.788
G2 X42.394 Y28.563 I-0.777 J-1.036
G3 X43.37 Y27.818 I0.738 J-0.045
X45.266 Y30.465 I-0.9 J2.647
X39.675 Y30.465 I-2.796 J0
X43.37 Y27.818 I2.796 J0
X44.364 Y29.332 Z-0.355 I-0.474 J1.394 F150
G1 X44.23 Y30.974 Z-0.406
G3 X41.295 Y30.735 Z-0.55 I-1.468 J-0.119
X41.879 Y29.677 Z-0.588 I1.468 J0.119
X43.062 Y31.254 I0.591 J0.788 F300
X41.879 Y29.677 I-0.591 J-0.788
G2 X42.394 Y28.563 I-0.777 J-1.036
G3 X43.37 Y27.818 I0.738 J-0.045
X45.266 Y30.465 I-0.9 J2.647
X39.675 Y30.465 I-2.796 J0
X43.37 Y27.818 I2.796 J0
X44.364 Y29.332 Z-0.649 I-0.474 J1.394 F150
G1 X44.23 Y30.974 Z-0.7
G3 X41.295 Y30.735 Z-0.844 I-1.468 J-0.119
X41.879 Y29.677 Z-0.882 I1.468 J0.119
X43.062 Y31.254 I0.591 J0.788 F300
X41.879 Y29.677 I-0.591 J-0.788
G2 X42.394 Y28.563 I-0.777 J-1.036
G3 X43.37 Y27.818 I0.738 J-0.045
X45.266 Y30.465 I-0.9 J2.647
X39.675 Y30.465 I-2.796 J0
X43.37 Y27.818 I2.796 J0
X44.364 Y29.332 Z-0.943 I-0.474 J1.394 F150
G1 X44.23 Y30.974 Z-0.994
G3 X41.295 Y30.735 Z-1.138 I-1.468 J-0.119
X41.879 Y29.677 Z-1.176 I1.468 J0.119
X43.062 Y31.254 I0.591 J0.788 F300
X41.879 Y29.677 I-0.591 J-0.788
G2 X42.394 Y28.563 I-0.777 J-1.036
G3 X43.37 Y27.818 I0.738 J-0.045
X45.266 Y30.465 I-0.9 J2.647
X39.675 Y30.465 I-2.796 J0
X43.37 Y27.818 I2.796 J0
X44.364 Y29.332 Z-1.237 I-0.474 J1.394 F150
G1 X44.23 Y30.974 Z-1.288
G3 X41.295 Y30.735 Z-1.432 I-1.468 J-0.119
X41.879 Y29.677 Z-1.471 I1.468 J0.119
X43.062 Y31.254 I0.591 J0.788 F300
X41.879 Y29.677 I-0.591 J-0.788
G2 X42.394 Y28.563 I-0.777 J-1.036
G3 X43.37 Y27.818 I0.738 J-0.045
X45.266 Y30.465 I-0.9 J2.647
X39.675 Y30.465 I-2.796 J0
X43.37 Y27.818 I2.796 J0
X44.364 Y29.332 Z-1.531 I-0.474 J1.394 F150
G1 X44.23 Y30.974 Z-1.582
G3 X41.295 Y30.735 Z-1.726 I-1.468 J-0.119
X41.879 Y29.677 Z-1.765 I1.468 J0.119
X43.062 Y31.254 I0.591 J0.788 F300
X41.879 Y29.677 I-0.591 J-0.788
G2 X42.394 Y28.563 I-0.777 J-1.036
G3 X43.37 Y27.818 I0.738 J-0.045
X45.266 Y30.465 I-0.9 J2.647
X39.675 Y30.465 I-2.796 J0
X43.37 Y27.818 I2.796 J0
X44.364 Y29.332 Z-1.825 I-0.474 J1.394 F150
G1 X44.23 Y30.974 Z-1.876
G3 X41.295 Y30.735 Z-2.02 I-1.468 J-0.119
X41.879 Y29.677 Z-2.059 I1.468 J0.119
X43.062 Y31.254 I0.591 J0.788 F300
X41.879 Y29.677 I-0.591 J-0.788
G2 X42.394 Y28.563 I-0.777 J-1.036
G3 X43.37 Y27.818 I0.738 J-0.045
X45.266 Y30.465 I-0.9 J2.647
X39.675 Y30.465 I-2.796 J0
X43.37 Y27.818 I2.796 J0
X44.364 Y29.332 Z-2.119 I-0.474 J1.394 F150
G1 X44.23 Y30.974 Z-2.171
G3 X41.295 Y30.735 Z-2.314 I-1.468 J-0.119
X41.879 Y29.677 Z-2.353 I1.468 J0.119
X43.062 Y31.254 I0.591 J0.788 F300
X41.879 Y29.677 I-0.591 J-0.788
G2 X42.394 Y28.563 I-0.777 J-1.036
G3 X43.37 Y27.818 I0.738 J-0.045
X45.266 Y30.465 I-0.9 J2.647
X39.675 Y30.465 I-2.796 J0
X43.37 Y27.818 I2.796 J0
X44.364 Y29.332 Z-2.414 I-0.474 J1.394 F150
G1 X44.23 Y30.974 Z-2.465
G3 X41.295 Y30.735 Z-2.608 I-1.468 J-0.119
X41.879 Y29.677 Z-2.647 I1.468 J0.119
X43.062 Y31.254 I0.591 J0.788 F300
X41.879 Y29.677 I-0.591 J-0.788
G2 X42.394 Y28.563 I-0.777 J-1.036
G3 X43.37 Y27.818 I0.738 J-0.045
X45.266 Y30.465 I-0.9 J2.647
X39.675 Y30.465 I-2.796 J0
X43.37 Y27.818 I2.796 J0
X44.364 Y29.332 Z-2.708 I-0.474 J1.394 F150
G1 X44.23 Y30.974 Z-2.759
G3 X41.295 Y30.735 Z-2.902 I-1.468 J-0.119
X41.879 Y29.677 Z-2.941 I1.468 J0.119
X43.062 Y31.254 I0.591 J0.788 F300
X41.879 Y29.677 I-0.591 J-0.788
G2 X42.394 Y28.563 I-0.777 J-1.036
G3 X43.37 Y27.818 I0.738 J-0.045
X45.266 Y30.465 I-0.9 J2.647
X39.675 Y30.465 I-2.796 J0
X43.37 Y27.818 I2.796 J0
X44.364 Y29.332 Z-3.002 I-0.474 J1.394 F150
G1 X44.23 Y30.974 Z-3.053
G3 X41.295 Y30.735 Z-3.197 I-1.468 J-0.119
X41.879 Y29.677 Z-3.235 I1.468 J0.119
X43.062 Y31.254 I0.591 J0.788 F300
X41.879 Y29.677 I-0.591 J-0.788
G2 X42.394 Y28.563 I-0.777 J-1.036
G3 X43.37 Y27.818 I0.738 J-0.045
X45.266 Y30.465 I-0.9 J2.647
X39.675 Y30.465 I-2.796 J0
X43.37 Y27.818 I2.796 J0
X44.364 Y29.332 Z-3.296 I-0.474 J1.394 F150
G1 X44.23 Y30.974 Z-3.347
G3 X41.295 Y30.735 Z-3.491 I-1.468 J-0.119
X41.879 Y29.677 Z-3.529 I1.468 J0.119
X43.062 Y31.254 I0.591 J0.788 F300
X41.879 Y29.677 I-0.591 J-0.788
G2 X42.394 Y28.563 I-0.777 J-1.036
G3 X43.37 Y27.818 I0.738 J-0.045
X45.266 Y30.465 I-0.9 J2.647
X39.675 Y30.465 I-2.796 J0
X43.37 Y27.818 I2.796 J0
X44.364 Y29.332 Z-3.59 I-0.474 J1.394 F150
G1 X44.23 Y30.974 Z-3.641
G3 X41.295 Y30.735 Z-3.785 I-1.468 J-0.119
X41.879 Y29.677 Z-3.824 I1.468 J0.119
X43.062 Y31.254 I0.591 J0.788 F300
X41.879 Y29.677 I-0.591 J-0.788
G2 X42.394 Y28.563 I-0.777 J-1.036
G3 X43.37 Y27.818 I0.738 J-0.045
X45.266 Y30.465 I-0.9 J2.647
X39.675 Y30.465 I-2.796 J0
X43.37 Y27.818 I2.796 J0
X44.364 Y29.332 Z-3.884 I-0.474 J1.394 F150
G1 X44.23 Y30.974 Z-3.935
G3 X41.295 Y30.735 Z-4.079 I-1.468 J-0.119
X41.879 Y29.677 Z-4.118 I1.468 J0.119
X43.062 Y31.254 I0.591 J0.788 F300
X41.879 Y29.677 I-0.591 J-0.788
G2 X42.394 Y28.563 I-0.777 J-1.036
G3 X43.37 Y27.818 I0.738 J-0.045
X45.266 Y30.465 I-0.9 J2.647
X39.675 Y30.465 I-2.796 J0
X43.37 Y27.818 I2.796 J0
X44.364 Y29.332 Z-4.178 I-0.474 J1.394 F150
G1 X44.23 Y30.974 Z-4.229
G3 X41.295 Y30.735 Z-4.373 I-1.468 J-0.119
X41.879 Y29.677 Z-4.412 I1.468 J0.119
X43.062 Y31.254 I0.591 J0.788 F300
X41.879 Y29.677 I-0.591 J-0.788
G2 X42.394 Y28.563 I-0.777 J-1.036
G3 X43.37 Y27.818 I0.738 J-0.045
X45.266 Y30.465 I-0.9 J2.647
X39.675 Y30.465 I-2.796 J0
X43.37 Y27.818 I2.796 J0
X44.364 Y29.332 Z-4.472 I-0.474 J1.394 F150
G1 X44.23 Y30.974 Z-4.524
G3 X41.295 Y30.735 Z-4.667 I-1.468 J-0.119
X41.879 Y29.677 Z-4.706 I1.468 J0.119
X43.062 Y31.254 I0.591 J0.788 F300
X41.879 Y29.677 I-0.591 J-0.788
G2 X42.394 Y28.563 I-0.777 J-1.036
G3 X43.37 Y27.818 I0.738 J-0.045
X45.266 Y30.465 I-0.9 J2.647
X39.675 Y30.465 I-2.796 J0
X43.37 Y27.818 I2.796 J0
X44.364 Y29.332 Z-4.766 I-0.474 J1.394 F150
G1 X44.23 Y30.974 Z-4.818
G3 X41.295 Y30.735 Z-4.961 I-1.468 J-0.119
X41.879 Y29.677 Z-5 I1.468 J0.119
X43.062 Y31.254 I0.591 J0.788 F300
X41.879 Y29.677 I-0.591 J-0.788
G2 X42.394 Y28.563 I-0.777 J-1.036
G3 X43.37 Y27.818 I0.738 J-0.045
X45.266 Y30.465 I-0.9 J2.647
X39.675 Y30.465 I-2.796 J0
X43.37 Y27.818 I2.796 J0
G1 X43.424 Y27.843 Z-4.988
X43.472 Y27.877 Z-4.976
X43.508 Y27.913 Z-4.943
X43.537 Y27.954 Z-4.909
X43.565 Y28.015 Z-4.809
X43.571 Y28.037 Z-4.69
Z10
X33.66 Y40.174
Z5
Z1.31 F150
Z0.002
X33.667 Y40.17 Z-0.067
X33.687 Y40.159 Z-0.132
X33.719 Y40.141 Z-0.191
X33.762 Y40.117 Z-0.24
X33.813 Y40.088 Z-0.277
X33.87 Y40.056 Z-0.3
X33.93 Y40.022 Z-0.308
G3 X35.391 Y40.37 I0.542 J0.964
X35.393 Y51.629 I-8.392 J5.631 F300
G2 X35.121 Y52.062 I6.802 J4.562
G3 X34.85 Y52.496 I-7.072 J-4.127
X33.48 Y53.862 I-4.134 J-2.773
X33.047 Y54.133 I-4.547 J-6.808
G2 X32.613 Y54.404 I4.114 J7.081
G3 X21.37 Y54.392 I-5.613 J-8.404
G2 X20.944 Y54.125 I-4.485 J6.685
G3 X20.518 Y53.859 I4.058 J-6.95
X19.142 Y52.483 I2.805 J-4.181
X18.875 Y52.056 I6.684 J-4.484
G2 X18.608 Y51.63 I-6.951 J4.058
G3 X18.609 Y40.368 I8.392 J-5.63
G2 X18.88 Y39.936 I-6.776 J-4.548
G3 X19.151 Y39.504 I7.046 J4.116
X20.522 Y38.136 I4.142 J2.78
X20.954 Y37.866 I4.532 J6.785
G2 X21.387 Y37.597 I-4.099 J-7.055
G3 X32.595 Y37.585 I5.613 J8.403
G2 X33.036 Y37.859 I4.595 J-6.91
G3 X33.476 Y38.132 I-4.154 J7.183
X34.841 Y39.491 I-2.73 J4.106
X35.116 Y39.93 I-6.892 J4.625
G2 X35.391 Y40.37 I7.163 J-4.182
X36.76 Y40.97 I1.156 J-0.775
G3 X38.053 Y41.717 I0.182 J1.178
X36.846 Y52.603 I-11.054 J4.283
G2 X36.481 Y53.184 I9.121 J6.117
G3 X36.117 Y53.766 I-9.483 J-5.535
X34.748 Y55.132 I-4.134 J-2.773
X34.166 Y55.495 I-6.098 J-9.13
G2 X33.584 Y55.858 I5.518 J9.496
G3 X20.395 Y55.845 I-6.585 J-9.859
G2 X19.822 Y55.486 I-6.032 J8.991
G3 X19.249 Y55.127 I5.458 J-9.348
X17.873 Y53.751 I2.805 J-4.181
X17.514 Y53.178 I8.989 J-6.031
G2 X17.155 Y52.605 I-9.348 J5.458
G3 X17.157 Y39.393 I9.844 J-6.604
G2 X17.52 Y38.814 I-9.092 J-6.102
G3 X17.884 Y38.234 I9.455 J5.523
X19.255 Y36.866 I4.142 J2.78
X19.835 Y36.504 I6.081 J9.104
G2 X20.415 Y36.142 I-5.501 J-9.466
G3 X33.564 Y36.129 I6.584 J9.857
G2 X34.153 Y36.495 I6.148 J-9.246
G3 X34.742 Y36.861 I-5.559 J9.612
X36.107 Y38.219 I-2.73 J4.106
X36.475 Y38.807 I-9.222 J6.188
G2 X36.844 Y39.395 I9.584 J-5.596
G3 X38.053 Y41.717 I-9.844 J6.605
G2 X39.274 Y42.61 I1.308 J-0.507
G3 X40.402 Y43.618 I-0.077 J1.221
X38.305 Y53.582 I-13.402 J2.382
G2 X37.845 Y54.309 I13.662 J9.162
G3 X37.385 Y55.036 I-14.118 J-8.433
X36.015 Y56.402 I-4.134 J-2.773
X35.288 Y56.861 I-9.132 J-13.673
G2 X34.56 Y57.32 I8.407 J14.136
G3 X19.416 Y57.304 I-7.56 J-11.32
G2 X18.698 Y56.85 I-8.936 J13.32
G3 X17.981 Y56.395 I8.217 J-13.771
X16.605 Y55.019 I2.805 J-4.181
X16.15 Y54.302 I13.317 J-8.935
G2 X15.696 Y53.584 I-13.772 J8.217
G3 X15.698 Y38.414 I11.304 J-7.584
G2 X16.157 Y37.689 I-13.588 J-9.12
G3 X16.616 Y36.964 I14.046 J8.395
X17.987 Y35.596 I4.142 J2.78
X18.713 Y35.138 I9.088 J13.605
G2 X19.439 Y34.681 I-8.362 J-14.063
G3 X34.537 Y34.665 I7.561 J11.32
G2 X35.273 Y35.127 I9.288 J-13.967
G3 X36.009 Y35.589 I-8.552 J14.429
X37.373 Y36.948 I-2.73 J4.106
X37.838 Y37.682 I-13.932 J9.348
G2 X38.304 Y38.415 I14.385 J-8.606
G3 X40.402 Y43.618 I-11.304 J7.585
G2 X41.437 Y44.734 I1.386 J-0.246
G3 X42.372 Y45.936 I-0.311 J1.207
X39.767 Y54.562 I-15.372 J0.064
G2 X39.21 Y55.434 I19.759 J13.252
G3 X38.652 Y56.305 I-20.311 J-12.376
X37.283 Y57.672 I-4.134 J-2.773
X36.41 Y58.228 I-13.208 J-19.776
G2 X35.538 Y58.784 I12.34 J20.339
G3 X18.436 Y58.766 I-8.538 J-12.783
G2 X17.574 Y58.215 I-12.954 J19.308
G3 X16.712 Y57.664 I12.089 J-19.855
X15.336 Y56.288 I2.805 J-4.181
X14.785 Y55.426 I19.304 J-12.951
G2 X14.234 Y54.564 I-19.856 J12.09
G3 X14.236 Y37.433 I12.766 J-8.564
G2 X14.793 Y36.563 I-19.66 J-13.196
G3 X15.349 Y35.694 I20.216 J12.326
X16.72 Y34.326 I4.142 J2.78
X17.591 Y33.771 I13.15 J19.687
G2 X18.461 Y33.217 I-12.279 J-20.241
G3 X35.512 Y33.199 I8.539 J12.783
G2 X36.394 Y33.758 I13.41 J-20.166
G3 X37.275 Y34.317 I-12.528 J20.725
X38.639 Y35.676 I-2.73 J4.106
X39.202 Y36.556 I-20.113 J13.495
G2 X39.765 Y37.435 I20.656 J-12.603
G3 X42.372 Y45.936 I-12.765 J8.565
G2 X43.207 Y47.217 I1.41 J-0.006
G3 X43.94 Y48.559 I-0.515 J1.153
X41.229 Y55.543 I-16.94 J-2.559
G2 X40.574 Y56.559 I26.98 J18.094
G3 X39.92 Y57.575 I-27.625 J-17.072
X38.55 Y58.942 I-4.134 J-2.773
X37.533 Y59.595 I-18.035 J-27.002
G2 X36.515 Y60.247 I17.024 J27.665
G3 X17.455 Y60.227 I-9.515 J-14.247
G2 X16.449 Y59.58 I-17.716 J26.407
G3 X15.444 Y58.932 I16.706 J-27.047
X14.068 Y57.556 I2.805 J-4.181
X13.42 Y56.551 I26.4 J-17.711
G2 X12.773 Y55.545 I-27.048 J16.706
G3 X12.775 Y36.452 I14.227 J-9.545
G2 X13.428 Y35.438 I-26.853 J-18.024
G3 X14.082 Y34.424 I27.505 J17.009
X15.453 Y33.056 I4.142 J2.78
X16.468 Y32.405 I17.961 J26.889
G2 X17.484 Y31.753 I-16.945 J-27.54
G3 X36.487 Y31.734 I9.516 J14.247
G2 X37.514 Y32.39 I18.287 J-27.501
G3 X38.541 Y33.046 I-17.259 J28.157
X39.906 Y34.405 I-2.73 J4.106
X40.566 Y35.429 I-27.428 J18.403
G2 X41.227 Y36.454 I28.056 J-17.357
G3 X43.94 Y48.559 I-14.227 J9.546
G1 X40.095 Y59.97
X40.078 Y60.006
X40.054 Y60.039
X40.024 Y60.066
G3 X39.818 Y60.212 I-2.971 J-3.994
X38.655 Y60.961 I-23.611 J-35.352
G2 X37.493 Y61.711 I22.459 J36.116
G3 X16.474 Y61.689 I-10.493 J-15.711
G2 X15.325 Y60.945 I-23.223 J34.614
G3 X14.175 Y60.201 I22.066 J-35.348
X13.871 Y59.979 I2.805 J-4.181
G1 X13.021 Y59.13
G3 X12.799 Y58.825 I3.959 J-3.11
X12.055 Y57.675 I34.604 J-23.216
G2 X11.311 Y56.526 I-35.349 J22.067
G3 X11.314 Y35.471 I15.689 J-10.526
G2 X12.064 Y34.312 I-35.164 J-23.603
G3 X12.815 Y33.154 I35.913 J22.443
X13.036 Y32.849 I4.142 J2.78
G1 X13.883 Y32.005
G3 X14.186 Y31.786 I3.073 J3.929
X15.346 Y31.038 I23.52 J35.212
G2 X16.506 Y30.29 I-22.36 J-35.96
G3 X37.461 Y30.268 I10.494 J15.71
G2 X38.634 Y31.021 I23.92 J-35.972
G3 X39.808 Y31.774 I-22.746 J36.725
G1 X41.027 Y32.929
G3 X41.172 Y33.133 I-3.95 J2.952
X41.93 Y34.303 I-35.873 J24.069
G2 X42.688 Y35.473 I36.631 J-22.899
G3 X42.691 Y56.523 I-15.689 J10.527
G2 X41.939 Y57.684 I35.323 J23.69
G3 X41.187 Y58.845 I-36.062 J-22.52
G1 X41.049 Y59.041
X41.022 Y59.09
X39.836 Y62.277
X39.818 Y62.314
X39.792 Y62.347
X39.76 Y62.373
X38.498 Y63.216
G3 X15.466 Y63.192 I-11.498 J-17.216
G1 X14.187 Y62.334
X10.659 Y58.802
X9.808 Y57.534
G3 X9.811 Y34.462 I17.192 J-11.534
G1 X10.669 Y33.183
X14.215 Y29.644
X15.501 Y28.785
G3 X38.463 Y28.761 I11.499 J17.215
G1 X39.732 Y29.604
X43.335 Y33.189
X44.191 Y34.465
G3 X44.194 Y57.531 I-17.191 J11.535
G1 X43.345 Y58.796
G3 X40.792 Y58.607 Z-0.344 I-1.223 J-0.82 F150
G1 X32.838 Y41.821 Z-0.563
G3 X35.391 Y40.37 Z-0.615 I1.331 J-0.631
X35.393 Y51.629 I-8.392 J5.631 F300
G2 X35.121 Y52.062 I6.802 J4.562
G3 X34.85 Y52.496 I-7.072 J-4.127
X33.48 Y53.862 I-4.134 J-2.773
X33.047 Y54.133 I-4.547 J-6.808
G2 X32.613 Y54.404 I4.114 J7.081
G3 X21.37 Y54.392 I-5.613 J-8.404
G2 X20.944 Y54.125 I-4.485 J6.685
G3 X20.518 Y53.859 I4.058 J-6.95
X19.142 Y52.483 I2.805 J-4.181
X18.875 Y52.056 I6.684 J-4.484
G2 X18.608 Y51.63 I-6.951 J4.058
G3 X18.609 Y40.368 I8.392 J-5.63
G2 X18.88 Y39.936 I-6.776 J-4.548
G3 X19.151 Y39.504 I7.046 J4.116
X20.522 Y38.136 I4.142 J2.78
X20.954 Y37.866 I4.532 J6.785
G2 X21.387 Y37.597 I-4.099 J-7.055
G3 X32.595 Y37.585 I5.613 J8.403
G2 X33.036 Y37.859 I4.595 J-6.91
G3 X33.476 Y38.132 I-4.154 J7.183
X34.841 Y39.491 I-2.73 J4.106
X35.116 Y39.93 I-6.892 J4.625
G2 X35.391 Y40.37 I7.163 J-4.182
X36.76 Y40.97 I1.156 J-0.775
G3 X38.053 Y41.717 I0.182 J1.178
X36.846 Y52.603 I-11.054 J4.283
G2 X36.481 Y53.184 I9.121 J6.117
G3 X36.117 Y53.766 I-9.483 J-5.535
X34.748 Y55.132 I-4.134 J-2.773
X34.166 Y55.495 I-6.098 J-9.13
G2 X33.584 Y55.858 I5.518 J9.496
G3 X20.395 Y55.845 I-6.585 J-9.859
G2 X19.822 Y55.486 I-6.032 J8.991
G3 X19.249 Y55.127 I5.458 J-9.348
X17.873 Y53.751 I2.805 J-4.181
X17.514 Y53.178 I8.989 J-6.031
G2 X17.155 Y52.605 I-9.348 J5.458
G3 X17.157 Y39.393 I9.844 J-6.604
G2 X17.52 Y38.814 I-9.092 J-6.102
G3 X17.884 Y38.234 I9.455 J5.523
X19.255 Y36.866 I4.142 J2.78
X19.835 Y36.504 I6.081 J9.104
G2 X20.415 Y36.142 I-5.501 J-9.466
G3 X33.564 Y36.129 I6.584 J9.857
G2 X34.153 Y36.495 I6.148 J-9.246
G3 X34.742 Y36.861 I-5.559 J9.612
X36.107 Y38.219 I-2.73 J4.106
X36.475 Y38.807 I-9.222 J6.188
G2 X36.844 Y39.395 I9.584 J-5.596
G3 X38.053 Y41.717 I-9.844 J6.605
G2 X39.274 Y42.61 I1.308 J-0.507
G3 X40.402 Y43.618 I-0.077 J1.221
X38.305 Y53.582 I-13.402 J2.382
G2 X37.845 Y54.309 I13.662 J9.162
G3 X37.385 Y55.036 I-14.118 J-8.433
X36.015 Y56.402 I-4.134 J-2.773
X35.288 Y56.861 I-9.132 J-13.673
G2 X34.56 Y57.32 I8.407 J14.136
G3 X19.416 Y57.304 I-7.56 J-11.32
G2 X18.698 Y56.85 I-8.936 J13.32
G3 X17.981 Y56.395 I8.217 J-13.771
X16.605 Y55.019 I2.805 J-4.181
X16.15 Y54.302 I13.317 J-8.935
G2 X15.696 Y53.584 I-13.772 J8.217
G3 X15.698 Y38.414 I11.304 J-7.584
G2 X16.157 Y37.689 I-13.588 J-9.12
G3 X16.616 Y36.964 I14.046 J8.395
X17.987 Y35.596 I4.142 J2.78
X18.713 Y35.138 I9.088 J13.605
G2 X19.439 Y34.681 I-8.362 J-14.063
G3 X34.537 Y34.665 I7.561 J11.32
G2 X35.273 Y35.127 I9.288 J-13.967
G3 X36.009 Y35.589 I-8.552 J14.429
X37.373 Y36.948 I-2.73 J4.106
X37.838 Y37.682 I-13.932 J9.348
G2 X38.304 Y38.415 I14.385 J-8.606
G3 X40.402 Y43.618 I-11.304 J7.585
G2 X41.437 Y44.734 I1.386 J-0.246
G3 X42.372 Y45.936 I-0.311 J1.207
X39.767 Y54.562 I-15.372 J0.064
G2 X39.21 Y55.434 I19.759 J13.252
G3 X38.652 Y56.305 I-20.311 J-12.376
X37.283 Y57.672 I-4.134 J-2.773
X36.41 Y58.228 I-13.208 J-19.776
G2 X35.538 Y58.784 I12.34 J20.339
G3 X18.436 Y58.766 I-8.538 J-12.783
G2 X17.574 Y58.215 I-12.954 J19.308
G3 X16.712 Y57.664 I12.089 J-19.855
X15.336 Y56.288 I2.805 J-4.181
X14.785 Y55.426 I19.304 J-12.951
G2 X14.234 Y54.564 I-19.856 J12.09
G3 X14.236 Y37.433 I12.766 J-8.564
G2 X14.793 Y36.563 I-19.66 J-13.196
G3 X15.349 Y35.694 I20.216 J12.326
X16.72 Y34.326 I4.142 J2.78
X17.591 Y33.771 I13.15 J19.687
G2 X18.461 Y33.217 I-12.279 J-20.241
G3 X35.512 Y33.199 I8.539 J12.783
G2 X36.394 Y33.758 I13.41 J-20.166
G3 X37.275 Y34.317 I-12.528 J20.725
X38.639 Y35.676 I-2.73 J4.106
X39.202 Y36.556 I-20.113 J13.495
G2 X39.765 Y37.435 I20.656 J-12.603
G3 X42.372 Y45.936 I-12.765 J8.565
G2 X43.207 Y47.217 I1.41 J-0.006
G3 X43.94 Y48.559 I-0.515 J1.153
X41.229 Y55.543 I-16.94 J-2.559
G2 X40.574 Y56.559 I26.98 J18.094
G3 X39.92 Y57.575 I-27.625 J-17.072
X38.55 Y58.942 I-4.134 J-2.773
X37.533 Y59.595 I-18.035 J-27.002
G2 X36.515 Y60.247 I17.024 J27.665
G3 X17.455 Y60.227 I-9.515 J-14.247
G2 X16.449 Y59.58 I-17.716 J26.407
G3 X15.444 Y58.932 I16.706 J-27.047
X14.068 Y57.556 I2.805 J-4.181
X13.42 Y56.551 I26.4 J-17.711
G2 X12.773 Y55.545 I-27.048 J16.706
G3 X12.775 Y36.452 I14.227 J-9.545
G2 X13.428 Y35.438 I-26.853 J-18.024
G3 X14.082 Y34.424 I27.505 J17.009
X15.453 Y33.056 I4.142 J2.78
X16.468 Y32.405 I17.961 J26.889
G2 X17.484 Y31.753 I-16.945 J-27.54
G3 X36.487 Y31.734 I9.516 J14.247
G2 X37.514 Y32.39 I18.287 J-27.501
G3 X38.541 Y33.046 I-17.259 J28.157
X39.906 Y34.405 I-2.73 J4.106
X40.566 Y35.429 I-27.428 J18.403
G2 X41.227 Y36.454 I28.056 J-17.357
G3 X43.94 Y48.559 I-14.227 J9.546
G1 X40.095 Y59.97
X40.078 Y60.006
X40.054 Y60.039
X40.024 Y60.066
G3 X39.818 Y60.212 I-2.971 J-3.994
X38.655 Y60.961 I-23.611 J-35.352
G2 X37.493 Y61.711 I22.459 J36.116
G3 X16.474 Y61.689 I-10.493 J-15.711
G2 X15.325 Y60.945 I-23.223 J34.614
G3 X14.175 Y60.201 I22.066 J-35.348
X13.871 Y59.979 I2.805 J-4.181
G1 X13.021 Y59.13
G3 X12.799 Y58.825 I3.959 J-3.11
X12.055 Y57.675 I34.604 J-23.216
G2 X11.311 Y56.526 I-35.349 J22.067
G3 X11.314 Y35.471 I15.689 J-10.526
G2 X12.064 Y34.312 I-35.164 J-23.603
G3 X12.815 Y33.154 I35.913 J22.443
X13.036 Y32.849 I4.142 J2.78
G1 X13.883 Y32.005
G3 X14.186 Y31.786 I3.073 J3.929
X15.346 Y31.038 I23.52 J35.212
G2 X16.506 Y30.29 I-22.36 J-35.96
G3 X37.461 Y30.268 I10.494 J15.71
G2 X38.634 Y31.021 I23.92 J-35.972
G3 X39.808 Y31.774 I-22.746 J36.725
G1 X41.027 Y32.929
G3 X41.172 Y33.133 I-3.95 J2.952
X41.93 Y34.303 I-35.873 J24.069
G2 X42.688 Y35.473 I36.631 J-22.899
G3 X42.691 Y56.523 I-15.689 J10.527
G2 X41.939 Y57.684 I35.323 J23.69
G3 X41.187 Y58.845 I-36.062 J-22.52
G1 X41.049 Y59.041
X41.022 Y59.09
X39.836 Y62.277
X39.818 Y62.314
X39.792 Y62.347
X39.76 Y62.373
X38.498 Y63.216
G3 X15.466 Y63.192 I-11.498 J-17.216
G1 X14.187 Y62.334
X10.659 Y58.802
X9.808 Y57.534
G3 X9.811 Y34.462 I17.192 J-11.534
G1 X10.669 Y33.183
X14.215 Y29.644
X15.501 Y28.785
G3 X38.463 Y28.761 I11.499 J17.215
G1 X39.732 Y29.604
X43.335 Y33.189
X44.191 Y34.465
G3 X44.194 Y57.531 I-17.191 J11.535
G1 X43.345 Y58.796
G3 X40.792 Y58.607 Z-0.652 I-1.223 J-0.82 F150
G1 X32.838 Y41.821 Z-0.871
G3 X35.391 Y40.37 Z-0.923 I1.331 J-0.631
X35.393 Y51.629 I-8.392 J5.631 F300
G2 X35.121 Y52.062 I6.802 J4.562
G3 X34.85 Y52.496 I-7.072 J-4.127
X33.48 Y53.862 I-4.134 J-2.773
X33.047 Y54.133 I-4.547 J-6.808
G2 X32.613 Y54.404 I4.114 J7.081
G3 X21.37 Y54.392 I-5.613 J-8.404
G2 X20.944 Y54.125 I-4.485 J6.685
G3 X20.518 Y53.859 I4.058 J-6.95
X19.142 Y52.483 I2.805 J-4.181
X18.875 Y52.056 I6.684 J-4.484
G2 X18.608 Y51.63 I-6.951 J4.058
G3 X18.609 Y40.368 I8.392 J-5.63
G2 X18.88 Y39.936 I-6.776 J-4.548
G3 X19.151 Y39.504 I7.046 J4.116
X20.522 Y38.136 I4.142 J2.78
X20.954 Y37.866 I4.532 J6.785
G2 X21.387 Y37.597 I-4.099 J-7.055
G3 X32.595 Y37.585 I5.613 J8.403
G2 X33.036 Y37.859 I4.595 J-6.91
G3 X33.476 Y38.132 I-4.154 J7.183
X34.841 Y39.491 I-2.73 J4.106
X35.116 Y39.93 I-6.892 J4.625
G2 X35.391 Y40.37 I7.163 J-4.182
X36.76 Y40.97 I1.156 J-0.775
G3 X38.053 Y41.717 I0.182 J1.178
X36.846 Y52.603 I-11.054 J4.283
G2 X36.481 Y53.184 I9.121 J6.117
G3 X36.117 Y53.766 I-9.483 J-5.535
X34.748 Y55.132 I-4.134 J-2.773
X34.166 Y55.495 I-6.098 J-9.13
G2 X33.584 Y55.858 I5.518 J9.496
G3 X20.395 Y55.845 I-6.585 J-9.859
G2 X19.822 Y55.486 I-6.032 J8.991
G3 X19.249 Y55.127 I5.458 J-9.348
X17.873 Y53.751 I2.805 J-4.181
X17.514 Y53.178 I8.989 J-6.031
G2 X17.155 Y52.605 I-9.348 J5.458
G3 X17.157 Y39.393 I9.844 J-6.604
G2 X17.52 Y38.814 I-9.092 J-6.102
G3 X17.884 Y38.234 I9.455 J5.523
X19.255 Y36.866 I4.142 J2.78
X19.835 Y36.504 I6.081 J9.104
G2 X20.415 Y36.142 I-5.501 J-9.466
G3 X33.564 Y36.129 I6.584 J9.857
G2 X34.153 Y36.495 I6.148 J-9.246
G3 X34.742 Y36.861 I-5.559 J9.612
X36.107 Y38.219 I-2.73 J4.106
X36.475 Y38.807 I-9.222 J6.188
G2 X36.844 Y39.395 I9.584 J-5.596
G3 X38.053 Y41.717 I-9.844 J6.605
G2 X39.274 Y42.61 I1.308 J-0.507
G3 X40.402 Y43.618 I-0.077 J1.221
X38.305 Y53.582 I-13.402 J2.382
G2 X37.845 Y54.309 I13.662 J9.162
G3 X37.385 Y55.036 I-14.118 J-8.433
X36.015 Y56.402 I-4.134 J-2.773
X35.288 Y56.861 I-9.132 J-13.673
G2 X34.56 Y57.32 I8.407 J14.136
G3 X19.416 Y57.304 I-7.56 J-11.32
G2 X18.698 Y56.85 I-8.936 J13.32
G3 X17.981 Y56.395 I8.217 J-13.771
X16.605 Y55.019 I2.805 J-4.181
X16.15 Y54.302 I13.317 J-8.935
G2 X15.696 Y53.584 I-13.772 J8.217
G3 X15.698 Y38.414 I11.304 J-7.584
G2 X16.157 Y37.689 I-13.588 J-9.12
G3 X16.616 Y36.964 I14.046 J8.395
X17.987 Y35.596 I4.142 J2.78
X18.713 Y35.138 I9.088 J13.605
G2 X19.439 Y34.681 I-8.362 J-14.063
G3 X34.537 Y34.665 I7.561 J11.32
G2 X35.273 Y35.127 I9.288 J-13.967
G3 X36.009 Y35.589 I-8.552 J14.429
X37.373 Y36.948 I-2.73 J4.106
X37.838 Y37.682 I-13.932 J9.348
G2 X38.304 Y38.415 I14.385 J-8.606
G3 X40.402 Y43.618 I-11.304 J7.585
G2 X41.437 Y44.734 I1.386 J-0.246
G3 X42.372 Y45.936 I-0.311 J1.207
X39.767 Y54.562 I-15.372 J0.064
G2 X39.21 Y55.434 I19.759 J13.252
G3 X38.652 Y56.305 I-20.311 J-12.376
X37.283 Y57.672 I-4.134 J-2.773
X36.41 Y58.228 I-13.208 J-19.776
G2 X35.538 Y58.784 I12.34 J20.339
G3 X18.436 Y58.766 I-8.538 J-12.783
G2 X17.574 Y58.215 I-12.954 J19.308
G3 X16.712 Y57.664 I12.089 J-19.855
X15.336 Y56.288 I2.805 J-4.181
X14.785 Y55.426 I19.304 J-12.951
G2 X14.234 Y54.564 I-19.856 J12.09
G3 X14.236 Y37.433 I12.766 J-8.564
G2 X14.793 Y36.563 I-19.66 J-13.196
G3 X15.349 Y35.694 I20.216 J12.326
X16.72 Y34.326 I4.142 J2.78
X17.591 Y33.771 I13.15 J19.687
G2 X18.461 Y33.217 I-12.279 J-20.241
G3 X35.512 Y33.199 I8.539 J12.783
G2 X36.394 Y33.758 I13.41 J-20.166
G3 X37.275 Y34.317 I-12.528 J20.725
X38.639 Y35.676 I-2.73 J4.106
X39.202 Y36.556 I-20.113 J13.495
G2 X39.765 Y37.435 I20.656 J-12.603
G3 X42.372 Y45.936 I-12.765 J8.565
G2 X43.207 Y47.217 I1.41 J-0.006
G3 X43.94 Y48.559 I-0.515 J1.153
X41.229 Y55.543 I-16.94 J-2.559
G2 X40.574 Y56.559 I26.98 J18.094
G3 X39.92 Y57.575 I-27.625 J-17.072
X38.55 Y58.942 I-4.134 J-2.773
X37.533 Y59.595 I-18.035 J-27.002
G2 X36.515 Y60.247 I17.024 J27.665
G3 X17.455 Y60.227 I-9.515 J-14.247
G2 X16.449 Y59.58 I-17.716 J26.407
G3 X15.444 Y58.932 I16.706 J-27.047
X14.068 Y57.556 I2.805 J-4.181
X13.42 Y56.551 I26.4 J-17.711
G2 X12.773 Y55.545 I-27.048 J16.706
G3 X12.775 Y36.452 I14.227 J-9.545
G2 X13.428 Y35.438 I-26.853 J-18.024
G3 X14.082 Y34.424 I27.505 J17.009
X15.453 Y33.056 I4.142 J2.78
X16.468 Y32.405 I17.961 J26.889
G2 X17.484 Y31.753 I-16.945 J-27.54
G3 X36.487 Y31.734 I9.516 J14.247
G2 X37.514 Y32.39 I18.287 J-27.501
G3 X38.541 Y33.046 I-17.259 J28.157
X39.906 Y34.405 I-2.73 J4.106
X40.566 Y35.429 I-27.428 J18.403
G2 X41.227 Y36.454 I28.056 J-17.357
G3 X43.94 Y48.559 I-14.227 J9.546
G1 X40.095 Y59.97
X40.078 Y60.006
X40.054 Y60.039
X40.024 Y60.066
G3 X39.818 Y60.212 I-2.971 J-3.994
X38.655 Y60.961 I-23.611 J-35.352
G2 X37.493 Y61.711 I22.459 J36.116
G3 X16.474 Y61.689 I-10.493 J-15.711
G2 X15.325 Y60.945 I-23.223 J34.614
G3 X14.175 Y60.201 I22.066 J-35.348
X13.871 Y59.979 I2.805 J-4.181
G1 X13.021 Y59.13
G3 X12.799 Y58.825 I3.959 J-3.11
X12.055 Y57.675 I34.604 J-23.216
G2 X11.311 Y56.526 I-35.349 J22.067
G3 X11.314 Y35.471 I15.689 J-10.526
G2 X12.064 Y34.312 I-35.164 J-23.603
G3 X12.815 Y33.154 I35.913 J22.443
X13.036 Y32.849 I4.142 J2.78
G1 X13.883 Y32.005
G3 X14.186 Y31.786 I3.073 J3.929
X15.346 Y31.038 I23.52 J35.212
G2 X16.506 Y30.29 I-22.36 J-35.96
G3 X37.461 Y30.268 I10.494 J15.71
G2 X38.634 Y31.021 I23.92 J-35.972
G3 X39.808 Y31.774 I-22.746 J36.725
G1 X41.027 Y32.929
G3 X41.172 Y33.133 I-3.95 J2.952
X41.93 Y34.303 I-35.873 J24.069
G2 X42.688 Y35.473 I36.631 J-22.899
G3 X42.691 Y56.523 I-15.689 J10.527
G2 X41.939 Y57.684 I35.323 J23.69
G3 X41.187 Y58.845 I-36.062 J-22.52
G1 X41.049 Y59.041
X41.022 Y59.09
X39.836 Y62.277
X39.818 Y62.314
X39.792 Y62.347
X39.76 Y62.373
X38.498 Y63.216
G3 X15.466 Y63.192 I-11.498 J-17.216
G1 X14.187 Y62.334
X10.659 Y58.802
X9.808 Y57.534
G3 X9.811 Y34.462 I17.192 J-11.534
G1 X10.669 Y33.183
X14.215 Y29.644
X15.501 Y28.785
G3 X38.463 Y28.761 I11.499 J17.215
G1 X39.732 Y29.604
X43.335 Y33.189
X44.191 Y34.465
G3 X44.194 Y57.531 I-17.191 J11.535
G1 X43.345 Y58.796
G3 X40.792 Y58.607 Z-0.96 I-1.223 J-0.82 F150
G1 X32.838 Y41.821 Z-1.179
G3 X35.391 Y40.37 Z-1.231 I1.331 J-0.631
X35.393 Y51.629 I-8.392 J5.631 F300
G2 X35.121 Y52.062 I6.802 J4.562
G3 X34.85 Y52.496 I-7.072 J-4.127
X33.48 Y53.862 I-4.134 J-2.773
X33.047 Y54.133 I-4.547 J-6.808
G2 X32.613 Y54.404 I4.114 J7.081
G3 X21.37 Y54.392 I-5.613 J-8.404
G2 X20.944 Y54.125 I-4.485 J6.685
G3 X20.518 Y53.859 I4.058 J-6.95
X19.142 Y52.483 I2.805 J-4.181
X18.875 Y52.056 I6.684 J-4.484
G2 X18.608 Y51.63 I-6.951 J4.058
G3 X18.609 Y40.368 I8.392 J-5.63
G2 X18.88 Y39.936 I-6.776 J-4.548
G3 X19.151 Y39.504 I7.046 J4.116
X20.522 Y38.136 I4.142 J2.78
X20.954 Y37.866 I4.532 J6.785
G2 X21.387 Y37.597 I-4.099 J-7.055
G3 X32.595 Y37.585 I5.613 J8.403
G2 X33.036 Y37.859 I4.595 J-6.91
G3 X33.476 Y38.132 I-4.154 J7.183
X34.841 Y39.491 I-2.73 J4.106
X35.116 Y39.93 I-6.892 J4.625
G2 X35.391 Y40.37 I7.163 J-4.182
X36.76 Y40.97 I1.156 J-0.775
G3 X38.053 Y41.717 I0.182 J1.178
X36.846 Y52.603 I-11.054 J4.283
G2 X36.481 Y53.184 I9.121 J6.117
G3 X36.117 Y53.766 I-9.483 J-5.535
X34.748 Y55.132 I-4.134 J-2.773
X34.166 Y55.495 I-6.098 J-9.13
G2 X33.584 Y55.858 I5.518 J9.496
G3 X20.395 Y55.845 I-6.585 J-9.859
G2 X19.822 Y55.486 I-6.032 J8.991
G3 X19.249 Y55.127 I5.458 J-9.348
X17.873 Y53.751 I2.805 J-4.181
X17.514 Y53.178 I8.989 J-6.031
G2 X17.155 Y52.605 I-9.348 J5.458
G3 X17.157 Y39.393 I9.844 J-6.604
G2 X17.52 Y38.814 I-9.092 J-6.102
G3 X17.884 Y38.234 I9.455 J5.523
X19.255 Y36.866 I4.142 J2.78
X19.835 Y36.504 I6.081 J9.104
G2 X20.415 Y36.142 I-5.501 J-9.466
G3 X33.564 Y36.129 I6.584 J9.857
G2 X34.153 Y36.495 I6.148 J-9.246
G3 X34.742 Y36.861 I-5.559 J9.612
X36.107 Y38.219 I-2.73 J4.106
X36.475 Y38.807 I-9.222 J6.188
G2 X36.844 Y39.395 I9.584 J-5.596
G3 X38.053 Y41.717 I-9.844 J6.605
G2 X39.274 Y42.61 I1.308 J-0.507
G3 X40.402 Y43.618 I-0.077 J1.221
X38.305 Y53.582 I-13.402 J2.382
G2 X37.845 Y54.309 I13.662 J9.162
G3 X37.385 Y55.036 I-14.118 J-8.433
X36.015 Y56.402 I-4.134 J-2.773
X35.288 Y56.861 I-9.132 J-13.673
G2 X34.56 Y57.32 I8.407 J14.136
G3 X19.416 Y57.304 I-7.56 J-11.32
G2 X18.698 Y56.85 I-8.936 J13.32
G3 X17.981 Y56.395 I8.217 J-13.771
X16.605 Y55.019 I2.805 J-4.181
X16.15 Y54.302 I13.317 J-8.935
G2 X15.696 Y53.584 I-13.772 J8.217
G3 X15.698 Y38.414 I11.304 J-7.584
G2 X16.157 Y37.689 I-13.588 J-9.12
G3 X16.616 Y36.964 I14.046 J8.395
X17.987 Y35.596 I4.142 J2.78
X18.713 Y35.138 I9.088 J13.605
G2 X19.439 Y34.681 I-8.362 J-14.063
G3 X34.537 Y34.665 I7.561 J11.32
G2 X35.273 Y35.127 I9.288 J-13.967
G3 X36.009 Y35.589 I-8.552 J14.429
X37.373 Y36.948 I-2.73 J4.106
X37.838 Y37.682 I-13.932 J9.348
G2 X38.304 Y38.415 I14.385 J-8.606
G3 X40.402 Y43.618 I-11.304 J7.585
G2 X41.437 Y44.734 I1.386 J-0.246
G3 X42.372 Y45.936 I-0.311 J1.207
X39.767 Y54.562 I-15.372 J0.064
G2 X39.21 Y55.434 I19.759 J13.252
G3 X38.652 Y56.305 I-20.311 J-12.376
X37.283 Y57.672 I-4.134 J-2.773
X36.41 Y58.228 I-13.208 J-19.776
G2 X35.538 Y58.784 I12.34 J20.339
G3 X18.436 Y58.766 I-8.538 J-12.783
G2 X17.574 Y58.215 I-12.954 J19.308
G3 X16.712 Y57.664 I12.089 J-19.855
X15.336 Y56.288 I2.805 J-4.181
X14.785 Y55.426 I19.304 J-12.951
G2 X14.234 Y54.564 I-19.856 J12.09
G3 X14.236 Y37.433 I12.766 J-8.564
G2 X14.793 Y36.563 I-19.66 J-13.196
G3 X15.349 Y35.694 I20.216 J12.326
X16.72 Y34.326 I4.142 J2.78
X17.591 Y33.771 I13.15 J19.687
G2 X18.461 Y33.217 I-12.279 J-20.241
G3 X35.512 Y33.199 I8.539 J12.783
G2 X36.394 Y33.758 I13.41 J-20.166
G3 X37.275 Y34.317 I-12.528 J20.725
X38.639 Y35.676 I-2.73 J4.106
X39.202 Y36.556 I-20.113 J13.495
G2 X39.765 Y37.435 I20.656 J-12.603
G3 X42.372 Y45.936 I-12.765 J8.565
G2 X43.207 Y47.217 I1.41 J-0.006
G3 X43.94 Y48.559 I-0.515 J1.153
X41.229 Y55.543 I-16.94 J-2.559
G2 X40.574 Y56.559 I26.98 J18.094
G3 X39.92 Y57.575 I-27.625 J-17.072
X38.55 Y58.942 I-4.134 J-2.773
X37.533 Y59.595 I-18.035 J-27.002
G2 X36.515 Y60.247 I17.024 J27.665
G3 X17.455 Y60.227 I-9.515 J-14.247
G2 X16.449 Y59.58 I-17.716 J26.407
G3 X15.444 Y58.932 I16.706 J-27.047
X14.068 Y57.556 I2.805 J-4.181
X13.42 Y56.551 I26.4 J-17.711
G2 X12.773 Y55.545 I-27.048 J16.706
G3 X12.775 Y36.452 I14.227 J-9.545
G2 X13.428 Y35.438 I-26.853 J-18.024
G3 X14.082 Y34.424 I27.505 J17.009
X15.453 Y33.056 I4.142 J2.78
X16.468 Y32.405 I17.961 J26.889
G2 X17.484 Y31.753 I-16.945 J-27.54
G3 X36.487 Y31.734 I9.516 J14.247
G2 X37.514 Y32.39 I18.287 J-27.501
G3 X38.541 Y33.046 I-17.259 J28.157
X39.906 Y34.405 I-2.73 J4.106
X40.566 Y35.429 I-27.428 J18.403
G2 X41.227 Y36.454 I28.056 J-17.357
G3 X43.94 Y48.559 I-14.227 J9.546
G1 X40.095 Y59.97
X40.078 Y60.006
X40.054 Y60.039
X40.024 Y60.066
G3 X39.818 Y60.212 I-2.971 J-3.994
X38.655 Y60.961 I-23.611 J-35.352
G2 X37.493 Y61.711 I22.459 J36.116
G3 X16.474 Y61.689 I-10.493 J-15.711
G2 X15.325 Y60.945 I-23.223 J34.614
G3 X14.175 Y60.201 I22.066 J-35.348
X13.871 Y59.979 I2.805 J-4.181
G1 X13.021 Y59.13
G3 X12.799 Y58.825 I3.959 J-3.11
X12.055 Y57.675 I34.604 J-23.216
G2 X11.311 Y56.526 I-35.349 J22.067
G3 X11.314 Y35.471 I15.689 J-10.526
G2 X12.064 Y34.312 I-35.164 J-23.603
G3 X12.815 Y33.154 I35.913 J22.443
X13.036 Y32.849 I4.142 J2.78
G1 X13.883 Y32.005
G3 X14.186 Y31.786 I3.073 J3.929
X15.346 Y31.038 I23.52 J35.212
G2 X16.506 Y30.29 I-22.36 J-35.96
G3 X37.461 Y30.268 I10.494 J15.71
G2 X38.634 Y31.021 I23.92 J-35.972
G3 X39.808 Y31.774 I-22.746 J36.725
G1 X41.027 Y32.929
G3 X41.172 Y33.133 I-3.95 J2.952
X41.93 Y34.303 I-35.873 J24.069
G2 X42.688 Y35.473 I36.631 J-22.899
G3 X42.691 Y56.523 I-15.689 J10.527
G2 X41.939 Y57.684 I35.323 J23.69
G3 X41.187 Y58.845 I-36.062 J-22.52
G1 X41.049 Y59.041
X41.022 Y59.09
X39.836 Y62.277
X39.818 Y62.314
X39.792 Y62.347
X39.76 Y62.373
X38.498 Y63.216
G3 X15.466 Y63.192 I-11.498 J-17.216
G1 X14.187 Y62.334
X10.659 Y58.802
X9.808 Y57.534
G3 X9.811 Y34.462 I17.192 J-11.534
G1 X10.669 Y33.183
X14.215 Y29.644
X15.501 Y28.785
G3 X38.463 Y28.761 I11.499 J17.215
G1 X39.732 Y29.604
X43.335 Y33.189
X44.191 Y34.465
G3 X44.194 Y57.531 I-17.191 J11.535
G1 X43.345 Y58.796
G3 X40.792 Y58.607 Z-1.267 I-1.223 J-0.82 F150
G1 X32.838 Y41.821 Z-1.486
G3 X35.391 Y40.37 Z-1.538 I1.331 J-0.631
X35.393 Y51.629 I-8.392 J5.631 F300
G2 X35.121 Y52.062 I6.802 J4.562
G3 X34.85 Y52.496 I-7.072 J-4.127
X33.48 Y53.862 I-4.134 J-2.773
X33.047 Y54.133 I-4.547 J-6.808
G2 X32.613 Y54.404 I4.114 J7.081
G3 X21.37 Y54.392 I-5.613 J-8.404
G2 X20.944 Y54.125 I-4.485 J6.685
G3 X20.518 Y53.859 I4.058 J-6.95
X19.142 Y52.483 I2.805 J-4.181
X18.875 Y52.056 I6.684 J-4.484
G2 X18.608 Y51.63 I-6.951 J4.058
G3 X18.609 Y40.368 I8.392 J-5.63
G2 X18.88 Y39.936 I-6.776 J-4.548
G3 X19.151 Y39.504 I7.046 J4.116
X20.522 Y38.136 I4.142 J2.78
X20.954 Y37.866 I4.532 J6.785
G2 X21.387 Y37.597 I-4.099 J-7.055
G3 X32.595 Y37.585 I5.613 J8.403
G2 X33.036 Y37.859 I4.595 J-6.91
G3 X33.476 Y38.132 I-4.154 J7.183
X34.841 Y39.491 I-2.73 J4.106
X35.116 Y39.93 I-6.892 J4.625
G2 X35.391 Y40.37 I7.163 J-4.182
X36.76 Y40.97 I1.156 J-0.775
G3 X38.053 Y41.717 I0.182 J1.178
X36.846 Y52.603 I-11.054 J4.283
G2 X36.481 Y53.184 I9.121 J6.117
G3 X36.117 Y53.766 I-9.483 J-5.535
X34.748 Y55.132 I-4.134 J-2.773
X34.166 Y55.495 I-6.098 J-9.13
G2 X33.584 Y55.858 I5.518 J9.496
G3 X20.395 Y55.845 I-6.585 J-9.859
G2 X19.822 Y55.486 I-6.032 J8.991
G3 X19.249 Y55.127 I5.458 J-9.348
X17.873 Y53.751 I2.805 J-4.181
X17.514 Y53.178 I8.989 J-6.031
G2 X17.155 Y52.605 I-9.348 J5.458
G3 X17.157 Y39.393 I9.844 J-6.604
G2 X17.52 Y38.814 I-9.092 J-6.102
G3 X17.884 Y38.234 I9.455 J5.523
X19.255 Y36.866 I4.142 J2.78
X19.835 Y36.504 I6.081 J9.104
G2 X20.415 Y36.142 I-5.501 J-9.466
G3 X33.564 Y36.129 I6.584 J9.857
G2 X34.153 Y36.495 I6.148 J-9.246
G3 X34.742 Y36.861 I-5.559 J9.612
X36.107 Y38.219 I-2.73 J4.106
X36.475 Y38.807 I-9.222 J6.188
G2 X36.844 Y39.395 I9.584 J-5.596
G3 X38.053 Y41.717 I-9.844 J6.605
G2 X39.274 Y42.61 I1.308 J-0.507
G3 X40.402 Y43.618 I-0.077 J1.221
X38.305 Y53.582 I-13.402 J2.382
G2 X37.845 Y54.309 I13.662 J9.162
G3 X37.385 Y55.036 I-14.118 J-8.433
X36.015 Y56.402 I-4.134 J-2.773
X35.288 Y56.861 I-9.132 J-13.673
G2 X34.56 Y57.32 I8.407 J14.136
G3 X19.416 Y57.304 I-7.56 J-11.32
G2 X18.698 Y56.85 I-8.936 J13.32
G3 X17.981 Y56.395 I8.217 J-13.771
X16.605 Y55.019 I2.805 J-4.181
X16.15 Y54.302 I13.317 J-8.935
G2 X15.696 Y53.584 I-13.772 J8.217
G3 X15.698 Y38.414 I11.304 J-7.584
G2 X16.157 Y37.689 I-13.588 J-9.12
G3 X16.616 Y36.964 I14.046 J8.395
X17.987 Y35.596 I4.142 J2.78
X18.713 Y35.138 I9.088 J13.605
G2 X19.439 Y34.681 I-8.362 J-14.063
G3 X34.537 Y34.665 I7.561 J11.32
G2 X35.273 Y35.127 I9.288 J-13.967
G3 X36.009 Y35.589 I-8.552 J14.429
X37.373 Y36.948 I-2.73 J4.106
X37.838 Y37.682 I-13.932 J9.348
G2 X38.304 Y38.415 I14.385 J-8.606
G3 X40.402 Y43.618 I-11.304 J7.585
G2 X41.437 Y44.734 I1.386 J-0.246
G3 X42.372 Y45.936 I-0.311 J1.207
X39.767 Y54.562 I-15.372 J0.064
G2 X39.21 Y55.434 I19.759 J13.252
G3 X38.652 Y56.305 I-20.311 J-12.376
X37.283 Y57.672 I-4.134 J-2.773
X36.41 Y58.228 I-13.208 J-19.776
G2 X35.538 Y58.784 I12.34 J20.339
G3 X18.436 Y58.766 I-8.538 J-12.783
G2 X17.574 Y58.215 I-12.954 J19.308
G3 X16.712 Y57.664 I12.089 J-19.855
X15.336 Y56.288 I2.805 J-4.181
X14.785 Y55.426 I19.304 J-12.951
G2 X14.234 Y54.564 I-19.856 J12.09
G3 X14.236 Y37.433 I12.766 J-8.564
G2 X14.793 Y36.563 I-19.66 J-13.196
G3 X15.349 Y35.694 I20.216 J12.326
X16.72 Y34.326 I4.142 J2.78
X17.591 Y33.771 I13.15 J19.687
G2 X18.461 Y33.217 I-12.279 J-20.241
G3 X35.512 Y33.199 I8.539 J12.783
G2 X36.394 Y33.758 I13.41 J-20.166
G3 X37.275 Y34.317 I-12.528 J20.725
X38.639 Y35.676 I-2.73 J4.106
X39.202 Y36.556 I-20.113 J13.495
G2 X39.765 Y37.435 I20.656 J-12.603
G3 X42.372 Y45.936 I-12.765 J8.565
G2 X43.207 Y47.217 I1.41 J-0.006
G3 X43.94 Y48.559 I-0.515 J1.153
X41.229 Y55.543 I-16.94 J-2.559
G2 X40.574 Y56.559 I26.98 J18.094
G3 X39.92 Y57.575 I-27.625 J-17.072
X38.55 Y58.942 I-4.134 J-2.773
X37.533 Y59.595 I-18.035 J-27.002
G2 X36.515 Y60.247 I17.024 J27.665
G3 X17.455 Y60.227 I-9.515 J-14.247
G2 X16.449 Y59.58 I-17.716 J26.407
G3 X15.444 Y58.932 I16.706 J-27.047
X14.068 Y57.556 I2.805 J-4.181
X13.42 Y56.551 I26.4 J-17.711
G2 X12.773 Y55.545 I-27.048 J16.706
G3 X12.775 Y36.452 I14.227 J-9.545
G2 X13.428 Y35.438 I-26.853 J-18.024
G3 X14.082 Y34.424 I27.505 J17.009
X15.453 Y33.056 I4.142 J2.78
X16.468 Y32.405 I17.961 J26.889
G2 X17.484 Y31.753 I-16.945 J-27.54
