(nema34_2040_bracket)
(Machine)
(  vendor: Autodesk)
(  model: Generic 3-axis)
(  description: This machine has XY axis on the Table and Z axis on the Head)
(T3  D=3.1 CR=0 - ZMIN=-7 - flat end mill)
G90 G94
G17
G21
(When using Fusion 360 for Personal Use, the feedrate of)
(rapid moves is reduced to match the feedrate of cutting)
(moves, which can increase machining time. Unrestricted rapid)
(moves are available with a Fusion 360 Subscription.)

(2D Contour1)
S24000 M3
G54
M8
G0 X31.257 Y15.758
Z10
G1 Z5 F300
Z1.3 F150
Z0.01
X31.265 Y15.76 Z-0.059
X31.287 Y15.767 Z-0.125
X31.322 Y15.779 Z-0.183
X31.368 Y15.794 Z-0.232
X31.424 Y15.812 Z-0.269
X31.487 Y15.832 Z-0.292
X31.552 Y15.854 Z-0.3
X31.847 Y15.949
G3 X32.046 Y16.34 I-0.096 J0.295
X29.954 Y15.66 I-1.046 J-0.34 F300
X32.046 Y16.34 I1.046 J0.34
X31.656 Y16.539 I-0.295 J-0.096
G1 X31.361 Y16.443
X31.295 Y16.422 Z-0.292
X31.233 Y16.402 Z-0.269
X31.177 Y16.383 Z-0.232
X31.13 Y16.368 Z-0.183
X31.095 Y16.357 Z-0.125
X31.073 Y16.35 Z-0.059
X31.066 Y16.347 Z0.01
Z5
X31.257 Y15.758
Z1 F150
Z-0.29
X31.265 Y15.76 Z-0.359
X31.287 Y15.767 Z-0.425
X31.322 Y15.779 Z-0.483
X31.368 Y15.794 Z-0.532
X31.424 Y15.812 Z-0.569
X31.487 Y15.832 Z-0.592
X31.552 Y15.854 Z-0.6
X31.847 Y15.949
G3 X32.046 Y16.34 I-0.096 J0.295
X29.954 Y15.66 I-1.046 J-0.34 F300
X32.046 Y16.34 I1.046 J0.34
X31.656 Y16.539 I-0.295 J-0.096
G1 X31.361 Y16.443
X31.295 Y16.422 Z-0.592
X31.233 Y16.402 Z-0.569
X31.177 Y16.383 Z-0.532
X31.13 Y16.368 Z-0.483
X31.095 Y16.357 Z-0.425
X31.073 Y16.35 Z-0.359
X31.066 Y16.347 Z-0.29
Z5
X31.257 Y15.758
Z0.7 F150
Z-0.59
X31.265 Y15.76 Z-0.659
X31.287 Y15.767 Z-0.725
X31.322 Y15.779 Z-0.783
X31.368 Y15.794 Z-0.832
X31.424 Y15.812 Z-0.869
X31.487 Y15.832 Z-0.892
X31.552 Y15.854 Z-0.9
X31.847 Y15.949
G3 X32.046 Y16.34 I-0.096 J0.295
X29.954 Y15.66 I-1.046 J-0.34 F300
X32.046 Y16.34 I1.046 J0.34
X31.656 Y16.539 I-0.295 J-0.096
G1 X31.361 Y16.443
X31.295 Y16.422 Z-0.892
X31.233 Y16.402 Z-0.869
X31.177 Y16.383 Z-0.832
X31.13 Y16.368 Z-0.783
X31.095 Y16.357 Z-0.725
X31.073 Y16.35 Z-0.659
X31.066 Y16.347 Z-0.59
Z5
X31.257 Y15.758
Z0.4 F150
Z-0.89
X31.265 Y15.76 Z-0.959
X31.287 Y15.767 Z-1.025
X31.322 Y15.779 Z-1.083
X31.368 Y15.794 Z-1.132
X31.424 Y15.812 Z-1.169
X31.487 Y15.832 Z-1.192
X31.552 Y15.854 Z-1.2
X31.847 Y15.949
G3 X32.046 Y16.34 I-0.096 J0.295
X29.954 Y15.66 I-1.046 J-0.34 F300
X32.046 Y16.34 I1.046 J0.34
X31.656 Y16.539 I-0.295 J-0.096
G1 X31.361 Y16.443
X31.295 Y16.422 Z-1.192
X31.233 Y16.402 Z-1.169
X31.177 Y16.383 Z-1.132
X31.13 Y16.368 Z-1.083
X31.095 Y16.357 Z-1.025
X31.073 Y16.35 Z-0.959
X31.066 Y16.347 Z-0.89
Z5
X31.257 Y15.758
Z0.1 F150
Z-1.19
X31.265 Y15.76 Z-1.259
X31.287 Y15.767 Z-1.325
X31.322 Y15.779 Z-1.383
X31.368 Y15.794 Z-1.432
X31.424 Y15.812 Z-1.469
X31.487 Y15.832 Z-1.492
X31.552 Y15.854 Z-1.5
X31.847 Y15.949
G3 X32.046 Y16.34 I-0.096 J0.295
X29.954 Y15.66 I-1.046 J-0.34 F300
X32.046 Y16.34 I1.046 J0.34
X31.656 Y16.539 I-0.295 J-0.096
G1 X31.361 Y16.443
X31.295 Y16.422 Z-1.492
X31.233 Y16.402 Z-1.469
X31.177 Y16.383 Z-1.432
X31.13 Y16.368 Z-1.383
X31.095 Y16.357 Z-1.325
X31.073 Y16.35 Z-1.259
X31.066 Y16.347 Z-1.19
Z5
X31.257 Y15.758
Z-0.2 F150
Z-1.49
X31.265 Y15.76 Z-1.559
X31.287 Y15.767 Z-1.625
X31.322 Y15.779 Z-1.683
X31.368 Y15.794 Z-1.732
X31.424 Y15.812 Z-1.769
X31.487 Y15.832 Z-1.792
X31.552 Y15.854 Z-1.8
X31.847 Y15.949
G3 X32.046 Y16.34 I-0.096 J0.295
X29.954 Y15.66 I-1.046 J-0.34 F300
X32.046 Y16.34 I1.046 J0.34
X31.656 Y16.539 I-0.295 J-0.096
G1 X31.361 Y16.443
X31.295 Y16.422 Z-1.792
X31.233 Y16.402 Z-1.769
X31.177 Y16.383 Z-1.732
X31.13 Y16.368 Z-1.683
X31.095 Y16.357 Z-1.625
X31.073 Y16.35 Z-1.559
X31.066 Y16.347 Z-1.49
Z5
X31.257 Y15.758
Z-0.5 F150
Z-1.79
X31.265 Y15.76 Z-1.859
X31.287 Y15.767 Z-1.925
X31.322 Y15.779 Z-1.983
X31.368 Y15.794 Z-2.032
X31.424 Y15.812 Z-2.069
X31.487 Y15.832 Z-2.092
X31.552 Y15.854 Z-2.1
X31.847 Y15.949
G3 X32.046 Y16.34 I-0.096 J0.295
X29.954 Y15.66 I-1.046 J-0.34 F300
X32.046 Y16.34 I1.046 J0.34
X31.656 Y16.539 I-0.295 J-0.096
G1 X31.361 Y16.443
X31.295 Y16.422 Z-2.092
X31.233 Y16.402 Z-2.069
X31.177 Y16.383 Z-2.032
X31.13 Y16.368 Z-1.983
X31.095 Y16.357 Z-1.925
X31.073 Y16.35 Z-1.859
X31.066 Y16.347 Z-1.79
Z5
X31.257 Y15.758
Z-0.8 F150
Z-2.09
X31.265 Y15.76 Z-2.159
X31.287 Y15.767 Z-2.225
X31.322 Y15.779 Z-2.283
X31.368 Y15.794 Z-2.332
X31.424 Y15.812 Z-2.369
X31.487 Y15.832 Z-2.392
X31.552 Y15.854 Z-2.4
X31.847 Y15.949
G3 X32.046 Y16.34 I-0.096 J0.295
X29.954 Y15.66 I-1.046 J-0.34 F300
X32.046 Y16.34 I1.046 J0.34
X31.656 Y16.539 I-0.295 J-0.096
G1 X31.361 Y16.443
X31.295 Y16.422 Z-2.392
X31.233 Y16.402 Z-2.369
X31.177 Y16.383 Z-2.332
X31.13 Y16.368 Z-2.283
X31.095 Y16.357 Z-2.225
X31.073 Y16.35 Z-2.159
X31.066 Y16.347 Z-2.09
Z5
X31.257 Y15.758
Z-1.1 F150
Z-2.39
X31.265 Y15.76 Z-2.459
X31.287 Y15.767 Z-2.525
X31.322 Y15.779 Z-2.583
X31.368 Y15.794 Z-2.632
X31.424 Y15.812 Z-2.669
X31.487 Y15.832 Z-2.692
X31.552 Y15.854 Z-2.7
X31.847 Y15.949
G3 X32.046 Y16.34 I-0.096 J0.295
X29.954 Y15.66 I-1.046 J-0.34 F300
X32.046 Y16.34 I1.046 J0.34
X31.656 Y16.539 I-0.295 J-0.096
G1 X31.361 Y16.443
X31.295 Y16.422 Z-2.692
X31.233 Y16.402 Z-2.669
X31.177 Y16.383 Z-2.632
X31.13 Y16.368 Z-2.583
X31.095 Y16.357 Z-2.525
X31.073 Y16.35 Z-2.459
X31.066 Y16.347 Z-2.39
Z5
X31.257 Y15.758
Z-1.4 F150
Z-2.69
X31.265 Y15.76 Z-2.759
X31.287 Y15.767 Z-2.825
X31.322 Y15.779 Z-2.883
X31.368 Y15.794 Z-2.932
X31.424 Y15.812 Z-2.969
X31.487 Y15.832 Z-2.992
X31.552 Y15.854 Z-3
X31.847 Y15.949
G3 X32.046 Y16.34 I-0.096 J0.295
X29.954 Y15.66 I-1.046 J-0.34 F300
X32.046 Y16.34 I1.046 J0.34
X31.656 Y16.539 I-0.295 J-0.096
G1 X31.361 Y16.443
X31.295 Y16.422 Z-2.992
X31.233 Y16.402 Z-2.969
X31.177 Y16.383 Z-2.932
X31.13 Y16.368 Z-2.883
X31.095 Y16.357 Z-2.825
X31.073 Y16.35 Z-2.759
X31.066 Y16.347 Z-2.69
Z5
X31.257 Y15.758
Z-1.7 F150
Z-2.99
X31.265 Y15.76 Z-3.059
X31.287 Y15.767 Z-3.125
X31.322 Y15.779 Z-3.183
X31.368 Y15.794 Z-3.232
X31.424 Y15.812 Z-3.269
X31.487 Y15.832 Z-3.292
X31.552 Y15.854 Z-3.3
X31.847 Y15.949
G3 X32.046 Y16.34 I-0.096 J0.295
X29.954 Y15.66 I-1.046 J-0.34 F300
X32.046 Y16.34 I1.046 J0.34
X31.656 Y16.539 I-0.295 J-0.096
G1 X31.361 Y16.443
X31.295 Y16.422 Z-3.292
X31.233 Y16.402 Z-3.269
X31.177 Y16.383 Z-3.232
X31.13 Y16.368 Z-3.183
X31.095 Y16.357 Z-3.125
X31.073 Y16.35 Z-3.059
X31.066 Y16.347 Z-2.99
Z5
X31.257 Y15.758
Z-2 F150
Z-3.29
X31.265 Y15.76 Z-3.359
X31.287 Y15.767 Z-3.425
X31.322 Y15.779 Z-3.483
X31.368 Y15.794 Z-3.532
X31.424 Y15.812 Z-3.569
X31.487 Y15.832 Z-3.592
X31.552 Y15.854 Z-3.6
X31.847 Y15.949
G3 X32.046 Y16.34 I-0.096 J0.295
X29.954 Y15.66 I-1.046 J-0.34 F300
X32.046 Y16.34 I1.046 J0.34
X31.656 Y16.539 I-0.295 J-0.096
G1 X31.361 Y16.443
X31.295 Y16.422 Z-3.592
X31.233 Y16.402 Z-3.569
X31.177 Y16.383 Z-3.532
X31.13 Y16.368 Z-3.483
X31.095 Y16.357 Z-3.425
X31.073 Y16.35 Z-3.359
X31.066 Y16.347 Z-3.29
Z5
X31.257 Y15.758
Z-2.3 F150
Z-3.59
X31.265 Y15.76 Z-3.659
X31.287 Y15.767 Z-3.725
X31.322 Y15.779 Z-3.783
X31.368 Y15.794 Z-3.832
X31.424 Y15.812 Z-3.869
X31.487 Y15.832 Z-3.892
X31.552 Y15.854 Z-3.9
X31.847 Y15.949
G3 X32.046 Y16.34 I-0.096 J0.295
X29.954 Y15.66 I-1.046 J-0.34 F300
X32.046 Y16.34 I1.046 J0.34
X31.656 Y16.539 I-0.295 J-0.096
G1 X31.361 Y16.443
X31.295 Y16.422 Z-3.892
X31.233 Y16.402 Z-3.869
X31.177 Y16.383 Z-3.832
X31.13 Y16.368 Z-3.783
X31.095 Y16.357 Z-3.725
X31.073 Y16.35 Z-3.659
X31.066 Y16.347 Z-3.59
Z5
X31.257 Y15.758
Z-2.6 F150
Z-3.89
X31.265 Y15.76 Z-3.959
X31.287 Y15.767 Z-4.025
X31.322 Y15.779 Z-4.083
X31.368 Y15.794 Z-4.132
X31.424 Y15.812 Z-4.169
X31.487 Y15.832 Z-4.192
X31.552 Y15.854 Z-4.2
X31.847 Y15.949
G3 X32.046 Y16.34 I-0.096 J0.295
X29.954 Y15.66 I-1.046 J-0.34 F300
X32.046 Y16.34 I1.046 J0.34
X31.656 Y16.539 I-0.295 J-0.096
G1 X31.361 Y16.443
X31.295 Y16.422 Z-4.192
X31.233 Y16.402 Z-4.169
X31.177 Y16.383 Z-4.132
X31.13 Y16.368 Z-4.083
X31.095 Y16.357 Z-4.025
X31.073 Y16.35 Z-3.959
X31.066 Y16.347 Z-3.89
Z5
X31.257 Y15.758
Z-2.9 F150
Z-4.19
X31.265 Y15.76 Z-4.259
X31.287 Y15.767 Z-4.325
X31.322 Y15.779 Z-4.383
X31.368 Y15.794 Z-4.432
X31.424 Y15.812 Z-4.469
X31.487 Y15.832 Z-4.492
X31.552 Y15.854 Z-4.5
X31.847 Y15.949
G3 X32.046 Y16.34 I-0.096 J0.295
X29.954 Y15.66 I-1.046 J-0.34 F300
X32.046 Y16.34 I1.046 J0.34
X31.656 Y16.539 I-0.295 J-0.096
G1 X31.361 Y16.443
X31.295 Y16.422 Z-4.492
X31.233 Y16.402 Z-4.469
X31.177 Y16.383 Z-4.432
X31.13 Y16.368 Z-4.383
X31.095 Y16.357 Z-4.325
X31.073 Y16.35 Z-4.259
X31.066 Y16.347 Z-4.19
Z5
X31.257 Y15.758
Z-3.2 F150
Z-4.49
X31.265 Y15.76 Z-4.559
X31.287 Y15.767 Z-4.625
X31.322 Y15.779 Z-4.683
X31.368 Y15.794 Z-4.732
X31.424 Y15.812 Z-4.769
X31.487 Y15.832 Z-4.792
X31.552 Y15.854 Z-4.8
X31.847 Y15.949
G3 X32.046 Y16.34 I-0.096 J0.295
X29.954 Y15.66 I-1.046 J-0.34 F300
X32.046 Y16.34 I1.046 J0.34
X31.656 Y16.539 I-0.295 J-0.096
G1 X31.361 Y16.443
X31.295 Y16.422 Z-4.792
X31.233 Y16.402 Z-4.769
X31.177 Y16.383 Z-4.732
X31.13 Y16.368 Z-4.683
X31.095 Y16.357 Z-4.625
X31.073 Y16.35 Z-4.559
X31.066 Y16.347 Z-4.49
Z5
X31.257 Y15.758
Z-3.5 F150
Z-4.79
X31.265 Y15.76 Z-4.859
X31.287 Y15.767 Z-4.925
X31.322 Y15.779 Z-4.983
X31.368 Y15.794 Z-5.032
X31.424 Y15.812 Z-5.069
X31.487 Y15.832 Z-5.092
X31.552 Y15.854 Z-5.1
X31.847 Y15.949
G3 X32.046 Y16.34 I-0.096 J0.295
X29.954 Y15.66 I-1.046 J-0.34 F300
X32.046 Y16.34 I1.046 J0.34
X31.656 Y16.539 I-0.295 J-0.096
G1 X31.361 Y16.443
X31.295 Y16.422 Z-5.092
X31.233 Y16.402 Z-5.069
X31.177 Y16.383 Z-5.032
X31.13 Y16.368 Z-4.983
X31.095 Y16.357 Z-4.925
X31.073 Y16.35 Z-4.859
X31.066 Y16.347 Z-4.79
Z5
X31.257 Y15.758
Z-3.8 F150
Z-5.09
X31.265 Y15.76 Z-5.159
X31.287 Y15.767 Z-5.225
X31.322 Y15.779 Z-5.283
X31.368 Y15.794 Z-5.332
X31.424 Y15.812 Z-5.369
X31.487 Y15.832 Z-5.392
X31.552 Y15.854 Z-5.4
X31.847 Y15.949
G3 X32.046 Y16.34 I-0.096 J0.295
X29.954 Y15.66 I-1.046 J-0.34 F300
X32.046 Y16.34 I1.046 J0.34
X31.656 Y16.539 I-0.295 J-0.096
G1 X31.361 Y16.443
X31.295 Y16.422 Z-5.392
X31.233 Y16.402 Z-5.369
X31.177 Y16.383 Z-5.332
X31.13 Y16.368 Z-5.283
X31.095 Y16.357 Z-5.225
X31.073 Y16.35 Z-5.159
X31.066 Y16.347 Z-5.09
Z5
X31.257 Y15.758
Z-4.1 F150
Z-5.39
X31.265 Y15.76 Z-5.459
X31.287 Y15.767 Z-5.525
X31.322 Y15.779 Z-5.583
X31.368 Y15.794 Z-5.632
X31.424 Y15.812 Z-5.669
X31.487 Y15.832 Z-5.692
X31.552 Y15.854 Z-5.7
X31.847 Y15.949
G3 X32.046 Y16.34 I-0.096 J0.295
X29.954 Y15.66 I-1.046 J-0.34 F300
X32.046 Y16.34 I1.046 J0.34
X31.656 Y16.539 I-0.295 J-0.096
G1 X31.361 Y16.443
X31.295 Y16.422 Z-5.692
X31.233 Y16.402 Z-5.669
X31.177 Y16.383 Z-5.632
X31.13 Y16.368 Z-5.583
X31.095 Y16.357 Z-5.525
X31.073 Y16.35 Z-5.459
X31.066 Y16.347 Z-5.39
Z5
X31.257 Y15.758
Z-4.4 F150
Z-5.69
X31.265 Y15.76 Z-5.759
X31.287 Y15.767 Z-5.825
X31.322 Y15.779 Z-5.883
X31.368 Y15.794 Z-5.932
X31.424 Y15.812 Z-5.969
X31.487 Y15.832 Z-5.992
X31.552 Y15.854 Z-6
X31.847 Y15.949
G3 X32.046 Y16.34 I-0.096 J0.295
X29.954 Y15.66 I-1.046 J-0.34 F300
X32.046 Y16.34 I1.046 J0.34
X31.656 Y16.539 I-0.295 J-0.096
G1 X31.361 Y16.443
X31.295 Y16.422 Z-5.992
X31.233 Y16.402 Z-5.969
X31.177 Y16.383 Z-5.932
X31.13 Y16.368 Z-5.883
X31.095 Y16.357 Z-5.825
X31.073 Y16.35 Z-5.759
X31.066 Y16.347 Z-5.69
Z5
X31.257 Y15.758
Z-4.7 F150
Z-5.99
X31.265 Y15.76 Z-6.059
X31.287 Y15.767 Z-6.125
X31.322 Y15.779 Z-6.183
X31.368 Y15.794 Z-6.232
X31.424 Y15.812 Z-6.269
X31.487 Y15.832 Z-6.292
X31.552 Y15.854 Z-6.3
X31.847 Y15.949
G3 X32.046 Y16.34 I-0.096 J0.295
X29.954 Y15.66 I-1.046 J-0.34 F300
X32.046 Y16.34 I1.046 J0.34
X31.656 Y16.539 I-0.295 J-0.096
G1 X31.361 Y16.443
X31.295 Y16.422 Z-6.292
X31.233 Y16.402 Z-6.269
X31.177 Y16.383 Z-6.232
X31.13 Y16.368 Z-6.183
X31.095 Y16.357 Z-6.125
X31.073 Y16.35 Z-6.059
X31.066 Y16.347 Z-5.99
Z5
X31.257 Y15.758
Z-5 F150
Z-6.29
X31.265 Y15.76 Z-6.359
X31.287 Y15.767 Z-6.425
X31.322 Y15.779 Z-6.483
X31.368 Y15.794 Z-6.532
X31.424 Y15.812 Z-6.569
X31.487 Y15.832 Z-6.592
X31.552 Y15.854 Z-6.6
X31.847 Y15.949
G3 X32.046 Y16.34 I-0.096 J0.295
X29.954 Y15.66 I-1.046 J-0.34 F300
X32.046 Y16.34 I1.046 J0.34
X31.656 Y16.539 I-0.295 J-0.096
G1 X31.361 Y16.443
X31.295 Y16.422 Z-6.592
X31.233 Y16.402 Z-6.569
X31.177 Y16.383 Z-6.532
X31.13 Y16.368 Z-6.483
X31.095 Y16.357 Z-6.425
X31.073 Y16.35 Z-6.359
X31.066 Y16.347 Z-6.29
Z5
X31.257 Y15.758
Z-5.3 F150
Z-6.59
X31.265 Y15.76 Z-6.659
X31.287 Y15.767 Z-6.725
X31.322 Y15.779 Z-6.783
X31.368 Y15.794 Z-6.832
X31.424 Y15.812 Z-6.869
X31.487 Y15.832 Z-6.892
X31.552 Y15.854 Z-6.9
X31.847 Y15.949
G3 X32.046 Y16.34 I-0.096 J0.295
X29.954 Y15.66 I-1.046 J-0.34 F300
X32.046 Y16.34 I1.046 J0.34
X31.656 Y16.539 I-0.295 J-0.096
G1 X31.361 Y16.443
X31.295 Y16.422 Z-6.892
X31.233 Y16.402 Z-6.869
X31.177 Y16.383 Z-6.832
X31.13 Y16.368 Z-6.783
X31.095 Y16.357 Z-6.725
X31.073 Y16.35 Z-6.659
X31.066 Y16.347 Z-6.59
Z5
X31.257 Y15.758
Z-5.6 F150
Z-6.69
X31.265 Y15.76 Z-6.759
X31.287 Y15.767 Z-6.825
X31.322 Y15.779 Z-6.883
X31.368 Y15.794 Z-6.932
X31.424 Y15.812 Z-6.969
X31.487 Y15.832 Z-6.992
X31.552 Y15.854 Z-7
X31.847 Y15.949
G3 X32.046 Y16.34 I-0.096 J0.295
X29.954 Y15.66 I-1.046 J-0.34 F300
X32.046 Y16.34 I1.046 J0.34
X31.656 Y16.539 I-0.295 J-0.096
G1 X31.361 Y16.443
X31.295 Y16.422 Z-6.992
X31.233 Y16.402 Z-6.969
X31.177 Y16.383 Z-6.932
X31.13 Y16.368 Z-6.883
X31.095 Y16.357 Z-6.825
X31.073 Y16.35 Z-6.759
X31.066 Y16.347 Z-6.69
Z5
X51.257 Y15.758
Z1.3 F150
Z0.01
X51.265 Y15.76 Z-0.059
X51.287 Y15.767 Z-0.125
X51.322 Y15.779 Z-0.183
X51.368 Y15.794 Z-0.232
X51.424 Y15.812 Z-0.269
X51.487 Y15.832 Z-0.292
X51.552 Y15.854 Z-0.3
X51.847 Y15.949
G3 X52.046 Y16.34 I-0.096 J0.295
X49.954 Y15.66 I-1.046 J-0.34 F300
X52.046 Y16.34 I1.046 J0.34
X51.656 Y16.539 I-0.295 J-0.096
G1 X51.361 Y16.443
X51.295 Y16.422 Z-0.292
X51.233 Y16.402 Z-0.269
X51.177 Y16.383 Z-0.232
X51.13 Y16.368 Z-0.183
X51.095 Y16.357 Z-0.125
X51.073 Y16.35 Z-0.059
X51.066 Y16.347 Z0.01
Z5
X51.257 Y15.758
Z1 F150
Z-0.29
X51.265 Y15.76 Z-0.359
X51.287 Y15.767 Z-0.425
X51.322 Y15.779 Z-0.483
X51.368 Y15.794 Z-0.532
X51.424 Y15.812 Z-0.569
X51.487 Y15.832 Z-0.592
X51.552 Y15.854 Z-0.6
X51.847 Y15.949
G3 X52.046 Y16.34 I-0.096 J0.295
X49.954 Y15.66 I-1.046 J-0.34 F300
X52.046 Y16.34 I1.046 J0.34
X51.656 Y16.539 I-0.295 J-0.096
G1 X51.361 Y16.443
X51.295 Y16.422 Z-0.592
X51.233 Y16.402 Z-0.569
X51.177 Y16.383 Z-0.532
X51.13 Y16.368 Z-0.483
X51.095 Y16.357 Z-0.425
X51.073 Y16.35 Z-0.359
X51.066 Y16.347 Z-0.29
Z5
X51.257 Y15.758
Z0.7 F150
Z-0.59
X51.265 Y15.76 Z-0.659
X51.287 Y15.767 Z-0.725
X51.322 Y15.779 Z-0.783
X51.368 Y15.794 Z-0.832
X51.424 Y15.812 Z-0.869
X51.487 Y15.832 Z-0.892
X51.552 Y15.854 Z-0.9
X51.847 Y15.949
G3 X52.046 Y16.34 I-0.096 J0.295
X49.954 Y15.66 I-1.046 J-0.34 F300
X52.046 Y16.34 I1.046 J0.34
X51.656 Y16.539 I-0.295 J-0.096
G1 X51.361 Y16.443
X51.295 Y16.422 Z-0.892
X51.233 Y16.402 Z-0.869
X51.177 Y16.383 Z-0.832
X51.13 Y16.368 Z-0.783
X51.095 Y16.357 Z-0.725
X51.073 Y16.35 Z-0.659
X51.066 Y16.347 Z-0.59
Z5
X51.257 Y15.758
Z0.4 F150
Z-0.89
X51.265 Y15.76 Z-0.959
X51.287 Y15.767 Z-1.025
X51.322 Y15.779 Z-1.083
X51.368 Y15.794 Z-1.132
X51.424 Y15.812 Z-1.169
X51.487 Y15.832 Z-1.192
X51.552 Y15.854 Z-1.2
X51.847 Y15.949
G3 X52.046 Y16.34 I-0.096 J0.295
X49.954 Y15.66 I-1.046 J-0.34 F300
X52.046 Y16.34 I1.046 J0.34
X51.656 Y16.539 I-0.295 J-0.096
G1 X51.361 Y16.443
X51.295 Y16.422 Z-1.192
X51.233 Y16.402 Z-1.169
X51.177 Y16.383 Z-1.132
X51.13 Y16.368 Z-1.083
X51.095 Y16.357 Z-1.025
X51.073 Y16.35 Z-0.959
X51.066 Y16.347 Z-0.89
Z5
X51.257 Y15.758
Z0.1 F150
Z-1.19
X51.265 Y15.76 Z-1.259
X51.287 Y15.767 Z-1.325
X51.322 Y15.779 Z-1.383
X51.368 Y15.794 Z-1.432
X51.424 Y15.812 Z-1.469
X51.487 Y15.832 Z-1.492
X51.552 Y15.854 Z-1.5
X51.847 Y15.949
G3 X52.046 Y16.34 I-0.096 J0.295
X49.954 Y15.66 I-1.046 J-0.34 F300
X52.046 Y16.34 I1.046 J0.34
X51.656 Y16.539 I-0.295 J-0.096
G1 X51.361 Y16.443
X51.295 Y16.422 Z-1.492
X51.233 Y16.402 Z-1.469
X51.177 Y16.383 Z-1.432
X51.13 Y16.368 Z-1.383
X51.095 Y16.357 Z-1.325
X51.073 Y16.35 Z-1.259
X51.066 Y16.347 Z-1.19
Z5
X51.257 Y15.758
Z-0.2 F150
Z-1.49
X51.265 Y15.76 Z-1.559
X51.287 Y15.767 Z-1.625
X51.322 Y15.779 Z-1.683
X51.368 Y15.794 Z-1.732
X51.424 Y15.812 Z-1.769
X51.487 Y15.832 Z-1.792
X51.552 Y15.854 Z-1.8
X51.847 Y15.949
G3 X52.046 Y16.34 I-0.096 J0.295
X49.954 Y15.66 I-1.046 J-0.34 F300
X52.046 Y16.34 I1.046 J0.34
X51.656 Y16.539 I-0.295 J-0.096
G1 X51.361 Y16.443
X51.295 Y16.422 Z-1.792
X51.233 Y16.402 Z-1.769
X51.177 Y16.383 Z-1.732
X51.13 Y16.368 Z-1.683
X51.095 Y16.357 Z-1.625
X51.073 Y16.35 Z-1.559
X51.066 Y16.347 Z-1.49
Z5
X51.257 Y15.758
Z-0.5 F150
Z-1.79
X51.265 Y15.76 Z-1.859
X51.287 Y15.767 Z-1.925
X51.322 Y15.779 Z-1.983
X51.368 Y15.794 Z-2.032
X51.424 Y15.812 Z-2.069
X51.487 Y15.832 Z-2.092
X51.552 Y15.854 Z-2.1
X51.847 Y15.949
G3 X52.046 Y16.34 I-0.096 J0.295
X49.954 Y15.66 I-1.046 J-0.34 F300
X52.046 Y16.34 I1.046 J0.34
X51.656 Y16.539 I-0.295 J-0.096
G1 X51.361 Y16.443
X51.295 Y16.422 Z-2.092
X51.233 Y16.402 Z-2.069
X51.177 Y16.383 Z-2.032
X51.13 Y16.368 Z-1.983
X51.095 Y16.357 Z-1.925
X51.073 Y16.35 Z-1.859
X51.066 Y16.347 Z-1.79
Z5
X51.257 Y15.758
Z-0.8 F150
Z-2.09
X51.265 Y15.76 Z-2.159
X51.287 Y15.767 Z-2.225
X51.322 Y15.779 Z-2.283
X51.368 Y15.794 Z-2.332
X51.424 Y15.812 Z-2.369
X51.487 Y15.832 Z-2.392
X51.552 Y15.854 Z-2.4
X51.847 Y15.949
G3 X52.046 Y16.34 I-0.096 J0.295
X49.954 Y15.66 I-1.046 J-0.34 F300
X52.046 Y16.34 I1.046 J0.34
X51.656 Y16.539 I-0.295 J-0.096
G1 X51.361 Y16.443
X51.295 Y16.422 Z-2.392
X51.233 Y16.402 Z-2.369
X51.177 Y16.383 Z-2.332
X51.13 Y16.368 Z-2.283
X51.095 Y16.357 Z-2.225
X51.073 Y16.35 Z-2.159
X51.066 Y16.347 Z-2.09
Z5
X51.257 Y15.758
Z-1.1 F150
Z-2.39
X51.265 Y15.76 Z-2.459
X51.287 Y15.767 Z-2.525
X51.322 Y15.779 Z-2.583
X51.368 Y15.794 Z-2.632
X51.424 Y15.812 Z-2.669
X51.487 Y15.832 Z-2.692
X51.552 Y15.854 Z-2.7
X51.847 Y15.949
G3 X52.046 Y16.34 I-0.096 J0.295
X49.954 Y15.66 I-1.046 J-0.34 F300
X52.046 Y16.34 I1.046 J0.34
X51.656 Y16.539 I-0.295 J-0.096
G1 X51.361 Y16.443
X51.295 Y16.422 Z-2.692
X51.233 Y16.402 Z-2.669
X51.177 Y16.383 Z-2.632
X51.13 Y16.368 Z-2.583
X51.095 Y16.357 Z-2.525
X51.073 Y16.35 Z-2.459
X51.066 Y16.347 Z-2.39
Z5
X51.257 Y15.758
Z-1.4 F150
Z-2.69
X51.265 Y15.76 Z-2.759
X51.287 Y15.767 Z-2.825
X51.322 Y15.779 Z-2.883
X51.368 Y15.794 Z-2.932
X51.424 Y15.812 Z-2.969
X51.487 Y15.832 Z-2.992
X51.552 Y15.854 Z-3
X51.847 Y15.949
G3 X52.046 Y16.34 I-0.096 J0.295
X49.954 Y15.66 I-1.046 J-0.34 F300
X52.046 Y16.34 I1.046 J0.34
X51.656 Y16.539 I-0.295 J-0.096
G1 X51.361 Y16.443
X51.295 Y16.422 Z-2.992
X51.233 Y16.402 Z-2.969
X51.177 Y16.383 Z-2.932
X51.13 Y16.368 Z-2.883
X51.095 Y16.357 Z-2.825
X51.073 Y16.35 Z-2.759
X51.066 Y16.347 Z-2.69
Z5
X51.257 Y15.758
Z-1.7 F150
Z-2.99
X51.265 Y15.76 Z-3.059
X51.287 Y15.767 Z-3.125
X51.322 Y15.779 Z-3.183
X51.368 Y15.794 Z-3.232
X51.424 Y15.812 Z-3.269
X51.487 Y15.832 Z-3.292
X51.552 Y15.854 Z-3.3
X51.847 Y15.949
G3 X52.046 Y16.34 I-0.096 J0.295
X49.954 Y15.66 I-1.046 J-0.34 F300
X52.046 Y16.34 I1.046 J0.34
X51.656 Y16.539 I-0.295 J-0.096
G1 X51.361 Y16.443
X51.295 Y16.422 Z-3.292
X51.233 Y16.402 Z-3.269
X51.177 Y16.383 Z-3.232
X51.13 Y16.368 Z-3.183
X51.095 Y16.357 Z-3.125
X51.073 Y16.35 Z-3.059
X51.066 Y16.347 Z-2.99
Z5
X51.257 Y15.758
Z-2 F150
Z-3.29
X51.265 Y15.76 Z-3.359
X51.287 Y15.767 Z-3.425
X51.322 Y15.779 Z-3.483
X51.368 Y15.794 Z-3.532
X51.424 Y15.812 Z-3.569
X51.487 Y15.832 Z-3.592
X51.552 Y15.854 Z-3.6
X51.847 Y15.949
G3 X52.046 Y16.34 I-0.096 J0.295
X49.954 Y15.66 I-1.046 J-0.34 F300
X52.046 Y16.34 I1.046 J0.34
X51.656 Y16.539 I-0.295 J-0.096
G1 X51.361 Y16.443
X51.295 Y16.422 Z-3.592
X51.233 Y16.402 Z-3.569
X51.177 Y16.383 Z-3.532
X51.13 Y16.368 Z-3.483
X51.095 Y16.357 Z-3.425
X51.073 Y16.35 Z-3.359
X51.066 Y16.347 Z-3.29
Z5
X51.257 Y15.758
Z-2.3 F150
Z-3.59
X51.265 Y15.76 Z-3.659
X51.287 Y15.767 Z-3.725
X51.322 Y15.779 Z-3.783
X51.368 Y15.794 Z-3.832
X51.424 Y15.812 Z-3.869
X51.487 Y15.832 Z-3.892
X51.552 Y15.854 Z-3.9
X51.847 Y15.949
G3 X52.046 Y16.34 I-0.096 J0.295
X49.954 Y15.66 I-1.046 J-0.34 F300
X52.046 Y16.34 I1.046 J0.34
X51.656 Y16.539 I-0.295 J-0.096
G1 X51.361 Y16.443
X51.295 Y16.422 Z-3.892
X51.233 Y16.402 Z-3.869
X51.177 Y16.383 Z-3.832
X51.13 Y16.368 Z-3.783
X51.095 Y16.357 Z-3.725
X51.073 Y16.35 Z-3.659
X51.066 Y16.347 Z-3.59
Z5
X51.257 Y15.758
Z-2.6 F150
Z-3.89
X51.265 Y15.76 Z-3.959
X51.287 Y15.767 Z-4.025
X51.322 Y15.779 Z-4.083
X51.368 Y15.794 Z-4.132
X51.424 Y15.812 Z-4.169
X51.487 Y15.832 Z-4.192
X51.552 Y15.854 Z-4.2
X51.847 Y15.949
G3 X52.046 Y16.34 I-0.096 J0.295
X49.954 Y15.66 I-1.046 J-0.34 F300
X52.046 Y16.34 I1.046 J0.34
X51.656 Y16.539 I-0.295 J-0.096
G1 X51.361 Y16.443
X51.295 Y16.422 Z-4.192
X51.233 Y16.402 Z-4.169
X51.177 Y16.383 Z-4.132
X51.13 Y16.368 Z-4.083
X51.095 Y16.357 Z-4.025
X51.073 Y16.35 Z-3.959
X51.066 Y16.347 Z-3.89
Z5
X51.257 Y15.758
Z-2.9 F150
Z-4.19
X51.265 Y15.76 Z-4.259
X51.287 Y15.767 Z-4.325
X51.322 Y15.779 Z-4.383
X51.368 Y15.794 Z-4.432
X51.424 Y15.812 Z-4.469
X51.487 Y15.832 Z-4.492
X51.552 Y15.854 Z-4.5
X51.847 Y15.949
G3 X52.046 Y16.34 I-0.096 J0.295
X49.954 Y15.66 I-1.046 J-0.34 F300
X52.046 Y16.34 I1.046 J0.34
X51.656 Y16.539 I-0.295 J-0.096
G1 X51.361 Y16.443
X51.295 Y16.422 Z-4.492
X51.233 Y16.402 Z-4.469
X51.177 Y16.383 Z-4.432
X51.13 Y16.368 Z-4.383
X51.095 Y16.357 Z-4.325
X51.073 Y16.35 Z-4.259
X51.066 Y16.347 Z-4.19
Z5
X51.257 Y15.758
Z-3.2 F150
Z-4.49
X51.265 Y15.76 Z-4.559
X51.287 Y15.767 Z-4.625
X51.322 Y15.779 Z-4.683
X51.368 Y15.794 Z-4.732
X51.424 Y15.812 Z-4.769
X51.487 Y15.832 Z-4.792
X51.552 Y15.854 Z-4.8
X51.847 Y15.949
G3 X52.046 Y16.34 I-0.096 J0.295
X49.954 Y15.66 I-1.046 J-0.34 F300
X52.046 Y16.34 I1.046 J0.34
X51.656 Y16.539 I-0.295 J-0.096
G1 X51.361 Y16.443
X51.295 Y16.422 Z-4.792
X51.233 Y16.402 Z-4.769
X51.177 Y16.383 Z-4.732
X51.13 Y16.368 Z-4.683
X51.095 Y16.357 Z-4.625
X51.073 Y16.35 Z-4.559
X51.066 Y16.347 Z-4.49
Z5
X51.257 Y15.758
Z-3.5 F150
Z-4.79
X51.265 Y15.76 Z-4.859
X51.287 Y15.767 Z-4.925
X51.322 Y15.779 Z-4.983
X51.368 Y15.794 Z-5.032
X51.424 Y15.812 Z-5.069
X51.487 Y15.832 Z-5.092
X51.552 Y15.854 Z-5.1
X51.847 Y15.949
G3 X52.046 Y16.34 I-0.096 J0.295
X49.954 Y15.66 I-1.046 J-0.34 F300
X52.046 Y16.34 I1.046 J0.34
X51.656 Y16.539 I-0.295 J-0.096
G1 X51.361 Y16.443
X51.295 Y16.422 Z-5.092
X51.233 Y16.402 Z-5.069
X51.177 Y16.383 Z-5.032
X51.13 Y16.368 Z-4.983
X51.095 Y16.357 Z-4.925
X51.073 Y16.35 Z-4.859
X51.066 Y16.347 Z-4.79
Z5
X51.257 Y15.758
Z-3.8 F150
Z-5.09
X51.265 Y15.76 Z-5.159
X51.287 Y15.767 Z-5.225
X51.322 Y15.779 Z-5.283
X51.368 Y15.794 Z-5.332
X51.424 Y15.812 Z-5.369
X51.487 Y15.832 Z-5.392
X51.552 Y15.854 Z-5.4
X51.847 Y15.949
G3 X52.046 Y16.34 I-0.096 J0.295
X49.954 Y15.66 I-1.046 J-0.34 F300
X52.046 Y16.34 I1.046 J0.34
X51.656 Y16.539 I-0.295 J-0.096
G1 X51.361 Y16.443
X51.295 Y16.422 Z-5.392
X51.233 Y16.402 Z-5.369
X51.177 Y16.383 Z-5.332
X51.13 Y16.368 Z-5.283
X51.095 Y16.357 Z-5.225
X51.073 Y16.35 Z-5.159
X51.066 Y16.347 Z-5.09
Z5
X51.257 Y15.758
Z-4.1 F150
Z-5.39
X51.265 Y15.76 Z-5.459
X51.287 Y15.767 Z-5.525
X51.322 Y15.779 Z-5.583
X51.368 Y15.794 Z-5.632
X51.424 Y15.812 Z-5.669
X51.487 Y15.832 Z-5.692
X51.552 Y15.854 Z-5.7
X51.847 Y15.949
G3 X52.046 Y16.34 I-0.096 J0.295
X49.954 Y15.66 I-1.046 J-0.34 F300
X52.046 Y16.34 I1.046 J0.34
X51.656 Y16.539 I-0.295 J-0.096
G1 X51.361 Y16.443
X51.295 Y16.422 Z-5.692
X51.233 Y16.402 Z-5.669
X51.177 Y16.383 Z-5.632
X51.13 Y16.368 Z-5.583
X51.095 Y16.357 Z-5.525
X51.073 Y16.35 Z-5.459
X51.066 Y16.347 Z-5.39
Z5
X51.257 Y15.758
Z-4.4 F150
Z-5.69
X51.265 Y15.76 Z-5.759
X51.287 Y15.767 Z-5.825
X51.322 Y15.779 Z-5.883
X51.368 Y15.794 Z-5.932
X51.424 Y15.812 Z-5.969
X51.487 Y15.832 Z-5.992
X51.552 Y15.854 Z-6
X51.847 Y15.949
G3 X52.046 Y16.34 I-0.096 J0.295
X49.954 Y15.66 I-1.046 J-0.34 F300
X52.046 Y16.34 I1.046 J0.34
X51.656 Y16.539 I-0.295 J-0.096
G1 X51.361 Y16.443
X51.295 Y16.422 Z-5.992
X51.233 Y16.402 Z-5.969
X51.177 Y16.383 Z-5.932
X51.13 Y16.368 Z-5.883
X51.095 Y16.357 Z-5.825
X51.073 Y16.35 Z-5.759
X51.066 Y16.347 Z-5.69
Z5
X51.257 Y15.758
Z-4.7 F150
Z-5.99
X51.265 Y15.76 Z-6.059
X51.287 Y15.767 Z-6.125
X51.322 Y15.779 Z-6.183
X51.368 Y15.794 Z-6.232
X51.424 Y15.812 Z-6.269
X51.487 Y15.832 Z-6.292
X51.552 Y15.854 Z-6.3
X51.847 Y15.949
G3 X52.046 Y16.34 I-0.096 J0.295
X49.954 Y15.66 I-1.046 J-0.34 F300
X52.046 Y16.34 I1.046 J0.34
X51.656 Y16.539 I-0.295 J-0.096
G1 X51.361 Y16.443
X51.295 Y16.422 Z-6.292
X51.233 Y16.402 Z-6.269
X51.177 Y16.383 Z-6.232
X51.13 Y16.368 Z-6.183
X51.095 Y16.357 Z-6.125
X51.073 Y16.35 Z-6.059
X51.066 Y16.347 Z-5.99
Z5
X51.257 Y15.758
Z-5 F150
Z-6.29
X51.265 Y15.76 Z-6.359
X51.287 Y15.767 Z-6.425
X51.322 Y15.779 Z-6.483
X51.368 Y15.794 Z-6.532
X51.424 Y15.812 Z-6.569
X51.487 Y15.832 Z-6.592
X51.552 Y15.854 Z-6.6
X51.847 Y15.949
G3 X52.046 Y16.34 I-0.096 J0.295
X49.954 Y15.66 I-1.046 J-0.34 F300
X52.046 Y16.34 I1.046 J0.34
X51.656 Y16.539 I-0.295 J-0.096
G1 X51.361 Y16.443
X51.295 Y16.422 Z-6.592
X51.233 Y16.402 Z-6.569
X51.177 Y16.383 Z-6.532
X51.13 Y16.368 Z-6.483
X51.095 Y16.357 Z-6.425
X51.073 Y16.35 Z-6.359
X51.066 Y16.347 Z-6.29
Z5
X51.257 Y15.758
Z-5.3 F150
Z-6.59
X51.265 Y15.76 Z-6.659
X51.287 Y15.767 Z-6.725
X51.322 Y15.779 Z-6.783
X51.368 Y15.794 Z-6.832
X51.424 Y15.812 Z-6.869
X51.487 Y15.832 Z-6.892
X51.552 Y15.854 Z-6.9
X51.847 Y15.949
G3 X52.046 Y16.34 I-0.096 J0.295
X49.954 Y15.66 I-1.046 J-0.34 F300
X52.046 Y16.34 I1.046 J0.34
X51.656 Y16.539 I-0.295 J-0.096
G1 X51.361 Y16.443
X51.295 Y16.422 Z-6.892
X51.233 Y16.402 Z-6.869
X51.177 Y16.383 Z-6.832
X51.13 Y16.368 Z-6.783
X51.095 Y16.357 Z-6.725
X51.073 Y16.35 Z-6.659
X51.066 Y16.347 Z-6.59
Z5
X51.257 Y15.758
Z-5.6 F150
Z-6.69
X51.265 Y15.76 Z-6.759
X51.287 Y15.767 Z-6.825
X51.322 Y15.779 Z-6.883
X51.368 Y15.794 Z-6.932
X51.424 Y15.812 Z-6.969
X51.487 Y15.832 Z-6.992
X51.552 Y15.854 Z-7
X51.847 Y15.949
G3 X52.046 Y16.34 I-0.096 J0.295
X49.954 Y15.66 I-1.046 J-0.34 F300
X52.046 Y16.34 I1.046 J0.34
X51.656 Y16.539 I-0.295 J-0.096
G1 X51.361 Y16.443
X51.295 Y16.422 Z-6.992
X51.233 Y16.402 Z-6.969
X51.177 Y16.383 Z-6.932
X51.13 Y16.368 Z-6.883
X51.095 Y16.357 Z-6.825
X51.073 Y16.35 Z-6.759
X51.066 Y16.347 Z-6.69
Z5
X51.257 Y40.758
Z1.3 F150
Z0.01
X51.265 Y40.76 Z-0.059
X51.287 Y40.767 Z-0.125
X51.322 Y40.779 Z-0.183
X51.368 Y40.794 Z-0.232
X51.424 Y40.812 Z-0.269
X51.487 Y40.832 Z-0.292
X51.552 Y40.854 Z-0.3
X51.847 Y40.949
G3 X52.046 Y41.34 I-0.096 J0.295
X49.954 Y40.66 I-1.046 J-0.34 F300
X52.046 Y41.34 I1.046 J0.34
X51.656 Y41.539 I-0.295 J-0.096
G1 X51.361 Y41.443
X51.295 Y41.422 Z-0.292
X51.233 Y41.402 Z-0.269
X51.177 Y41.383 Z-0.232
X51.13 Y41.368 Z-0.183
X51.095 Y41.357 Z-0.125
X51.073 Y41.35 Z-0.059
X51.066 Y41.347 Z0.01
Z5
X51.257 Y40.758
Z1 F150
Z-0.29
X51.265 Y40.76 Z-0.359
X51.287 Y40.767 Z-0.425
X51.322 Y40.779 Z-0.483
X51.368 Y40.794 Z-0.532
X51.424 Y40.812 Z-0.569
X51.487 Y40.832 Z-0.592
X51.552 Y40.854 Z-0.6
X51.847 Y40.949
G3 X52.046 Y41.34 I-0.096 J0.295
X49.954 Y40.66 I-1.046 J-0.34 F300
X52.046 Y41.34 I1.046 J0.34
X51.656 Y41.539 I-0.295 J-0.096
G1 X51.361 Y41.443
X51.295 Y41.422 Z-0.592
X51.233 Y41.402 Z-0.569
X51.177 Y41.383 Z-0.532
X51.13 Y41.368 Z-0.483
X51.095 Y41.357 Z-0.425
X51.073 Y41.35 Z-0.359
X51.066 Y41.347 Z-0.29
Z5
X51.257 Y40.758
Z0.7 F150
Z-0.59
X51.265 Y40.76 Z-0.659
X51.287 Y40.767 Z-0.725
X51.322 Y40.779 Z-0.783
X51.368 Y40.794 Z-0.832
X51.424 Y40.812 Z-0.869
X51.487 Y40.832 Z-0.892
X51.552 Y40.854 Z-0.9
X51.847 Y40.949
G3 X52.046 Y41.34 I-0.096 J0.295
X49.954 Y40.66 I-1.046 J-0.34 F300
X52.046 Y41.34 I1.046 J0.34
X51.656 Y41.539 I-0.295 J-0.096
G1 X51.361 Y41.443
X51.295 Y41.422 Z-0.892
X51.233 Y41.402 Z-0.869
X51.177 Y41.383 Z-0.832
X51.13 Y41.368 Z-0.783
X51.095 Y41.357 Z-0.725
X51.073 Y41.35 Z-0.659
X51.066 Y41.347 Z-0.59
Z5
X51.257 Y40.758
Z0.4 F150
Z-0.89
X51.265 Y40.76 Z-0.959
X51.287 Y40.767 Z-1.025
X51.322 Y40.779 Z-1.083
X51.368 Y40.794 Z-1.132
X51.424 Y40.812 Z-1.169
X51.487 Y40.832 Z-1.192
X51.552 Y40.854 Z-1.2
X51.847 Y40.949
G3 X52.046 Y41.34 I-0.096 J0.295
X49.954 Y40.66 I-1.046 J-0.34 F300
X52.046 Y41.34 I1.046 J0.34
X51.656 Y41.539 I-0.295 J-0.096
G1 X51.361 Y41.443
X51.295 Y41.422 Z-1.192
X51.233 Y41.402 Z-1.169
X51.177 Y41.383 Z-1.132
X51.13 Y41.368 Z-1.083
X51.095 Y41.357 Z-1.025
X51.073 Y41.35 Z-0.959
X51.066 Y41.347 Z-0.89
Z5
X51.257 Y40.758
Z0.1 F150
Z-1.19
X51.265 Y40.76 Z-1.259
X51.287 Y40.767 Z-1.325
X51.322 Y40.779 Z-1.383
X51.368 Y40.794 Z-1.432
X51.424 Y40.812 Z-1.469
X51.487 Y40.832 Z-1.492
X51.552 Y40.854 Z-1.5
X51.847 Y40.949
G3 X52.046 Y41.34 I-0.096 J0.295
X49.954 Y40.66 I-1.046 J-0.34 F300
X52.046 Y41.34 I1.046 J0.34
X51.656 Y41.539 I-0.295 J-0.096
G1 X51.361 Y41.443
X51.295 Y41.422 Z-1.492
X51.233 Y41.402 Z-1.469
X51.177 Y41.383 Z-1.432
X51.13 Y41.368 Z-1.383
X51.095 Y41.357 Z-1.325
X51.073 Y41.35 Z-1.259
X51.066 Y41.347 Z-1.19
Z5
X51.257 Y40.758
Z-0.2 F150
Z-1.49
X51.265 Y40.76 Z-1.559
X51.287 Y40.767 Z-1.625
X51.322 Y40.779 Z-1.683
X51.368 Y40.794 Z-1.732
X51.424 Y40.812 Z-1.769
X51.487 Y40.832 Z-1.792
X51.552 Y40.854 Z-1.8
X51.847 Y40.949
G3 X52.046 Y41.34 I-0.096 J0.295
X49.954 Y40.66 I-1.046 J-0.34 F300
X52.046 Y41.34 I1.046 J0.34
X51.656 Y41.539 I-0.295 J-0.096
G1 X51.361 Y41.443
X51.295 Y41.422 Z-1.792
X51.233 Y41.402 Z-1.769
X51.177 Y41.383 Z-1.732
X51.13 Y41.368 Z-1.683
X51.095 Y41.357 Z-1.625
X51.073 Y41.35 Z-1.559
X51.066 Y41.347 Z-1.49
Z5
X51.257 Y40.758
Z-0.5 F150
Z-1.79
X51.265 Y40.76 Z-1.859
X51.287 Y40.767 Z-1.925
X51.322 Y40.779 Z-1.983
X51.368 Y40.794 Z-2.032
X51.424 Y40.812 Z-2.069
X51.487 Y40.832 Z-2.092
X51.552 Y40.854 Z-2.1
X51.847 Y40.949
G3 X52.046 Y41.34 I-0.096 J0.295
X49.954 Y40.66 I-1.046 J-0.34 F300
X52.046 Y41.34 I1.046 J0.34
X51.656 Y41.539 I-0.295 J-0.096
G1 X51.361 Y41.443
X51.295 Y41.422 Z-2.092
X51.233 Y41.402 Z-2.069
X51.177 Y41.383 Z-2.032
X51.13 Y41.368 Z-1.983
X51.095 Y41.357 Z-1.925
X51.073 Y41.35 Z-1.859
X51.066 Y41.347 Z-1.79
Z5
X51.257 Y40.758
Z-0.8 F150
Z-2.09
X51.265 Y40.76 Z-2.159
X51.287 Y40.767 Z-2.225
X51.322 Y40.779 Z-2.283
X51.368 Y40.794 Z-2.332
X51.424 Y40.812 Z-2.369
X51.487 Y40.832 Z-2.392
X51.552 Y40.854 Z-2.4
X51.847 Y40.949
G3 X52.046 Y41.34 I-0.096 J0.295
X49.954 Y40.66 I-1.046 J-0.34 F300
X52.046 Y41.34 I1.046 J0.34
X51.656 Y41.539 I-0.295 J-0.096
G1 X51.361 Y41.443
X51.295 Y41.422 Z-2.392
X51.233 Y41.402 Z-2.369
X51.177 Y41.383 Z-2.332
X51.13 Y41.368 Z-2.283
X51.095 Y41.357 Z-2.225
X51.073 Y41.35 Z-2.159
X51.066 Y41.347 Z-2.09
Z5
X51.257 Y40.758
Z-1.1 F150
Z-2.39
X51.265 Y40.76 Z-2.459
X51.287 Y40.767 Z-2.525
X51.322 Y40.779 Z-2.583
X51.368 Y40.794 Z-2.632
X51.424 Y40.812 Z-2.669
X51.487 Y40.832 Z-2.692
X51.552 Y40.854 Z-2.7
X51.847 Y40.949
G3 X52.046 Y41.34 I-0.096 J0.295
X49.954 Y40.66 I-1.046 J-0.34 F300
X52.046 Y41.34 I1.046 J0.34
X51.656 Y41.539 I-0.295 J-0.096
G1 X51.361 Y41.443
X51.295 Y41.422 Z-2.692
X51.233 Y41.402 Z-2.669
X51.177 Y41.383 Z-2.632
X51.13 Y41.368 Z-2.583
X51.095 Y41.357 Z-2.525
X51.073 Y41.35 Z-2.459
X51.066 Y41.347 Z-2.39
Z5
X51.257 Y40.758
Z-1.4 F150
Z-2.69
X51.265 Y40.76 Z-2.759
X51.287 Y40.767 Z-2.825
X51.322 Y40.779 Z-2.883
X51.368 Y40.794 Z-2.932
X51.424 Y40.812 Z-2.969
X51.487 Y40.832 Z-2.992
X51.552 Y40.854 Z-3
X51.847 Y40.949
G3 X52.046 Y41.34 I-0.096 J0.295
X49.954 Y40.66 I-1.046 J-0.34 F300
X52.046 Y41.34 I1.046 J0.34
X51.656 Y41.539 I-0.295 J-0.096
G1 X51.361 Y41.443
X51.295 Y41.422 Z-2.992
X51.233 Y41.402 Z-2.969
X51.177 Y41.383 Z-2.932
X51.13 Y41.368 Z-2.883
X51.095 Y41.357 Z-2.825
X51.073 Y41.35 Z-2.759
X51.066 Y41.347 Z-2.69
Z5
X51.257 Y40.758
Z-1.7 F150
Z-2.99
X51.265 Y40.76 Z-3.059
X51.287 Y40.767 Z-3.125
X51.322 Y40.779 Z-3.183
X51.368 Y40.794 Z-3.232
X51.424 Y40.812 Z-3.269
X51.487 Y40.832 Z-3.292
X51.552 Y40.854 Z-3.3
X51.847 Y40.949
G3 X52.046 Y41.34 I-0.096 J0.295
X49.954 Y40.66 I-1.046 J-0.34 F300
X52.046 Y41.34 I1.046 J0.34
X51.656 Y41.539 I-0.295 J-0.096
G1 X51.361 Y41.443
X51.295 Y41.422 Z-3.292
X51.233 Y41.402 Z-3.269
X51.177 Y41.383 Z-3.232
X51.13 Y41.368 Z-3.183
X51.095 Y41.357 Z-3.125
X51.073 Y41.35 Z-3.059
X51.066 Y41.347 Z-2.99
Z5
X51.257 Y40.758
Z-2 F150
Z-3.29
X51.265 Y40.76 Z-3.359
X51.287 Y40.767 Z-3.425
X51.322 Y40.779 Z-3.483
X51.368 Y40.794 Z-3.532
X51.424 Y40.812 Z-3.569
X51.487 Y40.832 Z-3.592
X51.552 Y40.854 Z-3.6
X51.847 Y40.949
G3 X52.046 Y41.34 I-0.096 J0.295
X49.954 Y40.66 I-1.046 J-0.34 F300
X52.046 Y41.34 I1.046 J0.34
X51.656 Y41.539 I-0.295 J-0.096
G1 X51.361 Y41.443
X51.295 Y41.422 Z-3.592
X51.233 Y41.402 Z-3.569
X51.177 Y41.383 Z-3.532
X51.13 Y41.368 Z-3.483
X51.095 Y41.357 Z-3.425
X51.073 Y41.35 Z-3.359
X51.066 Y41.347 Z-3.29
Z5
X51.257 Y40.758
Z-2.3 F150
Z-3.59
X51.265 Y40.76 Z-3.659
X51.287 Y40.767 Z-3.725
X51.322 Y40.779 Z-3.783
X51.368 Y40.794 Z-3.832
X51.424 Y40.812 Z-3.869
X51.487 Y40.832 Z-3.892
X51.552 Y40.854 Z-3.9
X51.847 Y40.949
G3 X52.046 Y41.34 I-0.096 J0.295
X49.954 Y40.66 I-1.046 J-0.34 F300
X52.046 Y41.34 I1.046 J0.34
X51.656 Y41.539 I-0.295 J-0.096
G1 X51.361 Y41.443
X51.295 Y41.422 Z-3.892
X51.233 Y41.402 Z-3.869
X51.177 Y41.383 Z-3.832
X51.13 Y41.368 Z-3.783
X51.095 Y41.357 Z-3.725
X51.073 Y41.35 Z-3.659
X51.066 Y41.347 Z-3.59
Z5
X51.257 Y40.758
Z-2.6 F150
Z-3.89
X51.265 Y40.76 Z-3.959
X51.287 Y40.767 Z-4.025
X51.322 Y40.779 Z-4.083
X51.368 Y40.794 Z-4.132
X51.424 Y40.812 Z-4.169
X51.487 Y40.832 Z-4.192
X51.552 Y40.854 Z-4.2
X51.847 Y40.949
G3 X52.046 Y41.34 I-0.096 J0.295
X49.954 Y40.66 I-1.046 J-0.34 F300
X52.046 Y41.34 I1.046 J0.34
X51.656 Y41.539 I-0.295 J-0.096
G1 X51.361 Y41.443
X51.295 Y41.422 Z-4.192
X51.233 Y41.402 Z-4.169
X51.177 Y41.383 Z-4.132
X51.13 Y41.368 Z-4.083
X51.095 Y41.357 Z-4.025
X51.073 Y41.35 Z-3.959
X51.066 Y41.347 Z-3.89
Z5
X51.257 Y40.758
Z-2.9 F150
Z-4.19
X51.265 Y40.76 Z-4.259
X51.287 Y40.767 Z-4.325
X51.322 Y40.779 Z-4.383
X51.368 Y40.794 Z-4.432
X51.424 Y40.812 Z-4.469
X51.487 Y40.832 Z-4.492
X51.552 Y40.854 Z-4.5
X51.847 Y40.949
G3 X52.046 Y41.34 I-0.096 J0.295
X49.954 Y40.66 I-1.046 J-0.34 F300
X52.046 Y41.34 I1.046 J0.34
X51.656 Y41.539 I-0.295 J-0.096
G1 X51.361 Y41.443
X51.295 Y41.422 Z-4.492
X51.233 Y41.402 Z-4.469
X51.177 Y41.383 Z-4.432
X51.13 Y41.368 Z-4.383
X51.095 Y41.357 Z-4.325
X51.073 Y41.35 Z-4.259
X51.066 Y41.347 Z-4.19
Z5
X51.257 Y40.758
Z-3.2 F150
Z-4.49
X51.265 Y40.76 Z-4.559
X51.287 Y40.767 Z-4.625
X51.322 Y40.779 Z-4.683
X51.368 Y40.794 Z-4.732
X51.424 Y40.812 Z-4.769
X51.487 Y40.832 Z-4.792
X51.552 Y40.854 Z-4.8
X51.847 Y40.949
G3 X52.046 Y41.34 I-0.096 J0.295
X49.954 Y40.66 I-1.046 J-0.34 F300
X52.046 Y41.34 I1.046 J0.34
X51.656 Y41.539 I-0.295 J-0.096
G1 X51.361 Y41.443
X51.295 Y41.422 Z-4.792
X51.233 Y41.402 Z-4.769
X51.177 Y41.383 Z-4.732
X51.13 Y41.368 Z-4.683
X51.095 Y41.357 Z-4.625
X51.073 Y41.35 Z-4.559
X51.066 Y41.347 Z-4.49
Z5
X51.257 Y40.758
Z-3.5 F150
Z-4.79
X51.265 Y40.76 Z-4.859
X51.287 Y40.767 Z-4.925
X51.322 Y40.779 Z-4.983
X51.368 Y40.794 Z-5.032
X51.424 Y40.812 Z-5.069
X51.487 Y40.832 Z-5.092
X51.552 Y40.854 Z-5.1
X51.847 Y40.949
G3 X52.046 Y41.34 I-0.096 J0.295
X49.954 Y40.66 I-1.046 J-0.34 F300
X52.046 Y41.34 I1.046 J0.34
X51.656 Y41.539 I-0.295 J-0.096
G1 X51.361 Y41.443
X51.295 Y41.422 Z-5.092
X51.233 Y41.402 Z-5.069
X51.177 Y41.383 Z-5.032
X51.13 Y41.368 Z-4.983
X51.095 Y41.357 Z-4.925
X51.073 Y41.35 Z-4.859
X51.066 Y41.347 Z-4.79
Z5
X51.257 Y40.758
Z-3.8 F150
Z-5.09
X51.265 Y40.76 Z-5.159
X51.287 Y40.767 Z-5.225
X51.322 Y40.779 Z-5.283
X51.368 Y40.794 Z-5.332
X51.424 Y40.812 Z-5.369
X51.487 Y40.832 Z-5.392
X51.552 Y40.854 Z-5.4
X51.847 Y40.949
G3 X52.046 Y41.34 I-0.096 J0.295
X49.954 Y40.66 I-1.046 J-0.34 F300
X52.046 Y41.34 I1.046 J0.34
X51.656 Y41.539 I-0.295 J-0.096
G1 X51.361 Y41.443
X51.295 Y41.422 Z-5.392
X51.233 Y41.402 Z-5.369
X51.177 Y41.383 Z-5.332
X51.13 Y41.368 Z-5.283
X51.095 Y41.357 Z-5.225
X51.073 Y41.35 Z-5.159
X51.066 Y41.347 Z-5.09
Z5
X51.257 Y40.758
Z-4.1 F150
Z-5.39
X51.265 Y40.76 Z-5.459
X51.287 Y40.767 Z-5.525
X51.322 Y40.779 Z-5.583
X51.368 Y40.794 Z-5.632
X51.424 Y40.812 Z-5.669
X51.487 Y40.832 Z-5.692
X51.552 Y40.854 Z-5.7
X51.847 Y40.949
G3 X52.046 Y41.34 I-0.096 J0.295
X49.954 Y40.66 I-1.046 J-0.34 F300
X52.046 Y41.34 I1.046 J0.34
X51.656 Y41.539 I-0.295 J-0.096
G1 X51.361 Y41.443
X51.295 Y41.422 Z-5.692
X51.233 Y41.402 Z-5.669
X51.177 Y41.383 Z-5.632
X51.13 Y41.368 Z-5.583
X51.095 Y41.357 Z-5.525
X51.073 Y41.35 Z-5.459
X51.066 Y41.347 Z-5.39
Z5
X51.257 Y40.758
Z-4.4 F150
Z-5.69
X51.265 Y40.76 Z-5.759
X51.287 Y40.767 Z-5.825
X51.322 Y40.779 Z-5.883
X51.368 Y40.794 Z-5.932
X51.424 Y40.812 Z-5.969
X51.487 Y40.832 Z-5.992
X51.552 Y40.854 Z-6
X51.847 Y40.949
G3 X52.046 Y41.34 I-0.096 J0.295
X49.954 Y40.66 I-1.046 J-0.34 F300
X52.046 Y41.34 I1.046 J0.34
X51.656 Y41.539 I-0.295 J-0.096
G1 X51.361 Y41.443
X51.295 Y41.422 Z-5.992
X51.233 Y41.402 Z-5.969
X51.177 Y41.383 Z-5.932
X51.13 Y41.368 Z-5.883
X51.095 Y41.357 Z-5.825
X51.073 Y41.35 Z-5.759
X51.066 Y41.347 Z-5.69
Z5
X51.257 Y40.758
Z-4.7 F150
Z-5.99
X51.265 Y40.76 Z-6.059
X51.287 Y40.767 Z-6.125
X51.322 Y40.779 Z-6.183
X51.368 Y40.794 Z-6.232
X51.424 Y40.812 Z-6.269
X51.487 Y40.832 Z-6.292
X51.552 Y40.854 Z-6.3
X51.847 Y40.949
G3 X52.046 Y41.34 I-0.096 J0.295
X49.954 Y40.66 I-1.046 J-0.34 F300
X52.046 Y41.34 I1.046 J0.34
X51.656 Y41.539 I-0.295 J-0.096
G1 X51.361 Y41.443
X51.295 Y41.422 Z-6.292
X51.233 Y41.402 Z-6.269
X51.177 Y41.383 Z-6.232
X51.13 Y41.368 Z-6.183
X51.095 Y41.357 Z-6.125
X51.073 Y41.35 Z-6.059
X51.066 Y41.347 Z-5.99
Z5
X51.257 Y40.758
Z-5 F150
Z-6.29
X51.265 Y40.76 Z-6.359
X51.287 Y40.767 Z-6.425
X51.322 Y40.779 Z-6.483
X51.368 Y40.794 Z-6.532
X51.424 Y40.812 Z-6.569
X51.487 Y40.832 Z-6.592
X51.552 Y40.854 Z-6.6
X51.847 Y40.949
G3 X52.046 Y41.34 I-0.096 J0.295
X49.954 Y40.66 I-1.046 J-0.34 F300
X52.046 Y41.34 I1.046 J0.34
X51.656 Y41.539 I-0.295 J-0.096
G1 X51.361 Y41.443
X51.295 Y41.422 Z-6.592
X51.233 Y41.402 Z-6.569
X51.177 Y41.383 Z-6.532
X51.13 Y41.368 Z-6.483
X51.095 Y41.357 Z-6.425
X51.073 Y41.35 Z-6.359
X51.066 Y41.347 Z-6.29
Z5
X51.257 Y40.758
Z-5.3 F150
Z-6.59
X51.265 Y40.76 Z-6.659
X51.287 Y40.767 Z-6.725
X51.322 Y40.779 Z-6.783
X51.368 Y40.794 Z-6.832
X51.424 Y40.812 Z-6.869
X51.487 Y40.832 Z-6.892
X51.552 Y40.854 Z-6.9
X51.847 Y40.949
G3 X52.046 Y41.34 I-0.096 J0.295
X49.954 Y40.66 I-1.046 J-0.34 F300
X52.046 Y41.34 I1.046 J0.34
X51.656 Y41.539 I-0.295 J-0.096
G1 X51.361 Y41.443
X51.295 Y41.422 Z-6.892
X51.233 Y41.402 Z-6.869
X51.177 Y41.383 Z-6.832
X51.13 Y41.368 Z-6.783
X51.095 Y41.357 Z-6.725
X51.073 Y41.35 Z-6.659
X51.066 Y41.347 Z-6.59
Z5
X51.257 Y40.758
Z-5.6 F150
Z-6.69
X51.265 Y40.76 Z-6.759
X51.287 Y40.767 Z-6.825
X51.322 Y40.779 Z-6.883
X51.368 Y40.794 Z-6.932
X51.424 Y40.812 Z-6.969
X51.487 Y40.832 Z-6.992
X51.552 Y40.854 Z-7
X51.847 Y40.949
G3 X52.046 Y41.34 I-0.096 J0.295
X49.954 Y40.66 I-1.046 J-0.34 F300
X52.046 Y41.34 I1.046 J0.34
X51.656 Y41.539 I-0.295 J-0.096
G1 X51.361 Y41.443
X51.295 Y41.422 Z-6.992
X51.233 Y41.402 Z-6.969
X51.177 Y41.383 Z-6.932
X51.13 Y41.368 Z-6.883
X51.095 Y41.357 Z-6.825
X51.073 Y41.35 Z-6.759
X51.066 Y41.347 Z-6.69
Z5
X31.17 Y40.69
Z1.3 F150
Z0.01
G18 G2 X31.48 Z-0.3 I0.31 K0
G1 X31.79
G17 G3 X32.1 Y41 I0 J0.31
X29.9 Y41 I-1.1 J0 F300
X32.1 Y41 I1.1 J0
X31.79 Y41.31 I-0.31 J0
G1 X31.48
G18 G3 X31.17 Z0.01 I0 K0.31
G1 Z5
Y40.69
Z1 F150
Z-0.29
G2 X31.48 Z-0.6 I0.31 K0
G1 X31.79
G17 G3 X32.1 Y41 I0 J0.31
X29.9 Y41 I-1.1 J0 F300
X32.1 Y41 I1.1 J0
X31.79 Y41.31 I-0.31 J0
G1 X31.48
G18 G3 X31.17 Z-0.29 I0 K0.31
G1 Z5
Y40.69
Z0.7 F150
Z-0.59
G2 X31.48 Z-0.9 I0.31 K0
G1 X31.79
G17 G3 X32.1 Y41 I0 J0.31
X29.9 Y41 I-1.1 J0 F300
X32.1 Y41 I1.1 J0
X31.79 Y41.31 I-0.31 J0
G1 X31.48
G18 G3 X31.17 Z-0.59 I0 K0.31
G1 Z5
Y40.69
Z0.4 F150
Z-0.89
G2 X31.48 Z-1.2 I0.31 K0
G1 X31.79
G17 G3 X32.1 Y41 I0 J0.31
X29.9 Y41 I-1.1 J0 F300
X32.1 Y41 I1.1 J0
X31.79 Y41.31 I-0.31 J0
G1 X31.48
G18 G3 X31.17 Z-0.89 I0 K0.31
G1 Z5
Y40.69
Z0.1 F150
Z-1.19
G2 X31.48 Z-1.5 I0.31 K0
G1 X31.79
G17 G3 X32.1 Y41 I0 J0.31
X29.9 Y41 I-1.1 J0 F300
X32.1 Y41 I1.1 J0
X31.79 Y41.31 I-0.31 J0
G1 X31.48
G18 G3 X31.17 Z-1.19 I0 K0.31
G1 Z5
Y40.69
Z-0.2 F150
Z-1.49
G2 X31.48 Z-1.8 I0.31 K0
G1 X31.79
G17 G3 X32.1 Y41 I0 J0.31
X29.9 Y41 I-1.1 J0 F300
X32.1 Y41 I1.1 J0
X31.79 Y41.31 I-0.31 J0
G1 X31.48
G18 G3 X31.17 Z-1.49 I0 K0.31
G1 Z5
Y40.69
Z-0.5 F150
Z-1.79
G2 X31.48 Z-2.1 I0.31 K0
G1 X31.79
G17 G3 X32.1 Y41 I0 J0.31
X29.9 Y41 I-1.1 J0 F300
X32.1 Y41 I1.1 J0
X31.79 Y41.31 I-0.31 J0
G1 X31.48
G18 G3 X31.17 Z-1.79 I0 K0.31
G1 Z5
Y40.69
Z-0.8 F150
Z-2.09
G2 X31.48 Z-2.4 I0.31 K0
G1 X31.79
G17 G3 X32.1 Y41 I0 J0.31
X29.9 Y41 I-1.1 J0 F300
X32.1 Y41 I1.1 J0
X31.79 Y41.31 I-0.31 J0
G1 X31.48
G18 G3 X31.17 Z-2.09 I0 K0.31
G1 Z5
Y40.69
Z-1.1 F150
Z-2.39
G2 X31.48 Z-2.7 I0.31 K0
G1 X31.79
G17 G3 X32.1 Y41 I0 J0.31
X29.9 Y41 I-1.1 J0 F300
X32.1 Y41 I1.1 J0
X31.79 Y41.31 I-0.31 J0
G1 X31.48
G18 G3 X31.17 Z-2.39 I0 K0.31
G1 Z5
Y40.69
Z-1.4 F150
Z-2.69
G2 X31.48 Z-3 I0.31 K0
G1 X31.79
G17 G3 X32.1 Y41 I0 J0.31
X29.9 Y41 I-1.1 J0 F300
X32.1 Y41 I1.1 J0
X31.79 Y41.31 I-0.31 J0
G1 X31.48
G18 G3 X31.17 Z-2.69 I0 K0.31
G1 Z5
Y40.69
Z-1.7 F150
Z-2.99
G2 X31.48 Z-3.3 I0.31 K0
G1 X31.79
G17 G3 X32.1 Y41 I0 J0.31
X29.9 Y41 I-1.1 J0 F300
X32.1 Y41 I1.1 J0
X31.79 Y41.31 I-0.31 J0
G1 X31.48
G18 G3 X31.17 Z-2.99 I0 K0.31
G1 Z5
Y40.69
Z-2 F150
Z-3.29
G2 X31.48 Z-3.6 I0.31 K0
G1 X31.79
G17 G3 X32.1 Y41 I0 J0.31
X29.9 Y41 I-1.1 J0 F300
X32.1 Y41 I1.1 J0
X31.79 Y41.31 I-0.31 J0
G1 X31.48
G18 G3 X31.17 Z-3.29 I0 K0.31
G1 Z5
Y40.69
Z-2.3 F150
Z-3.59
G2 X31.48 Z-3.9 I0.31 K0
G1 X31.79
G17 G3 X32.1 Y41 I0 J0.31
X29.9 Y41 I-1.1 J0 F300
X32.1 Y41 I1.1 J0
X31.79 Y41.31 I-0.31 J0
G1 X31.48
G18 G3 X31.17 Z-3.59 I0 K0.31
G1 Z5
Y40.69
Z-2.6 F150
Z-3.89
G2 X31.48 Z-4.2 I0.31 K0
G1 X31.79
G17 G3 X32.1 Y41 I0 J0.31
X29.9 Y41 I-1.1 J0 F300
X32.1 Y41 I1.1 J0
X31.79 Y41.31 I-0.31 J0
G1 X31.48
G18 G3 X31.17 Z-3.89 I0 K0.31
G1 Z5
Y40.69
Z-2.9 F150
Z-4.19
G2 X31.48 Z-4.5 I0.31 K0
G1 X31.79
G17 G3 X32.1 Y41 I0 J0.31
X29.9 Y41 I-1.1 J0 F300
X32.1 Y41 I1.1 J0
X31.79 Y41.31 I-0.31 J0
G1 X31.48
G18 G3 X31.17 Z-4.19 I0 K0.31
G1 Z5
Y40.69
Z-3.2 F150
Z-4.49
G2 X31.48 Z-4.8 I0.31 K0
G1 X31.79
G17 G3 X32.1 Y41 I0 J0.31
X29.9 Y41 I-1.1 J0 F300
X32.1 Y41 I1.1 J0
X31.79 Y41.31 I-0.31 J0
G1 X31.48
G18 G3 X31.17 Z-4.49 I0 K0.31
G1 Z5
Y40.69
Z-3.5 F150
Z-4.79
G2 X31.48 Z-5.1 I0.31 K0
G1 X31.79
G17 G3 X32.1 Y41 I0 J0.31
X29.9 Y41 I-1.1 J0 F300
X32.1 Y41 I1.1 J0
X31.79 Y41.31 I-0.31 J0
G1 X31.48
G18 G3 X31.17 Z-4.79 I0 K0.31
G1 Z5
Y40.69
Z-3.8 F150
Z-5.09
G2 X31.48 Z-5.4 I0.31 K0
G1 X31.79
G17 G3 X32.1 Y41 I0 J0.31
X29.9 Y41 I-1.1 J0 F300
X32.1 Y41 I1.1 J0
X31.79 Y41.31 I-0.31 J0
G1 X31.48
G18 G3 X31.17 Z-5.09 I0 K0.31
G1 Z5
Y40.69
Z-4.1 F150
Z-5.39
G2 X31.48 Z-5.7 I0.31 K0
G1 X31.79
G17 G3 X32.1 Y41 I0 J0.31
X29.9 Y41 I-1.1 J0 F300
X32.1 Y41 I1.1 J0
X31.79 Y41.31 I-0.31 J0
G1 X31.48
G18 G3 X31.17 Z-5.39 I0 K0.31
G1 Z5
Y40.69
Z-4.4 F150
Z-5.69
G2 X31.48 Z-6 I0.31 K0
G1 X31.79
G17 G3 X32.1 Y41 I0 J0.31
X29.9 Y41 I-1.1 J0 F300
X32.1 Y41 I1.1 J0
X31.79 Y41.31 I-0.31 J0
G1 X31.48
G18 G3 X31.17 Z-5.69 I0 K0.31
G1 Z5
Y40.69
Z-4.7 F150
Z-5.99
G2 X31.48 Z-6.3 I0.31 K0
G1 X31.79
G17 G3 X32.1 Y41 I0 J0.31
X29.9 Y41 I-1.1 J0 F300
X32.1 Y41 I1.1 J0
X31.79 Y41.31 I-0.31 J0
G1 X31.48
G18 G3 X31.17 Z-5.99 I0 K0.31
G1 Z5
Y40.69
Z-5 F150
Z-6.29
G2 X31.48 Z-6.6 I0.31 K0
G1 X31.79
G17 G3 X32.1 Y41 I0 J0.31
X29.9 Y41 I-1.1 J0 F300
X32.1 Y41 I1.1 J0
X31.79 Y41.31 I-0.31 J0
G1 X31.48
G18 G3 X31.17 Z-6.29 I0 K0.31
G1 Z5
Y40.69
Z-5.3 F150
Z-6.59
G2 X31.48 Z-6.9 I0.31 K0
G1 X31.79
G17 G3 X32.1 Y41 I0 J0.31
X29.9 Y41 I-1.1 J0 F300
X32.1 Y41 I1.1 J0
X31.79 Y41.31 I-0.31 J0
G1 X31.48
G18 G3 X31.17 Z-6.59 I0 K0.31
G1 Z5
Y40.69
Z-5.6 F150
Z-6.69
G2 X31.48 Z-7 I0.31 K0
G1 X31.79
G17 G3 X32.1 Y41 I0 J0.31
X29.9 Y41 I-1.1 J0 F300
X32.1 Y41 I1.1 J0
X31.79 Y41.31 I-0.31 J0
G1 X31.48
G18 G3 X31.17 Z-6.69 I0 K0.31
G1 Z5
X6.733 Y40.844
Z1.3 F150
Z0.01
X6.741 Y40.846 Z-0.059
X6.763 Y40.851 Z-0.125
X6.799 Y40.858 Z-0.183
X6.847 Y40.869 Z-0.232
X6.904 Y40.882 Z-0.269
X6.968 Y40.896 Z-0.292
X7.036 Y40.911 Z-0.3
X7.338 Y40.977
G17 G3 X7.575 Y41.347 I-0.067 J0.303
X4.425 Y40.653 I-1.575 J-0.347 F300
X7.575 Y41.347 I1.575 J0.347
X7.205 Y41.583 I-0.303 J-0.067
G1 X6.902 Y41.516
X6.835 Y41.501 Z-0.292
X6.771 Y41.487 Z-0.269
X6.714 Y41.475 Z-0.232
X6.666 Y41.464 Z-0.183
X6.63 Y41.456 Z-0.125
X6.607 Y41.451 Z-0.059
X6.6 Y41.449 Z0.01
Z5
X6.733 Y40.844
Z1 F150
Z-0.29
X6.741 Y40.846 Z-0.359
X6.763 Y40.851 Z-0.425
X6.799 Y40.858 Z-0.483
X6.847 Y40.869 Z-0.532
X6.904 Y40.882 Z-0.569
X6.968 Y40.896 Z-0.592
X7.036 Y40.911 Z-0.6
X7.338 Y40.977
G3 X7.575 Y41.347 I-0.067 J0.303
X4.425 Y40.653 I-1.575 J-0.347 F300
X7.575 Y41.347 I1.575 J0.347
X7.205 Y41.583 I-0.303 J-0.067
G1 X6.902 Y41.516
X6.835 Y41.501 Z-0.592
X6.771 Y41.487 Z-0.569
X6.714 Y41.475 Z-0.532
X6.666 Y41.464 Z-0.483
X6.63 Y41.456 Z-0.425
X6.607 Y41.451 Z-0.359
X6.6 Y41.449 Z-0.29
Z5
X6.733 Y40.844
Z0.7 F150
Z-0.59
X6.741 Y40.846 Z-0.659
X6.763 Y40.851 Z-0.725
X6.799 Y40.858 Z-0.783
X6.847 Y40.869 Z-0.832
X6.904 Y40.882 Z-0.869
X6.968 Y40.896 Z-0.892
X7.036 Y40.911 Z-0.9
X7.338 Y40.977
G3 X7.575 Y41.347 I-0.067 J0.303
X4.425 Y40.653 I-1.575 J-0.347 F300
X7.575 Y41.347 I1.575 J0.347
X7.205 Y41.583 I-0.303 J-0.067
G1 X6.902 Y41.516
X6.835 Y41.501 Z-0.892
X6.771 Y41.487 Z-0.869
X6.714 Y41.475 Z-0.832
X6.666 Y41.464 Z-0.783
X6.63 Y41.456 Z-0.725
X6.607 Y41.451 Z-0.659
X6.6 Y41.449 Z-0.59
Z5
X6.733 Y40.844
Z0.4 F150
Z-0.89
X6.741 Y40.846 Z-0.959
X6.763 Y40.851 Z-1.025
X6.799 Y40.858 Z-1.083
X6.847 Y40.869 Z-1.132
X6.904 Y40.882 Z-1.169
X6.968 Y40.896 Z-1.192
X7.036 Y40.911 Z-1.2
X7.338 Y40.977
G3 X7.575 Y41.347 I-0.067 J0.303
X4.425 Y40.653 I-1.575 J-0.347 F300
X7.575 Y41.347 I1.575 J0.347
X7.205 Y41.583 I-0.303 J-0.067
G1 X6.902 Y41.516
X6.835 Y41.501 Z-1.192
X6.771 Y41.487 Z-1.169
X6.714 Y41.475 Z-1.132
X6.666 Y41.464 Z-1.083
X6.63 Y41.456 Z-1.025
X6.607 Y41.451 Z-0.959
X6.6 Y41.449 Z-0.89
Z5
X6.733 Y40.844
Z0.1 F150
Z-1.19
X6.741 Y40.846 Z-1.259
X6.763 Y40.851 Z-1.325
X6.799 Y40.858 Z-1.383
X6.847 Y40.869 Z-1.432
X6.904 Y40.882 Z-1.469
X6.968 Y40.896 Z-1.492
X7.036 Y40.911 Z-1.5
X7.338 Y40.977
G3 X7.575 Y41.347 I-0.067 J0.303
X4.425 Y40.653 I-1.575 J-0.347 F300
X7.575 Y41.347 I1.575 J0.347
X7.205 Y41.583 I-0.303 J-0.067
G1 X6.902 Y41.516
X6.835 Y41.501 Z-1.492
X6.771 Y41.487 Z-1.469
X6.714 Y41.475 Z-1.432
X6.666 Y41.464 Z-1.383
X6.63 Y41.456 Z-1.325
X6.607 Y41.451 Z-1.259
X6.6 Y41.449 Z-1.19
Z5
X6.733 Y40.844
Z-0.2 F150
Z-1.49
X6.741 Y40.846 Z-1.559
X6.763 Y40.851 Z-1.625
X6.799 Y40.858 Z-1.683
X6.847 Y40.869 Z-1.732
X6.904 Y40.882 Z-1.769
X6.968 Y40.896 Z-1.792
X7.036 Y40.911 Z-1.8
X7.338 Y40.977
G3 X7.575 Y41.347 I-0.067 J0.303
X4.425 Y40.653 I-1.575 J-0.347 F300
X7.575 Y41.347 I1.575 J0.347
X7.205 Y41.583 I-0.303 J-0.067
G1 X6.902 Y41.516
X6.835 Y41.501 Z-1.792
X6.771 Y41.487 Z-1.769
X6.714 Y41.475 Z-1.732
X6.666 Y41.464 Z-1.683
X6.63 Y41.456 Z-1.625
X6.607 Y41.451 Z-1.559
X6.6 Y41.449 Z-1.49
Z5
X6.733 Y40.844
Z-0.5 F150
Z-1.79
X6.741 Y40.846 Z-1.859
X6.763 Y40.851 Z-1.925
X6.799 Y40.858 Z-1.983
X6.847 Y40.869 Z-2.032
X6.904 Y40.882 Z-2.069
X6.968 Y40.896 Z-2.092
X7.036 Y40.911 Z-2.1
X7.338 Y40.977
G3 X7.575 Y41.347 I-0.067 J0.303
X4.425 Y40.653 I-1.575 J-0.347 F300
X7.575 Y41.347 I1.575 J0.347
X7.205 Y41.583 I-0.303 J-0.067
G1 X6.902 Y41.516
X6.835 Y41.501 Z-2.092
X6.771 Y41.487 Z-2.069
X6.714 Y41.475 Z-2.032
X6.666 Y41.464 Z-1.983
X6.63 Y41.456 Z-1.925
X6.607 Y41.451 Z-1.859
X6.6 Y41.449 Z-1.79
Z5
X6.733 Y40.844
Z-0.8 F150
Z-2.09
X6.741 Y40.846 Z-2.159
X6.763 Y40.851 Z-2.225
X6.799 Y40.858 Z-2.283
X6.847 Y40.869 Z-2.332
X6.904 Y40.882 Z-2.369
X6.968 Y40.896 Z-2.392
X7.036 Y40.911 Z-2.4
X7.338 Y40.977
G3 X7.575 Y41.347 I-0.067 J0.303
X4.425 Y40.653 I-1.575 J-0.347 F300
X7.575 Y41.347 I1.575 J0.347
X7.205 Y41.583 I-0.303 J-0.067
G1 X6.902 Y41.516
X6.835 Y41.501 Z-2.392
X6.771 Y41.487 Z-2.369
X6.714 Y41.475 Z-2.332
X6.666 Y41.464 Z-2.283
X6.63 Y41.456 Z-2.225
X6.607 Y41.451 Z-2.159
X6.6 Y41.449 Z-2.09
Z5
X6.733 Y40.844
Z-1.1 F150
Z-2.39
X6.741 Y40.846 Z-2.459
X6.763 Y40.851 Z-2.525
X6.799 Y40.858 Z-2.583
X6.847 Y40.869 Z-2.632
X6.904 Y40.882 Z-2.669
X6.968 Y40.896 Z-2.692
X7.036 Y40.911 Z-2.7
X7.338 Y40.977
G3 X7.575 Y41.347 I-0.067 J0.303
X4.425 Y40.653 I-1.575 J-0.347 F300
X7.575 Y41.347 I1.575 J0.347
X7.205 Y41.583 I-0.303 J-0.067
G1 X6.902 Y41.516
X6.835 Y41.501 Z-2.692
X6.771 Y41.487 Z-2.669
X6.714 Y41.475 Z-2.632
X6.666 Y41.464 Z-2.583
X6.63 Y41.456 Z-2.525
X6.607 Y41.451 Z-2.459
X6.6 Y41.449 Z-2.39
Z5
X6.733 Y40.844
Z-1.4 F150
Z-2.69
X6.741 Y40.846 Z-2.759
X6.763 Y40.851 Z-2.825
X6.799 Y40.858 Z-2.883
X6.847 Y40.869 Z-2.932
X6.904 Y40.882 Z-2.969
X6.968 Y40.896 Z-2.992
X7.036 Y40.911 Z-3
X7.338 Y40.977
G3 X7.575 Y41.347 I-0.067 J0.303
X4.425 Y40.653 I-1.575 J-0.347 F300
X7.575 Y41.347 I1.575 J0.347
X7.205 Y41.583 I-0.303 J-0.067
G1 X6.902 Y41.516
X6.835 Y41.501 Z-2.992
X6.771 Y41.487 Z-2.969
X6.714 Y41.475 Z-2.932
X6.666 Y41.464 Z-2.883
X6.63 Y41.456 Z-2.825
X6.607 Y41.451 Z-2.759
X6.6 Y41.449 Z-2.69
Z5
X6.733 Y40.844
Z-1.7 F150
Z-2.99
X6.741 Y40.846 Z-3.059
X6.763 Y40.851 Z-3.125
X6.799 Y40.858 Z-3.183
X6.847 Y40.869 Z-3.232
X6.904 Y40.882 Z-3.269
X6.968 Y40.896 Z-3.292
X7.036 Y40.911 Z-3.3
X7.338 Y40.977
G3 X7.575 Y41.347 I-0.067 J0.303
X4.425 Y40.653 I-1.575 J-0.347 F300
X7.575 Y41.347 I1.575 J0.347
X7.205 Y41.583 I-0.303 J-0.067
G1 X6.902 Y41.516
X6.835 Y41.501 Z-3.292
X6.771 Y41.487 Z-3.269
X6.714 Y41.475 Z-3.232
X6.666 Y41.464 Z-3.183
X6.63 Y41.456 Z-3.125
X6.607 Y41.451 Z-3.059
X6.6 Y41.449 Z-2.99
Z5
X6.733 Y40.844
Z-2 F150
Z-3.29
X6.741 Y40.846 Z-3.359
X6.763 Y40.851 Z-3.425
X6.799 Y40.858 Z-3.483
X6.847 Y40.869 Z-3.532
X6.904 Y40.882 Z-3.569
X6.968 Y40.896 Z-3.592
X7.036 Y40.911 Z-3.6
X7.338 Y40.977
G3 X7.575 Y41.347 I-0.067 J0.303
X4.425 Y40.653 I-1.575 J-0.347 F300
X7.575 Y41.347 I1.575 J0.347
X7.205 Y41.583 I-0.303 J-0.067
G1 X6.902 Y41.516
X6.835 Y41.501 Z-3.592
X6.771 Y41.487 Z-3.569
X6.714 Y41.475 Z-3.532
X6.666 Y41.464 Z-3.483
X6.63 Y41.456 Z-3.425
X6.607 Y41.451 Z-3.359
X6.6 Y41.449 Z-3.29
Z5
X6.733 Y40.844
Z-2.3 F150
Z-3.59
X6.741 Y40.846 Z-3.659
X6.763 Y40.851 Z-3.725
X6.799 Y40.858 Z-3.783
X6.847 Y40.869 Z-3.832
X6.904 Y40.882 Z-3.869
X6.968 Y40.896 Z-3.892
X7.036 Y40.911 Z-3.9
X7.338 Y40.977
G3 X7.575 Y41.347 I-0.067 J0.303
X4.425 Y40.653 I-1.575 J-0.347 F300
X7.575 Y41.347 I1.575 J0.347
X7.205 Y41.583 I-0.303 J-0.067
G1 X6.902 Y41.516
X6.835 Y41.501 Z-3.892
X6.771 Y41.487 Z-3.869
X6.714 Y41.475 Z-3.832
X6.666 Y41.464 Z-3.783
X6.63 Y41.456 Z-3.725
X6.607 Y41.451 Z-3.659
X6.6 Y41.449 Z-3.59
Z5
X6.733 Y40.844
Z-2.6 F150
Z-3.89
X6.741 Y40.846 Z-3.959
X6.763 Y40.851 Z-4.025
X6.799 Y40.858 Z-4.083
X6.847 Y40.869 Z-4.132
X6.904 Y40.882 Z-4.169
X6.968 Y40.896 Z-4.192
X7.036 Y40.911 Z-4.2
X7.338 Y40.977
G3 X7.575 Y41.347 I-0.067 J0.303
X4.425 Y40.653 I-1.575 J-0.347 F300
X7.575 Y41.347 I1.575 J0.347
X7.205 Y41.583 I-0.303 J-0.067
G1 X6.902 Y41.516
X6.835 Y41.501 Z-4.192
X6.771 Y41.487 Z-4.169
X6.714 Y41.475 Z-4.132
X6.666 Y41.464 Z-4.083
X6.63 Y41.456 Z-4.025
X6.607 Y41.451 Z-3.959
X6.6 Y41.449 Z-3.89
Z5
X6.733 Y40.844
Z-2.9 F150
Z-4.19
X6.741 Y40.846 Z-4.259
X6.763 Y40.851 Z-4.325
X6.799 Y40.858 Z-4.383
X6.847 Y40.869 Z-4.432
X6.904 Y40.882 Z-4.469
X6.968 Y40.896 Z-4.492
X7.036 Y40.911 Z-4.5
X7.338 Y40.977
G3 X7.575 Y41.347 I-0.067 J0.303
X4.425 Y40.653 I-1.575 J-0.347 F300
X7.575 Y41.347 I1.575 J0.347
X7.205 Y41.583 I-0.303 J-0.067
G1 X6.902 Y41.516
X6.835 Y41.501 Z-4.492
X6.771 Y41.487 Z-4.469
X6.714 Y41.475 Z-4.432
X6.666 Y41.464 Z-4.383
X6.63 Y41.456 Z-4.325
X6.607 Y41.451 Z-4.259
X6.6 Y41.449 Z-4.19
Z5
X6.733 Y40.844
Z-3.2 F150
Z-4.49
X6.741 Y40.846 Z-4.559
X6.763 Y40.851 Z-4.625
X6.799 Y40.858 Z-4.683
X6.847 Y40.869 Z-4.732
X6.904 Y40.882 Z-4.769
X6.968 Y40.896 Z-4.792
X7.036 Y40.911 Z-4.8
X7.338 Y40.977
G3 X7.575 Y41.347 I-0.067 J0.303
X4.425 Y40.653 I-1.575 J-0.347 F300
X7.575 Y41.347 I1.575 J0.347
X7.205 Y41.583 I-0.303 J-0.067
G1 X6.902 Y41.516
X6.835 Y41.501 Z-4.792
X6.771 Y41.487 Z-4.769
X6.714 Y41.475 Z-4.732
X6.666 Y41.464 Z-4.683
X6.63 Y41.456 Z-4.625
X6.607 Y41.451 Z-4.559
X6.6 Y41.449 Z-4.49
Z5
X6.733 Y40.844
Z-3.5 F150
Z-4.79
X6.741 Y40.846 Z-4.859
X6.763 Y40.851 Z-4.925
X6.799 Y40.858 Z-4.983
X6.847 Y40.869 Z-5.032
X6.904 Y40.882 Z-5.069
X6.968 Y40.896 Z-5.092
X7.036 Y40.911 Z-5.1
X7.338 Y40.977
G3 X7.575 Y41.347 I-0.067 J0.303
X4.425 Y40.653 I-1.575 J-0.347 F300
X7.575 Y41.347 I1.575 J0.347
X7.205 Y41.583 I-0.303 J-0.067
G1 X6.902 Y41.516
X6.835 Y41.501 Z-5.092
X6.771 Y41.487 Z-5.069
X6.714 Y41.475 Z-5.032
X6.666 Y41.464 Z-4.983
X6.63 Y41.456 Z-4.925
X6.607 Y41.451 Z-4.859
X6.6 Y41.449 Z-4.79
Z5
X6.733 Y40.844
Z-3.8 F150
Z-5.09
X6.741 Y40.846 Z-5.159
X6.763 Y40.851 Z-5.225
X6.799 Y40.858 Z-5.283
X6.847 Y40.869 Z-5.332
X6.904 Y40.882 Z-5.369
X6.968 Y40.896 Z-5.392
X7.036 Y40.911 Z-5.4
X7.338 Y40.977
G3 X7.575 Y41.347 I-0.067 J0.303
X4.425 Y40.653 I-1.575 J-0.347 F300
X7.575 Y41.347 I1.575 J0.347
X7.205 Y41.583 I-0.303 J-0.067
G1 X6.902 Y41.516
X6.835 Y41.501 Z-5.392
X6.771 Y41.487 Z-5.369
X6.714 Y41.475 Z-5.332
X6.666 Y41.464 Z-5.283
X6.63 Y41.456 Z-5.225
X6.607 Y41.451 Z-5.159
X6.6 Y41.449 Z-5.09
Z5
X6.733 Y40.844
Z-4.1 F150
Z-5.39
X6.741 Y40.846 Z-5.459
X6.763 Y40.851 Z-5.525
X6.799 Y40.858 Z-5.583
X6.847 Y40.869 Z-5.632
X6.904 Y40.882 Z-5.669
X6.968 Y40.896 Z-5.692
X7.036 Y40.911 Z-5.7
X7.338 Y40.977
G3 X7.575 Y41.347 I-0.067 J0.303
X4.425 Y40.653 I-1.575 J-0.347 F300
X7.575 Y41.347 I1.575 J0.347
X7.205 Y41.583 I-0.303 J-0.067
G1 X6.902 Y41.516
X6.835 Y41.501 Z-5.692
X6.771 Y41.487 Z-5.669
X6.714 Y41.475 Z-5.632
X6.666 Y41.464 Z-5.583
X6.63 Y41.456 Z-5.525
X6.607 Y41.451 Z-5.459
X6.6 Y41.449 Z-5.39
Z5
X6.733 Y40.844
Z-4.4 F150
Z-5.69
X6.741 Y40.846 Z-5.759
X6.763 Y40.851 Z-5.825
X6.799 Y40.858 Z-5.883
X6.847 Y40.869 Z-5.932
X6.904 Y40.882 Z-5.969
X6.968 Y40.896 Z-5.992
X7.036 Y40.911 Z-6
X7.338 Y40.977
G3 X7.575 Y41.347 I-0.067 J0.303
X4.425 Y40.653 I-1.575 J-0.347 F300
X7.575 Y41.347 I1.575 J0.347
X7.205 Y41.583 I-0.303 J-0.067
G1 X6.902 Y41.516
X6.835 Y41.501 Z-5.992
X6.771 Y41.487 Z-5.969
X6.714 Y41.475 Z-5.932
X6.666 Y41.464 Z-5.883
X6.63 Y41.456 Z-5.825
X6.607 Y41.451 Z-5.759
X6.6 Y41.449 Z-5.69
Z5
X6.733 Y40.844
Z-4.7 F150
Z-5.99
X6.741 Y40.846 Z-6.059
X6.763 Y40.851 Z-6.125
X6.799 Y40.858 Z-6.183
X6.847 Y40.869 Z-6.232
X6.904 Y40.882 Z-6.269
X6.968 Y40.896 Z-6.292
X7.036 Y40.911 Z-6.3
X7.338 Y40.977
G3 X7.575 Y41.347 I-0.067 J0.303
X4.425 Y40.653 I-1.575 J-0.347 F300
X7.575 Y41.347 I1.575 J0.347
X7.205 Y41.583 I-0.303 J-0.067
G1 X6.902 Y41.516
X6.835 Y41.501 Z-6.292
X6.771 Y41.487 Z-6.269
X6.714 Y41.475 Z-6.232
X6.666 Y41.464 Z-6.183
X6.63 Y41.456 Z-6.125
X6.607 Y41.451 Z-6.059
X6.6 Y41.449 Z-5.99
Z5
X6.733 Y40.844
Z-5 F150
Z-6.29
X6.741 Y40.846 Z-6.359
X6.763 Y40.851 Z-6.425
X6.799 Y40.858 Z-6.483
X6.847 Y40.869 Z-6.532
X6.904 Y40.882 Z-6.569
X6.968 Y40.896 Z-6.592
X7.036 Y40.911 Z-6.6
X7.338 Y40.977
G3 X7.575 Y41.347 I-0.067 J0.303
X4.425 Y40.653 I-1.575 J-0.347 F300
X7.575 Y41.347 I1.575 J0.347
X7.205 Y41.583 I-0.303 J-0.067
G1 X6.902 Y41.516
X6.835 Y41.501 Z-6.592
X6.771 Y41.487 Z-6.569
X6.714 Y41.475 Z-6.532
X6.666 Y41.464 Z-6.483
X6.63 Y41.456 Z-6.425
X6.607 Y41.451 Z-6.359
X6.6 Y41.449 Z-6.29
Z5
X6.733 Y40.844
Z-5.3 F150
Z-6.59
X6.741 Y40.846 Z-6.659
X6.763 Y40.851 Z-6.725
X6.799 Y40.858 Z-6.783
X6.847 Y40.869 Z-6.832
X6.904 Y40.882 Z-6.869
X6.968 Y40.896 Z-6.892
X7.036 Y40.911 Z-6.9
X7.338 Y40.977
G3 X7.575 Y41.347 I-0.067 J0.303
X4.425 Y40.653 I-1.575 J-0.347 F300
X7.575 Y41.347 I1.575 J0.347
X7.205 Y41.583 I-0.303 J-0.067
G1 X6.902 Y41.516
X6.835 Y41.501 Z-6.892
X6.771 Y41.487 Z-6.869
X6.714 Y41.475 Z-6.832
X6.666 Y41.464 Z-6.783
X6.63 Y41.456 Z-6.725
X6.607 Y41.451 Z-6.659
X6.6 Y41.449 Z-6.59
Z5
X6.733 Y40.844
Z-5.6 F150
Z-6.69
X6.741 Y40.846 Z-6.759
X6.763 Y40.851 Z-6.825
X6.799 Y40.858 Z-6.883
X6.847 Y40.869 Z-6.932
X6.904 Y40.882 Z-6.969
X6.968 Y40.896 Z-6.992
X7.036 Y40.911 Z-7
X7.338 Y40.977
G3 X7.575 Y41.347 I-0.067 J0.303
X4.425 Y40.653 I-1.575 J-0.347 F300
X7.575 Y41.347 I1.575 J0.347
X7.205 Y41.583 I-0.303 J-0.067
G1 X6.902 Y41.516
X6.835 Y41.501 Z-6.992
X6.771 Y41.487 Z-6.969
X6.714 Y41.475 Z-6.932
X6.666 Y41.464 Z-6.883
X6.63 Y41.456 Z-6.825
X6.607 Y41.451 Z-6.759
X6.6 Y41.449 Z-6.69
Z5
X6.682 Y10.69
Z1.3 F150
Z0.01
G18 G2 X6.992 Z-0.3 I0.31 K0
G1 X7.302
G17 G3 X7.612 Y11 I0 J0.31
X6 Y12.612 I-1.612 J0 F300
X6 Y9.388 I0 J-1.612
X7.612 Y11 I0 J1.612
X7.302 Y11.31 I-0.31 J0
G1 X6.992
G18 G3 X6.682 Z0.01 I0 K0.31
G1 Z5
Y10.69
Z1 F150
Z-0.29
G2 X6.992 Z-0.6 I0.31 K0
G1 X7.302
G17 G3 X7.612 Y11 I0 J0.31
X6 Y12.612 I-1.612 J0 F300
X6 Y9.388 I0 J-1.612
X7.612 Y11 I0 J1.612
X7.302 Y11.31 I-0.31 J0
G1 X6.992
G18 G3 X6.682 Z-0.29 I0 K0.31
G1 Z5
Y10.69
Z0.7 F150
Z-0.59
G2 X6.992 Z-0.9 I0.31 K0
G1 X7.302
G17 G3 X7.612 Y11 I0 J0.31
X6 Y12.612 I-1.612 J0 F300
X6 Y9.388 I0 J-1.612
X7.612 Y11 I0 J1.612
X7.302 Y11.31 I-0.31 J0
G1 X6.992
G18 G3 X6.682 Z-0.59 I0 K0.31
G1 Z5
Y10.69
Z0.4 F150
Z-0.89
G2 X6.992 Z-1.2 I0.31 K0
G1 X7.302
G17 G3 X7.612 Y11 I0 J0.31
X6 Y12.612 I-1.612 J0 F300
X6 Y9.388 I0 J-1.612
X7.612 Y11 I0 J1.612
X7.302 Y11.31 I-0.31 J0
G1 X6.992
G18 G3 X6.682 Z-0.89 I0 K0.31
G1 Z5
Y10.69
Z0.1 F150
Z-1.19
G2 X6.992 Z-1.5 I0.31 K0
G1 X7.302
G17 G3 X7.612 Y11 I0 J0.31
X6 Y12.612 I-1.612 J0 F300
X6 Y9.388 I0 J-1.612
X7.612 Y11 I0 J1.612
X7.302 Y11.31 I-0.31 J0
G1 X6.992
G18 G3 X6.682 Z-1.19 I0 K0.31
G1 Z5
Y10.69
Z-0.2 F150
Z-1.49
G2 X6.992 Z-1.8 I0.31 K0
G1 X7.302
G17 G3 X7.612 Y11 I0 J0.31
X6 Y12.612 I-1.612 J0 F300
X6 Y9.388 I0 J-1.612
X7.612 Y11 I0 J1.612
X7.302 Y11.31 I-0.31 J0
G1 X6.992
G18 G3 X6.682 Z-1.49 I0 K0.31
G1 Z5
Y10.69
Z-0.5 F150
Z-1.79
G2 X6.992 Z-2.1 I0.31 K0
G1 X7.302
G17 G3 X7.612 Y11 I0 J0.31
X6 Y12.612 I-1.612 J0 F300
X6 Y9.388 I0 J-1.612
X7.612 Y11 I0 J1.612
X7.302 Y11.31 I-0.31 J0
G1 X6.992
G18 G3 X6.682 Z-1.79 I0 K0.31
G1 Z5
Y10.69
Z-0.8 F150
Z-2.09
G2 X6.992 Z-2.4 I0.31 K0
G1 X7.302
G17 G3 X7.612 Y11 I0 J0.31
X6 Y12.612 I-1.612 J0 F300
X6 Y9.388 I0 J-1.612
X7.612 Y11 I0 J1.612
X7.302 Y11.31 I-0.31 J0
G1 X6.992
G18 G3 X6.682 Z-2.09 I0 K0.31
G1 Z5
Y10.69
Z-1.1 F150
Z-2.39
G2 X6.992 Z-2.7 I0.31 K0
G1 X7.302
G17 G3 X7.612 Y11 I0 J0.31
X6 Y12.612 I-1.612 J0 F300
X6 Y9.388 I0 J-1.612
X7.612 Y11 I0 J1.612
X7.302 Y11.31 I-0.31 J0
G1 X6.992
G18 G3 X6.682 Z-2.39 I0 K0.31
G1 Z5
Y10.69
Z-1.4 F150
Z-2.69
G2 X6.992 Z-3 I0.31 K0
G1 X7.302
G17 G3 X7.612 Y11 I0 J0.31
X6 Y12.612 I-1.612 J0 F300
X6 Y9.388 I0 J-1.612
X7.612 Y11 I0 J1.612
X7.302 Y11.31 I-0.31 J0
G1 X6.992
G18 G3 X6.682 Z-2.69 I0 K0.31
G1 Z5
Y10.69
Z-1.7 F150
Z-2.99
G2 X6.992 Z-3.3 I0.31 K0
G1 X7.302
G17 G3 X7.612 Y11 I0 J0.31
X6 Y12.612 I-1.612 J0 F300
X6 Y9.388 I0 J-1.612
X7.612 Y11 I0 J1.612
X7.302 Y11.31 I-0.31 J0
G1 X6.992
G18 G3 X6.682 Z-2.99 I0 K0.31
G1 Z5
Y10.69
Z-2 F150
Z-3.29
G2 X6.992 Z-3.6 I0.31 K0
G1 X7.302
G17 G3 X7.612 Y11 I0 J0.31
X6 Y12.612 I-1.612 J0 F300
X6 Y9.388 I0 J-1.612
X7.612 Y11 I0 J1.612
X7.302 Y11.31 I-0.31 J0
G1 X6.992
G18 G3 X6.682 Z-3.29 I0 K0.31
G1 Z5
Y10.69
Z-2.3 F150
Z-3.59
G2 X6.992 Z-3.9 I0.31 K0
G1 X7.302
G17 G3 X7.612 Y11 I0 J0.31
X6 Y12.612 I-1.612 J0 F300
X6 Y9.388 I0 J-1.612
X7.612 Y11 I0 J1.612
X7.302 Y11.31 I-0.31 J0
G1 X6.992
G18 G3 X6.682 Z-3.59 I0 K0.31
G1 Z5
Y10.69
Z-2.6 F150
Z-3.89
G2 X6.992 Z-4.2 I0.31 K0
G1 X7.302
G17 G3 X7.612 Y11 I0 J0.31
X6 Y12.612 I-1.612 J0 F300
X6 Y9.388 I0 J-1.612
X7.612 Y11 I0 J1.612
X7.302 Y11.31 I-0.31 J0
G1 X6.992
G18 G3 X6.682 Z-3.89 I0 K0.31
G1 Z5
Y10.69
Z-2.9 F150
Z-4.19
G2 X6.992 Z-4.5 I0.31 K0
G1 X7.302
G17 G3 X7.612 Y11 I0 J0.31
X6 Y12.612 I-1.612 J0 F300
X6 Y9.388 I0 J-1.612
X7.612 Y11 I0 J1.612
X7.302 Y11.31 I-0.31 J0
G1 X6.992
G18 G3 X6.682 Z-4.19 I0 K0.31
G1 Z5
Y10.69
Z-3.2 F150
Z-4.49
G2 X6.992 Z-4.8 I0.31 K0
G1 X7.302
G17 G3 X7.612 Y11 I0 J0.31
X6 Y12.612 I-1.612 J0 F300
X6 Y9.388 I0 J-1.612
X7.612 Y11 I0 J1.612
X7.302 Y11.31 I-0.31 J0
G1 X6.992
G18 G3 X6.682 Z-4.49 I0 K0.31
G1 Z5
Y10.69
Z-3.5 F150
Z-4.79
G2 X6.992 Z-5.1 I0.31 K0
G1 X7.302
G17 G3 X7.612 Y11 I0 J0.31
X6 Y12.612 I-1.612 J0 F300
X6 Y9.388 I0 J-1.612
X7.612 Y11 I0 J1.612
X7.302 Y11.31 I-0.31 J0
G1 X6.992
G18 G3 X6.682 Z-4.79 I0 K0.31
G1 Z5
Y10.69
Z-3.8 F150
Z-5.09
G2 X6.992 Z-5.4 I0.31 K0
G1 X7.302
G17 G3 X7.612 Y11 I0 J0.31
X6 Y12.612 I-1.612 J0 F300
X6 Y9.388 I0 J-1.612
X7.612 Y11 I0 J1.612
X7.302 Y11.31 I-0.31 J0
G1 X6.992
G18 G3 X6.682 Z-5.09 I0 K0.31
G1 Z5
Y10.69
Z-4.1 F150
Z-5.39
G2 X6.992 Z-5.7 I0.31 K0
G1 X7.302
G17 G3 X7.612 Y11 I0 J0.31
X6 Y12.612 I-1.612 J0 F300
X6 Y9.388 I0 J-1.612
X7.612 Y11 I0 J1.612
X7.302 Y11.31 I-0.31 J0
G1 X6.992
G18 G3 X6.682 Z-5.39 I0 K0.31
G1 Z5
Y10.69
Z-4.4 F150
Z-5.69
G2 X6.992 Z-6 I0.31 K0
G1 X7.302
G17 G3 X7.612 Y11 I0 J0.31
X6 Y12.612 I-1.612 J0 F300
X6 Y9.388 I0 J-1.612
X7.612 Y11 I0 J1.612
X7.302 Y11.31 I-0.31 J0
G1 X6.992
G18 G3 X6.682 Z-5.69 I0 K0.31
G1 Z5
Y10.69
Z-4.7 F150
Z-5.99
G2 X6.992 Z-6.3 I0.31 K0
G1 X7.302
G17 G3 X7.612 Y11 I0 J0.31
X6 Y12.612 I-1.612 J0 F300
X6 Y9.388 I0 J-1.612
X7.612 Y11 I0 J1.612
X7.302 Y11.31 I-0.31 J0
G1 X6.992
G18 G3 X6.682 Z-5.99 I0 K0.31
G1 Z5
Y10.69
Z-5 F150
Z-6.29
G2 X6.992 Z-6.6 I0.31 K0
G1 X7.302
G17 G3 X7.612 Y11 I0 J0.31
X6 Y12.612 I-1.612 J0 F300
X6 Y9.388 I0 J-1.612
X7.612 Y11 I0 J1.612
X7.302 Y11.31 I-0.31 J0
G1 X6.992
G18 G3 X6.682 Z-6.29 I0 K0.31
G1 Z5
Y10.69
Z-5.3 F150
Z-6.59
G2 X6.992 Z-6.9 I0.31 K0
G1 X7.302
G17 G3 X7.612 Y11 I0 J0.31
X6 Y12.612 I-1.612 J0 F300
X6 Y9.388 I0 J-1.612
X7.612 Y11 I0 J1.612
X7.302 Y11.31 I-0.31 J0
G1 X6.992
G18 G3 X6.682 Z-6.59 I0 K0.31
G1 Z5
Y10.69
Z-5.6 F150
Z-6.69
G2 X6.992 Z-7 I0.31 K0
G1 X7.302
G17 G3 X7.612 Y11 I0 J0.31
X6 Y12.612 I-1.612 J0 F300
X6 Y9.388 I0 J-1.612
X7.612 Y11 I0 J1.612
X7.302 Y11.31 I-0.31 J0
G1 X6.992
G18 G3 X6.682 Z-6.69 I0 K0.31
G1 Z5
X76.682 Y10.69
Z1.3 F150
Z0.01
G2 X76.992 Z-0.3 I0.31 K0
G1 X77.302
G17 G3 X77.612 Y11 I0 J0.31
X76 Y12.612 I-1.612 J0 F300
X76 Y9.388 I0 J-1.612
X77.612 Y11 I0 J1.612
X77.302 Y11.31 I-0.31 J0
G1 X76.992
G18 G3 X76.682 Z0.01 I0 K0.31
G1 Z5
Y10.69
Z1 F150
Z-0.29
G2 X76.992 Z-0.6 I0.31 K0
G1 X77.302
G17 G3 X77.612 Y11 I0 J0.31
X76 Y12.612 I-1.612 J0 F300
X76 Y9.388 I0 J-1.612
X77.612 Y11 I0 J1.612
X77.302 Y11.31 I-0.31 J0
G1 X76.992
G18 G3 X76.682 Z-0.29 I0 K0.31
G1 Z5
Y10.69
Z0.7 F150
Z-0.59
G2 X76.992 Z-0.9 I0.31 K0
G1 X77.302
G17 G3 X77.612 Y11 I0 J0.31
X76 Y12.612 I-1.612 J0 F300
X76 Y9.388 I0 J-1.612
X77.612 Y11 I0 J1.612
X77.302 Y11.31 I-0.31 J0
G1 X76.992
G18 G3 X76.682 Z-0.59 I0 K0.31
G1 Z5
Y10.69
Z0.4 F150
Z-0.89
G2 X76.992 Z-1.2 I0.31 K0
G1 X77.302
G17 G3 X77.612 Y11 I0 J0.31
X76 Y12.612 I-1.612 J0 F300
X76 Y9.388 I0 J-1.612
X77.612 Y11 I0 J1.612
X77.302 Y11.31 I-0.31 J0
G1 X76.992
G18 G3 X76.682 Z-0.89 I0 K0.31
G1 Z5
Y10.69
Z0.1 F150
Z-1.19
G2 X76.992 Z-1.5 I0.31 K0
G1 X77.302
G17 G3 X77.612 Y11 I0 J0.31
X76 Y12.612 I-1.612 J0 F300
X76 Y9.388 I0 J-1.612
X77.612 Y11 I0 J1.612
X77.302 Y11.31 I-0.31 J0
G1 X76.992
G18 G3 X76.682 Z-1.19 I0 K0.31
G1 Z5
Y10.69
Z-0.2 F150
Z-1.49
G2 X76.992 Z-1.8 I0.31 K0
G1 X77.302
G17 G3 X77.612 Y11 I0 J0.31
X76 Y12.612 I-1.612 J0 F300
X76 Y9.388 I0 J-1.612
X77.612 Y11 I0 J1.612
X77.302 Y11.31 I-0.31 J0
G1 X76.992
G18 G3 X76.682 Z-1.49 I0 K0.31
G1 Z5
Y10.69
Z-0.5 F150
Z-1.79
G2 X76.992 Z-2.1 I0.31 K0
G1 X77.302
G17 G3 X77.612 Y11 I0 J0.31
X76 Y12.612 I-1.612 J0 F300
X76 Y9.388 I0 J-1.612
X77.612 Y11 I0 J1.612
X77.302 Y11.31 I-0.31 J0
G1 X76.992
G18 G3 X76.682 Z-1.79 I0 K0.31
G1 Z5
Y10.69
Z-0.8 F150
Z-2.09
G2 X76.992 Z-2.4 I0.31 K0
G1 X77.302
G17 G3 X77.612 Y11 I0 J0.31
X76 Y12.612 I-1.612 J0 F300
X76 Y9.388 I0 J-1.612
X77.612 Y11 I0 J1.612
X77.302 Y11.31 I-0.31 J0
G1 X76.992
G18 G3 X76.682 Z-2.09 I0 K0.31
G1 Z5
Y10.69
Z-1.1 F150
Z-2.39
G2 X76.992 Z-2.7 I0.31 K0
G1 X77.302
G17 G3 X77.612 Y11 I0 J0.31
X76 Y12.612 I-1.612 J0 F300
X76 Y9.388 I0 J-1.612
X77.612 Y11 I0 J1.612
X77.302 Y11.31 I-0.31 J0
G1 X76.992
G18 G3 X76.682 Z-2.39 I0 K0.31
G1 Z5
Y10.69
Z-1.4 F150
Z-2.69
G2 X76.992 Z-3 I0.31 K0
G1 X77.302
G17 G3 X77.612 Y11 I0 J0.31
X76 Y12.612 I-1.612 J0 F300
X76 Y9.388 I0 J-1.612
X77.612 Y11 I0 J1.612
X77.302 Y11.31 I-0.31 J0
G1 X76.992
G18 G3 X76.682 Z-2.69 I0 K0.31
G1 Z5
Y10.69
Z-1.7 F150
Z-2.99
G2 X76.992 Z-3.3 I0.31 K0
G1 X77.302
G17 G3 X77.612 Y11 I0 J0.31
X76 Y12.612 I-1.612 J0 F300
X76 Y9.388 I0 J-1.612
X77.612 Y11 I0 J1.612
X77.302 Y11.31 I-0.31 J0
G1 X76.992
G18 G3 X76.682 Z-2.99 I0 K0.31
G1 Z5
Y10.69
Z-2 F150
Z-3.29
G2 X76.992 Z-3.6 I0.31 K0
G1 X77.302
G17 G3 X77.612 Y11 I0 J0.31
X76 Y12.612 I-1.612 J0 F300
X76 Y9.388 I0 J-1.612
X77.612 Y11 I0 J1.612
X77.302 Y11.31 I-0.31 J0
G1 X76.992
G18 G3 X76.682 Z-3.29 I0 K0.31
G1 Z5
Y10.69
Z-2.3 F150
Z-3.59
G2 X76.992 Z-3.9 I0.31 K0
G1 X77.302
G17 G3 X77.612 Y11 I0 J0.31
X76 Y12.612 I-1.612 J0 F300
X76 Y9.388 I0 J-1.612
X77.612 Y11 I0 J1.612
X77.302 Y11.31 I-0.31 J0
G1 X76.992
G18 G3 X76.682 Z-3.59 I0 K0.31
G1 Z5
Y10.69
Z-2.6 F150
Z-3.89
G2 X76.992 Z-4.2 I0.31 K0
G1 X77.302
G17 G3 X77.612 Y11 I0 J0.31
X76 Y12.612 I-1.612 J0 F300
X76 Y9.388 I0 J-1.612
X77.612 Y11 I0 J1.612
X77.302 Y11.31 I-0.31 J0
G1 X76.992
G18 G3 X76.682 Z-3.89 I0 K0.31
G1 Z5
Y10.69
Z-2.9 F150
Z-4.19
G2 X76.992 Z-4.5 I0.31 K0
G1 X77.302
G17 G3 X77.612 Y11 I0 J0.31
X76 Y12.612 I-1.612 J0 F300
X76 Y9.388 I0 J-1.612
X77.612 Y11 I0 J1.612
X77.302 Y11.31 I-0.31 J0
G1 X76.992
G18 G3 X76.682 Z-4.19 I0 K0.31
G1 Z5
Y10.69
Z-3.2 F150
Z-4.49
G2 X76.992 Z-4.8 I0.31 K0
G1 X77.302
G17 G3 X77.612 Y11 I0 J0.31
X76 Y12.612 I-1.612 J0 F300
X76 Y9.388 I0 J-1.612
X77.612 Y11 I0 J1.612
X77.302 Y11.31 I-0.31 J0
G1 X76.992
G18 G3 X76.682 Z-4.49 I0 K0.31
G1 Z5
Y10.69
Z-3.5 F150
Z-4.79
G2 X76.992 Z-5.1 I0.31 K0
G1 X77.302
G17 G3 X77.612 Y11 I0 J0.31
X76 Y12.612 I-1.612 J0 F300
X76 Y9.388 I0 J-1.612
X77.612 Y11 I0 J1.612
X77.302 Y11.31 I-0.31 J0
G1 X76.992
G18 G3 X76.682 Z-4.79 I0 K0.31
G1 Z5
Y10.69
Z-3.8 F150
Z-5.09
G2 X76.992 Z-5.4 I0.31 K0
G1 X77.302
G17 G3 X77.612 Y11 I0 J0.31
X76 Y12.612 I-1.612 J0 F300
X76 Y9.388 I0 J-1.612
X77.612 Y11 I0 J1.612
X77.302 Y11.31 I-0.31 J0
G1 X76.992
G18 G3 X76.682 Z-5.09 I0 K0.31
G1 Z5
Y10.69
Z-4.1 F150
Z-5.39
G2 X76.992 Z-5.7 I0.31 K0
G1 X77.302
G17 G3 X77.612 Y11 I0 J0.31
X76 Y12.612 I-1.612 J0 F300
X76 Y9.388 I0 J-1.612
X77.612 Y11 I0 J1.612
X77.302 Y11.31 I-0.31 J0
G1 X76.992
G18 G3 X76.682 Z-5.39 I0 K0.31
G1 Z5
Y10.69
Z-4.4 F150
Z-5.69
G2 X76.992 Z-6 I0.31 K0
G1 X77.302
G17 G3 X77.612 Y11 I0 J0.31
X76 Y12.612 I-1.612 J0 F300
X76 Y9.388 I0 J-1.612
X77.612 Y11 I0 J1.612
X77.302 Y11.31 I-0.31 J0
G1 X76.992
G18 G3 X76.682 Z-5.69 I0 K0.31
G1 Z5
Y10.69
Z-4.7 F150
Z-5.99
G2 X76.992 Z-6.3 I0.31 K0
G1 X77.302
G17 G3 X77.612 Y11 I0 J0.31
X76 Y12.612 I-1.612 J0 F300
X76 Y9.388 I0 J-1.612
X77.612 Y11 I0 J1.612
X77.302 Y11.31 I-0.31 J0
G1 X76.992
G18 G3 X76.682 Z-5.99 I0 K0.31
G1 Z5
Y10.69
Z-5 F150
Z-6.29
G2 X76.992 Z-6.6 I0.31 K0
G1 X77.302
G17 G3 X77.612 Y11 I0 J0.31
X76 Y12.612 I-1.612 J0 F300
X76 Y9.388 I0 J-1.612
X77.612 Y11 I0 J1.612
X77.302 Y11.31 I-0.31 J0
G1 X76.992
G18 G3 X76.682 Z-6.29 I0 K0.31
G1 Z5
Y10.69
Z-5.3 F150
Z-6.59
G2 X76.992 Z-6.9 I0.31 K0
G1 X77.302
G17 G3 X77.612 Y11 I0 J0.31
X76 Y12.612 I-1.612 J0 F300
X76 Y9.388 I0 J-1.612
X77.612 Y11 I0 J1.612
X77.302 Y11.31 I-0.31 J0
G1 X76.992
G18 G3 X76.682 Z-6.59 I0 K0.31
G1 Z5
Y10.69
Z-5.6 F150
Z-6.69
G2 X76.992 Z-7 I0.31 K0
G1 X77.302
G17 G3 X77.612 Y11 I0 J0.31
X76 Y12.612 I-1.612 J0 F300
X76 Y9.388 I0 J-1.612
X77.612 Y11 I0 J1.612
X77.302 Y11.31 I-0.31 J0
G1 X76.992
G18 G3 X76.682 Z-6.69 I0 K0.31
G1 Z5
Y40.69
Z1.3 F150
Z0.01
G2 X76.992 Z-0.3 I0.31 K0
G1 X77.302
G17 G3 X77.612 Y41 I0 J0.31
X74.388 Y41 I-1.612 J0 F300
X77.612 Y41 I1.612 J0
X77.302 Y41.31 I-0.31 J0
G1 X76.992
G18 G3 X76.682 Z0.01 I0 K0.31
G1 Z5
Y40.69
Z1 F150
Z-0.29
G2 X76.992 Z-0.6 I0.31 K0
G1 X77.302
G17 G3 X77.612 Y41 I0 J0.31
X74.388 Y41 I-1.612 J0 F300
X77.612 Y41 I1.612 J0
X77.302 Y41.31 I-0.31 J0
G1 X76.992
G18 G3 X76.682 Z-0.29 I0 K0.31
G1 Z5
Y40.69
Z0.7 F150
Z-0.59
G2 X76.992 Z-0.9 I0.31 K0
G1 X77.302
G17 G3 X77.612 Y41 I0 J0.31
X74.388 Y41 I-1.612 J0 F300
X77.612 Y41 I1.612 J0
X77.302 Y41.31 I-0.31 J0
G1 X76.992
G18 G3 X76.682 Z-0.59 I0 K0.31
G1 Z5
Y40.69
Z0.4 F150
Z-0.89
G2 X76.992 Z-1.2 I0.31 K0
G1 X77.302
G17 G3 X77.612 Y41 I0 J0.31
X74.388 Y41 I-1.612 J0 F300
X77.612 Y41 I1.612 J0
X77.302 Y41.31 I-0.31 J0
G1 X76.992
G18 G3 X76.682 Z-0.89 I0 K0.31
G1 Z5
Y40.69
Z0.1 F150
Z-1.19
G2 X76.992 Z-1.5 I0.31 K0
G1 X77.302
G17 G3 X77.612 Y41 I0 J0.31
X74.388 Y41 I-1.612 J0 F300
X77.612 Y41 I1.612 J0
X77.302 Y41.31 I-0.31 J0
G1 X76.992
G18 G3 X76.682 Z-1.19 I0 K0.31
G1 Z5
Y40.69
Z-0.2 F150
Z-1.49
G2 X76.992 Z-1.8 I0.31 K0
G1 X77.302
G17 G3 X77.612 Y41 I0 J0.31
X74.388 Y41 I-1.612 J0 F300
X77.612 Y41 I1.612 J0
X77.302 Y41.31 I-0.31 J0
G1 X76.992
G18 G3 X76.682 Z-1.49 I0 K0.31
G1 Z5
Y40.69
Z-0.5 F150
Z-1.79
G2 X76.992 Z-2.1 I0.31 K0
G1 X77.302
G17 G3 X77.612 Y41 I0 J0.31
X74.388 Y41 I-1.612 J0 F300
X77.612 Y41 I1.612 J0
X77.302 Y41.31 I-0.31 J0
G1 X76.992
G18 G3 X76.682 Z-1.79 I0 K0.31
G1 Z5
Y40.69
Z-0.8 F150
Z-2.09
G2 X76.992 Z-2.4 I0.31 K0
G1 X77.302
G17 G3 X77.612 Y41 I0 J0.31
X74.388 Y41 I-1.612 J0 F300
X77.612 Y41 I1.612 J0
X77.302 Y41.31 I-0.31 J0
G1 X76.992
G18 G3 X76.682 Z-2.09 I0 K0.31
G1 Z5
Y40.69
Z-1.1 F150
Z-2.39
G2 X76.992 Z-2.7 I0.31 K0
G1 X77.302
G17 G3 X77.612 Y41 I0 J0.31
X74.388 Y41 I-1.612 J0 F300
X77.612 Y41 I1.612 J0
X77.302 Y41.31 I-0.31 J0
G1 X76.992
G18 G3 X76.682 Z-2.39 I0 K0.31
G1 Z5
Y40.69
Z-1.4 F150
Z-2.69
G2 X76.992 Z-3 I0.31 K0
G1 X77.302
G17 G3 X77.612 Y41 I0 J0.31
X74.388 Y41 I-1.612 J0 F300
X77.612 Y41 I1.612 J0
X77.302 Y41.31 I-0.31 J0
G1 X76.992
G18 G3 X76.682 Z-2.69 I0 K0.31
G1 Z5
Y40.69
Z-1.7 F150
Z-2.99
G2 X76.992 Z-3.3 I0.31 K0
G1 X77.302
G17 G3 X77.612 Y41 I0 J0.31
X74.388 Y41 I-1.612 J0 F300
X77.612 Y41 I1.612 J0
X77.302 Y41.31 I-0.31 J0
G1 X76.992
G18 G3 X76.682 Z-2.99 I0 K0.31
G1 Z5
Y40.69
Z-2 F150
Z-3.29
G2 X76.992 Z-3.6 I0.31 K0
G1 X77.302
G17 G3 X77.612 Y41 I0 J0.31
X74.388 Y41 I-1.612 J0 F300
X77.612 Y41 I1.612 J0
X77.302 Y41.31 I-0.31 J0
G1 X76.992
G18 G3 X76.682 Z-3.29 I0 K0.31
G1 Z5
Y40.69
Z-2.3 F150
Z-3.59
G2 X76.992 Z-3.9 I0.31 K0
G1 X77.302
G17 G3 X77.612 Y41 I0 J0.31
X74.388 Y41 I-1.612 J0 F300
X77.612 Y41 I1.612 J0
X77.302 Y41.31 I-0.31 J0
G1 X76.992
G18 G3 X76.682 Z-3.59 I0 K0.31
G1 Z5
Y40.69
Z-2.6 F150
Z-3.89
G2 X76.992 Z-4.2 I0.31 K0
G1 X77.302
G17 G3 X77.612 Y41 I0 J0.31
X74.388 Y41 I-1.612 J0 F300
X77.612 Y41 I1.612 J0
X77.302 Y41.31 I-0.31 J0
G1 X76.992
G18 G3 X76.682 Z-3.89 I0 K0.31
G1 Z5
Y40.69
Z-2.9 F150
Z-4.19
G2 X76.992 Z-4.5 I0.31 K0
G1 X77.302
G17 G3 X77.612 Y41 I0 J0.31
X74.388 Y41 I-1.612 J0 F300
X77.612 Y41 I1.612 J0
X77.302 Y41.31 I-0.31 J0
G1 X76.992
G18 G3 X76.682 Z-4.19 I0 K0.31
G1 Z5
Y40.69
Z-3.2 F150
Z-4.49
G2 X76.992 Z-4.8 I0.31 K0
G1 X77.302
G17 G3 X77.612 Y41 I0 J0.31
X74.388 Y41 I-1.612 J0 F300
X77.612 Y41 I1.612 J0
X77.302 Y41.31 I-0.31 J0
G1 X76.992
G18 G3 X76.682 Z-4.49 I0 K0.31
G1 Z5
Y40.69
Z-3.5 F150
Z-4.79
G2 X76.992 Z-5.1 I0.31 K0
G1 X77.302
G17 G3 X77.612 Y41 I0 J0.31
X74.388 Y41 I-1.612 J0 F300
X77.612 Y41 I1.612 J0
X77.302 Y41.31 I-0.31 J0
G1 X76.992
G18 G3 X76.682 Z-4.79 I0 K0.31
G1 Z5
Y40.69
Z-3.8 F150
Z-5.09
G2 X76.992 Z-5.4 I0.31 K0
G1 X77.302
G17 G3 X77.612 Y41 I0 J0.31
X74.388 Y41 I-1.612 J0 F300
X77.612 Y41 I1.612 J0
X77.302 Y41.31 I-0.31 J0
G1 X76.992
G18 G3 X76.682 Z-5.09 I0 K0.31
G1 Z5
Y40.69
Z-4.1 F150
Z-5.39
G2 X76.992 Z-5.7 I0.31 K0
G1 X77.302
G17 G3 X77.612 Y41 I0 J0.31
X74.388 Y41 I-1.612 J0 F300
X77.612 Y41 I1.612 J0
X77.302 Y41.31 I-0.31 J0
G1 X76.992
G18 G3 X76.682 Z-5.39 I0 K0.31
G1 Z5
Y40.69
Z-4.4 F150
Z-5.69
G2 X76.992 Z-6 I0.31 K0
G1 X77.302
G17 G3 X77.612 Y41 I0 J0.31
X74.388 Y41 I-1.612 J0 F300
X77.612 Y41 I1.612 J0
X77.302 Y41.31 I-0.31 J0
G1 X76.992
G18 G3 X76.682 Z-5.69 I0 K0.31
G1 Z5
Y40.69
Z-4.7 F150
Z-5.99
G2 X76.992 Z-6.3 I0.31 K0
G1 X77.302
G17 G3 X77.612 Y41 I0 J0.31
X74.388 Y41 I-1.612 J0 F300
X77.612 Y41 I1.612 J0
X77.302 Y41.31 I-0.31 J0
G1 X76.992
G18 G3 X76.682 Z-5.99 I0 K0.31
G1 Z5
Y40.69
Z-5 F150
Z-6.29
G2 X76.992 Z-6.6 I0.31 K0
G1 X77.302
G17 G3 X77.612 Y41 I0 J0.31
X74.388 Y41 I-1.612 J0 F300
X77.612 Y41 I1.612 J0
X77.302 Y41.31 I-0.31 J0
G1 X76.992
G18 G3 X76.682 Z-6.29 I0 K0.31
G1 Z5
Y40.69
Z-5.3 F150
Z-6.59
G2 X76.992 Z-6.9 I0.31 K0
G1 X77.302
G17 G3 X77.612 Y41 I0 J0.31
X74.388 Y41 I-1.612 J0 F300
X77.612 Y41 I1.612 J0
X77.302 Y41.31 I-0.31 J0
G1 X76.992
G18 G3 X76.682 Z-6.59 I0 K0.31
G1 Z5
Y40.69
Z-5.6 F150
Z-6.69
G2 X76.992 Z-7 I0.31 K0
G1 X77.302
G17 G3 X77.612 Y41 I0 J0.31
X74.388 Y41 I-1.612 J0 F300
X77.612 Y41 I1.612 J0
X77.302 Y41.31 I-0.31 J0
G1 X76.992
G18 G3 X76.682 Z-6.69 I0 K0.31
G1 Z10
G17
(When using Fusion 360 for Personal Use, the feedrate of)
(rapid moves is reduced to match the feedrate of cutting)
(moves, which can increase machining time. Unrestricted rapid)
(moves are available with a Fusion 360 Subscription.)

(2D Pocket1)
G0 X30.701 Y42.397
G1 Z10 F300
Z5
Z2.81 F150
X30.68 Y42.389 Z2.694
X30.62 Y42.367 Z2.594
X30.531 Y42.328 Z2.527
X30.429 Y42.274 Z2.5
G3 X31.906 Y39.726 Z2.338 I0.738 J-1.274
X30.429 Y42.274 Z2.177 I-0.738 J1.274
X31.906 Y39.726 Z2.015 I0.738 J-1.274
X30.429 Y42.274 Z1.854 I-0.738 J1.274
X31.906 Y39.726 Z1.692 I0.738 J-1.274
X30.429 Y42.274 Z1.531 I-0.738 J1.274
X31.906 Y39.726 Z1.369 I0.738 J-1.274
X30.429 Y42.274 Z1.208 I-0.738 J1.274
X31.906 Y39.726 Z1.046 I0.738 J-1.274
X30.429 Y42.274 Z0.885 I-0.738 J1.274
X31.906 Y39.726 Z0.723 I0.738 J-1.274
X30.429 Y42.274 Z0.561 I-0.738 J1.274
X31.906 Y39.726 Z0.4 I0.738 J-1.274
X30.429 Y42.274 Z0.238 I-0.738 J1.274
X31.906 Y39.726 Z0.077 I0.738 J-1.274
X30.429 Y42.274 Z-0.085 I-0.738 J1.274
X31.906 Y39.726 Z-0.246 I0.738 J-1.274
X32.64 Y41 Z-0.3 I-0.738 J1.274
X29.36 Y41 I-1.64 J0 F300
X32.64 Y41 I1.64 J0
G2 X33.281 Y42.142 I1.338 J0
G3 X33.436 Y43.443 I-0.434 J0.711
X28.564 Y38.557 I-2.436 J-2.443
X33.436 Y43.443 I2.436 J2.443
X31.289 Y43.372 Z-0.373 I-1.04 J-1.043 F150
G1 X30.061 Y41.971 Z-0.429
G3 X32.274 Y40.029 Z-0.568 I1.107 J-0.971
X32.64 Y41 Z-0.6 I-1.107 J0.971
X29.36 Y41 I-1.64 J0 F300
X32.64 Y41 I1.64 J0
G2 X33.281 Y42.142 I1.338 J0
G3 X33.436 Y43.443 I-0.434 J0.711
X28.564 Y38.557 I-2.436 J-2.443
X33.436 Y43.443 I2.436 J2.443
X31.289 Y43.372 Z-0.673 I-1.04 J-1.043 F150
G1 X30.061 Y41.971 Z-0.729
G3 X32.274 Y40.029 Z-0.868 I1.107 J-0.971
X32.64 Y41 Z-0.9 I-1.107 J0.971
X29.36 Y41 I-1.64 J0 F300
X32.64 Y41 I1.64 J0
G2 X33.281 Y42.142 I1.338 J0
G3 X33.436 Y43.443 I-0.434 J0.711
X28.564 Y38.557 I-2.436 J-2.443
X33.436 Y43.443 I2.436 J2.443
X31.289 Y43.372 Z-0.973 I-1.04 J-1.043 F150
G1 X30.061 Y41.971 Z-1.029
G3 X32.274 Y40.029 Z-1.168 I1.107 J-0.971
X32.64 Y41 Z-1.2 I-1.107 J0.971
X29.36 Y41 I-1.64 J0 F300
X32.64 Y41 I1.64 J0
G2 X33.281 Y42.142 I1.338 J0
G3 X33.436 Y43.443 I-0.434 J0.711
X28.564 Y38.557 I-2.436 J-2.443
X33.436 Y43.443 I2.436 J2.443
X31.289 Y43.372 Z-1.273 I-1.04 J-1.043 F150
G1 X30.061 Y41.971 Z-1.329
G3 X32.274 Y40.029 Z-1.468 I1.107 J-0.971
X32.64 Y41 Z-1.5 I-1.107 J0.971
X29.36 Y41 I-1.64 J0 F300
X32.64 Y41 I1.64 J0
G2 X33.281 Y42.142 I1.338 J0
G3 X33.436 Y43.443 I-0.434 J0.711
X28.564 Y38.557 I-2.436 J-2.443
X33.436 Y43.443 I2.436 J2.443
X31.289 Y43.372 Z-1.573 I-1.04 J-1.043 F150
G1 X30.061 Y41.971 Z-1.629
G3 X32.274 Y40.029 Z-1.768 I1.107 J-0.971
X32.64 Y41 Z-1.8 I-1.107 J0.971
X29.36 Y41 I-1.64 J0 F300
X32.64 Y41 I1.64 J0
G2 X33.281 Y42.142 I1.338 J0
G3 X33.436 Y43.443 I-0.434 J0.711
X28.564 Y38.557 I-2.436 J-2.443
X33.436 Y43.443 I2.436 J2.443
X31.289 Y43.372 Z-1.873 I-1.04 J-1.043 F150
G1 X30.061 Y41.971 Z-1.929
G3 X32.274 Y40.029 Z-2.068 I1.107 J-0.971
X32.64 Y41 Z-2.1 I-1.107 J0.971
X29.36 Y41 I-1.64 J0 F300
X32.64 Y41 I1.64 J0
G2 X33.281 Y42.142 I1.338 J0
G3 X33.436 Y43.443 I-0.434 J0.711
X28.564 Y38.557 I-2.436 J-2.443
X33.436 Y43.443 I2.436 J2.443
X31.289 Y43.372 Z-2.173 I-1.04 J-1.043 F150
G1 X30.061 Y41.971 Z-2.229
G3 X32.274 Y40.029 Z-2.368 I1.107 J-0.971
X32.64 Y41 Z-2.4 I-1.107 J0.971
X29.36 Y41 I-1.64 J0 F300
X32.64 Y41 I1.64 J0
G2 X33.281 Y42.142 I1.338 J0
G3 X33.436 Y43.443 I-0.434 J0.711
X28.564 Y38.557 I-2.436 J-2.443
X33.436 Y43.443 I2.436 J2.443
X31.289 Y43.372 Z-2.473 I-1.04 J-1.043 F150
G1 X30.061 Y41.971 Z-2.529
G3 X32.274 Y40.029 Z-2.668 I1.107 J-0.971
X32.64 Y41 Z-2.7 I-1.107 J0.971
X29.36 Y41 I-1.64 J0 F300
X32.64 Y41 I1.64 J0
G2 X33.281 Y42.142 I1.338 J0
G3 X33.436 Y43.443 I-0.434 J0.711
X28.564 Y38.557 I-2.436 J-2.443
X33.436 Y43.443 I2.436 J2.443
X31.289 Y43.372 Z-2.773 I-1.04 J-1.043 F150
G1 X30.061 Y41.971 Z-2.829
G3 X32.274 Y40.029 Z-2.968 I1.107 J-0.971
X32.64 Y41 Z-3 I-1.107 J0.971
X29.36 Y41 I-1.64 J0 F300
X32.64 Y41 I1.64 J0
G2 X33.281 Y42.142 I1.338 J0
G3 X33.436 Y43.443 I-0.434 J0.711
X28.564 Y38.557 I-2.436 J-2.443
X33.436 Y43.443 I2.436 J2.443
G1 X33.39 Y43.481 Z-2.988
X33.338 Y43.509 Z-2.976
X33.29 Y43.525 Z-2.943
X33.241 Y43.533 Z-2.909
X33.174 Y43.531 Z-2.809
X33.15 Y43.527 Z-2.69
Z10
X32.297 Y15.401
Z5
Z2.81 F150
X32.304 Y15.422 Z2.694
X32.322 Y15.484 Z2.594
X32.344 Y15.578 Z2.527
X32.362 Y15.692 Z2.5
G3 X29.437 Y16.04 Z2.338 I-1.462 J0.174
X32.362 Y15.692 Z2.177 I1.462 J-0.174
X29.437 Y16.04 Z2.015 I-1.462 J0.174
X32.362 Y15.692 Z1.854 I1.462 J-0.174
X29.437 Y16.04 Z1.692 I-1.462 J0.174
X32.362 Y15.692 Z1.531 I1.462 J-0.174
X29.437 Y16.04 Z1.369 I-1.462 J0.174
X32.362 Y15.692 Z1.208 I1.462 J-0.174
X29.437 Y16.04 Z1.046 I-1.462 J0.174
X32.362 Y15.692 Z0.885 I1.462 J-0.174
X29.437 Y16.04 Z0.723 I-1.462 J0.174
X32.362 Y15.692 Z0.561 I1.462 J-0.174
X29.437 Y16.04 Z0.4 I-1.462 J0.174
X32.362 Y15.692 Z0.238 I1.462 J-0.174
X29.437 Y16.04 Z0.077 I-1.462 J0.174
X32.362 Y15.692 Z-0.085 I1.462 J-0.174
X29.437 Y16.04 Z-0.246 I-1.462 J0.174
X30.016 Y14.688 Z-0.3 I1.462 J-0.174
X31.984 Y17.312 I0.984 J1.312 F300
X30.016 Y14.688 I-0.984 J-1.312
G2 X30.545 Y13.49 I-0.803 J-1.07
G3 X31.493 Y12.585 I0.829 J-0.08
X30.507 Y19.415 I-0.493 J3.415
X31.493 Y12.585 I0.493 J-3.415
X32.724 Y14.346 Z-0.373 I-0.211 J1.457 F150
G1 X32.341 Y16.169 Z-0.429
G3 X29.458 Y15.563 Z-0.568 I-1.441 J-0.303
X30.016 Y14.688 Z-0.6 I1.441 J0.303
X31.984 Y17.312 I0.984 J1.312 F300
X30.016 Y14.688 I-0.984 J-1.312
G2 X30.545 Y13.49 I-0.803 J-1.07
G3 X31.493 Y12.585 I0.829 J-0.08
X30.507 Y19.415 I-0.493 J3.415
X31.493 Y12.585 I0.493 J-3.415
X32.724 Y14.346 Z-0.673 I-0.211 J1.457 F150
G1 X32.341 Y16.169 Z-0.729
G3 X29.458 Y15.563 Z-0.868 I-1.441 J-0.303
X30.016 Y14.688 Z-0.9 I1.441 J0.303
X31.984 Y17.312 I0.984 J1.312 F300
X30.016 Y14.688 I-0.984 J-1.312
G2 X30.545 Y13.49 I-0.803 J-1.07
G3 X31.493 Y12.585 I0.829 J-0.08
X30.507 Y19.415 I-0.493 J3.415
X31.493 Y12.585 I0.493 J-3.415
X32.724 Y14.346 Z-0.973 I-0.211 J1.457 F150
G1 X32.341 Y16.169 Z-1.029
G3 X29.458 Y15.563 Z-1.168 I-1.441 J-0.303
X30.016 Y14.688 Z-1.2 I1.441 J0.303
X31.984 Y17.312 I0.984 J1.312 F300
X30.016 Y14.688 I-0.984 J-1.312
G2 X30.545 Y13.49 I-0.803 J-1.07
G3 X31.493 Y12.585 I0.829 J-0.08
X30.507 Y19.415 I-0.493 J3.415
X31.493 Y12.585 I0.493 J-3.415
X32.724 Y14.346 Z-1.273 I-0.211 J1.457 F150
G1 X32.341 Y16.169 Z-1.329
G3 X29.458 Y15.563 Z-1.468 I-1.441 J-0.303
X30.016 Y14.688 Z-1.5 I1.441 J0.303
X31.984 Y17.312 I0.984 J1.312 F300
X30.016 Y14.688 I-0.984 J-1.312
G2 X30.545 Y13.49 I-0.803 J-1.07
G3 X31.493 Y12.585 I0.829 J-0.08
X30.507 Y19.415 I-0.493 J3.415
X31.493 Y12.585 I0.493 J-3.415
X32.724 Y14.346 Z-1.573 I-0.211 J1.457 F150
G1 X32.341 Y16.169 Z-1.629
G3 X29.458 Y15.563 Z-1.768 I-1.441 J-0.303
X30.016 Y14.688 Z-1.8 I1.441 J0.303
X31.984 Y17.312 I0.984 J1.312 F300
X30.016 Y14.688 I-0.984 J-1.312
G2 X30.545 Y13.49 I-0.803 J-1.07
G3 X31.493 Y12.585 I0.829 J-0.08
X30.507 Y19.415 I-0.493 J3.415
X31.493 Y12.585 I0.493 J-3.415
X32.724 Y14.346 Z-1.873 I-0.211 J1.457 F150
G1 X32.341 Y16.169 Z-1.929
G3 X29.458 Y15.563 Z-2.068 I-1.441 J-0.303
X30.016 Y14.688 Z-2.1 I1.441 J0.303
X31.984 Y17.312 I0.984 J1.312 F300
X30.016 Y14.688 I-0.984 J-1.312
G2 X30.545 Y13.49 I-0.803 J-1.07
G3 X31.493 Y12.585 I0.829 J-0.08
X30.507 Y19.415 I-0.493 J3.415
X31.493 Y12.585 I0.493 J-3.415
X32.724 Y14.346 Z-2.173 I-0.211 J1.457 F150
G1 X32.341 Y16.169 Z-2.229
G3 X29.458 Y15.563 Z-2.368 I-1.441 J-0.303
X30.016 Y14.688 Z-2.4 I1.441 J0.303
X31.984 Y17.312 I0.984 J1.312 F300
X30.016 Y14.688 I-0.984 J-1.312
G2 X30.545 Y13.49 I-0.803 J-1.07
G3 X31.493 Y12.585 I0.829 J-0.08
X30.507 Y19.415 I-0.493 J3.415
X31.493 Y12.585 I0.493 J-3.415
X32.724 Y14.346 Z-2.473 I-0.211 J1.457 F150
G1 X32.341 Y16.169 Z-2.529
G3 X29.458 Y15.563 Z-2.668 I-1.441 J-0.303
X30.016 Y14.688 Z-2.7 I1.441 J0.303
X31.984 Y17.312 I0.984 J1.312 F300
X30.016 Y14.688 I-0.984 J-1.312
G2 X30.545 Y13.49 I-0.803 J-1.07
G3 X31.493 Y12.585 I0.829 J-0.08
X30.507 Y19.415 I-0.493 J3.415
X31.493 Y12.585 I0.493 J-3.415
X32.724 Y14.346 Z-2.773 I-0.211 J1.457 F150
G1 X32.341 Y16.169 Z-2.829
G3 X29.458 Y15.563 Z-2.968 I-1.441 J-0.303
X30.016 Y14.688 Z-3 I1.441 J0.303
X31.984 Y17.312 I0.984 J1.312 F300
X30.016 Y14.688 I-0.984 J-1.312
G2 X30.545 Y13.49 I-0.803 J-1.07
G3 X31.493 Y12.585 I0.829 J-0.08
X30.507 Y19.415 I-0.493 J3.415
X31.493 Y12.585 I0.493 J-3.415
G1 X31.551 Y12.599 Z-2.988
X31.605 Y12.624 Z-2.976
X31.646 Y12.653 Z-2.943
X31.682 Y12.688 Z-2.909
X31.72 Y12.743 Z-2.809
X31.731 Y12.764 Z-2.69
Z10
X52.297 Y15.401
Z5
Z2.81 F150
X52.304 Y15.422 Z2.694
X52.322 Y15.484 Z2.594
X52.344 Y15.578 Z2.527
X52.362 Y15.692 Z2.5
G3 X49.437 Y16.04 Z2.338 I-1.462 J0.174
X52.362 Y15.692 Z2.177 I1.462 J-0.174
X49.437 Y16.04 Z2.015 I-1.462 J0.174
X52.362 Y15.692 Z1.854 I1.462 J-0.174
X49.437 Y16.04 Z1.692 I-1.462 J0.174
X52.362 Y15.692 Z1.531 I1.462 J-0.174
X49.437 Y16.04 Z1.369 I-1.462 J0.174
X52.362 Y15.692 Z1.208 I1.462 J-0.174
X49.437 Y16.04 Z1.046 I-1.462 J0.174
X52.362 Y15.692 Z0.885 I1.462 J-0.174
X49.437 Y16.04 Z0.723 I-1.462 J0.174
X52.362 Y15.692 Z0.561 I1.462 J-0.174
X49.437 Y16.04 Z0.4 I-1.462 J0.174
X52.362 Y15.692 Z0.238 I1.462 J-0.174
X49.437 Y16.04 Z0.077 I-1.462 J0.174
X52.362 Y15.692 Z-0.085 I1.462 J-0.174
X49.437 Y16.04 Z-0.246 I-1.462 J0.174
X50.016 Y14.688 Z-0.3 I1.462 J-0.174
X51.984 Y17.312 I0.984 J1.312 F300
X50.016 Y14.688 I-0.984 J-1.312
G2 X50.545 Y13.49 I-0.803 J-1.07
G3 X51.493 Y12.585 I0.829 J-0.08
X50.507 Y19.415 I-0.493 J3.415
X51.493 Y12.585 I0.493 J-3.415
X52.724 Y14.346 Z-0.373 I-0.211 J1.457 F150
G1 X52.341 Y16.169 Z-0.429
G3 X49.458 Y15.563 Z-0.568 I-1.441 J-0.303
X50.016 Y14.688 Z-0.6 I1.441 J0.303
X51.984 Y17.312 I0.984 J1.312 F300
X50.016 Y14.688 I-0.984 J-1.312
G2 X50.545 Y13.49 I-0.803 J-1.07
G3 X51.493 Y12.585 I0.829 J-0.08
X50.507 Y19.415 I-0.493 J3.415
X51.493 Y12.585 I0.493 J-3.415
X52.724 Y14.346 Z-0.673 I-0.211 J1.457 F150
G1 X52.341 Y16.169 Z-0.729
G3 X49.458 Y15.563 Z-0.868 I-1.441 J-0.303
X50.016 Y14.688 Z-0.9 I1.441 J0.303
X51.984 Y17.312 I0.984 J1.312 F300
X50.016 Y14.688 I-0.984 J-1.312
G2 X50.545 Y13.49 I-0.803 J-1.07
G3 X51.493 Y12.585 I0.829 J-0.08
X50.507 Y19.415 I-0.493 J3.415
X51.493 Y12.585 I0.493 J-3.415
X52.724 Y14.346 Z-0.973 I-0.211 J1.457 F150
G1 X52.341 Y16.169 Z-1.029
G3 X49.458 Y15.563 Z-1.168 I-1.441 J-0.303
X50.016 Y14.688 Z-1.2 I1.441 J0.303
X51.984 Y17.312 I0.984 J1.312 F300
X50.016 Y14.688 I-0.984 J-1.312
G2 X50.545 Y13.49 I-0.803 J-1.07
G3 X51.493 Y12.585 I0.829 J-0.08
X50.507 Y19.415 I-0.493 J3.415
X51.493 Y12.585 I0.493 J-3.415
X52.724 Y14.346 Z-1.273 I-0.211 J1.457 F150
G1 X52.341 Y16.169 Z-1.329
G3 X49.458 Y15.563 Z-1.468 I-1.441 J-0.303
X50.016 Y14.688 Z-1.5 I1.441 J0.303
X51.984 Y17.312 I0.984 J1.312 F300
X50.016 Y14.688 I-0.984 J-1.312
G2 X50.545 Y13.49 I-0.803 J-1.07
G3 X51.493 Y12.585 I0.829 J-0.08
X50.507 Y19.415 I-0.493 J3.415
X51.493 Y12.585 I0.493 J-3.415
X52.724 Y14.346 Z-1.573 I-0.211 J1.457 F150
G1 X52.341 Y16.169 Z-1.629
G3 X49.458 Y15.563 Z-1.768 I-1.441 J-0.303
X50.016 Y14.688 Z-1.8 I1.441 J0.303
X51.984 Y17.312 I0.984 J1.312 F300
X50.016 Y14.688 I-0.984 J-1.312
G2 X50.545 Y13.49 I-0.803 J-1.07
G3 X51.493 Y12.585 I0.829 J-0.08
X50.507 Y19.415 I-0.493 J3.415
X51.493 Y12.585 I0.493 J-3.415
X52.724 Y14.346 Z-1.873 I-0.211 J1.457 F150
G1 X52.341 Y16.169 Z-1.929
G3 X49.458 Y15.563 Z-2.068 I-1.441 J-0.303
X50.016 Y14.688 Z-2.1 I1.441 J0.303
X51.984 Y17.312 I0.984 J1.312 F300
X50.016 Y14.688 I-0.984 J-1.312
G2 X50.545 Y13.49 I-0.803 J-1.07
G3 X51.493 Y12.585 I0.829 J-0.08
X50.507 Y19.415 I-0.493 J3.415
X51.493 Y12.585 I0.493 J-3.415
X52.724 Y14.346 Z-2.173 I-0.211 J1.457 F150
G1 X52.341 Y16.169 Z-2.229
G3 X49.458 Y15.563 Z-2.368 I-1.441 J-0.303
X50.016 Y14.688 Z-2.4 I1.441 J0.303
X51.984 Y17.312 I0.984 J1.312 F300
X50.016 Y14.688 I-0.984 J-1.312
G2 X50.545 Y13.49 I-0.803 J-1.07
G3 X51.493 Y12.585 I0.829 J-0.08
X50.507 Y19.415 I-0.493 J3.415
X51.493 Y12.585 I0.493 J-3.415
X52.724 Y14.346 Z-2.473 I-0.211 J1.457 F150
G1 X52.341 Y16.169 Z-2.529
G3 X49.458 Y15.563 Z-2.668 I-1.441 J-0.303
X50.016 Y14.688 Z-2.7 I1.441 J0.303
X51.984 Y17.312 I0.984 J1.312 F300
X50.016 Y14.688 I-0.984 J-1.312
G2 X50.545 Y13.49 I-0.803 J-1.07
G3 X51.493 Y12.585 I0.829 J-0.08
X50.507 Y19.415 I-0.493 J3.415
X51.493 Y12.585 I0.493 J-3.415
X52.724 Y14.346 Z-2.773 I-0.211 J1.457 F150
G1 X52.341 Y16.169 Z-2.829
G3 X49.458 Y15.563 Z-2.968 I-1.441 J-0.303
X50.016 Y14.688 Z-3 I1.441 J0.303
X51.984 Y17.312 I0.984 J1.312 F300
X50.016 Y14.688 I-0.984 J-1.312
G2 X50.545 Y13.49 I-0.803 J-1.07
G3 X51.493 Y12.585 I0.829 J-0.08
X50.507 Y19.415 I-0.493 J3.415
X51.493 Y12.585 I0.493 J-3.415
G1 X51.551 Y12.599 Z-2.988
X51.605 Y12.624 Z-2.976
X51.646 Y12.653 Z-2.943
X51.682 Y12.688 Z-2.909
X51.72 Y12.743 Z-2.809
X51.731 Y12.764 Z-2.69
Z10
X50.701 Y42.397
Z5
Z2.81 F150
X50.68 Y42.389 Z2.694
X50.62 Y42.367 Z2.594
X50.531 Y42.328 Z2.527
X50.429 Y42.274 Z2.5
G3 X51.906 Y39.726 Z2.338 I0.738 J-1.274
X50.429 Y42.274 Z2.177 I-0.738 J1.274
X51.906 Y39.726 Z2.015 I0.738 J-1.274
X50.429 Y42.274 Z1.854 I-0.738 J1.274
X51.906 Y39.726 Z1.692 I0.738 J-1.274
X50.429 Y42.274 Z1.531 I-0.738 J1.274
X51.906 Y39.726 Z1.369 I0.738 J-1.274
X50.429 Y42.274 Z1.208 I-0.738 J1.274
X51.906 Y39.726 Z1.046 I0.738 J-1.274
X50.429 Y42.274 Z0.885 I-0.738 J1.274
X51.906 Y39.726 Z0.723 I0.738 J-1.274
X50.429 Y42.274 Z0.561 I-0.738 J1.274
X51.906 Y39.726 Z0.4 I0.738 J-1.274
X50.429 Y42.274 Z0.238 I-0.738 J1.274
X51.906 Y39.726 Z0.077 I0.738 J-1.274
X50.429 Y42.274 Z-0.085 I-0.738 J1.274
X51.906 Y39.726 Z-0.246 I0.738 J-1.274
X52.64 Y41 Z-0.3 I-0.738 J1.274
X49.36 Y41 I-1.64 J0 F300
X52.64 Y41 I1.64 J0
G2 X53.281 Y42.142 I1.338 J0
G3 X53.436 Y43.443 I-0.434 J0.711
X48.564 Y38.557 I-2.436 J-2.443
X53.436 Y43.443 I2.436 J2.443
X51.289 Y43.372 Z-0.373 I-1.04 J-1.043 F150
G1 X50.061 Y41.971 Z-0.429
G3 X52.274 Y40.029 Z-0.568 I1.107 J-0.971
X52.64 Y41 Z-0.6 I-1.107 J0.971
X49.36 Y41 I-1.64 J0 F300
X52.64 Y41 I1.64 J0
G2 X53.281 Y42.142 I1.338 J0
G3 X53.436 Y43.443 I-0.434 J0.711
X48.564 Y38.557 I-2.436 J-2.443
X53.436 Y43.443 I2.436 J2.443
X51.289 Y43.372 Z-0.673 I-1.04 J-1.043 F150
G1 X50.061 Y41.971 Z-0.729
G3 X52.274 Y40.029 Z-0.868 I1.107 J-0.971
X52.64 Y41 Z-0.9 I-1.107 J0.971
X49.36 Y41 I-1.64 J0 F300
X52.64 Y41 I1.64 J0
G2 X53.281 Y42.142 I1.338 J0
G3 X53.436 Y43.443 I-0.434 J0.711
X48.564 Y38.557 I-2.436 J-2.443
X53.436 Y43.443 I2.436 J2.443
X51.289 Y43.372 Z-0.973 I-1.04 J-1.043 F150
G1 X50.061 Y41.971 Z-1.029
G3 X52.274 Y40.029 Z-1.168 I1.107 J-0.971
X52.64 Y41 Z-1.2 I-1.107 J0.971
X49.36 Y41 I-1.64 J0 F300
X52.64 Y41 I1.64 J0
G2 X53.281 Y42.142 I1.338 J0
G3 X53.436 Y43.443 I-0.434 J0.711
X48.564 Y38.557 I-2.436 J-2.443
X53.436 Y43.443 I2.436 J2.443
X51.289 Y43.372 Z-1.273 I-1.04 J-1.043 F150
G1 X50.061 Y41.971 Z-1.329
G3 X52.274 Y40.029 Z-1.468 I1.107 J-0.971
X52.64 Y41 Z-1.5 I-1.107 J0.971
X49.36 Y41 I-1.64 J0 F300
X52.64 Y41 I1.64 J0
G2 X53.281 Y42.142 I1.338 J0
G3 X53.436 Y43.443 I-0.434 J0.711
X48.564 Y38.557 I-2.436 J-2.443
X53.436 Y43.443 I2.436 J2.443
X51.289 Y43.372 Z-1.573 I-1.04 J-1.043 F150
G1 X50.061 Y41.971 Z-1.629
G3 X52.274 Y40.029 Z-1.768 I1.107 J-0.971
X52.64 Y41 Z-1.8 I-1.107 J0.971
X49.36 Y41 I-1.64 J0 F300
X52.64 Y41 I1.64 J0
G2 X53.281 Y42.142 I1.338 J0
G3 X53.436 Y43.443 I-0.434 J0.711
X48.564 Y38.557 I-2.436 J-2.443
X53.436 Y43.443 I2.436 J2.443
X51.289 Y43.372 Z-1.873 I-1.04 J-1.043 F150
G1 X50.061 Y41.971 Z-1.929
G3 X52.274 Y40.029 Z-2.068 I1.107 J-0.971
X52.64 Y41 Z-2.1 I-1.107 J0.971
X49.36 Y41 I-1.64 J0 F300
X52.64 Y41 I1.64 J0
G2 X53.281 Y42.142 I1.338 J0
G3 X53.436 Y43.443 I-0.434 J0.711
X48.564 Y38.557 I-2.436 J-2.443
X53.436 Y43.443 I2.436 J2.443
X51.289 Y43.372 Z-2.173 I-1.04 J-1.043 F150
G1 X50.061 Y41.971 Z-2.229
G3 X52.274 Y40.029 Z-2.368 I1.107 J-0.971
X52.64 Y41 Z-2.4 I-1.107 J0.971
X49.36 Y41 I-1.64 J0 F300
X52.64 Y41 I1.64 J0
G2 X53.281 Y42.142 I1.338 J0
G3 X53.436 Y43.443 I-0.434 J0.711
X48.564 Y38.557 I-2.436 J-2.443
X53.436 Y43.443 I2.436 J2.443
X51.289 Y43.372 Z-2.473 I-1.04 J-1.043 F150
G1 X50.061 Y41.971 Z-2.529
G3 X52.274 Y40.029 Z-2.668 I1.107 J-0.971
X52.64 Y41 Z-2.7 I-1.107 J0.971
X49.36 Y41 I-1.64 J0 F300
X52.64 Y41 I1.64 J0
G2 X53.281 Y42.142 I1.338 J0
G3 X53.436 Y43.443 I-0.434 J0.711
X48.564 Y38.557 I-2.436 J-2.443
X53.436 Y43.443 I2.436 J2.443
X51.289 Y43.372 Z-2.773 I-1.04 J-1.043 F150
G1 X50.061 Y41.971 Z-2.829
G3 X52.274 Y40.029 Z-2.968 I1.107 J-0.971
X52.64 Y41 Z-3 I-1.107 J0.971
X49.36 Y41 I-1.64 J0 F300
X52.64 Y41 I1.64 J0
G2 X53.281 Y42.142 I1.338 J0
G3 X53.436 Y43.443 I-0.434 J0.711
X48.564 Y38.557 I-2.436 J-2.443
X53.436 Y43.443 I2.436 J2.443
G1 X53.39 Y43.481 Z-2.988
X53.338 Y43.509 Z-2.976
X53.29 Y43.525 Z-2.943
X53.241 Y43.533 Z-2.909
X53.174 Y43.531 Z-2.809
X53.15 Y43.527 Z-2.69
Z10
(When using Fusion 360 for Personal Use, the feedrate of)
(rapid moves is reduced to match the feedrate of cutting)
(moves, which can increase machining time. Unrestricted rapid)
(moves are available with a Fusion 360 Subscription.)

(2D Contour2)
G0 X81.31 Y-1.48
G1 Z10 F300
Z5
Z1.3 F150
Z0.01
G19 G3 Y-1.17 Z-0.3 J0.31 K0
G1 Y-0.86
G17 G3 X81 Y-0.55 I-0.31 J0
G1 X1 F300
G2 X-0.55 Y1 I0 J1.55
G1 Y51
G2 X1 Y52.55 I1.55 J0
G1 X81
G2 X82.55 Y51 I0 J-1.55
G1 Y1
G2 X81 Y-0.55 I-1.55 J0
G3 X80.69 Y-0.86 I0 J-0.31
G1 Y-1.17
G19 G2 Y-1.48 Z0.01 J0 K0.31
G1 Z5
X81.31
Z1 F150
Z-0.29
G3 Y-1.17 Z-0.6 J0.31 K0
G1 Y-0.86
G17 G3 X81 Y-0.55 I-0.31 J0
G1 X1 F300
G2 X-0.55 Y1 I0 J1.55
G1 Y51
G2 X1 Y52.55 I1.55 J0
G1 X81
G2 X82.55 Y51 I0 J-1.55
G1 Y1
G2 X81 Y-0.55 I-1.55 J0
G3 X80.69 Y-0.86 I0 J-0.31
G1 Y-1.17
G19 G2 Y-1.48 Z-0.29 J0 K0.31
G1 Z5
X81.31
Z0.7 F150
Z-0.59
G3 Y-1.17 Z-0.9 J0.31 K0
G1 Y-0.86
G17 G3 X81 Y-0.55 I-0.31 J0
G1 X1 F300
G2 X-0.55 Y1 I0 J1.55
G1 Y51
G2 X1 Y52.55 I1.55 J0
G1 X81
G2 X82.55 Y51 I0 J-1.55
G1 Y1
G2 X81 Y-0.55 I-1.55 J0
G3 X80.69 Y-0.86 I0 J-0.31
G1 Y-1.17
G19 G2 Y-1.48 Z-0.59 J0 K0.31
G1 Z5
X81.31
Z0.4 F150
Z-0.89
G3 Y-1.17 Z-1.2 J0.31 K0
G1 Y-0.86
G17 G3 X81 Y-0.55 I-0.31 J0
G1 X1 F300
G2 X-0.55 Y1 I0 J1.55
G1 Y51
G2 X1 Y52.55 I1.55 J0
G1 X81
G2 X82.55 Y51 I0 J-1.55
G1 Y1
G2 X81 Y-0.55 I-1.55 J0
G3 X80.69 Y-0.86 I0 J-0.31
G1 Y-1.17
G19 G2 Y-1.48 Z-0.89 J0 K0.31
G1 Z5
X81.31
Z0.1 F150
Z-1.19
G3 Y-1.17 Z-1.5 J0.31 K0
G1 Y-0.86
G17 G3 X81 Y-0.55 I-0.31 J0
G1 X1 F300
G2 X-0.55 Y1 I0 J1.55
G1 Y51
G2 X1 Y52.55 I1.55 J0
G1 X81
G2 X82.55 Y51 I0 J-1.55
G1 Y1
G2 X81 Y-0.55 I-1.55 J0
G3 X80.69 Y-0.86 I0 J-0.31
G1 Y-1.17
G19 G2 Y-1.48 Z-1.19 J0 K0.31
G1 Z5
X81.31
Z-0.2 F150
Z-1.49
G3 Y-1.17 Z-1.8 J0.31 K0
G1 Y-0.86
G17 G3 X81 Y-0.55 I-0.31 J0
G1 X1 F300
G2 X-0.55 Y1 I0 J1.55
G1 Y51
G2 X1 Y52.55 I1.55 J0
G1 X81
G2 X82.55 Y51 I0 J-1.55
G1 Y1
G2 X81 Y-0.55 I-1.55 J0
G3 X80.69 Y-0.86 I0 J-0.31
G1 Y-1.17
G19 G2 Y-1.48 Z-1.49 J0 K0.31
G1 Z5
X81.31
Z-0.5 F150
Z-1.79
G3 Y-1.17 Z-2.1 J0.31 K0
G1 Y-0.86
G17 G3 X81 Y-0.55 I-0.31 J0
G1 X1 F300
G2 X-0.55 Y1 I0 J1.55
G1 Y51
G2 X1 Y52.55 I1.55 J0
G1 X81
G2 X82.55 Y51 I0 J-1.55
G1 Y1
G2 X81 Y-0.55 I-1.55 J0
G3 X80.69 Y-0.86 I0 J-0.31
G1 Y-1.17
G19 G2 Y-1.48 Z-1.79 J0 K0.31
G1 Z5
X81.31
Z-0.8 F150
Z-2.09
G3 Y-1.17 Z-2.4 J0.31 K0
G1 Y-0.86
G17 G3 X81 Y-0.55 I-0.31 J0
G1 X1 F300
G2 X-0.55 Y1 I0 J1.55
G1 Y51
G2 X1 Y52.55 I1.55 J0
G1 X81
G2 X82.55 Y51 I0 J-1.55
G1 Y1
G2 X81 Y-0.55 I-1.55 J0
G3 X80.69 Y-0.86 I0 J-0.31
G1 Y-1.17
G19 G2 Y-1.48 Z-2.09 J0 K0.31
G1 Z5
X81.31
Z-1.1 F150
Z-2.39
G3 Y-1.17 Z-2.7 J0.31 K0
G1 Y-0.86
G17 G3 X81 Y-0.55 I-0.31 J0
G1 X1 F300
G2 X-0.55 Y1 I0 J1.55
G1 Y51
G2 X1 Y52.55 I1.55 J0
G1 X81
G2 X82.55 Y51 I0 J-1.55
G1 Y1
G2 X81 Y-0.55 I-1.55 J0
G3 X80.69 Y-0.86 I0 J-0.31
G1 Y-1.17
G19 G2 Y-1.48 Z-2.39 J0 K0.31
G1 Z5
X81.31
Z-1.4 F150
Z-2.69
G3 Y-1.17 Z-3 J0.31 K0
G1 Y-0.86
G17 G3 X81 Y-0.55 I-0.31 J0
G1 X1 F300
G2 X-0.55 Y1 I0 J1.55
G1 Y51
G2 X1 Y52.55 I1.55 J0
G1 X81
G2 X82.55 Y51 I0 J-1.55
G1 Y1
G2 X81 Y-0.55 I-1.55 J0
G3 X80.69 Y-0.86 I0 J-0.31
G1 Y-1.17
G19 G2 Y-1.48 Z-2.69 J0 K0.31
G1 Z5
X81.31
Z-1.7 F150
Z-2.99
G3 Y-1.17 Z-3.3 J0.31 K0
G1 Y-0.86
G17 G3 X81 Y-0.55 I-0.31 J0
G1 X1 F300
G2 X-0.55 Y1 I0 J1.55
G1 Y51
G2 X1 Y52.55 I1.55 J0
G1 X81
G2 X82.55 Y51 I0 J-1.55
G1 Y1
G2 X81 Y-0.55 I-1.55 J0
G3 X80.69 Y-0.86 I0 J-0.31
G1 Y-1.17
G19 G2 Y-1.48 Z-2.99 J0 K0.31
G1 Z5
X81.31
Z-2 F150
Z-3.29
G3 Y-1.17 Z-3.6 J0.31 K0
G1 Y-0.86
G17 G3 X81 Y-0.55 I-0.31 J0
G1 X1 F300
G2 X-0.55 Y1 I0 J1.55
G1 Y51
G2 X1 Y52.55 I1.55 J0
G1 X81
G2 X82.55 Y51 I0 J-1.55
G1 Y1
G2 X81 Y-0.55 I-1.55 J0
G3 X80.69 Y-0.86 I0 J-0.31
G1 Y-1.17
G19 G2 Y-1.48 Z-3.29 J0 K0.31
G1 Z5
X81.31
Z-2.3 F150
Z-3.59
G3 Y-1.17 Z-3.9 J0.31 K0
G1 Y-0.86
G17 G3 X81 Y-0.55 I-0.31 J0
G1 X1 F300
G2 X-0.55 Y1 I0 J1.55
G1 Y51
G2 X1 Y52.55 I1.55 J0
G1 X81
G2 X82.55 Y51 I0 J-1.55
G1 Y1
G2 X81 Y-0.55 I-1.55 J0
G3 X80.69 Y-0.86 I0 J-0.31
G1 Y-1.17
G19 G2 Y-1.48 Z-3.59 J0 K0.31
G1 Z5
X81.31
Z-2.6 F150
Z-3.89
G3 Y-1.17 Z-4.2 J0.31 K0
G1 Y-0.86
G17 G3 X81 Y-0.55 I-0.31 J0
G1 X1 F300
G2 X-0.55 Y1 I0 J1.55
G1 Y51
G2 X1 Y52.55 I1.55 J0
G1 X81
G2 X82.55 Y51 I0 J-1.55
G1 Y1
G2 X81 Y-0.55 I-1.55 J0
G3 X80.69 Y-0.86 I0 J-0.31
G1 Y-1.17
G19 G2 Y-1.48 Z-3.89 J0 K0.31
G1 Z5
X81.31
Z-2.9 F150
Z-4.19
G3 Y-1.17 Z-4.5 J0.31 K0
G1 Y-0.86
G17 G3 X81 Y-0.55 I-0.31 J0
G1 X1 F300
G2 X-0.55 Y1 I0 J1.55
G1 Y51
G2 X1 Y52.55 I1.55 J0
G1 X81
G2 X82.55 Y51 I0 J-1.55
G1 Y1
G2 X81 Y-0.55 I-1.55 J0
G3 X80.69 Y-0.86 I0 J-0.31
G1 Y-1.17
G19 G2 Y-1.48 Z-4.19 J0 K0.31
G1 Z5
X81.31
Z-3.2 F150
Z-4.49
G3 Y-1.17 Z-4.8 J0.31 K0
G1 Y-0.86
G17 G3 X81 Y-0.55 I-0.31 J0
G1 X1 F300
G2 X-0.55 Y1 I0 J1.55
G1 Y51
G2 X1 Y52.55 I1.55 J0
G1 X81
G2 X82.55 Y51 I0 J-1.55
G1 Y1
G2 X81 Y-0.55 I-1.55 J0
G3 X80.69 Y-0.86 I0 J-0.31
G1 Y-1.17
G19 G2 Y-1.48 Z-4.49 J0 K0.31
G1 Z5
X81.31
Z-3.5 F150
Z-4.79
G3 Y-1.17 Z-5.1 J0.31 K0
G1 Y-0.86
G17 G3 X81 Y-0.55 I-0.31 J0
G1 X1 F300
G2 X-0.55 Y1 I0 J1.55
G1 Y51
G2 X1 Y52.55 I1.55 J0
G1 X81
G2 X82.55 Y51 I0 J-1.55
G1 Y1
G2 X81 Y-0.55 I-1.55 J0
G3 X80.69 Y-0.86 I0 J-0.31
G1 Y-1.17
G19 G2 Y-1.48 Z-4.79 J0 K0.31
G1 Z5
X81.31
Z-3.8 F150
Z-5.09
G3 Y-1.17 Z-5.4 J0.31 K0
G1 Y-0.86
G17 G3 X81 Y-0.55 I-0.31 J0
G1 X1 F300
G2 X-0.55 Y1 I0 J1.55
G1 Y51
G2 X1 Y52.55 I1.55 J0
G1 X81
G2 X82.55 Y51 I0 J-1.55
G1 Y1
G2 X81 Y-0.55 I-1.55 J0
G3 X80.69 Y-0.86 I0 J-0.31
G1 Y-1.17
G19 G2 Y-1.48 Z-5.09 J0 K0.31
G1 Z5
X81.31
Z-4.1 F150
Z-5.39
G3 Y-1.17 Z-5.7 J0.31 K0
G1 Y-0.86
G17 G3 X81 Y-0.55 I-0.31 J0
G1 X1 F300
G2 X-0.55 Y1 I0 J1.55
G1 Y51
G2 X1 Y52.55 I1.55 J0
G1 X81
G2 X82.55 Y51 I0 J-1.55
G1 Y1
G2 X81 Y-0.55 I-1.55 J0
G3 X80.69 Y-0.86 I0 J-0.31
G1 Y-1.17
G19 G2 Y-1.48 Z-5.39 J0 K0.31
G1 Z5
X81.31
Z-4.4 F150
Z-5.69
G3 Y-1.17 Z-6 J0.31 K0
G1 Y-0.86
G17 G3 X81 Y-0.55 I-0.31 J0
G1 X1 F300
G2 X-0.55 Y1 I0 J1.55
G1 Y51
G2 X1 Y52.55 I1.55 J0
G1 X81
G2 X82.55 Y51 I0 J-1.55
G1 Y1
G2 X81 Y-0.55 I-1.55 J0
G3 X80.69 Y-0.86 I0 J-0.31
G1 Y-1.17
G19 G2 Y-1.48 Z-5.69 J0 K0.31
G1 Z5
X81.31
Z-4.7 F150
Z-5.99
G3 Y-1.17 Z-6.3 J0.31 K0
G1 Y-0.86
G17 G3 X81 Y-0.55 I-0.31 J0
G1 X1 F300
G2 X-0.55 Y1 I0 J1.55
G1 Y51
G2 X1 Y52.55 I1.55 J0
G1 X81
G2 X82.55 Y51 I0 J-1.55
G1 Y1
G2 X81 Y-0.55 I-1.55 J0
G3 X80.69 Y-0.86 I0 J-0.31
G1 Y-1.17
G19 G2 Y-1.48 Z-5.99 J0 K0.31
G1 Z5
X81.31
Z-5 F150
Z-6.29
G3 Y-1.17 Z-6.6 J0.31 K0
G1 Y-0.86
G17 G3 X81 Y-0.55 I-0.31 J0
G1 X1 F300
G2 X-0.55 Y1 I0 J1.55
G1 Y51
G2 X1 Y52.55 I1.55 J0
G1 X81
G2 X82.55 Y51 I0 J-1.55
G1 Y1
G2 X81 Y-0.55 I-1.55 J0
G3 X80.69 Y-0.86 I0 J-0.31
G1 Y-1.17
G19 G2 Y-1.48 Z-6.29 J0 K0.31
G1 Z5
X81.31
Z-5.3 F150
Z-6.59
G3 Y-1.17 Z-6.9 J0.31 K0
G1 Y-0.86
G17 G3 X81 Y-0.55 I-0.31 J0
G1 X1 F300
G2 X-0.55 Y1 I0 J1.55
G1 Y51
G2 X1 Y52.55 I1.55 J0
G1 X81
G2 X82.55 Y51 I0 J-1.55
G1 Y1
G2 X81 Y-0.55 I-1.55 J0
G3 X80.69 Y-0.86 I0 J-0.31
G1 Y-1.17
G19 G2 Y-1.48 Z-6.59 J0 K0.31
G1 Z5
X81.31
Z-5.6 F150
Z-6.69
G3 Y-1.17 Z-7 J0.31 K0
G1 Y-0.86
G17 G3 X81 Y-0.55 I-0.31 J0
G1 X1 F300
G2 X-0.55 Y1 I0 J1.55
G1 Y51
G2 X1 Y52.55 I1.55 J0
G1 X81
G2 X82.55 Y51 I0 J-1.55
G1 Y1
G2 X81 Y-0.55 I-1.55 J0
G3 X80.69 Y-0.86 I0 J-0.31
G1 Y-1.17
G19 G2 Y-1.48 Z-6.69 J0 K0.31
G1 Z10
G17
M9
M5
M30
