(nema_17_harmonic_mount_backside)
(T3  D=3.1 CR=0 - ZMIN=-3 - flat end mill)
G90 G94
G17
G21
(When using Fusion 360 for Personal Use, the feedrate of)
(rapid moves is reduced to match the feedrate of cutting)
(moves, which can increase machining time. Unrestricted rapid)
(moves are available with a Fusion 360 Subscription.)

(2D Contour4)
T3
S24000 M3
G54
M8
G0 X-4.641 Y46.52
Z10
G1 Z5 F300
Z1.3 F150
Z0.01
G19 G3 Y46.83 Z-0.3 J0.31 K0
G1 Y47.14
G17 G3 X-4.951 Y47.45 I-0.31 J0
G1 X-16.802 F300
G2 X-18.289 Y48.563 I0 J1.55
G3 X-35.711 Y43.437 I-8.711 J-2.563
X-18.289 Y43.437 I8.711 J2.563
G2 X-16.802 Y44.55 I1.487 J-0.437
G1 X-4.951
G3 X-4.641 Y44.86 I0 J0.31
G1 Y45.17
G19 G3 Y45.48 Z0.01 J0 K0.31
G1 Z5
Y46.52
Z1 F150
Z-0.29
G3 Y46.83 Z-0.6 J0.31 K0
G1 Y47.14
G17 G3 X-4.951 Y47.45 I-0.31 J0
G1 X-16.802 F300
G2 X-18.289 Y48.563 I0 J1.55
G3 X-35.711 Y43.437 I-8.711 J-2.563
X-18.289 Y43.437 I8.711 J2.563
G2 X-16.802 Y44.55 I1.487 J-0.437
G1 X-4.951
G3 X-4.641 Y44.86 I0 J0.31
G1 Y45.17
G19 G3 Y45.48 Z-0.29 J0 K0.31
G1 Z5
Y46.52
Z0.7 F150
Z-0.59
G3 Y46.83 Z-0.9 J0.31 K0
G1 Y47.14
G17 G3 X-4.951 Y47.45 I-0.31 J0
G1 X-16.802 F300
G2 X-18.289 Y48.563 I0 J1.55
G3 X-35.711 Y43.437 I-8.711 J-2.563
X-18.289 Y43.437 I8.711 J2.563
G2 X-16.802 Y44.55 I1.487 J-0.437
G1 X-4.951
G3 X-4.641 Y44.86 I0 J0.31
G1 Y45.17
G19 G3 Y45.48 Z-0.59 J0 K0.31
G1 Z5
Y46.52
Z0.4 F150
Z-0.89
G3 Y46.83 Z-1.2 J0.31 K0
G1 Y47.14
G17 G3 X-4.951 Y47.45 I-0.31 J0
G1 X-16.802 F300
G2 X-18.289 Y48.563 I0 J1.55
G3 X-35.711 Y43.437 I-8.711 J-2.563
X-18.289 Y43.437 I8.711 J2.563
G2 X-16.802 Y44.55 I1.487 J-0.437
G1 X-4.951
G3 X-4.641 Y44.86 I0 J0.31
G1 Y45.17
G19 G3 Y45.48 Z-0.89 J0 K0.31
G1 Z5
Y46.52
Z0.1 F150
Z-1.19
G3 Y46.83 Z-1.5 J0.31 K0
G1 Y47.14
G17 G3 X-4.951 Y47.45 I-0.31 J0
G1 X-16.802 F300
G2 X-18.289 Y48.563 I0 J1.55
G3 X-35.711 Y43.437 I-8.711 J-2.563
X-18.289 Y43.437 I8.711 J2.563
G2 X-16.802 Y44.55 I1.487 J-0.437
G1 X-4.951
G3 X-4.641 Y44.86 I0 J0.31
G1 Y45.17
G19 G3 Y45.48 Z-1.19 J0 K0.31
G1 Z5
Y46.52
Z-0.2 F150
Z-1.49
G3 Y46.83 Z-1.8 J0.31 K0
G1 Y47.14
G17 G3 X-4.951 Y47.45 I-0.31 J0
G1 X-16.802 F300
G2 X-18.289 Y48.563 I0 J1.55
G3 X-35.711 Y43.437 I-8.711 J-2.563
X-18.289 Y43.437 I8.711 J2.563
G2 X-16.802 Y44.55 I1.487 J-0.437
G1 X-4.951
G3 X-4.641 Y44.86 I0 J0.31
G1 Y45.17
G19 G3 Y45.48 Z-1.49 J0 K0.31
G1 Z5
Y46.52
Z-0.5 F150
Z-1.69
G3 Y46.83 Z-2 J0.31 K0
G1 Y47.14
G17 G3 X-4.951 Y47.45 I-0.31 J0
G1 X-16.802 F300
G2 X-18.289 Y48.563 I0 J1.55
G3 X-35.711 Y43.437 I-8.711 J-2.563
X-18.289 Y43.437 I8.711 J2.563
G2 X-16.802 Y44.55 I1.487 J-0.437
G1 X-4.951
G3 X-4.641 Y44.86 I0 J0.31
G1 Y45.17
G19 G3 Y45.48 Z-1.69 J0 K0.31
G1 Z10
G17
(When using Fusion 360 for Personal Use, the feedrate of)
(rapid moves is reduced to match the feedrate of cutting)
(moves, which can increase machining time. Unrestricted rapid)
(moves are available with a Fusion 360 Subscription.)

(2D Pocket3)
G0 X-7.56 Y44.754
G1 Z10 F300
Z5
Z-0.021 F150
X-7.553 Y44.752 Z-0.083
X-7.533 Y44.749 Z-0.142
X-7.5 Y44.744 Z-0.195
X-7.457 Y44.737 Z-0.239
X-7.404 Y44.729 Z-0.272
X-7.346 Y44.72 Z-0.293
X-7.285 Y44.71 Z-0.3
X-6.299 Y44.554
X-6.251 Y44.55
X1.438 F300
G3 X1.638 Y44.75 I0 J0.2
G1 X1.637 Y47.25
G3 X1.437 Y47.45 I-0.2 J0
G1 X-4.951
X-6.251
G3 X-6.447 Y47.293 I0 J-0.2
G1 X-6.984 Y44.835
G3 X-6.804 Y44.593 I0.195 J-0.043
G1 X-6.741 Y44.588 Z-0.307 F150
X-6.681 Y44.583 Z-0.326
X-6.625 Y44.579 Z-0.357
X-6.578 Y44.575 Z-0.399
X-6.54 Y44.572 Z-0.45
X-6.501 Y44.569 Z-0.501
X-6.454 Y44.565 Z-0.543
X-6.398 Y44.561 Z-0.574
X-6.338 Y44.556 Z-0.593
X-6.275 Y44.551 Z-0.6
X-6.251 Y44.55
X1.438 F300
G3 X1.638 Y44.75 I0 J0.2
G1 X1.637 Y47.25
G3 X1.437 Y47.45 I-0.2 J0
G1 X-4.951
X-6.251
G3 X-6.447 Y47.293 I0 J-0.2
G1 X-6.984 Y44.835
G3 X-6.804 Y44.593 I0.195 J-0.043
G1 X-6.741 Y44.588 Z-0.607 F150
X-6.681 Y44.583 Z-0.626
X-6.625 Y44.579 Z-0.657
X-6.578 Y44.575 Z-0.699
X-6.54 Y44.572 Z-0.75
X-6.501 Y44.569 Z-0.801
X-6.454 Y44.565 Z-0.843
X-6.398 Y44.561 Z-0.874
X-6.338 Y44.556 Z-0.893
X-6.275 Y44.551 Z-0.9
X-6.251 Y44.55
X1.438 F300
G3 X1.638 Y44.75 I0 J0.2
G1 X1.637 Y47.25
G3 X1.437 Y47.45 I-0.2 J0
G1 X-4.951
X-6.251
G3 X-6.447 Y47.293 I0 J-0.2
G1 X-6.984 Y44.835
G3 X-6.804 Y44.593 I0.195 J-0.043
G1 X-6.741 Y44.588 Z-0.907 F150
X-6.681 Y44.583 Z-0.926
X-6.625 Y44.579 Z-0.957
X-6.578 Y44.575 Z-0.999
X-6.54 Y44.572 Z-1.05
X-6.501 Y44.569 Z-1.101
X-6.454 Y44.565 Z-1.143
X-6.398 Y44.561 Z-1.174
X-6.338 Y44.556 Z-1.193
X-6.275 Y44.551 Z-1.2
X-6.251 Y44.55
X1.438 F300
G3 X1.638 Y44.75 I0 J0.2
G1 X1.637 Y47.25
G3 X1.437 Y47.45 I-0.2 J0
G1 X-4.951
X-6.251
G3 X-6.447 Y47.293 I0 J-0.2
G1 X-6.984 Y44.835
G3 X-6.804 Y44.593 I0.195 J-0.043
G1 X-6.741 Y44.588 Z-1.207 F150
X-6.681 Y44.583 Z-1.226
X-6.625 Y44.579 Z-1.257
X-6.578 Y44.575 Z-1.299
X-6.54 Y44.572 Z-1.35
X-6.501 Y44.569 Z-1.401
X-6.454 Y44.565 Z-1.443
X-6.398 Y44.561 Z-1.474
X-6.338 Y44.556 Z-1.493
X-6.275 Y44.551 Z-1.5
X-6.251 Y44.55
X1.438 F300
G3 X1.638 Y44.75 I0 J0.2
G1 X1.637 Y47.25
G3 X1.437 Y47.45 I-0.2 J0
G1 X-4.951
X-6.251
G3 X-6.447 Y47.293 I0 J-0.2
G1 X-6.984 Y44.835
G3 X-6.804 Y44.593 I0.195 J-0.043
G1 X-6.741 Y44.588 Z-1.507 F150
X-6.681 Y44.583 Z-1.526
X-6.625 Y44.579 Z-1.557
X-6.578 Y44.575 Z-1.599
X-6.54 Y44.572 Z-1.65
X-6.501 Y44.569 Z-1.701
X-6.454 Y44.565 Z-1.743
X-6.398 Y44.561 Z-1.774
X-6.338 Y44.556 Z-1.793
X-6.275 Y44.551 Z-1.8
X-6.251 Y44.55
X1.438 F300
G3 X1.638 Y44.75 I0 J0.2
G1 X1.637 Y47.25
G3 X1.437 Y47.45 I-0.2 J0
G1 X-4.951
X-6.251
G3 X-6.447 Y47.293 I0 J-0.2
G1 X-6.984 Y44.835
G3 X-6.804 Y44.593 I0.195 J-0.043
G1 X-6.741 Y44.588 Z-1.807 F150
X-6.681 Y44.583 Z-1.826
X-6.625 Y44.579 Z-1.857
X-6.578 Y44.575 Z-1.899
X-6.54 Y44.572 Z-1.95
X-6.501 Y44.569 Z-2.001
X-6.454 Y44.565 Z-2.043
X-6.398 Y44.561 Z-2.074
X-6.338 Y44.556 Z-2.093
X-6.275 Y44.551 Z-2.1
X-6.251 Y44.55
X1.438 F300
G3 X1.638 Y44.75 I0 J0.2
G1 X1.637 Y47.25
G3 X1.437 Y47.45 I-0.2 J0
G1 X-4.951
X-6.251
G3 X-6.447 Y47.293 I0 J-0.2
G1 X-6.984 Y44.835
G3 X-6.804 Y44.593 I0.195 J-0.043
G1 X-6.741 Y44.588 Z-2.107 F150
X-6.681 Y44.583 Z-2.126
X-6.625 Y44.579 Z-2.157
X-6.578 Y44.575 Z-2.199
X-6.54 Y44.572 Z-2.25
X-6.501 Y44.569 Z-2.301
X-6.454 Y44.565 Z-2.343
X-6.398 Y44.561 Z-2.374
X-6.338 Y44.556 Z-2.393
X-6.275 Y44.551 Z-2.4
X-6.251 Y44.55
X1.438 F300
G3 X1.638 Y44.75 I0 J0.2
G1 X1.637 Y47.25
G3 X1.437 Y47.45 I-0.2 J0
G1 X-4.951
X-6.251
G3 X-6.447 Y47.293 I0 J-0.2
G1 X-6.984 Y44.835
G3 X-6.804 Y44.593 I0.195 J-0.043
G1 X-6.741 Y44.588 Z-2.407 F150
X-6.681 Y44.583 Z-2.426
X-6.625 Y44.579 Z-2.457
X-6.578 Y44.575 Z-2.499
X-6.54 Y44.572 Z-2.55
X-6.501 Y44.569 Z-2.601
X-6.454 Y44.565 Z-2.643
X-6.398 Y44.561 Z-2.674
X-6.338 Y44.556 Z-2.693
X-6.275 Y44.551 Z-2.7
X-6.251 Y44.55
X1.438 F300
G3 X1.638 Y44.75 I0 J0.2
G1 X1.637 Y47.25
G3 X1.437 Y47.45 I-0.2 J0
G1 X-4.951
X-6.251
G3 X-6.447 Y47.293 I0 J-0.2
G1 X-6.984 Y44.835
G3 X-6.804 Y44.593 I0.195 J-0.043
G1 X-6.741 Y44.588 Z-2.707 F150
X-6.681 Y44.583 Z-2.726
X-6.625 Y44.579 Z-2.757
X-6.578 Y44.575 Z-2.799
X-6.54 Y44.572 Z-2.85
X-6.501 Y44.569 Z-2.901
X-6.454 Y44.565 Z-2.943
X-6.398 Y44.561 Z-2.974
X-6.338 Y44.556 Z-2.993
X-6.275 Y44.551 Z-3
X-6.251 Y44.55
X1.438 F300
G3 X1.638 Y44.75 I0 J0.2
G1 X1.637 Y47.25
G3 X1.437 Y47.45 I-0.2 J0
G1 X-4.951
X-6.251
X-6.3 Y47.446
X-7.245 Y47.297
X-7.313 Y47.286 Z-2.992
X-7.378 Y47.275 Z-2.969
X-7.436 Y47.266 Z-2.932
X-7.484 Y47.259 Z-2.883
X-7.521 Y47.253 Z-2.825
X-7.543 Y47.249 Z-2.759
X-7.551 Y47.248 Z-2.69
Z10
M9
M5
M30
