(nema17_harmonic_mount_bracket_drill)
(T3  D=3.1 CR=0 - ZMIN=-4 - flat end mill)
G90 G94
G17
G21
(When using Fusion 360 for Personal Use, the feedrate of)
(rapid moves is reduced to match the feedrate of cutting)
(moves, which can increase machining time. Unrestricted rapid)
(moves are available with a Fusion 360 Subscription.)

(OPT_bracket_drill_4mm)
T3
S24000 M3
G54
M8
G0 X6.497 Y11.31
Z10
G1 Z1.7 F300
Z0.01 F150
G18 G3 X6.187 Z-0.3 I-0.31 K0
G1 X6.032
G17 G3 X5.722 Y11 I0 J-0.31
X8.278 Y11 I1.278 J0 F300
X5.722 Y11 I-1.278 J0
X6.032 Y10.69 I0.31 J0
G1 X6.187
G18 G2 X6.497 Z0.01 I0 K0.31
G1 Z5
Y11.31
Z1.4
Z-0.29 F150
G3 X6.187 Z-0.6 I-0.31 K0
G1 X6.032
G17 G3 X5.722 Y11 I0 J-0.31
X8.278 Y11 I1.278 J0 F300
X5.722 Y11 I-1.278 J0
X6.032 Y10.69 I0.31 J0
G1 X6.187
G18 G2 X6.497 Z-0.29 I0 K0.31
G1 Z5
Y11.31
Z1.1
Z-0.59 F150
G3 X6.187 Z-0.9 I-0.31 K0
G1 X6.032
G17 G3 X5.722 Y11 I0 J-0.31
X8.278 Y11 I1.278 J0 F300
X5.722 Y11 I-1.278 J0
X6.032 Y10.69 I0.31 J0
G1 X6.187
G18 G2 X6.497 Z-0.59 I0 K0.31
G1 Z5
Y11.31
Z0.8
Z-0.89 F150
G3 X6.187 Z-1.2 I-0.31 K0
G1 X6.032
G17 G3 X5.722 Y11 I0 J-0.31
X8.278 Y11 I1.278 J0 F300
X5.722 Y11 I-1.278 J0
X6.032 Y10.69 I0.31 J0
G1 X6.187
G18 G2 X6.497 Z-0.89 I0 K0.31
G1 Z5
Y11.31
Z0.5
Z-1.19 F150
G3 X6.187 Z-1.5 I-0.31 K0
G1 X6.032
G17 G3 X5.722 Y11 I0 J-0.31
X8.278 Y11 I1.278 J0 F300
X5.722 Y11 I-1.278 J0
X6.032 Y10.69 I0.31 J0
G1 X6.187
G18 G2 X6.497 Z-1.19 I0 K0.31
G1 Z5
Y11.31
Z0.2
Z-1.49 F150
G3 X6.187 Z-1.8 I-0.31 K0
G1 X6.032
G17 G3 X5.722 Y11 I0 J-0.31
X8.278 Y11 I1.278 J0 F300
X5.722 Y11 I-1.278 J0
X6.032 Y10.69 I0.31 J0
G1 X6.187
G18 G2 X6.497 Z-1.49 I0 K0.31
G1 Z5
Y11.31
Z-0.1
Z-1.79 F150
G3 X6.187 Z-2.1 I-0.31 K0
G1 X6.032
G17 G3 X5.722 Y11 I0 J-0.31
X8.278 Y11 I1.278 J0 F300
X5.722 Y11 I-1.278 J0
X6.032 Y10.69 I0.31 J0
G1 X6.187
G18 G2 X6.497 Z-1.79 I0 K0.31
G1 Z5
Y11.31
Z-0.4
Z-2.09 F150
G3 X6.187 Z-2.4 I-0.31 K0
G1 X6.032
G17 G3 X5.722 Y11 I0 J-0.31
X8.278 Y11 I1.278 J0 F300
X5.722 Y11 I-1.278 J0
X6.032 Y10.69 I0.31 J0
G1 X6.187
G18 G2 X6.497 Z-2.09 I0 K0.31
G1 Z5
Y11.31
Z-0.7
Z-2.39 F150
G3 X6.187 Z-2.7 I-0.31 K0
G1 X6.032
G17 G3 X5.722 Y11 I0 J-0.31
X8.278 Y11 I1.278 J0 F300
X5.722 Y11 I-1.278 J0
X6.032 Y10.69 I0.31 J0
G1 X6.187
G18 G2 X6.497 Z-2.39 I0 K0.31
G1 Z5
Y11.31
Z-1
Z-2.69 F150
G3 X6.187 Z-3 I-0.31 K0
G1 X6.032
G17 G3 X5.722 Y11 I0 J-0.31
X8.278 Y11 I1.278 J0 F300
X5.722 Y11 I-1.278 J0
X6.032 Y10.69 I0.31 J0
G1 X6.187
G18 G2 X6.497 Z-2.69 I0 K0.31
G1 Z5
Y11.31
Z-1.3
Z-2.99 F150
G3 X6.187 Z-3.3 I-0.31 K0
G1 X6.032
G17 G3 X5.722 Y11 I0 J-0.31
X8.278 Y11 I1.278 J0 F300
X5.722 Y11 I-1.278 J0
X6.032 Y10.69 I0.31 J0
G1 X6.187
G18 G2 X6.497 Z-2.99 I0 K0.31
G1 Z5
Y11.31
Z-1.6
Z-3.29 F150
G3 X6.187 Z-3.6 I-0.31 K0
G1 X6.032
G17 G3 X5.722 Y11 I0 J-0.31
X8.278 Y11 I1.278 J0 F300
X5.722 Y11 I-1.278 J0
X6.032 Y10.69 I0.31 J0
G1 X6.187
G18 G2 X6.497 Z-3.29 I0 K0.31
G1 Z5
Y11.31
Z-1.8
Z-3.49 F150
G3 X6.187 Z-3.8 I-0.31 K0
G1 X6.032
G17 G3 X5.722 Y11 I0 J-0.31
X8.278 Y11 I1.278 J0 F300
X5.722 Y11 I-1.278 J0
X6.032 Y10.69 I0.31 J0
G1 X6.187
G18 G2 X6.497 Z-3.49 I0 K0.31
G1 Z5
Y11.31
Z-2
Z-3.69 F150
G3 X6.187 Z-4 I-0.31 K0
G1 X6.032
G17 G3 X5.722 Y11 I0 J-0.31
X8.278 Y11 I1.278 J0 F300
X5.722 Y11 I-1.278 J0
X6.032 Y10.69 I0.31 J0
G1 X6.187
G18 G2 X6.497 Z-3.69 I0 K0.31
G1 Z5
X21.497 Y11.31
Z1.7
Z0.01 F150
G3 X21.187 Z-0.3 I-0.31 K0
G1 X21.032
G17 G3 X20.722 Y11 I0 J-0.31
X23.278 Y11 I1.278 J0 F300
X20.722 Y11 I-1.278 J0
X21.032 Y10.69 I0.31 J0
G1 X21.187
G18 G2 X21.497 Z0.01 I0 K0.31
G1 Z5
Y11.31
Z1.4
Z-0.29 F150
G3 X21.187 Z-0.6 I-0.31 K0
G1 X21.032
G17 G3 X20.722 Y11 I0 J-0.31
X23.278 Y11 I1.278 J0 F300
X20.722 Y11 I-1.278 J0
X21.032 Y10.69 I0.31 J0
G1 X21.187
G18 G2 X21.497 Z-0.29 I0 K0.31
G1 Z5
Y11.31
Z1.1
Z-0.59 F150
G3 X21.187 Z-0.9 I-0.31 K0
G1 X21.032
G17 G3 X20.722 Y11 I0 J-0.31
X23.278 Y11 I1.278 J0 F300
X20.722 Y11 I-1.278 J0
X21.032 Y10.69 I0.31 J0
G1 X21.187
G18 G2 X21.497 Z-0.59 I0 K0.31
G1 Z5
Y11.31
Z0.8
Z-0.89 F150
G3 X21.187 Z-1.2 I-0.31 K0
G1 X21.032
G17 G3 X20.722 Y11 I0 J-0.31
X23.278 Y11 I1.278 J0 F300
X20.722 Y11 I-1.278 J0
X21.032 Y10.69 I0.31 J0
G1 X21.187
G18 G2 X21.497 Z-0.89 I0 K0.31
G1 Z5
Y11.31
Z0.5
Z-1.19 F150
G3 X21.187 Z-1.5 I-0.31 K0
G1 X21.032
G17 G3 X20.722 Y11 I0 J-0.31
X23.278 Y11 I1.278 J0 F300
X20.722 Y11 I-1.278 J0
X21.032 Y10.69 I0.31 J0
G1 X21.187
G18 G2 X21.497 Z-1.19 I0 K0.31
G1 Z5
Y11.31
Z0.2
Z-1.49 F150
G3 X21.187 Z-1.8 I-0.31 K0
G1 X21.032
G17 G3 X20.722 Y11 I0 J-0.31
X23.278 Y11 I1.278 J0 F300
X20.722 Y11 I-1.278 J0
X21.032 Y10.69 I0.31 J0
G1 X21.187
G18 G2 X21.497 Z-1.49 I0 K0.31
G1 Z5
Y11.31
Z-0.1
Z-1.79 F150
G3 X21.187 Z-2.1 I-0.31 K0
G1 X21.032
G17 G3 X20.722 Y11 I0 J-0.31
X23.278 Y11 I1.278 J0 F300
X20.722 Y11 I-1.278 J0
X21.032 Y10.69 I0.31 J0
G1 X21.187
G18 G2 X21.497 Z-1.79 I0 K0.31
G1 Z5
Y11.31
Z-0.4
Z-2.09 F150
G3 X21.187 Z-2.4 I-0.31 K0
G1 X21.032
G17 G3 X20.722 Y11 I0 J-0.31
X23.278 Y11 I1.278 J0 F300
X20.722 Y11 I-1.278 J0
X21.032 Y10.69 I0.31 J0
G1 X21.187
G18 G2 X21.497 Z-2.09 I0 K0.31
G1 Z5
Y11.31
Z-0.7
Z-2.39 F150
G3 X21.187 Z-2.7 I-0.31 K0
G1 X21.032
G17 G3 X20.722 Y11 I0 J-0.31
X23.278 Y11 I1.278 J0 F300
X20.722 Y11 I-1.278 J0
X21.032 Y10.69 I0.31 J0
G1 X21.187
G18 G2 X21.497 Z-2.39 I0 K0.31
G1 Z5
Y11.31
Z-1
Z-2.69 F150
G3 X21.187 Z-3 I-0.31 K0
G1 X21.032
G17 G3 X20.722 Y11 I0 J-0.31
X23.278 Y11 I1.278 J0 F300
X20.722 Y11 I-1.278 J0
X21.032 Y10.69 I0.31 J0
G1 X21.187
G18 G2 X21.497 Z-2.69 I0 K0.31
G1 Z5
Y11.31
Z-1.3
Z-2.99 F150
G3 X21.187 Z-3.3 I-0.31 K0
G1 X21.032
G17 G3 X20.722 Y11 I0 J-0.31
X23.278 Y11 I1.278 J0 F300
X20.722 Y11 I-1.278 J0
X21.032 Y10.69 I0.31 J0
G1 X21.187
G18 G2 X21.497 Z-2.99 I0 K0.31
G1 Z5
Y11.31
Z-1.6
Z-3.29 F150
G3 X21.187 Z-3.6 I-0.31 K0
G1 X21.032
G17 G3 X20.722 Y11 I0 J-0.31
X23.278 Y11 I1.278 J0 F300
X20.722 Y11 I-1.278 J0
X21.032 Y10.69 I0.31 J0
G1 X21.187
G18 G2 X21.497 Z-3.29 I0 K0.31
G1 Z5
Y11.31
Z-1.8
Z-3.49 F150
G3 X21.187 Z-3.8 I-0.31 K0
G1 X21.032
G17 G3 X20.722 Y11 I0 J-0.31
X23.278 Y11 I1.278 J0 F300
X20.722 Y11 I-1.278 J0
X21.032 Y10.69 I0.31 J0
G1 X21.187
G18 G2 X21.497 Z-3.49 I0 K0.31
G1 Z5
Y11.31
Z-2
Z-3.69 F150
G3 X21.187 Z-4 I-0.31 K0
G1 X21.032
G17 G3 X20.722 Y11 I0 J-0.31
X23.278 Y11 I1.278 J0 F300
X20.722 Y11 I-1.278 J0
X21.032 Y10.69 I0.31 J0
G1 X21.187
G18 G2 X21.497 Z-3.69 I0 K0.31
G1 Z5
X31.497 Y11.31
Z1.7
Z0.01 F150
G3 X31.187 Z-0.3 I-0.31 K0
G1 X31.032
G17 G3 X30.722 Y11 I0 J-0.31
X33.278 Y11 I1.278 J0 F300
X30.722 Y11 I-1.278 J0
X31.032 Y10.69 I0.31 J0
G1 X31.187
G18 G2 X31.497 Z0.01 I0 K0.31
G1 Z5
Y11.31
Z1.4
Z-0.29 F150
G3 X31.187 Z-0.6 I-0.31 K0
G1 X31.032
G17 G3 X30.722 Y11 I0 J-0.31
X33.278 Y11 I1.278 J0 F300
X30.722 Y11 I-1.278 J0
X31.032 Y10.69 I0.31 J0
G1 X31.187
G18 G2 X31.497 Z-0.29 I0 K0.31
G1 Z5
Y11.31
Z1.1
Z-0.59 F150
G3 X31.187 Z-0.9 I-0.31 K0
G1 X31.032
G17 G3 X30.722 Y11 I0 J-0.31
X33.278 Y11 I1.278 J0 F300
X30.722 Y11 I-1.278 J0
X31.032 Y10.69 I0.31 J0
G1 X31.187
G18 G2 X31.497 Z-0.59 I0 K0.31
G1 Z5
Y11.31
Z0.8
Z-0.89 F150
G3 X31.187 Z-1.2 I-0.31 K0
G1 X31.032
G17 G3 X30.722 Y11 I0 J-0.31
X33.278 Y11 I1.278 J0 F300
X30.722 Y11 I-1.278 J0
X31.032 Y10.69 I0.31 J0
G1 X31.187
G18 G2 X31.497 Z-0.89 I0 K0.31
G1 Z5
Y11.31
Z0.5
Z-1.19 F150
G3 X31.187 Z-1.5 I-0.31 K0
G1 X31.032
G17 G3 X30.722 Y11 I0 J-0.31
X33.278 Y11 I1.278 J0 F300
X30.722 Y11 I-1.278 J0
X31.032 Y10.69 I0.31 J0
G1 X31.187
G18 G2 X31.497 Z-1.19 I0 K0.31
G1 Z5
Y11.31
Z0.2
Z-1.49 F150
G3 X31.187 Z-1.8 I-0.31 K0
G1 X31.032
G17 G3 X30.722 Y11 I0 J-0.31
X33.278 Y11 I1.278 J0 F300
X30.722 Y11 I-1.278 J0
X31.032 Y10.69 I0.31 J0
G1 X31.187
G18 G2 X31.497 Z-1.49 I0 K0.31
G1 Z5
Y11.31
Z-0.1
Z-1.79 F150
G3 X31.187 Z-2.1 I-0.31 K0
G1 X31.032
G17 G3 X30.722 Y11 I0 J-0.31
X33.278 Y11 I1.278 J0 F300
X30.722 Y11 I-1.278 J0
X31.032 Y10.69 I0.31 J0
G1 X31.187
G18 G2 X31.497 Z-1.79 I0 K0.31
G1 Z5
Y11.31
Z-0.4
Z-2.09 F150
G3 X31.187 Z-2.4 I-0.31 K0
G1 X31.032
G17 G3 X30.722 Y11 I0 J-0.31
X33.278 Y11 I1.278 J0 F300
X30.722 Y11 I-1.278 J0
X31.032 Y10.69 I0.31 J0
G1 X31.187
G18 G2 X31.497 Z-2.09 I0 K0.31
G1 Z5
Y11.31
Z-0.7
Z-2.39 F150
G3 X31.187 Z-2.7 I-0.31 K0
G1 X31.032
G17 G3 X30.722 Y11 I0 J-0.31
X33.278 Y11 I1.278 J0 F300
X30.722 Y11 I-1.278 J0
X31.032 Y10.69 I0.31 J0
G1 X31.187
G18 G2 X31.497 Z-2.39 I0 K0.31
G1 Z5
Y11.31
Z-1
Z-2.69 F150
G3 X31.187 Z-3 I-0.31 K0
G1 X31.032
G17 G3 X30.722 Y11 I0 J-0.31
X33.278 Y11 I1.278 J0 F300
X30.722 Y11 I-1.278 J0
X31.032 Y10.69 I0.31 J0
G1 X31.187
G18 G2 X31.497 Z-2.69 I0 K0.31
G1 Z5
Y11.31
Z-1.3
Z-2.99 F150
G3 X31.187 Z-3.3 I-0.31 K0
G1 X31.032
G17 G3 X30.722 Y11 I0 J-0.31
X33.278 Y11 I1.278 J0 F300
X30.722 Y11 I-1.278 J0
X31.032 Y10.69 I0.31 J0
G1 X31.187
G18 G2 X31.497 Z-2.99 I0 K0.31
G1 Z5
Y11.31
Z-1.6
Z-3.29 F150
G3 X31.187 Z-3.6 I-0.31 K0
G1 X31.032
G17 G3 X30.722 Y11 I0 J-0.31
X33.278 Y11 I1.278 J0 F300
X30.722 Y11 I-1.278 J0
X31.032 Y10.69 I0.31 J0
G1 X31.187
G18 G2 X31.497 Z-3.29 I0 K0.31
G1 Z5
Y11.31
Z-1.8
Z-3.49 F150
G3 X31.187 Z-3.8 I-0.31 K0
G1 X31.032
G17 G3 X30.722 Y11 I0 J-0.31
X33.278 Y11 I1.278 J0 F300
X30.722 Y11 I-1.278 J0
X31.032 Y10.69 I0.31 J0
G1 X31.187
G18 G2 X31.497 Z-3.49 I0 K0.31
G1 Z5
Y11.31
Z-2
Z-3.69 F150
G3 X31.187 Z-4 I-0.31 K0
G1 X31.032
G17 G3 X30.722 Y11 I0 J-0.31
X33.278 Y11 I1.278 J0 F300
X30.722 Y11 I-1.278 J0
X31.032 Y10.69 I0.31 J0
G1 X31.187
G18 G2 X31.497 Z-3.69 I0 K0.31
G1 Z5
X46.497 Y11.31
Z1.7
Z0.01 F150
G3 X46.187 Z-0.3 I-0.31 K0
G1 X46.032
G17 G3 X45.722 Y11 I0 J-0.31
X48.278 Y11 I1.278 J0 F300
X45.722 Y11 I-1.278 J0
X46.032 Y10.69 I0.31 J0
G1 X46.187
G18 G2 X46.497 Z0.01 I0 K0.31
G1 Z5
Y11.31
Z1.4
Z-0.29 F150
G3 X46.187 Z-0.6 I-0.31 K0
G1 X46.032
G17 G3 X45.722 Y11 I0 J-0.31
X48.278 Y11 I1.278 J0 F300
X45.722 Y11 I-1.278 J0
X46.032 Y10.69 I0.31 J0
G1 X46.187
G18 G2 X46.497 Z-0.29 I0 K0.31
G1 Z5
Y11.31
Z1.1
Z-0.59 F150
G3 X46.187 Z-0.9 I-0.31 K0
G1 X46.032
G17 G3 X45.722 Y11 I0 J-0.31
X48.278 Y11 I1.278 J0 F300
X45.722 Y11 I-1.278 J0
X46.032 Y10.69 I0.31 J0
G1 X46.187
G18 G2 X46.497 Z-0.59 I0 K0.31
G1 Z5
Y11.31
Z0.8
Z-0.89 F150
G3 X46.187 Z-1.2 I-0.31 K0
G1 X46.032
G17 G3 X45.722 Y11 I0 J-0.31
X48.278 Y11 I1.278 J0 F300
X45.722 Y11 I-1.278 J0
X46.032 Y10.69 I0.31 J0
G1 X46.187
G18 G2 X46.497 Z-0.89 I0 K0.31
G1 Z5
Y11.31
Z0.5
Z-1.19 F150
G3 X46.187 Z-1.5 I-0.31 K0
G1 X46.032
G17 G3 X45.722 Y11 I0 J-0.31
X48.278 Y11 I1.278 J0 F300
X45.722 Y11 I-1.278 J0
X46.032 Y10.69 I0.31 J0
G1 X46.187
G18 G2 X46.497 Z-1.19 I0 K0.31
G1 Z5
Y11.31
Z0.2
Z-1.49 F150
G3 X46.187 Z-1.8 I-0.31 K0
G1 X46.032
G17 G3 X45.722 Y11 I0 J-0.31
X48.278 Y11 I1.278 J0 F300
X45.722 Y11 I-1.278 J0
X46.032 Y10.69 I0.31 J0
G1 X46.187
G18 G2 X46.497 Z-1.49 I0 K0.31
G1 Z5
Y11.31
Z-0.1
Z-1.79 F150
G3 X46.187 Z-2.1 I-0.31 K0
G1 X46.032
G17 G3 X45.722 Y11 I0 J-0.31
X48.278 Y11 I1.278 J0 F300
X45.722 Y11 I-1.278 J0
X46.032 Y10.69 I0.31 J0
G1 X46.187
G18 G2 X46.497 Z-1.79 I0 K0.31
G1 Z5
Y11.31
Z-0.4
Z-2.09 F150
G3 X46.187 Z-2.4 I-0.31 K0
G1 X46.032
G17 G3 X45.722 Y11 I0 J-0.31
X48.278 Y11 I1.278 J0 F300
X45.722 Y11 I-1.278 J0
X46.032 Y10.69 I0.31 J0
G1 X46.187
G18 G2 X46.497 Z-2.09 I0 K0.31
G1 Z5
Y11.31
Z-0.7
Z-2.39 F150
G3 X46.187 Z-2.7 I-0.31 K0
G1 X46.032
G17 G3 X45.722 Y11 I0 J-0.31
X48.278 Y11 I1.278 J0 F300
X45.722 Y11 I-1.278 J0
X46.032 Y10.69 I0.31 J0
G1 X46.187
G18 G2 X46.497 Z-2.39 I0 K0.31
G1 Z5
Y11.31
Z-1
Z-2.69 F150
G3 X46.187 Z-3 I-0.31 K0
G1 X46.032
G17 G3 X45.722 Y11 I0 J-0.31
X48.278 Y11 I1.278 J0 F300
X45.722 Y11 I-1.278 J0
X46.032 Y10.69 I0.31 J0
G1 X46.187
G18 G2 X46.497 Z-2.69 I0 K0.31
G1 Z5
Y11.31
Z-1.3
Z-2.99 F150
G3 X46.187 Z-3.3 I-0.31 K0
G1 X46.032
G17 G3 X45.722 Y11 I0 J-0.31
X48.278 Y11 I1.278 J0 F300
X45.722 Y11 I-1.278 J0
X46.032 Y10.69 I0.31 J0
G1 X46.187
G18 G2 X46.497 Z-2.99 I0 K0.31
G1 Z5
Y11.31
Z-1.6
Z-3.29 F150
G3 X46.187 Z-3.6 I-0.31 K0
G1 X46.032
G17 G3 X45.722 Y11 I0 J-0.31
X48.278 Y11 I1.278 J0 F300
X45.722 Y11 I-1.278 J0
X46.032 Y10.69 I0.31 J0
G1 X46.187
G18 G2 X46.497 Z-3.29 I0 K0.31
G1 Z5
Y11.31
Z-1.8
Z-3.49 F150
G3 X46.187 Z-3.8 I-0.31 K0
G1 X46.032
G17 G3 X45.722 Y11 I0 J-0.31
X48.278 Y11 I1.278 J0 F300
X45.722 Y11 I-1.278 J0
X46.032 Y10.69 I0.31 J0
G1 X46.187
G18 G2 X46.497 Z-3.49 I0 K0.31
G1 Z5
Y11.31
Z-2
Z-3.69 F150
G3 X46.187 Z-4 I-0.31 K0
G1 X46.032
G17 G3 X45.722 Y11 I0 J-0.31
X48.278 Y11 I1.278 J0 F300
X45.722 Y11 I-1.278 J0
X46.032 Y10.69 I0.31 J0
G1 X46.187
G18 G2 X46.497 Z-3.69 I0 K0.31
G1 Z10
G17
M9
M5
M30
