(nema23_harmonic_HBG)
(Machine)
(  vendor: Autodesk)
(  model: Generic 3-axis)
(  description: This machine has XYZ axis on the Head)
(T1 D=4.76 CR=0 - ZMIN=-8.35 - flat end mill)
G90 G94
G17
G21
(-Attention- Property Safe Retracts is set to Clearance Height.)
(Ensure the clearance height will clear the part and or fixtures.)
(Raise the Z-axis to a safe height before starting the program.)

(Drill1)
T1
S16000 M3
G17 G90 G94
G54
M8
G0 X9.28 Y57.774
Z15
G0 Z5
Z4
Z1
G1 Z-1.3 F50
G0 Z4
Z0.7
G1 Z-1.6 F50
G0 Z4
Z0.4
G1 Z-1.9 F50
G0 Z4
Z0.1
G1 Z-2.2 F50
G0 Z4
Z-0.2
G1 Z-2.5 F50
G0 Z4
Z-0.5
G1 Z-2.8 F50
G0 Z4
Z-0.8
G1 Z-3.1 F50
G0 Z4
Z-1.1
G1 Z-3.4 F50
G0 Z4
Z-1.4
G1 Z-3.7 F50
G0 Z4
Z-1.7
G1 Z-4 F50
G0 Z4
Z-2
G1 Z-4.3 F50
G0 Z4
Z-2.3
G1 Z-4.6 F50
G0 Z4
Z-2.6
G1 Z-4.9 F50
G0 Z4
Z-2.9
G1 Z-5.2 F50
G0 Z4
Z-3.2
G1 Z-5.5 F50
G0 Z4
Z-3.5
G1 Z-5.8 F50
G0 Z4
Z-3.8
G1 Z-6.1 F50
G0 Z4
Z-4.1
G1 Z-6.4 F50
G0 Z4
Z-4.4
G1 Z-6.7 F50
G0 Z4
Z-4.7
G1 Z-7 F50
G0 Z4
Z-5
G1 Z-7.3 F50
G0 Z4
Z-5.3
G1 Z-7.6 F50
G0 Z4
Z-5.6
G1 Z-7.9 F50
G0 Z4
Z-5.9
G1 Z-8.2 F50
G0 Z4
Z-6.2
G1 Z-8.35 F50
G4 P1.
G0 Z5
X16.378 Y63.499
Z1
Z-2
G1 Z-4.3 F50
G0 Z1
Z-2.3
G1 Z-4.6 F50
G0 Z1
Z-2.6
G1 Z-4.9 F50
G0 Z1
Z-2.9
G1 Z-5.2 F50
G0 Z1
Z-3.2
G1 Z-5.5 F50
G0 Z1
Z-3.5
G1 Z-5.8 F50
G0 Z1
Z-3.8
G1 Z-6.1 F50
G0 Z1
Z-4.1
G1 Z-6.4 F50
G0 Z1
Z-4.4
G1 Z-6.7 F50
G0 Z1
Z-4.7
G1 Z-7 F50
G0 Z1
Z-5
G1 Z-7.3 F50
G0 Z1
Z-5.3
G1 Z-7.6 F50
G0 Z1
Z-5.6
G1 Z-7.9 F50
G0 Z1
Z-5.9
G1 Z-8.2 F50
G0 Z1
Z-6.2
G1 Z-8.35 F50
G4 P1.
G0 Z5
X22.274 Y70.768
Z4
Z1
G1 Z-1.3 F50
G0 Z4
Z0.7
G1 Z-1.6 F50
G0 Z4
Z0.4
G1 Z-1.9 F50
G0 Z4
Z0.1
G1 Z-2.2 F50
G0 Z4
Z-0.2
G1 Z-2.5 F50
G0 Z4
Z-0.5
G1 Z-2.8 F50
G0 Z4
Z-0.8
G1 Z-3.1 F50
G0 Z4
Z-1.1
G1 Z-3.4 F50
G0 Z4
Z-1.4
G1 Z-3.7 F50
G0 Z4
Z-1.7
G1 Z-4 F50
G0 Z4
Z-2
G1 Z-4.3 F50
G0 Z4
Z-2.3
G1 Z-4.6 F50
G0 Z4
Z-2.6
G1 Z-4.9 F50
G0 Z4
Z-2.9
G1 Z-5.2 F50
G0 Z4
Z-3.2
G1 Z-5.5 F50
G0 Z4
Z-3.5
G1 Z-5.8 F50
G0 Z4
Z-3.8
G1 Z-6.1 F50
G0 Z4
Z-4.1
G1 Z-6.4 F50
G0 Z4
Z-4.4
G1 Z-6.7 F50
G0 Z4
Z-4.7
G1 Z-7 F50
G0 Z4
Z-5
G1 Z-7.3 F50
G0 Z4
Z-5.3
G1 Z-7.6 F50
G0 Z4
Z-5.6
G1 Z-7.9 F50
G0 Z4
Z-5.9
G1 Z-8.2 F50
G0 Z4
Z-6.2
G1 Z-8.35 F50
G4 P1.
G0 Z5
X40.024 Y75.524
Z4
Z1
G1 Z-1.3 F50
G0 Z4
Z0.7
G1 Z-1.6 F50
G0 Z4
Z0.4
G1 Z-1.9 F50
G0 Z4
Z0.1
G1 Z-2.2 F50
G0 Z4
Z-0.2
G1 Z-2.5 F50
G0 Z4
Z-0.5
G1 Z-2.8 F50
G0 Z4
Z-0.8
G1 Z-3.1 F50
G0 Z4
Z-1.1
G1 Z-3.4 F50
G0 Z4
Z-1.4
G1 Z-3.7 F50
G0 Z4
Z-1.7
G1 Z-4 F50
G0 Z4
Z-2
G1 Z-4.3 F50
G0 Z4
Z-2.3
G1 Z-4.6 F50
G0 Z4
Z-2.6
G1 Z-4.9 F50
G0 Z4
Z-2.9
G1 Z-5.2 F50
G0 Z4
Z-3.2
G1 Z-5.5 F50
G0 Z4
Z-3.5
G1 Z-5.8 F50
G0 Z4
Z-3.8
G1 Z-6.1 F50
G0 Z4
Z-4.1
G1 Z-6.4 F50
G0 Z4
Z-4.4
G1 Z-6.7 F50
G0 Z4
Z-4.7
G1 Z-7 F50
G0 Z4
Z-5
G1 Z-7.3 F50
G0 Z4
Z-5.3
G1 Z-7.6 F50
G0 Z4
Z-5.6
G1 Z-7.9 F50
G0 Z4
Z-5.9
G1 Z-8.2 F50
G0 Z4
Z-6.2
G1 Z-8.35 F50
G4 P1.
G0 Z5
X57.774 Y70.768
Z4
Z1
G1 Z-1.3 F50
G0 Z4
Z0.7
G1 Z-1.6 F50
G0 Z4
Z0.4
G1 Z-1.9 F50
G0 Z4
Z0.1
G1 Z-2.2 F50
G0 Z4
Z-0.2
G1 Z-2.5 F50
G0 Z4
Z-0.5
G1 Z-2.8 F50
G0 Z4
Z-0.8
G1 Z-3.1 F50
G0 Z4
Z-1.1
G1 Z-3.4 F50
G0 Z4
Z-1.4
G1 Z-3.7 F50
G0 Z4
Z-1.7
G1 Z-4 F50
G0 Z4
Z-2
G1 Z-4.3 F50
G0 Z4
Z-2.3
G1 Z-4.6 F50
G0 Z4
Z-2.6
G1 Z-4.9 F50
G0 Z4
Z-2.9
G1 Z-5.2 F50
G0 Z4
Z-3.2
G1 Z-5.5 F50
G0 Z4
Z-3.5
G1 Z-5.8 F50
G0 Z4
Z-3.8
G1 Z-6.1 F50
G0 Z4
Z-4.1
G1 Z-6.4 F50
G0 Z4
Z-4.4
G1 Z-6.7 F50
G0 Z4
Z-4.7
G1 Z-7 F50
G0 Z4
Z-5
G1 Z-7.3 F50
G0 Z4
Z-5.3
G1 Z-7.6 F50
G0 Z4
Z-5.6
G1 Z-7.9 F50
G0 Z4
Z-5.9
G1 Z-8.2 F50
G0 Z4
Z-6.2
G1 Z-8.35 F50
G4 P1.
G0 Z5
X63.524 Y63.624
Z1
Z-2
G1 Z-4.3 F50
G0 Z1
Z-2.3
G1 Z-4.6 F50
G0 Z1
Z-2.6
G1 Z-4.9 F50
G0 Z1
Z-2.9
G1 Z-5.2 F50
G0 Z1
Z-3.2
G1 Z-5.5 F50
G0 Z1
Z-3.5
G1 Z-5.8 F50
G0 Z1
Z-3.8
G1 Z-6.1 F50
G0 Z1
Z-4.1
G1 Z-6.4 F50
G0 Z1
Z-4.4
G1 Z-6.7 F50
G0 Z1
Z-4.7
G1 Z-7 F50
G0 Z1
Z-5
G1 Z-7.3 F50
G0 Z1
Z-5.3
G1 Z-7.6 F50
G0 Z1
Z-5.6
G1 Z-7.9 F50
G0 Z1
Z-5.9
G1 Z-8.2 F50
G0 Z1
Z-6.2
G1 Z-8.35 F50
G4 P1.
G0 Z5
X70.768 Y57.774
Z4
Z1
G1 Z-1.3 F50
G0 Z4
Z0.7
G1 Z-1.6 F50
G0 Z4
Z0.4
G1 Z-1.9 F50
G0 Z4
Z0.1
G1 Z-2.2 F50
G0 Z4
Z-0.2
G1 Z-2.5 F50
G0 Z4
Z-0.5
G1 Z-2.8 F50
G0 Z4
Z-0.8
G1 Z-3.1 F50
G0 Z4
Z-1.1
G1 Z-3.4 F50
G0 Z4
Z-1.4
G1 Z-3.7 F50
G0 Z4
Z-1.7
G1 Z-4 F50
G0 Z4
Z-2
G1 Z-4.3 F50
G0 Z4
Z-2.3
G1 Z-4.6 F50
G0 Z4
Z-2.6
G1 Z-4.9 F50
G0 Z4
Z-2.9
G1 Z-5.2 F50
G0 Z4
Z-3.2
G1 Z-5.5 F50
G0 Z4
Z-3.5
G1 Z-5.8 F50
G0 Z4
Z-3.8
G1 Z-6.1 F50
G0 Z4
Z-4.1
G1 Z-6.4 F50
G0 Z4
Z-4.4
G1 Z-6.7 F50
G0 Z4
Z-4.7
G1 Z-7 F50
G0 Z4
Z-5
G1 Z-7.3 F50
G0 Z4
Z-5.3
G1 Z-7.6 F50
G0 Z4
Z-5.6
G1 Z-7.9 F50
G0 Z4
Z-5.9
G1 Z-8.2 F50
G0 Z4
Z-6.2
G1 Z-8.35 F50
G4 P1.
G0 Z5
X75.524 Y40.024
Z4
Z1
G1 Z-1.3 F50
G0 Z4
Z0.7
G1 Z-1.6 F50
G0 Z4
Z0.4
G1 Z-1.9 F50
G0 Z4
Z0.1
G1 Z-2.2 F50
G0 Z4
Z-0.2
G1 Z-2.5 F50
G0 Z4
Z-0.5
G1 Z-2.8 F50
G0 Z4
Z-0.8
G1 Z-3.1 F50
G0 Z4
Z-1.1
G1 Z-3.4 F50
G0 Z4
Z-1.4
G1 Z-3.7 F50
G0 Z4
Z-1.7
G1 Z-4 F50
G0 Z4
Z-2
G1 Z-4.3 F50
G0 Z4
Z-2.3
G1 Z-4.6 F50
G0 Z4
Z-2.6
G1 Z-4.9 F50
G0 Z4
Z-2.9
G1 Z-5.2 F50
G0 Z4
Z-3.2
G1 Z-5.5 F50
G0 Z4
Z-3.5
G1 Z-5.8 F50
G0 Z4
Z-3.8
G1 Z-6.1 F50
G0 Z4
Z-4.1
G1 Z-6.4 F50
G0 Z4
Z-4.4
G1 Z-6.7 F50
G0 Z4
Z-4.7
G1 Z-7 F50
G0 Z4
Z-5
G1 Z-7.3 F50
G0 Z4
Z-5.3
G1 Z-7.6 F50
G0 Z4
Z-5.6
G1 Z-7.9 F50
G0 Z4
Z-5.9
G1 Z-8.2 F50
G0 Z4
Z-6.2
G1 Z-8.35 F50
G4 P1.
G0 Z5
X70.768 Y22.274
Z4
Z1
G1 Z-1.3 F50
G0 Z4
Z0.7
G1 Z-1.6 F50
G0 Z4
Z0.4
G1 Z-1.9 F50
G0 Z4
Z0.1
G1 Z-2.2 F50
G0 Z4
Z-0.2
G1 Z-2.5 F50
G0 Z4
Z-0.5
G1 Z-2.8 F50
G0 Z4
Z-0.8
G1 Z-3.1 F50
G0 Z4
Z-1.1
G1 Z-3.4 F50
G0 Z4
Z-1.4
G1 Z-3.7 F50
G0 Z4
Z-1.7
G1 Z-4 F50
G0 Z4
Z-2
G1 Z-4.3 F50
G0 Z4
Z-2.3
G1 Z-4.6 F50
G0 Z4
Z-2.6
G1 Z-4.9 F50
G0 Z4
Z-2.9
G1 Z-5.2 F50
G0 Z4
Z-3.2
G1 Z-5.5 F50
G0 Z4
Z-3.5
G1 Z-5.8 F50
G0 Z4
Z-3.8
G1 Z-6.1 F50
G0 Z4
Z-4.1
G1 Z-6.4 F50
G0 Z4
Z-4.4
G1 Z-6.7 F50
G0 Z4
Z-4.7
G1 Z-7 F50
G0 Z4
Z-5
G1 Z-7.3 F50
G0 Z4
Z-5.3
G1 Z-7.6 F50
G0 Z4
Z-5.6
G1 Z-7.9 F50
G0 Z4
Z-5.9
G1 Z-8.2 F50
G0 Z4
Z-6.2
G1 Z-8.35 F50
G4 P1.
G0 Z5
X63.657 Y16.34
Z1
Z-2
G1 Z-4.3 F50
G0 Z1
Z-2.3
G1 Z-4.6 F50
G0 Z1
Z-2.6
G1 Z-4.9 F50
G0 Z1
Z-2.9
G1 Z-5.2 F50
G0 Z1
Z-3.2
G1 Z-5.5 F50
G0 Z1
Z-3.5
G1 Z-5.8 F50
G0 Z1
Z-3.8
G1 Z-6.1 F50
G0 Z1
Z-4.1
G1 Z-6.4 F50
G0 Z1
Z-4.4
G1 Z-6.7 F50
G0 Z1
Z-4.7
G1 Z-7 F50
G0 Z1
Z-5
G1 Z-7.3 F50
G0 Z1
Z-5.3
G1 Z-7.6 F50
G0 Z1
Z-5.6
G1 Z-7.9 F50
G0 Z1
Z-5.9
G1 Z-8.2 F50
G0 Z1
Z-6.2
G1 Z-8.35 F50
G4 P1.
G0 Z5
X57.774 Y9.28
Z4
Z1
G1 Z-1.3 F50
G0 Z4
Z0.7
G1 Z-1.6 F50
G0 Z4
Z0.4
G1 Z-1.9 F50
G0 Z4
Z0.1
G1 Z-2.2 F50
G0 Z4
Z-0.2
G1 Z-2.5 F50
G0 Z4
Z-0.5
G1 Z-2.8 F50
G0 Z4
Z-0.8
G1 Z-3.1 F50
G0 Z4
Z-1.1
G1 Z-3.4 F50
G0 Z4
Z-1.4
G1 Z-3.7 F50
G0 Z4
Z-1.7
G1 Z-4 F50
G0 Z4
Z-2
G1 Z-4.3 F50
G0 Z4
Z-2.3
G1 Z-4.6 F50
G0 Z4
Z-2.6
G1 Z-4.9 F50
G0 Z4
Z-2.9
G1 Z-5.2 F50
G0 Z4
Z-3.2
G1 Z-5.5 F50
G0 Z4
Z-3.5
G1 Z-5.8 F50
G0 Z4
Z-3.8
G1 Z-6.1 F50
G0 Z4
Z-4.1
G1 Z-6.4 F50
G0 Z4
Z-4.4
G1 Z-6.7 F50
G0 Z4
Z-4.7
G1 Z-7 F50
G0 Z4
Z-5
G1 Z-7.3 F50
G0 Z4
Z-5.3
G1 Z-7.6 F50
G0 Z4
Z-5.6
G1 Z-7.9 F50
G0 Z4
Z-5.9
G1 Z-8.2 F50
G0 Z4
Z-6.2
G1 Z-8.35 F50
G4 P1.
G0 Z5
X40.024 Y4.524
Z4
Z1
G1 Z-1.3 F50
G0 Z4
Z0.7
G1 Z-1.6 F50
G0 Z4
Z0.4
G1 Z-1.9 F50
G0 Z4
Z0.1
G1 Z-2.2 F50
G0 Z4
Z-0.2
G1 Z-2.5 F50
G0 Z4
Z-0.5
G1 Z-2.8 F50
G0 Z4
Z-0.8
G1 Z-3.1 F50
G0 Z4
Z-1.1
G1 Z-3.4 F50
G0 Z4
Z-1.4
G1 Z-3.7 F50
G0 Z4
Z-1.7
G1 Z-4 F50
G0 Z4
Z-2
G1 Z-4.3 F50
G0 Z4
Z-2.3
G1 Z-4.6 F50
G0 Z4
Z-2.6
G1 Z-4.9 F50
G0 Z4
Z-2.9
G1 Z-5.2 F50
G0 Z4
Z-3.2
G1 Z-5.5 F50
G0 Z4
Z-3.5
G1 Z-5.8 F50
G0 Z4
Z-3.8
G1 Z-6.1 F50
G0 Z4
Z-4.1
G1 Z-6.4 F50
G0 Z4
Z-4.4
G1 Z-6.7 F50
G0 Z4
Z-4.7
G1 Z-7 F50
G0 Z4
Z-5
G1 Z-7.3 F50
G0 Z4
Z-5.3
G1 Z-7.6 F50
G0 Z4
Z-5.6
G1 Z-7.9 F50
G0 Z4
Z-5.9
G1 Z-8.2 F50
G0 Z4
Z-6.2
G1 Z-8.35 F50
G4 P1.
G0 Z5
X22.274 Y9.28
Z4
Z1
G1 Z-1.3 F50
G0 Z4
Z0.7
G1 Z-1.6 F50
G0 Z4
Z0.4
G1 Z-1.9 F50
G0 Z4
Z0.1
G1 Z-2.2 F50
G0 Z4
Z-0.2
G1 Z-2.5 F50
G0 Z4
Z-0.5
G1 Z-2.8 F50
G0 Z4
Z-0.8
G1 Z-3.1 F50
G0 Z4
Z-1.1
G1 Z-3.4 F50
G0 Z4
Z-1.4
G1 Z-3.7 F50
G0 Z4
Z-1.7
G1 Z-4 F50
G0 Z4
Z-2
G1 Z-4.3 F50
G0 Z4
Z-2.3
G1 Z-4.6 F50
G0 Z4
Z-2.6
G1 Z-4.9 F50
G0 Z4
Z-2.9
G1 Z-5.2 F50
G0 Z4
Z-3.2
G1 Z-5.5 F50
G0 Z4
Z-3.5
G1 Z-5.8 F50
G0 Z4
Z-3.8
G1 Z-6.1 F50
G0 Z4
Z-4.1
G1 Z-6.4 F50
G0 Z4
Z-4.4
G1 Z-6.7 F50
G0 Z4
Z-4.7
G1 Z-7 F50
G0 Z4
Z-5
G1 Z-7.3 F50
G0 Z4
Z-5.3
G1 Z-7.6 F50
G0 Z4
Z-5.6
G1 Z-7.9 F50
G0 Z4
Z-5.9
G1 Z-8.2 F50
G0 Z4
Z-6.2
G1 Z-8.35 F50
G4 P1.
G0 Z5
X16.526 Y16.34
Z1
Z-2
G1 Z-4.3 F50
G0 Z1
Z-2.3
G1 Z-4.6 F50
G0 Z1
Z-2.6
G1 Z-4.9 F50
G0 Z1
Z-2.9
G1 Z-5.2 F50
G0 Z1
Z-3.2
G1 Z-5.5 F50
G0 Z1
Z-3.5
G1 Z-5.8 F50
G0 Z1
Z-3.8
G1 Z-6.1 F50
G0 Z1
Z-4.1
G1 Z-6.4 F50
G0 Z1
Z-4.4
G1 Z-6.7 F50
G0 Z1
Z-4.7
G1 Z-7 F50
G0 Z1
Z-5
G1 Z-7.3 F50
G0 Z1
Z-5.3
G1 Z-7.6 F50
G0 Z1
Z-5.6
G1 Z-7.9 F50
G0 Z1
Z-5.9
G1 Z-8.2 F50
G0 Z1
Z-6.2
G1 Z-8.35 F50
G4 P1.
G0 Z5
X9.28 Y22.274
Z4
Z1
G1 Z-1.3 F50
G0 Z4
Z0.7
G1 Z-1.6 F50
G0 Z4
Z0.4
G1 Z-1.9 F50
G0 Z4
Z0.1
G1 Z-2.2 F50
G0 Z4
Z-0.2
G1 Z-2.5 F50
G0 Z4
Z-0.5
G1 Z-2.8 F50
G0 Z4
Z-0.8
G1 Z-3.1 F50
G0 Z4
Z-1.1
G1 Z-3.4 F50
G0 Z4
Z-1.4
G1 Z-3.7 F50
G0 Z4
Z-1.7
G1 Z-4 F50
G0 Z4
Z-2
G1 Z-4.3 F50
G0 Z4
Z-2.3
G1 Z-4.6 F50
G0 Z4
Z-2.6
G1 Z-4.9 F50
G0 Z4
Z-2.9
G1 Z-5.2 F50
G0 Z4
Z-3.2
G1 Z-5.5 F50
G0 Z4
Z-3.5
G1 Z-5.8 F50
G0 Z4
Z-3.8
G1 Z-6.1 F50
G0 Z4
Z-4.1
G1 Z-6.4 F50
G0 Z4
Z-4.4
G1 Z-6.7 F50
G0 Z4
Z-4.7
G1 Z-7 F50
G0 Z4
Z-5
G1 Z-7.3 F50
G0 Z4
Z-5.3
G1 Z-7.6 F50
G0 Z4
Z-5.6
G1 Z-7.9 F50
G0 Z4
Z-5.9
G1 Z-8.2 F50
G0 Z4
Z-6.2
G1 Z-8.35 F50
G4 P1.
G0 Z5
X4.524 Y40.024
Z4
Z1
G1 Z-1.3 F50
G0 Z4
Z0.7
G1 Z-1.6 F50
G0 Z4
Z0.4
G1 Z-1.9 F50
G0 Z4
Z0.1
G1 Z-2.2 F50
G0 Z4
Z-0.2
G1 Z-2.5 F50
G0 Z4
Z-0.5
G1 Z-2.8 F50
G0 Z4
Z-0.8
G1 Z-3.1 F50
G0 Z4
Z-1.1
G1 Z-3.4 F50
G0 Z4
Z-1.4
G1 Z-3.7 F50
G0 Z4
Z-1.7
G1 Z-4 F50
G0 Z4
Z-2
G1 Z-4.3 F50
G0 Z4
Z-2.3
G1 Z-4.6 F50
G0 Z4
Z-2.6
G1 Z-4.9 F50
G0 Z4
Z-2.9
G1 Z-5.2 F50
G0 Z4
Z-3.2
G1 Z-5.5 F50
G0 Z4
Z-3.5
G1 Z-5.8 F50
G0 Z4
Z-3.8
G1 Z-6.1 F50
G0 Z4
Z-4.1
G1 Z-6.4 F50
G0 Z4
Z-4.4
G1 Z-6.7 F50
G0 Z4
Z-4.7
G1 Z-7 F50
G0 Z4
Z-5
G1 Z-7.3 F50
G0 Z4
Z-5.3
G1 Z-7.6 F50
G0 Z4
Z-5.6
G1 Z-7.9 F50
G0 Z4
Z-5.9
G1 Z-8.2 F50
G0 Z4
Z-6.2
G1 Z-8.35 F50
G4 P1.
G0 Z5
Z15
(When using Fusion for Personal Use, the feedrate of rapid)
(moves is reduced to match the feedrate of cutting moves,)
(which can increase machining time. Unrestricted rapid moves)
(are available with a Fusion Subscription.)

(2D Contour1)
G0 X51.216 Y39.548
G1 Z15 F150
Z5
Z0.952 F50
Z0.176
G18 G2 X51.692 Z-0.3 I0.476 K0
G1 X52.168
G17 G3 X52.644 Y40.024 I0 J0.476
X27.404 Y40.024 I-12.62 J0 F150
X52.644 Y40.024 I12.62 J0
X52.168 Y40.5 I-0.476 J0
G1 X51.692
G18 G3 X51.216 Z0.176 I0 K0.476
G1 Z5
Y39.548
Z0.652 F50
Z-0.124
G2 X51.692 Z-0.6 I0.476 K0
G1 X52.168
G17 G3 X52.644 Y40.024 I0 J0.476
X27.404 Y40.024 I-12.62 J0 F150
X52.644 Y40.024 I12.62 J0
X52.168 Y40.5 I-0.476 J0
G1 X51.692
G18 G3 X51.216 Z-0.124 I0 K0.476
G1 Z5
Y39.548
Z0.352 F50
Z-0.424
G2 X51.692 Z-0.9 I0.476 K0
G1 X52.168
G17 G3 X52.644 Y40.024 I0 J0.476
X27.404 Y40.024 I-12.62 J0 F150
X52.644 Y40.024 I12.62 J0
X52.168 Y40.5 I-0.476 J0
G1 X51.692
G18 G3 X51.216 Z-0.424 I0 K0.476
G1 Z5
Y39.548
Z0.052 F50
Z-0.724
G2 X51.692 Z-1.2 I0.476 K0
G1 X52.168
G17 G3 X52.644 Y40.024 I0 J0.476
X27.404 Y40.024 I-12.62 J0 F150
X52.644 Y40.024 I12.62 J0
X52.168 Y40.5 I-0.476 J0
G1 X51.692
G18 G3 X51.216 Z-0.724 I0 K0.476
G1 Z5
Y39.548
Z-0.248 F50
Z-1.024
G2 X51.692 Z-1.5 I0.476 K0
G1 X52.168
G17 G3 X52.644 Y40.024 I0 J0.476
X27.404 Y40.024 I-12.62 J0 F150
X52.644 Y40.024 I12.62 J0
X52.168 Y40.5 I-0.476 J0
G1 X51.692
G18 G3 X51.216 Z-1.024 I0 K0.476
G1 Z5
Y39.548
Z-0.548 F50
Z-1.324
G2 X51.692 Z-1.8 I0.476 K0
G1 X52.168
G17 G3 X52.644 Y40.024 I0 J0.476
X27.404 Y40.024 I-12.62 J0 F150
X52.644 Y40.024 I12.62 J0
X52.168 Y40.5 I-0.476 J0
G1 X51.692
G18 G3 X51.216 Z-1.324 I0 K0.476
G1 Z5
Y39.548
Z-0.848 F50
Z-1.624
G2 X51.692 Z-2.1 I0.476 K0
G1 X52.168
G17 G3 X52.644 Y40.024 I0 J0.476
X27.404 Y40.024 I-12.62 J0 F150
X52.644 Y40.024 I12.62 J0
X52.168 Y40.5 I-0.476 J0
G1 X51.692
G18 G3 X51.216 Z-1.624 I0 K0.476
G1 Z5
Y39.548
Z-1.148 F50
Z-1.924
G2 X51.692 Z-2.4 I0.476 K0
G1 X52.168
G17 G3 X52.644 Y40.024 I0 J0.476
X27.404 Y40.024 I-12.62 J0 F150
X52.644 Y40.024 I12.62 J0
X52.168 Y40.5 I-0.476 J0
G1 X51.692
G18 G3 X51.216 Z-1.924 I0 K0.476
G1 Z5
Y39.548
Z-1.448 F50
Z-2.224
G2 X51.692 Z-2.7 I0.476 K0
G1 X52.168
G17 G3 X52.644 Y40.024 I0 J0.476
X27.404 Y40.024 I-12.62 J0 F150
X52.644 Y40.024 I12.62 J0
X52.168 Y40.5 I-0.476 J0
G1 X51.692
G18 G3 X51.216 Z-2.224 I0 K0.476
G1 Z5
Y39.548
Z-1.748 F50
Z-2.524
G2 X51.692 Z-3 I0.476 K0
G1 X52.168
G17 G3 X52.644 Y40.024 I0 J0.476
X27.404 Y40.024 I-12.62 J0 F150
X52.644 Y40.024 I12.62 J0
X52.168 Y40.5 I-0.476 J0
G1 X51.692
G18 G3 X51.216 Z-2.524 I0 K0.476
G1 Z5
Y39.548
Z-2.048 F50
Z-2.824
G2 X51.692 Z-3.3 I0.476 K0
G1 X52.168
G17 G3 X52.644 Y40.024 I0 J0.476
X27.404 Y40.024 I-12.62 J0 F150
X52.644 Y40.024 I12.62 J0
X52.168 Y40.5 I-0.476 J0
G1 X51.692
G18 G3 X51.216 Z-2.824 I0 K0.476
G1 Z5
Y39.548
Z-2.348 F50
Z-3.124
G2 X51.692 Z-3.6 I0.476 K0
G1 X52.168
G17 G3 X52.644 Y40.024 I0 J0.476
X27.404 Y40.024 I-12.62 J0 F150
X52.644 Y40.024 I12.62 J0
X52.168 Y40.5 I-0.476 J0
G1 X51.692
G18 G3 X51.216 Z-3.124 I0 K0.476
G1 Z5
Y39.548
Z-2.648 F50
Z-3.424
G2 X51.692 Z-3.9 I0.476 K0
G1 X52.168
G17 G3 X52.644 Y40.024 I0 J0.476
X27.404 Y40.024 I-12.62 J0 F150
X52.644 Y40.024 I12.62 J0
X52.168 Y40.5 I-0.476 J0
G1 X51.692
G18 G3 X51.216 Z-3.424 I0 K0.476
G1 Z5
Y39.548
Z-2.948 F50
Z-3.724
G2 X51.692 Z-4.2 I0.476 K0
G1 X52.168
G17 G3 X52.644 Y40.024 I0 J0.476
X27.404 Y40.024 I-12.62 J0 F150
X52.644 Y40.024 I12.62 J0
X52.168 Y40.5 I-0.476 J0
G1 X51.692
G18 G3 X51.216 Z-3.724 I0 K0.476
G1 Z5
Y39.548
Z-3.248 F50
Z-4.024
G2 X51.692 Z-4.5 I0.476 K0
G1 X52.168
G17 G3 X52.644 Y40.024 I0 J0.476
X27.404 Y40.024 I-12.62 J0 F150
X52.644 Y40.024 I12.62 J0
X52.168 Y40.5 I-0.476 J0
G1 X51.692
G18 G3 X51.216 Z-4.024 I0 K0.476
G1 Z5
Y39.548
Z-3.548 F50
Z-4.324
G2 X51.692 Z-4.8 I0.476 K0
G1 X52.168
G17 G3 X52.644 Y40.024 I0 J0.476
X27.404 Y40.024 I-12.62 J0 F150
X52.644 Y40.024 I12.62 J0
X52.168 Y40.5 I-0.476 J0
G1 X51.692
G18 G3 X51.216 Z-4.324 I0 K0.476
G1 Z5
Y39.548
Z-3.848 F50
Z-4.624
G2 X51.692 Z-5.1 I0.476 K0
G1 X52.168
G17 G3 X52.644 Y40.024 I0 J0.476
X27.404 Y40.024 I-12.62 J0 F150
X52.644 Y40.024 I12.62 J0
X52.168 Y40.5 I-0.476 J0
G1 X51.692
G18 G3 X51.216 Z-4.624 I0 K0.476
G1 Z5
Y39.548
Z-4.148 F50
Z-4.924
G2 X51.692 Z-5.4 I0.476 K0
G1 X52.168
G17 G3 X52.644 Y40.024 I0 J0.476
X27.404 Y40.024 I-12.62 J0 F150
X52.644 Y40.024 I12.62 J0
X52.168 Y40.5 I-0.476 J0
G1 X51.692
G18 G3 X51.216 Z-4.924 I0 K0.476
G1 Z5
Y39.548
Z-4.448 F50
Z-5.224
G2 X51.692 Z-5.7 I0.476 K0
G1 X52.168
G17 G3 X52.644 Y40.024 I0 J0.476
X27.404 Y40.024 I-12.62 J0 F150
X52.644 Y40.024 I12.62 J0
X52.168 Y40.5 I-0.476 J0
G1 X51.692
G18 G3 X51.216 Z-5.224 I0 K0.476
G1 Z5
Y39.548
Z-4.748 F50
Z-5.524
G2 X51.692 Z-6 I0.476 K0
G1 X52.168
G17 G3 X52.644 Y40.024 I0 J0.476
X27.404 Y40.024 I-12.62 J0 F150
X52.644 Y40.024 I12.62 J0
X52.168 Y40.5 I-0.476 J0
G1 X51.692
G18 G3 X51.216 Z-5.524 I0 K0.476
G1 Z5
Y39.548
Z-5.048 F50
Z-5.824
G2 X51.692 Z-6.3 I0.476 K0
G1 X52.168
G17 G3 X52.644 Y40.024 I0 J0.476
X27.404 Y40.024 I-12.62 J0 F150
X52.644 Y40.024 I12.62 J0
X52.168 Y40.5 I-0.476 J0
G1 X51.692
G18 G3 X51.216 Z-5.824 I0 K0.476
G1 Z5
Y39.548
Z-5.348 F50
Z-6.124
G2 X51.692 Z-6.6 I0.476 K0
G1 X52.168
G17 G3 X52.644 Y40.024 I0 J0.476
X27.404 Y40.024 I-12.62 J0 F150
X52.644 Y40.024 I12.62 J0
X52.168 Y40.5 I-0.476 J0
G1 X51.692
G18 G3 X51.216 Z-6.124 I0 K0.476
G1 Z5
Y39.548
Z-5.648 F50
Z-6.424
G2 X51.692 Z-6.9 I0.476 K0
G1 X52.168
G17 G3 X52.644 Y40.024 I0 J0.476
X27.404 Y40.024 I-12.62 J0 F150
X52.644 Y40.024 I12.62 J0
X52.168 Y40.5 I-0.476 J0
G1 X51.692
G18 G3 X51.216 Z-6.424 I0 K0.476
G1 Z5
Y39.548
Z-5.948 F50
Z-6.724
G2 X51.692 Z-7.2 I0.476 K0
G1 X52.168
G17 G3 X52.644 Y40.024 I0 J0.476
X27.404 Y40.024 I-12.62 J0 F150
X52.644 Y40.024 I12.62 J0
X52.168 Y40.5 I-0.476 J0
G1 X51.692
G18 G3 X51.216 Z-6.724 I0 K0.476
G1 Z5
Y39.548
Z-6.248 F50
Z-7.024
G2 X51.692 Z-7.5 I0.476 K0
G1 X52.168
G17 G3 X52.644 Y40.024 I0 J0.476
X27.404 Y40.024 I-12.62 J0 F150
X52.644 Y40.024 I12.62 J0
X52.168 Y40.5 I-0.476 J0
G1 X51.692
G18 G3 X51.216 Z-7.024 I0 K0.476
G1 Z5
Y39.548
Z-6.548 F50
Z-7.324
G2 X51.692 Z-7.8 I0.476 K0
G1 X52.168
G17 G3 X52.644 Y40.024 I0 J0.476
X27.404 Y40.024 I-12.62 J0 F150
X52.644 Y40.024 I12.62 J0
X52.168 Y40.5 I-0.476 J0
G1 X51.692
G18 G3 X51.216 Z-7.324 I0 K0.476
G1 Z5
Y39.548
Z-6.848 F50
Z-7.624
G2 X51.692 Z-8.1 I0.476 K0
G1 X52.168
G17 G3 X52.644 Y40.024 I0 J0.476
X27.404 Y40.024 I-12.62 J0 F150
X52.644 Y40.024 I12.62 J0
X52.168 Y40.5 I-0.476 J0
G1 X51.692
G18 G3 X51.216 Z-7.624 I0 K0.476
G1 Z5
Y39.548
Z-7.148 F50
Z-7.874
G2 X51.692 Z-8.35 I0.476 K0
G1 X52.168
G17 G3 X52.644 Y40.024 I0 J0.476
X27.404 Y40.024 I-12.62 J0 F150
X52.644 Y40.024 I12.62 J0
X52.168 Y40.5 I-0.476 J0
G1 X51.692
G18 G3 X51.216 Z-7.874 I0 K0.476
G1 Z15
G17
(When using Fusion for Personal Use, the feedrate of rapid)
(moves is reduced to match the feedrate of cutting moves,)
(which can increase machining time. Unrestricted rapid moves)
(are available with a Fusion Subscription.)

(2D Pocket1)
G0 X34.399 Y50.946
G1 Z15 F150
Z5
Z0.952 F50
Z0.176
X34.393 Y50.949 Z0.093
X34.374 Y50.96 Z0.013
X34.344 Y50.978 Z-0.062
X34.303 Y51.002 Z-0.13
X34.253 Y51.032 Z-0.189
X34.194 Y51.067 Z-0.236
X34.13 Y51.105 Z-0.271
X34.061 Y51.146 Z-0.293
X33.99 Y51.188 Z-0.3
G3 X31.743 Y51.066 I-1.032 J-1.742
X48.305 Y28.983 I8.281 J-11.042 F150
X31.743 Y51.066 I-8.281 J11.042
G2 X29.413 Y50.88 I-1.312 J1.749
G3 X27.124 Y50.405 I-0.856 J-1.628
X52.924 Y29.643 I12.9 J-10.381
X27.124 Y50.405 I-12.9 J10.381
G2 X24.89 Y49.65 I-1.71 J1.376
G3 X22.749 Y48.661 I-0.452 J-1.834
X57.3 Y31.388 I17.276 J-8.636
X22.749 Y48.661 I-17.276 J8.636
G2 X20.673 Y47.423 I-2.003 J1.002
G3 X18.725 Y45.995 I-0.063 J-1.957
X61.323 Y34.054 I21.299 J-5.971
X18.725 Y45.995 I-21.299 J5.971
S5000
X20.513 Y43.157 Z-0.329 I2.177 J-0.61 F50
G1 X51.176 Y37.797 Z-0.57
G3 X53.826 Y40.024 Z-0.6 I0.389 J2.227
S16000
X26.222 Y40.024 I-13.802 J0 F150
X53.826 Y40.024 I13.802 J0
G2 X55.075 Y42 I2.187 J0
G3 X56.069 Y44.115 I-0.788 J1.661
X23.98 Y35.933 I-16.045 J-4.091
X56.069 Y44.115 I16.045 J4.091
G2 X56.806 Y46.356 I2.127 J0.542
G3 X57.299 Y48.663 I-1.196 J1.462
X22.75 Y31.386 I-17.274 J-8.639
X57.299 Y48.663 I17.274 J8.639
G2 X57.554 Y51.065 I2.003 J1.002
G3 X57.58 Y53.481 I-1.528 J1.225
X22.468 Y26.567 I-17.556 J-13.457
X57.58 Y53.481 I17.556 J13.457
S5000
X53.651 Y52.851 Z-0.657 I-1.794 J-1.375 F50
G1 X49.431 Y40.77 Z-0.808
G3 X53.7 Y39.279 Z-0.891 I2.135 J-0.746
X53.826 Y40.024 Z-0.9 I-2.135 J0.746
S16000
X26.222 Y40.024 I-13.802 J0 F150
X53.826 Y40.024 I13.802 J0
G2 X55.075 Y42 I2.187 J0
G3 X56.069 Y44.115 I-0.788 J1.661
X23.98 Y35.933 I-16.045 J-4.091
X56.069 Y44.115 I16.045 J4.091
G2 X56.806 Y46.356 I2.127 J0.542
G3 X57.299 Y48.663 I-1.196 J1.462
X22.75 Y31.386 I-17.274 J-8.639
X57.299 Y48.663 I17.274 J8.639
G2 X57.554 Y51.065 I2.003 J1.002
G3 X57.58 Y53.481 I-1.528 J1.225
X22.468 Y26.567 I-17.556 J-13.457
X57.58 Y53.481 I17.556 J13.457
S5000
X53.651 Y52.851 Z-0.957 I-1.794 J-1.375 F50
G1 X49.431 Y40.77 Z-1.108
G3 X53.7 Y39.279 Z-1.191 I2.135 J-0.746
X53.826 Y40.024 Z-1.2 I-2.135 J0.746
S16000
X26.222 Y40.024 I-13.802 J0 F150
X53.826 Y40.024 I13.802 J0
G2 X55.075 Y42 I2.187 J0
G3 X56.069 Y44.115 I-0.788 J1.661
X23.98 Y35.933 I-16.045 J-4.091
X56.069 Y44.115 I16.045 J4.091
G2 X56.806 Y46.356 I2.127 J0.542
G3 X57.299 Y48.663 I-1.196 J1.462
X22.75 Y31.386 I-17.274 J-8.639
X57.299 Y48.663 I17.274 J8.639
G2 X57.554 Y51.065 I2.003 J1.002
G3 X57.58 Y53.481 I-1.528 J1.225
X22.468 Y26.567 I-17.556 J-13.457
X57.58 Y53.481 I17.556 J13.457
S5000
X53.651 Y52.851 Z-1.257 I-1.794 J-1.375 F50
G1 X49.431 Y40.77 Z-1.408
G3 X53.7 Y39.279 Z-1.491 I2.135 J-0.746
X53.826 Y40.024 Z-1.5 I-2.135 J0.746
S16000
X26.222 Y40.024 I-13.802 J0 F150
X53.826 Y40.024 I13.802 J0
G2 X55.075 Y42 I2.187 J0
G3 X56.069 Y44.115 I-0.788 J1.661
X23.98 Y35.933 I-16.045 J-4.091
X56.069 Y44.115 I16.045 J4.091
G2 X56.806 Y46.356 I2.127 J0.542
G3 X57.299 Y48.663 I-1.196 J1.462
X22.75 Y31.386 I-17.274 J-8.639
X57.299 Y48.663 I17.274 J8.639
G2 X57.554 Y51.065 I2.003 J1.002
G3 X57.58 Y53.481 I-1.528 J1.225
X22.468 Y26.567 I-17.556 J-13.457
X57.58 Y53.481 I17.556 J13.457
S5000
X53.651 Y52.851 Z-1.557 I-1.794 J-1.375 F50
G1 X49.431 Y40.77 Z-1.708
G3 X53.7 Y39.279 Z-1.791 I2.135 J-0.746
X53.826 Y40.024 Z-1.8 I-2.135 J0.746
S16000
X26.222 Y40.024 I-13.802 J0 F150
X53.826 Y40.024 I13.802 J0
G2 X55.075 Y42 I2.187 J0
G3 X56.069 Y44.115 I-0.788 J1.661
X23.98 Y35.933 I-16.045 J-4.091
X56.069 Y44.115 I16.045 J4.091
G2 X56.806 Y46.356 I2.127 J0.542
G3 X57.299 Y48.663 I-1.196 J1.462
X22.75 Y31.386 I-17.274 J-8.639
X57.299 Y48.663 I17.274 J8.639
G2 X57.554 Y51.065 I2.003 J1.002
G3 X57.58 Y53.481 I-1.528 J1.225
X22.468 Y26.567 I-17.556 J-13.457
X57.58 Y53.481 I17.556 J13.457
S5000
X53.651 Y52.851 Z-1.857 I-1.794 J-1.375 F50
G1 X49.431 Y40.77 Z-2.008
G3 X53.7 Y39.279 Z-2.091 I2.135 J-0.746
X53.826 Y40.024 Z-2.1 I-2.135 J0.746
S16000
X26.222 Y40.024 I-13.802 J0 F150
X53.826 Y40.024 I13.802 J0
G2 X55.075 Y42 I2.187 J0
G3 X56.069 Y44.115 I-0.788 J1.661
X23.98 Y35.933 I-16.045 J-4.091
X56.069 Y44.115 I16.045 J4.091
G2 X56.806 Y46.356 I2.127 J0.542
G3 X57.299 Y48.663 I-1.196 J1.462
X22.75 Y31.386 I-17.274 J-8.639
X57.299 Y48.663 I17.274 J8.639
G2 X57.554 Y51.065 I2.003 J1.002
G3 X57.58 Y53.481 I-1.528 J1.225
X22.468 Y26.567 I-17.556 J-13.457
X57.58 Y53.481 I17.556 J13.457
S5000
X53.651 Y52.851 Z-2.157 I-1.794 J-1.375 F50
G1 X49.431 Y40.77 Z-2.308
G3 X53.7 Y39.279 Z-2.391 I2.135 J-0.746
X53.826 Y40.024 Z-2.4 I-2.135 J0.746
S16000
X26.222 Y40.024 I-13.802 J0 F150
X53.826 Y40.024 I13.802 J0
G2 X55.075 Y42 I2.187 J0
G3 X56.069 Y44.115 I-0.788 J1.661
X23.98 Y35.933 I-16.045 J-4.091
X56.069 Y44.115 I16.045 J4.091
G2 X56.806 Y46.356 I2.127 J0.542
G3 X57.299 Y48.663 I-1.196 J1.462
X22.75 Y31.386 I-17.274 J-8.639
X57.299 Y48.663 I17.274 J8.639
G2 X57.554 Y51.065 I2.003 J1.002
G3 X57.58 Y53.481 I-1.528 J1.225
X22.468 Y26.567 I-17.556 J-13.457
X57.58 Y53.481 I17.556 J13.457
S5000
X53.651 Y52.851 Z-2.457 I-1.794 J-1.375 F50
G1 X49.431 Y40.77 Z-2.608
G3 X53.7 Y39.279 Z-2.691 I2.135 J-0.746
X53.826 Y40.024 Z-2.7 I-2.135 J0.746
S16000
X26.222 Y40.024 I-13.802 J0 F150
X53.826 Y40.024 I13.802 J0
G2 X55.075 Y42 I2.187 J0
G3 X56.069 Y44.115 I-0.788 J1.661
X23.98 Y35.933 I-16.045 J-4.091
X56.069 Y44.115 I16.045 J4.091
G2 X56.806 Y46.356 I2.127 J0.542
G3 X57.299 Y48.663 I-1.196 J1.462
X22.75 Y31.386 I-17.274 J-8.639
X57.299 Y48.663 I17.274 J8.639
G2 X57.554 Y51.065 I2.003 J1.002
G3 X57.58 Y53.481 I-1.528 J1.225
X22.468 Y26.567 I-17.556 J-13.457
X57.58 Y53.481 I17.556 J13.457
S5000
X53.651 Y52.851 Z-2.757 I-1.794 J-1.375 F50
G1 X49.431 Y40.77 Z-2.908
G3 X53.7 Y39.279 Z-2.991 I2.135 J-0.746
X53.826 Y40.024 Z-3 I-2.135 J0.746
S16000
X26.222 Y40.024 I-13.802 J0 F150
X53.826 Y40.024 I13.802 J0
G2 X55.075 Y42 I2.187 J0
G3 X56.069 Y44.115 I-0.788 J1.661
X23.98 Y35.933 I-16.045 J-4.091
X56.069 Y44.115 I16.045 J4.091
G2 X56.806 Y46.356 I2.127 J0.542
G3 X57.299 Y48.663 I-1.196 J1.462
X22.75 Y31.386 I-17.274 J-8.639
X57.299 Y48.663 I17.274 J8.639
G2 X57.554 Y51.065 I2.003 J1.002
G3 X57.58 Y53.481 I-1.528 J1.225
X22.468 Y26.567 I-17.556 J-13.457
X57.58 Y53.481 I17.556 J13.457
G1 X57.54 Y53.527 Z-2.988
X57.495 Y53.567 Z-2.976
X57.445 Y53.601 Z-2.964
X57.375 Y53.635 Z-2.912
X57.301 Y53.657 Z-2.861
X57.25 Y53.665 Z-2.783
X57.199 Y53.667 Z-2.706
X57.163 Y53.666 Z-2.524
Z15
(When using Fusion for Personal Use, the feedrate of rapid)
(moves is reduced to match the feedrate of cutting moves,)
(which can increase machining time. Unrestricted rapid moves)
(are available with a Fusion Subscription.)

(2D Contour3)
G0 X17.718 Y15.864
G1 Z15 F150
Z5
Z0.952 F50
Z0.176
G18 G2 X18.194 Z-0.3 I0.476 K0
G1 X18.67
G17 G3 X19.146 Y16.34 I0 J0.476
X13.906 Y16.34 I-2.62 J0 F150
X19.146 Y16.34 I2.62 J0
X18.67 Y16.816 I-0.476 J0
G1 X18.194
G18 G3 X17.718 Z0.176 I0 K0.476
G1 Z5
Y15.864
Z0.652 F50
Z-0.124
G2 X18.194 Z-0.6 I0.476 K0
G1 X18.67
G17 G3 X19.146 Y16.34 I0 J0.476
X13.906 Y16.34 I-2.62 J0 F150
X19.146 Y16.34 I2.62 J0
X18.67 Y16.816 I-0.476 J0
G1 X18.194
G18 G3 X17.718 Z-0.124 I0 K0.476
G1 Z5
Y15.864
Z0.352 F50
Z-0.424
G2 X18.194 Z-0.9 I0.476 K0
G1 X18.67
G17 G3 X19.146 Y16.34 I0 J0.476
X13.906 Y16.34 I-2.62 J0 F150
X19.146 Y16.34 I2.62 J0
X18.67 Y16.816 I-0.476 J0
G1 X18.194
G18 G3 X17.718 Z-0.424 I0 K0.476
G1 Z5
Y15.864
Z0.052 F50
Z-0.724
G2 X18.194 Z-1.2 I0.476 K0
G1 X18.67
G17 G3 X19.146 Y16.34 I0 J0.476
X13.906 Y16.34 I-2.62 J0 F150
X19.146 Y16.34 I2.62 J0
X18.67 Y16.816 I-0.476 J0
G1 X18.194
G18 G3 X17.718 Z-0.724 I0 K0.476
G1 Z5
Y15.864
Z-0.248 F50
Z-1.024
G2 X18.194 Z-1.5 I0.476 K0
G1 X18.67
G17 G3 X19.146 Y16.34 I0 J0.476
X13.906 Y16.34 I-2.62 J0 F150
X19.146 Y16.34 I2.62 J0
X18.67 Y16.816 I-0.476 J0
G1 X18.194
G18 G3 X17.718 Z-1.024 I0 K0.476
G1 Z5
Y15.864
Z-0.548 F50
Z-1.324
G2 X18.194 Z-1.8 I0.476 K0
G1 X18.67
G17 G3 X19.146 Y16.34 I0 J0.476
X13.906 Y16.34 I-2.62 J0 F150
X19.146 Y16.34 I2.62 J0
X18.67 Y16.816 I-0.476 J0
G1 X18.194
G18 G3 X17.718 Z-1.324 I0 K0.476
G1 Z5
Y15.864
Z-0.848 F50
Z-1.624
G2 X18.194 Z-2.1 I0.476 K0
G1 X18.67
G17 G3 X19.146 Y16.34 I0 J0.476
X13.906 Y16.34 I-2.62 J0 F150
X19.146 Y16.34 I2.62 J0
X18.67 Y16.816 I-0.476 J0
G1 X18.194
G18 G3 X17.718 Z-1.624 I0 K0.476
G1 Z5
Y15.864
Z-1.148 F50
Z-1.924
G2 X18.194 Z-2.4 I0.476 K0
G1 X18.67
G17 G3 X19.146 Y16.34 I0 J0.476
X13.906 Y16.34 I-2.62 J0 F150
X19.146 Y16.34 I2.62 J0
X18.67 Y16.816 I-0.476 J0
G1 X18.194
G18 G3 X17.718 Z-1.924 I0 K0.476
G1 Z5
Y15.864
Z-1.448 F50
Z-2.224
G2 X18.194 Z-2.7 I0.476 K0
G1 X18.67
G17 G3 X19.146 Y16.34 I0 J0.476
X13.906 Y16.34 I-2.62 J0 F150
X19.146 Y16.34 I2.62 J0
X18.67 Y16.816 I-0.476 J0
G1 X18.194
G18 G3 X17.718 Z-2.224 I0 K0.476
G1 Z5
Y15.864
Z-1.748 F50
Z-2.524
G2 X18.194 Z-3 I0.476 K0
G1 X18.67
G17 G3 X19.146 Y16.34 I0 J0.476
X13.906 Y16.34 I-2.62 J0 F150
X19.146 Y16.34 I2.62 J0
X18.67 Y16.816 I-0.476 J0
G1 X18.194
G18 G3 X17.718 Z-2.524 I0 K0.476
G1 Z5
Y15.864
Z-2.048 F50
Z-2.824
G2 X18.194 Z-3.3 I0.476 K0
G1 X18.67
G17 G3 X19.146 Y16.34 I0 J0.476
X13.906 Y16.34 I-2.62 J0 F150
X19.146 Y16.34 I2.62 J0
X18.67 Y16.816 I-0.476 J0
G1 X18.194
G18 G3 X17.718 Z-2.824 I0 K0.476
G1 Z5
Y15.864
Z-2.348 F50
Z-3.124
G2 X18.194 Z-3.6 I0.476 K0
G1 X18.67
G17 G3 X19.146 Y16.34 I0 J0.476
X13.906 Y16.34 I-2.62 J0 F150
X19.146 Y16.34 I2.62 J0
X18.67 Y16.816 I-0.476 J0
G1 X18.194
G18 G3 X17.718 Z-3.124 I0 K0.476
G1 Z5
Y15.864
Z-2.648 F50
Z-3.424
G2 X18.194 Z-3.9 I0.476 K0
G1 X18.67
G17 G3 X19.146 Y16.34 I0 J0.476
X13.906 Y16.34 I-2.62 J0 F150
X19.146 Y16.34 I2.62 J0
X18.67 Y16.816 I-0.476 J0
G1 X18.194
G18 G3 X17.718 Z-3.424 I0 K0.476
G1 Z5
Y15.864
Z-2.948 F50
Z-3.524
G2 X18.194 Z-4 I0.476 K0
G1 X18.67
G17 G3 X19.146 Y16.34 I0 J0.476
X13.906 Y16.34 I-2.62 J0 F150
X19.146 Y16.34 I2.62 J0
X18.67 Y16.816 I-0.476 J0
G1 X18.194
G18 G3 X17.718 Z-3.524 I0 K0.476
G1 Z5
X64.849 Y15.864
Z0.952 F50
Z0.176
G2 X65.325 Z-0.3 I0.476 K0
G1 X65.801
G17 G3 X66.277 Y16.34 I0 J0.476
X61.037 Y16.34 I-2.62 J0 F150
X66.277 Y16.34 I2.62 J0
X65.801 Y16.816 I-0.476 J0
G1 X65.325
G18 G3 X64.849 Z0.176 I0 K0.476
G1 Z5
Y15.864
Z0.652 F50
Z-0.124
G2 X65.325 Z-0.6 I0.476 K0
G1 X65.801
G17 G3 X66.277 Y16.34 I0 J0.476
X61.037 Y16.34 I-2.62 J0 F150
X66.277 Y16.34 I2.62 J0
X65.801 Y16.816 I-0.476 J0
G1 X65.325
G18 G3 X64.849 Z-0.124 I0 K0.476
G1 Z5
Y15.864
Z0.352 F50
Z-0.424
G2 X65.325 Z-0.9 I0.476 K0
G1 X65.801
G17 G3 X66.277 Y16.34 I0 J0.476
X61.037 Y16.34 I-2.62 J0 F150
X66.277 Y16.34 I2.62 J0
X65.801 Y16.816 I-0.476 J0
G1 X65.325
G18 G3 X64.849 Z-0.424 I0 K0.476
G1 Z5
Y15.864
Z0.052 F50
Z-0.724
G2 X65.325 Z-1.2 I0.476 K0
G1 X65.801
G17 G3 X66.277 Y16.34 I0 J0.476
X61.037 Y16.34 I-2.62 J0 F150
X66.277 Y16.34 I2.62 J0
X65.801 Y16.816 I-0.476 J0
G1 X65.325
G18 G3 X64.849 Z-0.724 I0 K0.476
G1 Z5
Y15.864
Z-0.248 F50
Z-1.024
G2 X65.325 Z-1.5 I0.476 K0
G1 X65.801
G17 G3 X66.277 Y16.34 I0 J0.476
X61.037 Y16.34 I-2.62 J0 F150
X66.277 Y16.34 I2.62 J0
X65.801 Y16.816 I-0.476 J0
G1 X65.325
G18 G3 X64.849 Z-1.024 I0 K0.476
G1 Z5
Y15.864
Z-0.548 F50
Z-1.324
G2 X65.325 Z-1.8 I0.476 K0
G1 X65.801
G17 G3 X66.277 Y16.34 I0 J0.476
X61.037 Y16.34 I-2.62 J0 F150
X66.277 Y16.34 I2.62 J0
X65.801 Y16.816 I-0.476 J0
G1 X65.325
G18 G3 X64.849 Z-1.324 I0 K0.476
G1 Z5
Y15.864
Z-0.848 F50
Z-1.624
G2 X65.325 Z-2.1 I0.476 K0
G1 X65.801
G17 G3 X66.277 Y16.34 I0 J0.476
X61.037 Y16.34 I-2.62 J0 F150
X66.277 Y16.34 I2.62 J0
X65.801 Y16.816 I-0.476 J0
G1 X65.325
G18 G3 X64.849 Z-1.624 I0 K0.476
G1 Z5
Y15.864
Z-1.148 F50
Z-1.924
G2 X65.325 Z-2.4 I0.476 K0
G1 X65.801
G17 G3 X66.277 Y16.34 I0 J0.476
X61.037 Y16.34 I-2.62 J0 F150
X66.277 Y16.34 I2.62 J0
X65.801 Y16.816 I-0.476 J0
G1 X65.325
G18 G3 X64.849 Z-1.924 I0 K0.476
G1 Z5
Y15.864
Z-1.448 F50
Z-2.224
G2 X65.325 Z-2.7 I0.476 K0
G1 X65.801
G17 G3 X66.277 Y16.34 I0 J0.476
X61.037 Y16.34 I-2.62 J0 F150
X66.277 Y16.34 I2.62 J0
X65.801 Y16.816 I-0.476 J0
G1 X65.325
G18 G3 X64.849 Z-2.224 I0 K0.476
G1 Z5
Y15.864
Z-1.748 F50
Z-2.524
G2 X65.325 Z-3 I0.476 K0
G1 X65.801
G17 G3 X66.277 Y16.34 I0 J0.476
X61.037 Y16.34 I-2.62 J0 F150
X66.277 Y16.34 I2.62 J0
X65.801 Y16.816 I-0.476 J0
G1 X65.325
G18 G3 X64.849 Z-2.524 I0 K0.476
G1 Z5
Y15.864
Z-2.048 F50
Z-2.824
G2 X65.325 Z-3.3 I0.476 K0
G1 X65.801
G17 G3 X66.277 Y16.34 I0 J0.476
X61.037 Y16.34 I-2.62 J0 F150
X66.277 Y16.34 I2.62 J0
X65.801 Y16.816 I-0.476 J0
G1 X65.325
G18 G3 X64.849 Z-2.824 I0 K0.476
G1 Z5
Y15.864
Z-2.348 F50
Z-3.124
G2 X65.325 Z-3.6 I0.476 K0
G1 X65.801
G17 G3 X66.277 Y16.34 I0 J0.476
X61.037 Y16.34 I-2.62 J0 F150
X66.277 Y16.34 I2.62 J0
X65.801 Y16.816 I-0.476 J0
G1 X65.325
G18 G3 X64.849 Z-3.124 I0 K0.476
G1 Z5
Y15.864
Z-2.648 F50
Z-3.424
G2 X65.325 Z-3.9 I0.476 K0
G1 X65.801
G17 G3 X66.277 Y16.34 I0 J0.476
X61.037 Y16.34 I-2.62 J0 F150
X66.277 Y16.34 I2.62 J0
X65.801 Y16.816 I-0.476 J0
G1 X65.325
G18 G3 X64.849 Z-3.424 I0 K0.476
G1 Z5
Y15.864
Z-2.948 F50
Z-3.524
G2 X65.325 Z-4 I0.476 K0
G1 X65.801
G17 G3 X66.277 Y16.34 I0 J0.476
X61.037 Y16.34 I-2.62 J0 F150
X66.277 Y16.34 I2.62 J0
X65.801 Y16.816 I-0.476 J0
G1 X65.325
G18 G3 X64.849 Z-3.524 I0 K0.476
G1 Z5
X64.778 Y63.351
Z0.952 F50
Z0.176
X64.785 Y63.352 Z0.093
X64.807 Y63.356 Z0.013
X64.841 Y63.361 Z-0.062
X64.888 Y63.369 Z-0.13
X64.946 Y63.379 Z-0.189
X65.013 Y63.39 Z-0.236
X65.087 Y63.402 Z-0.271
X65.166 Y63.416 Z-0.293
X65.248 Y63.429 Z-0.3
X65.717 Y63.508
G17 G3 X66.108 Y64.055 I-0.078 J0.47
X60.94 Y63.193 I-2.584 J-0.431 F150
X66.108 Y64.055 I2.584 J0.431
X65.561 Y64.447 I-0.47 J-0.078
G1 X65.091 Y64.368
X65.01 Y64.355 Z-0.293
X64.931 Y64.341 Z-0.271
X64.856 Y64.329 Z-0.236
X64.789 Y64.318 Z-0.189
X64.731 Y64.308 Z-0.13
X64.684 Y64.3 Z-0.062
X64.65 Y64.295 Z0.013
X64.629 Y64.291 Z0.093
X64.622 Y64.29 Z0.176
Z5
X64.778 Y63.351
Z0.652 F50
Z-0.124
X64.785 Y63.352 Z-0.207
X64.807 Y63.356 Z-0.287
X64.841 Y63.361 Z-0.362
X64.888 Y63.369 Z-0.43
X64.946 Y63.379 Z-0.489
X65.013 Y63.39 Z-0.536
X65.087 Y63.402 Z-0.571
X65.166 Y63.416 Z-0.593
X65.248 Y63.429 Z-0.6
X65.717 Y63.508
G3 X66.108 Y64.055 I-0.078 J0.47
X60.94 Y63.193 I-2.584 J-0.431 F150
X66.108 Y64.055 I2.584 J0.431
X65.561 Y64.447 I-0.47 J-0.078
G1 X65.091 Y64.368
X65.01 Y64.355 Z-0.593
X64.931 Y64.341 Z-0.571
X64.856 Y64.329 Z-0.536
X64.789 Y64.318 Z-0.489
X64.731 Y64.308 Z-0.43
X64.684 Y64.3 Z-0.362
X64.65 Y64.295 Z-0.287
X64.629 Y64.291 Z-0.207
X64.622 Y64.29 Z-0.124
Z5
X64.778 Y63.351
Z0.352 F50
Z-0.424
X64.785 Y63.352 Z-0.507
X64.807 Y63.356 Z-0.587
X64.841 Y63.361 Z-0.662
X64.888 Y63.369 Z-0.73
X64.946 Y63.379 Z-0.789
X65.013 Y63.39 Z-0.836
X65.087 Y63.402 Z-0.871
X65.166 Y63.416 Z-0.893
X65.248 Y63.429 Z-0.9
X65.717 Y63.508
G3 X66.108 Y64.055 I-0.078 J0.47
X60.94 Y63.193 I-2.584 J-0.431 F150
X66.108 Y64.055 I2.584 J0.431
X65.561 Y64.447 I-0.47 J-0.078
G1 X65.091 Y64.368
X65.01 Y64.355 Z-0.893
X64.931 Y64.341 Z-0.871
X64.856 Y64.329 Z-0.836
X64.789 Y64.318 Z-0.789
X64.731 Y64.308 Z-0.73
X64.684 Y64.3 Z-0.662
X64.65 Y64.295 Z-0.587
X64.629 Y64.291 Z-0.507
X64.622 Y64.29 Z-0.424
Z5
X64.778 Y63.351
Z0.052 F50
Z-0.724
X64.785 Y63.352 Z-0.807
X64.807 Y63.356 Z-0.887
X64.841 Y63.361 Z-0.962
X64.888 Y63.369 Z-1.03
X64.946 Y63.379 Z-1.089
X65.013 Y63.39 Z-1.136
X65.087 Y63.402 Z-1.171
X65.166 Y63.416 Z-1.193
X65.248 Y63.429 Z-1.2
X65.717 Y63.508
G3 X66.108 Y64.055 I-0.078 J0.47
X60.94 Y63.193 I-2.584 J-0.431 F150
X66.108 Y64.055 I2.584 J0.431
X65.561 Y64.447 I-0.47 J-0.078
G1 X65.091 Y64.368
X65.01 Y64.355 Z-1.193
X64.931 Y64.341 Z-1.171
X64.856 Y64.329 Z-1.136
X64.789 Y64.318 Z-1.089
X64.731 Y64.308 Z-1.03
X64.684 Y64.3 Z-0.962
X64.65 Y64.295 Z-0.887
X64.629 Y64.291 Z-0.807
X64.622 Y64.29 Z-0.724
Z5
X64.778 Y63.351
Z-0.248 F50
Z-1.024
X64.785 Y63.352 Z-1.107
X64.807 Y63.356 Z-1.187
X64.841 Y63.361 Z-1.262
X64.888 Y63.369 Z-1.33
X64.946 Y63.379 Z-1.389
X65.013 Y63.39 Z-1.436
X65.087 Y63.402 Z-1.471
X65.166 Y63.416 Z-1.493
X65.248 Y63.429 Z-1.5
X65.717 Y63.508
G3 X66.108 Y64.055 I-0.078 J0.47
X60.94 Y63.193 I-2.584 J-0.431 F150
X66.108 Y64.055 I2.584 J0.431
X65.561 Y64.447 I-0.47 J-0.078
G1 X65.091 Y64.368
X65.01 Y64.355 Z-1.493
X64.931 Y64.341 Z-1.471
X64.856 Y64.329 Z-1.436
X64.789 Y64.318 Z-1.389
X64.731 Y64.308 Z-1.33
X64.684 Y64.3 Z-1.262
X64.65 Y64.295 Z-1.187
X64.629 Y64.291 Z-1.107
X64.622 Y64.29 Z-1.024
Z5
X64.778 Y63.351
Z-0.548 F50
Z-1.324
X64.785 Y63.352 Z-1.407
X64.807 Y63.356 Z-1.487
X64.841 Y63.361 Z-1.562
X64.888 Y63.369 Z-1.63
X64.946 Y63.379 Z-1.689
X65.013 Y63.39 Z-1.736
X65.087 Y63.402 Z-1.771
X65.166 Y63.416 Z-1.793
X65.248 Y63.429 Z-1.8
X65.717 Y63.508
G3 X66.108 Y64.055 I-0.078 J0.47
X60.94 Y63.193 I-2.584 J-0.431 F150
X66.108 Y64.055 I2.584 J0.431
X65.561 Y64.447 I-0.47 J-0.078
G1 X65.091 Y64.368
X65.01 Y64.355 Z-1.793
X64.931 Y64.341 Z-1.771
X64.856 Y64.329 Z-1.736
X64.789 Y64.318 Z-1.689
X64.731 Y64.308 Z-1.63
X64.684 Y64.3 Z-1.562
X64.65 Y64.295 Z-1.487
X64.629 Y64.291 Z-1.407
X64.622 Y64.29 Z-1.324
Z5
X64.778 Y63.351
Z-0.848 F50
Z-1.624
X64.785 Y63.352 Z-1.707
X64.807 Y63.356 Z-1.787
X64.841 Y63.361 Z-1.862
X64.888 Y63.369 Z-1.93
X64.946 Y63.379 Z-1.989
X65.013 Y63.39 Z-2.036
X65.087 Y63.402 Z-2.071
X65.166 Y63.416 Z-2.093
X65.248 Y63.429 Z-2.1
X65.717 Y63.508
G3 X66.108 Y64.055 I-0.078 J0.47
X60.94 Y63.193 I-2.584 J-0.431 F150
X66.108 Y64.055 I2.584 J0.431
X65.561 Y64.447 I-0.47 J-0.078
G1 X65.091 Y64.368
X65.01 Y64.355 Z-2.093
X64.931 Y64.341 Z-2.071
X64.856 Y64.329 Z-2.036
X64.789 Y64.318 Z-1.989
X64.731 Y64.308 Z-1.93
X64.684 Y64.3 Z-1.862
X64.65 Y64.295 Z-1.787
X64.629 Y64.291 Z-1.707
X64.622 Y64.29 Z-1.624
Z5
X64.778 Y63.351
Z-1.148 F50
Z-1.924
X64.785 Y63.352 Z-2.007
X64.807 Y63.356 Z-2.087
X64.841 Y63.361 Z-2.162
X64.888 Y63.369 Z-2.23
X64.946 Y63.379 Z-2.289
X65.013 Y63.39 Z-2.336
X65.087 Y63.402 Z-2.371
X65.166 Y63.416 Z-2.393
X65.248 Y63.429 Z-2.4
X65.717 Y63.508
G3 X66.108 Y64.055 I-0.078 J0.47
X60.94 Y63.193 I-2.584 J-0.431 F150
X66.108 Y64.055 I2.584 J0.431
X65.561 Y64.447 I-0.47 J-0.078
G1 X65.091 Y64.368
X65.01 Y64.355 Z-2.393
X64.931 Y64.341 Z-2.371
X64.856 Y64.329 Z-2.336
X64.789 Y64.318 Z-2.289
X64.731 Y64.308 Z-2.23
X64.684 Y64.3 Z-2.162
X64.65 Y64.295 Z-2.087
X64.629 Y64.291 Z-2.007
X64.622 Y64.29 Z-1.924
Z5
X64.778 Y63.351
Z-1.448 F50
Z-2.224
X64.785 Y63.352 Z-2.307
X64.807 Y63.356 Z-2.387
X64.841 Y63.361 Z-2.462
X64.888 Y63.369 Z-2.53
X64.946 Y63.379 Z-2.589
X65.013 Y63.39 Z-2.636
X65.087 Y63.402 Z-2.671
X65.166 Y63.416 Z-2.693
X65.248 Y63.429 Z-2.7
X65.717 Y63.508
G3 X66.108 Y64.055 I-0.078 J0.47
X60.94 Y63.193 I-2.584 J-0.431 F150
X66.108 Y64.055 I2.584 J0.431
X65.561 Y64.447 I-0.47 J-0.078
G1 X65.091 Y64.368
X65.01 Y64.355 Z-2.693
X64.931 Y64.341 Z-2.671
X64.856 Y64.329 Z-2.636
X64.789 Y64.318 Z-2.589
X64.731 Y64.308 Z-2.53
X64.684 Y64.3 Z-2.462
X64.65 Y64.295 Z-2.387
X64.629 Y64.291 Z-2.307
X64.622 Y64.29 Z-2.224
Z5
X64.778 Y63.351
Z-1.748 F50
Z-2.524
X64.785 Y63.352 Z-2.607
X64.807 Y63.356 Z-2.687
X64.841 Y63.361 Z-2.762
X64.888 Y63.369 Z-2.83
X64.946 Y63.379 Z-2.889
X65.013 Y63.39 Z-2.936
X65.087 Y63.402 Z-2.971
X65.166 Y63.416 Z-2.993
X65.248 Y63.429 Z-3
X65.717 Y63.508
G3 X66.108 Y64.055 I-0.078 J0.47
X60.94 Y63.193 I-2.584 J-0.431 F150
X66.108 Y64.055 I2.584 J0.431
X65.561 Y64.447 I-0.47 J-0.078
G1 X65.091 Y64.368
X65.01 Y64.355 Z-2.993
X64.931 Y64.341 Z-2.971
X64.856 Y64.329 Z-2.936
X64.789 Y64.318 Z-2.889
X64.731 Y64.308 Z-2.83
X64.684 Y64.3 Z-2.762
X64.65 Y64.295 Z-2.687
X64.629 Y64.291 Z-2.607
X64.622 Y64.29 Z-2.524
Z5
X64.778 Y63.351
Z-2.048 F50
Z-2.824
X64.785 Y63.352 Z-2.907
X64.807 Y63.356 Z-2.987
X64.841 Y63.361 Z-3.062
X64.888 Y63.369 Z-3.13
X64.946 Y63.379 Z-3.189
X65.013 Y63.39 Z-3.236
X65.087 Y63.402 Z-3.271
X65.166 Y63.416 Z-3.293
X65.248 Y63.429 Z-3.3
X65.717 Y63.508
G3 X66.108 Y64.055 I-0.078 J0.47
X60.94 Y63.193 I-2.584 J-0.431 F150
X66.108 Y64.055 I2.584 J0.431
X65.561 Y64.447 I-0.47 J-0.078
G1 X65.091 Y64.368
X65.01 Y64.355 Z-3.293
X64.931 Y64.341 Z-3.271
X64.856 Y64.329 Z-3.236
X64.789 Y64.318 Z-3.189
X64.731 Y64.308 Z-3.13
X64.684 Y64.3 Z-3.062
X64.65 Y64.295 Z-2.987
X64.629 Y64.291 Z-2.907
X64.622 Y64.29 Z-2.824
Z5
X64.778 Y63.351
Z-2.348 F50
Z-3.124
X64.785 Y63.352 Z-3.207
X64.807 Y63.356 Z-3.287
X64.841 Y63.361 Z-3.362
X64.888 Y63.369 Z-3.43
X64.946 Y63.379 Z-3.489
X65.013 Y63.39 Z-3.536
X65.087 Y63.402 Z-3.571
X65.166 Y63.416 Z-3.593
X65.248 Y63.429 Z-3.6
X65.717 Y63.508
G3 X66.108 Y64.055 I-0.078 J0.47
X60.94 Y63.193 I-2.584 J-0.431 F150
X66.108 Y64.055 I2.584 J0.431
X65.561 Y64.447 I-0.47 J-0.078
G1 X65.091 Y64.368
X65.01 Y64.355 Z-3.593
X64.931 Y64.341 Z-3.571
X64.856 Y64.329 Z-3.536
X64.789 Y64.318 Z-3.489
X64.731 Y64.308 Z-3.43
X64.684 Y64.3 Z-3.362
X64.65 Y64.295 Z-3.287
X64.629 Y64.291 Z-3.207
X64.622 Y64.29 Z-3.124
Z5
X64.778 Y63.351
Z-2.648 F50
Z-3.424
X64.785 Y63.352 Z-3.507
X64.807 Y63.356 Z-3.587
X64.841 Y63.361 Z-3.662
X64.888 Y63.369 Z-3.73
X64.946 Y63.379 Z-3.789
X65.013 Y63.39 Z-3.836
X65.087 Y63.402 Z-3.871
X65.166 Y63.416 Z-3.893
X65.248 Y63.429 Z-3.9
X65.717 Y63.508
G3 X66.108 Y64.055 I-0.078 J0.47
X60.94 Y63.193 I-2.584 J-0.431 F150
X66.108 Y64.055 I2.584 J0.431
X65.561 Y64.447 I-0.47 J-0.078
G1 X65.091 Y64.368
X65.01 Y64.355 Z-3.893
X64.931 Y64.341 Z-3.871
X64.856 Y64.329 Z-3.836
X64.789 Y64.318 Z-3.789
X64.731 Y64.308 Z-3.73
X64.684 Y64.3 Z-3.662
X64.65 Y64.295 Z-3.587
X64.629 Y64.291 Z-3.507
X64.622 Y64.29 Z-3.424
Z5
X64.778 Y63.351
Z-2.948 F50
Z-3.524
X64.785 Y63.352 Z-3.607
X64.807 Y63.356 Z-3.687
X64.841 Y63.361 Z-3.762
X64.888 Y63.369 Z-3.83
X64.946 Y63.379 Z-3.889
X65.013 Y63.39 Z-3.936
X65.087 Y63.402 Z-3.971
X65.166 Y63.416 Z-3.993
X65.248 Y63.429 Z-4
X65.717 Y63.508
G3 X66.108 Y64.055 I-0.078 J0.47
X60.94 Y63.193 I-2.584 J-0.431 F150
X66.108 Y64.055 I2.584 J0.431
X65.561 Y64.447 I-0.47 J-0.078
G1 X65.091 Y64.368
X65.01 Y64.355 Z-3.993
X64.931 Y64.341 Z-3.971
X64.856 Y64.329 Z-3.936
X64.789 Y64.318 Z-3.889
X64.731 Y64.308 Z-3.83
X64.684 Y64.3 Z-3.762
X64.65 Y64.295 Z-3.687
X64.629 Y64.291 Z-3.607
X64.622 Y64.29 Z-3.524
Z5
X17.57 Y63.022
Z0.952 F50
Z0.176
G18 G2 X18.046 Z-0.3 I0.476 K0
G1 X18.522
G17 G3 X18.998 Y63.499 I0 J0.476
X13.758 Y63.499 I-2.62 J0 F150
X18.998 Y63.499 I2.62 J0
X18.522 Y63.974 I-0.476 J0
G1 X18.046
G18 G3 X17.57 Z0.176 I0 K0.476
G1 Z5
Y63.022
Z0.652 F50
Z-0.124
G2 X18.046 Z-0.6 I0.476 K0
G1 X18.522
G17 G3 X18.998 Y63.499 I0 J0.476
X13.758 Y63.499 I-2.62 J0 F150
X18.998 Y63.499 I2.62 J0
X18.522 Y63.974 I-0.476 J0
G1 X18.046
G18 G3 X17.57 Z-0.124 I0 K0.476
G1 Z5
Y63.022
Z0.352 F50
Z-0.424
G2 X18.046 Z-0.9 I0.476 K0
G1 X18.522
G17 G3 X18.998 Y63.499 I0 J0.476
X13.758 Y63.499 I-2.62 J0 F150
X18.998 Y63.499 I2.62 J0
X18.522 Y63.974 I-0.476 J0
G1 X18.046
G18 G3 X17.57 Z-0.424 I0 K0.476
G1 Z5
Y63.022
Z0.052 F50
Z-0.724
G2 X18.046 Z-1.2 I0.476 K0
G1 X18.522
G17 G3 X18.998 Y63.499 I0 J0.476
X13.758 Y63.499 I-2.62 J0 F150
X18.998 Y63.499 I2.62 J0
X18.522 Y63.974 I-0.476 J0
G1 X18.046
G18 G3 X17.57 Z-0.724 I0 K0.476
G1 Z5
Y63.022
Z-0.248 F50
Z-1.024
G2 X18.046 Z-1.5 I0.476 K0
G1 X18.522
G17 G3 X18.998 Y63.499 I0 J0.476
X13.758 Y63.499 I-2.62 J0 F150
X18.998 Y63.499 I2.62 J0
X18.522 Y63.974 I-0.476 J0
G1 X18.046
G18 G3 X17.57 Z-1.024 I0 K0.476
G1 Z5
Y63.022
Z-0.548 F50
Z-1.324
G2 X18.046 Z-1.8 I0.476 K0
G1 X18.522
G17 G3 X18.998 Y63.499 I0 J0.476
X13.758 Y63.499 I-2.62 J0 F150
X18.998 Y63.499 I2.62 J0
X18.522 Y63.974 I-0.476 J0
G1 X18.046
G18 G3 X17.57 Z-1.324 I0 K0.476
G1 Z5
Y63.022
Z-0.848 F50
Z-1.624
G2 X18.046 Z-2.1 I0.476 K0
G1 X18.522
G17 G3 X18.998 Y63.499 I0 J0.476
X13.758 Y63.499 I-2.62 J0 F150
X18.998 Y63.499 I2.62 J0
X18.522 Y63.974 I-0.476 J0
G1 X18.046
G18 G3 X17.57 Z-1.624 I0 K0.476
G1 Z5
Y63.022
Z-1.148 F50
Z-1.924
G2 X18.046 Z-2.4 I0.476 K0
G1 X18.522
G17 G3 X18.998 Y63.499 I0 J0.476
X13.758 Y63.499 I-2.62 J0 F150
X18.998 Y63.499 I2.62 J0
X18.522 Y63.974 I-0.476 J0
G1 X18.046
G18 G3 X17.57 Z-1.924 I0 K0.476
G1 Z5
Y63.022
Z-1.448 F50
Z-2.224
G2 X18.046 Z-2.7 I0.476 K0
G1 X18.522
G17 G3 X18.998 Y63.499 I0 J0.476
X13.758 Y63.499 I-2.62 J0 F150
X18.998 Y63.499 I2.62 J0
X18.522 Y63.974 I-0.476 J0
G1 X18.046
G18 G3 X17.57 Z-2.224 I0 K0.476
G1 Z5
Y63.022
Z-1.748 F50
Z-2.524
G2 X18.046 Z-3 I0.476 K0
G1 X18.522
G17 G3 X18.998 Y63.499 I0 J0.476
X13.758 Y63.499 I-2.62 J0 F150
X18.998 Y63.499 I2.62 J0
X18.522 Y63.974 I-0.476 J0
G1 X18.046
G18 G3 X17.57 Z-2.524 I0 K0.476
G1 Z5
Y63.022
Z-2.048 F50
Z-2.824
G2 X18.046 Z-3.3 I0.476 K0
G1 X18.522
G17 G3 X18.998 Y63.499 I0 J0.476
X13.758 Y63.499 I-2.62 J0 F150
X18.998 Y63.499 I2.62 J0
X18.522 Y63.974 I-0.476 J0
G1 X18.046
G18 G3 X17.57 Z-2.824 I0 K0.476
G1 Z5
Y63.022
Z-2.348 F50
Z-3.124
G2 X18.046 Z-3.6 I0.476 K0
G1 X18.522
G17 G3 X18.998 Y63.499 I0 J0.476
X13.758 Y63.499 I-2.62 J0 F150
X18.998 Y63.499 I2.62 J0
X18.522 Y63.974 I-0.476 J0
G1 X18.046
G18 G3 X17.57 Z-3.124 I0 K0.476
G1 Z5
Y63.022
Z-2.648 F50
Z-3.424
G2 X18.046 Z-3.9 I0.476 K0
G1 X18.522
G17 G3 X18.998 Y63.499 I0 J0.476
X13.758 Y63.499 I-2.62 J0 F150
X18.998 Y63.499 I2.62 J0
X18.522 Y63.974 I-0.476 J0
G1 X18.046
G18 G3 X17.57 Z-3.424 I0 K0.476
G1 Z5
Y63.022
Z-2.948 F50
Z-3.524
G2 X18.046 Z-4 I0.476 K0
G1 X18.522
G17 G3 X18.998 Y63.499 I0 J0.476
X13.758 Y63.499 I-2.62 J0 F150
X18.998 Y63.499 I2.62 J0
X18.522 Y63.974 I-0.476 J0
G1 X18.046
G18 G3 X17.57 Z-3.524 I0 K0.476
G1 Z15
G17
(When using Fusion for Personal Use, the feedrate of rapid)
(moves is reduced to match the feedrate of cutting moves,)
(which can increase machining time. Unrestricted rapid moves)
(are available with a Fusion Subscription.)

(2D Contour2)
G0 X40.5 Y-3.808
G1 Z15 F150
Z5
Z0.952 F50
Z0.176
G19 G3 Y-3.332 Z-0.3 J0.476 K0
G1 Y-2.856
G17 G3 X40.024 Y-2.38 I-0.476 J0
G2 X40.024 Y82.428 I0 J42.404 F150
X40.024 Y-2.38 I0 J-42.404
G3 X39.548 Y-2.856 I0 J-0.476
G1 Y-3.332
G19 G2 Y-3.808 Z0.176 J0 K0.476
G1 Z5
X40.5
Z0.652 F50
Z-0.124
G3 Y-3.332 Z-0.6 J0.476 K0
G1 Y-2.856
G17 G3 X40.024 Y-2.38 I-0.476 J0
G2 X40.024 Y82.428 I0 J42.404 F150
X40.024 Y-2.38 I0 J-42.404
G3 X39.548 Y-2.856 I0 J-0.476
G1 Y-3.332
G19 G2 Y-3.808 Z-0.124 J0 K0.476
G1 Z5
X40.5
Z0.352 F50
Z-0.424
G3 Y-3.332 Z-0.9 J0.476 K0
G1 Y-2.856
G17 G3 X40.024 Y-2.38 I-0.476 J0
G2 X40.024 Y82.428 I0 J42.404 F150
X40.024 Y-2.38 I0 J-42.404
G3 X39.548 Y-2.856 I0 J-0.476
G1 Y-3.332
G19 G2 Y-3.808 Z-0.424 J0 K0.476
G1 Z5
X40.5
Z0.052 F50
Z-0.724
G3 Y-3.332 Z-1.2 J0.476 K0
G1 Y-2.856
G17 G3 X40.024 Y-2.38 I-0.476 J0
G2 X40.024 Y82.428 I0 J42.404 F150
X40.024 Y-2.38 I0 J-42.404
G3 X39.548 Y-2.856 I0 J-0.476
G1 Y-3.332
G19 G2 Y-3.808 Z-0.724 J0 K0.476
G1 Z5
X40.5
Z-0.248 F50
Z-1.024
G3 Y-3.332 Z-1.5 J0.476 K0
G1 Y-2.856
G17 G3 X40.024 Y-2.38 I-0.476 J0
G2 X40.024 Y82.428 I0 J42.404 F150
X40.024 Y-2.38 I0 J-42.404
G3 X39.548 Y-2.856 I0 J-0.476
G1 Y-3.332
G19 G2 Y-3.808 Z-1.024 J0 K0.476
G1 Z5
X40.5
Z-0.548 F50
Z-1.324
G3 Y-3.332 Z-1.8 J0.476 K0
G1 Y-2.856
G17 G3 X40.024 Y-2.38 I-0.476 J0
G2 X40.024 Y82.428 I0 J42.404 F150
X40.024 Y-2.38 I0 J-42.404
G3 X39.548 Y-2.856 I0 J-0.476
G1 Y-3.332
G19 G2 Y-3.808 Z-1.324 J0 K0.476
G1 Z5
X40.5
Z-0.848 F50
Z-1.624
G3 Y-3.332 Z-2.1 J0.476 K0
G1 Y-2.856
G17 G3 X40.024 Y-2.38 I-0.476 J0
G2 X40.024 Y82.428 I0 J42.404 F150
X40.024 Y-2.38 I0 J-42.404
G3 X39.548 Y-2.856 I0 J-0.476
G1 Y-3.332
G19 G2 Y-3.808 Z-1.624 J0 K0.476
G1 Z5
X40.5
Z-1.148 F50
Z-1.924
G3 Y-3.332 Z-2.4 J0.476 K0
G1 Y-2.856
G17 G3 X40.024 Y-2.38 I-0.476 J0
G2 X40.024 Y82.428 I0 J42.404 F150
X40.024 Y-2.38 I0 J-42.404
G3 X39.548 Y-2.856 I0 J-0.476
G1 Y-3.332
G19 G2 Y-3.808 Z-1.924 J0 K0.476
G1 Z5
X40.5
Z-1.448 F50
Z-2.224
G3 Y-3.332 Z-2.7 J0.476 K0
G1 Y-2.856
G17 G3 X40.024 Y-2.38 I-0.476 J0
G2 X40.024 Y82.428 I0 J42.404 F150
X40.024 Y-2.38 I0 J-42.404
G3 X39.548 Y-2.856 I0 J-0.476
G1 Y-3.332
G19 G2 Y-3.808 Z-2.224 J0 K0.476
G1 Z5
X40.5
Z-1.748 F50
Z-2.524
G3 Y-3.332 Z-3 J0.476 K0
G1 Y-2.856
G17 G3 X40.024 Y-2.38 I-0.476 J0
G2 X40.024 Y82.428 I0 J42.404 F150
X40.024 Y-2.38 I0 J-42.404
G3 X39.548 Y-2.856 I0 J-0.476
G1 Y-3.332
G19 G2 Y-3.808 Z-2.524 J0 K0.476
G1 Z5
X40.5
Z-2.048 F50
Z-2.824
G3 Y-3.332 Z-3.3 J0.476 K0
G1 Y-2.856
G17 G3 X40.024 Y-2.38 I-0.476 J0
G2 X40.024 Y82.428 I0 J42.404 F150
X40.024 Y-2.38 I0 J-42.404
G3 X39.548 Y-2.856 I0 J-0.476
G1 Y-3.332
G19 G2 Y-3.808 Z-2.824 J0 K0.476
G1 Z5
X40.5
Z-2.348 F50
Z-3.124
G3 Y-3.332 Z-3.6 J0.476 K0
G1 Y-2.856
G17 G3 X40.024 Y-2.38 I-0.476 J0
G2 X40.024 Y82.428 I0 J42.404 F150
X40.024 Y-2.38 I0 J-42.404
G3 X39.548 Y-2.856 I0 J-0.476
G1 Y-3.332
G19 G2 Y-3.808 Z-3.124 J0 K0.476
G1 Z5
X40.5
Z-2.648 F50
Z-3.424
G3 Y-3.332 Z-3.9 J0.476 K0
G1 Y-2.856
G17 G3 X40.024 Y-2.38 I-0.476 J0
G2 X40.024 Y82.428 I0 J42.404 F150
X40.024 Y-2.38 I0 J-42.404
G3 X39.548 Y-2.856 I0 J-0.476
G1 Y-3.332
G19 G2 Y-3.808 Z-3.424 J0 K0.476
G1 Z5
X40.5
Z-2.948 F50
Z-3.724
G3 Y-3.332 Z-4.2 J0.476 K0
G1 Y-2.856
G17 G3 X40.024 Y-2.38 I-0.476 J0
G2 X40.024 Y82.428 I0 J42.404 F150
X40.024 Y-2.38 I0 J-42.404
G3 X39.548 Y-2.856 I0 J-0.476
G1 Y-3.332
G19 G2 Y-3.808 Z-3.724 J0 K0.476
G1 Z5
X40.5
Z-3.248 F50
Z-4.024
G3 Y-3.332 Z-4.5 J0.476 K0
G1 Y-2.856
G17 G3 X40.024 Y-2.38 I-0.476 J0
G2 X40.024 Y82.428 I0 J42.404 F150
X40.024 Y-2.38 I0 J-42.404
G3 X39.548 Y-2.856 I0 J-0.476
G1 Y-3.332
G19 G2 Y-3.808 Z-4.024 J0 K0.476
G1 Z5
X40.5
Z-3.548 F50
Z-4.324
G3 Y-3.332 Z-4.8 J0.476 K0
G1 Y-2.856
G17 G3 X40.024 Y-2.38 I-0.476 J0
G2 X40.024 Y82.428 I0 J42.404 F150
X40.024 Y-2.38 I0 J-42.404
G3 X39.548 Y-2.856 I0 J-0.476
G1 Y-3.332
G19 G2 Y-3.808 Z-4.324 J0 K0.476
G1 Z5
X40.5
Z-3.848 F50
Z-4.624
G3 Y-3.332 Z-5.1 J0.476 K0
G1 Y-2.856
G17 G3 X40.024 Y-2.38 I-0.476 J0
G2 X40.024 Y82.428 I0 J42.404 F150
X40.024 Y-2.38 I0 J-42.404
G3 X39.548 Y-2.856 I0 J-0.476
G1 Y-3.332
G19 G2 Y-3.808 Z-4.624 J0 K0.476
G1 Z5
X40.5
Z-4.148 F50
Z-4.924
G3 Y-3.332 Z-5.4 J0.476 K0
G1 Y-2.856
G17 G3 X40.024 Y-2.38 I-0.476 J0
G2 X40.024 Y82.428 I0 J42.404 F150
X40.024 Y-2.38 I0 J-42.404
G3 X39.548 Y-2.856 I0 J-0.476
G1 Y-3.332
G19 G2 Y-3.808 Z-4.924 J0 K0.476
G1 Z5
X40.5
Z-4.448 F50
Z-5.224
G3 Y-3.332 Z-5.7 J0.476 K0
G1 Y-2.856
G17 G3 X40.024 Y-2.38 I-0.476 J0
G2 X40.024 Y82.428 I0 J42.404 F150
X40.024 Y-2.38 I0 J-42.404
G3 X39.548 Y-2.856 I0 J-0.476
G1 Y-3.332
G19 G2 Y-3.808 Z-5.224 J0 K0.476
G1 Z5
X40.5
Z-4.748 F50
Z-5.524
G3 Y-3.332 Z-6 J0.476 K0
G1 Y-2.856
G17 G3 X40.024 Y-2.38 I-0.476 J0
G2 X40.024 Y82.428 I0 J42.404 F150
X40.024 Y-2.38 I0 J-42.404
G3 X39.548 Y-2.856 I0 J-0.476
G1 Y-3.332
G19 G2 Y-3.808 Z-5.524 J0 K0.476
G1 Z5
X40.5
Z-5.048 F50
Z-5.824
G3 Y-3.332 Z-6.3 J0.476 K0
G1 Y-2.856
G17 G3 X40.024 Y-2.38 I-0.476 J0
G2 X40.024 Y82.428 I0 J42.404 F150
X40.024 Y-2.38 I0 J-42.404
G3 X39.548 Y-2.856 I0 J-0.476
G1 Y-3.332
G19 G2 Y-3.808 Z-5.824 J0 K0.476
G1 Z5
X40.5
Z-5.348 F50
Z-6.124
G3 Y-3.332 Z-6.6 J0.476 K0
G1 Y-2.856
G17 G3 X40.024 Y-2.38 I-0.476 J0
G2 X40.024 Y82.428 I0 J42.404 F150
X40.024 Y-2.38 I0 J-42.404
G3 X39.548 Y-2.856 I0 J-0.476
G1 Y-3.332
G19 G2 Y-3.808 Z-6.124 J0 K0.476
G1 Z5
X40.5
Z-5.648 F50
Z-6.424
G3 Y-3.332 Z-6.9 J0.476 K0
G1 Y-2.856
G17 G3 X40.024 Y-2.38 I-0.476 J0
G2 X40.024 Y82.428 I0 J42.404 F150
X40.024 Y-2.38 I0 J-42.404
G3 X39.548 Y-2.856 I0 J-0.476
G1 Y-3.332
G19 G2 Y-3.808 Z-6.424 J0 K0.476
G1 Z5
X40.5
Z-5.948 F50
Z-6.724
G3 Y-3.332 Z-7.2 J0.476 K0
G1 Y-2.856
G17 G3 X40.024 Y-2.38 I-0.476 J0
G2 X40.024 Y82.428 I0 J42.404 F150
X40.024 Y-2.38 I0 J-42.404
G3 X39.548 Y-2.856 I0 J-0.476
G1 Y-3.332
G19 G2 Y-3.808 Z-6.724 J0 K0.476
G1 Z5
X40.5
Z-6.248 F50
Z-7.024
G3 Y-3.332 Z-7.5 J0.476 K0
G1 Y-2.856
G17 G3 X40.024 Y-2.38 I-0.476 J0
G2 X40.024 Y82.428 I0 J42.404 F150
X40.024 Y-2.38 I0 J-42.404
G3 X39.548 Y-2.856 I0 J-0.476
G1 Y-3.332
G19 G2 Y-3.808 Z-7.024 J0 K0.476
G1 Z5
X40.5
Z-6.548 F50
Z-7.324
G3 Y-3.332 Z-7.8 J0.476 K0
G1 Y-2.856
G17 G3 X40.024 Y-2.38 I-0.476 J0
G2 X40.024 Y82.428 I0 J42.404 F150
X40.024 Y-2.38 I0 J-42.404
G3 X39.548 Y-2.856 I0 J-0.476
G1 Y-3.332
G19 G2 Y-3.808 Z-7.324 J0 K0.476
G1 Z5
X40.5
Z-6.848 F50
Z-7.624
G3 Y-3.332 Z-8.1 J0.476 K0
G1 Y-2.856
G17 G3 X40.024 Y-2.38 I-0.476 J0
G2 X40.024 Y82.428 I0 J42.404 F150
X40.024 Y-2.38 I0 J-42.404
G3 X39.548 Y-2.856 I0 J-0.476
G1 Y-3.332
G19 G2 Y-3.808 Z-7.624 J0 K0.476
G1 Z5
X40.5
Z-7.148 F50
Z-7.874
G3 Y-3.332 Z-8.35 J0.476 K0
G1 Y-2.856
G17 G3 X40.024 Y-2.38 I-0.476 J0
G2 X40.024 Y82.428 I0 J42.404 F150
X40.024 Y-2.38 I0 J-42.404
G3 X39.548 Y-2.856 I0 J-0.476
G1 Y-3.332
G19 G2 Y-3.808 Z-7.874 J0 K0.476
G1 Z15
G17

M9
M5
M30
