(pipe_endcap)
(Machine)
(  vendor: Autodesk)
(  model: Generic 3-axis)
(  description: This machine has XY axis on the Table and Z axis on the Head)
(T1 D=4.76 CR=0 - ZMIN=-7.5 - flat end mill)
G90 G94
G17
G21
(-Attention- Property Safe Retracts is set to Clearance Height.)
(Ensure the clearance height will clear the part and or fixtures.)
(Raise the Z-axis to a safe height before starting the program.)
(When using Fusion for Personal Use, the feedrate of rapid)
(moves is reduced to match the feedrate of cutting moves,)
(which can increase machining time. Unrestricted rapid moves)
(are available with a Fusion Subscription.)

(2D Contour2)
T1
S21000 M3
G17 G90 G94
G54
M8
G0 X43.692 Y24.524
Z15
G1 Z5 F150
Z0.952 F50
Z0.076
G18 G2 X44.168 Z-0.4 I0.476 K0
G1 X44.644
G17 G3 X45.12 Y25 I0 J0.476
X4.88 Y25 I-20.12 J0 F150
X45.12 Y25 I20.12 J0
X44.644 Y25.476 I-0.476 J0
G1 X44.168
G18 G3 X43.692 Z0.076 I0 K0.476
G1 Z5
Y24.524
Z0.552 F50
Z-0.324
G2 X44.168 Z-0.8 I0.476 K0
G1 X44.644
G17 G3 X45.12 Y25 I0 J0.476
X4.88 Y25 I-20.12 J0 F150
X45.12 Y25 I20.12 J0
X44.644 Y25.476 I-0.476 J0
G1 X44.168
G18 G3 X43.692 Z-0.324 I0 K0.476
G1 Z5
Y24.524
Z0.152 F50
Z-0.724
G2 X44.168 Z-1.2 I0.476 K0
G1 X44.644
G17 G3 X45.12 Y25 I0 J0.476
X4.88 Y25 I-20.12 J0 F150
X45.12 Y25 I20.12 J0
X44.644 Y25.476 I-0.476 J0
G1 X44.168
G18 G3 X43.692 Z-0.724 I0 K0.476
G1 Z5
Y24.524
Z-0.248 F50
Z-1.124
G2 X44.168 Z-1.6 I0.476 K0
G1 X44.644
G17 G3 X45.12 Y25 I0 J0.476
X4.88 Y25 I-20.12 J0 F150
X45.12 Y25 I20.12 J0
X44.644 Y25.476 I-0.476 J0
G1 X44.168
G18 G3 X43.692 Z-1.124 I0 K0.476
G1 Z5
Y24.524
Z-0.648 F50
Z-1.524
G2 X44.168 Z-2 I0.476 K0
G1 X44.644
G17 G3 X45.12 Y25 I0 J0.476
X4.88 Y25 I-20.12 J0 F150
X45.12 Y25 I20.12 J0
X44.644 Y25.476 I-0.476 J0
G1 X44.168
G18 G3 X43.692 Z-1.524 I0 K0.476
G1 Z5
Y24.524
Z-1.048 F50
Z-1.924
G2 X44.168 Z-2.4 I0.476 K0
G1 X44.644
G17 G3 X45.12 Y25 I0 J0.476
X4.88 Y25 I-20.12 J0 F150
X45.12 Y25 I20.12 J0
X44.644 Y25.476 I-0.476 J0
G1 X44.168
G18 G3 X43.692 Z-1.924 I0 K0.476
G1 Z5
Y24.524
Z-1.448 F50
Z-2.324
G2 X44.168 Z-2.8 I0.476 K0
G1 X44.644
G17 G3 X45.12 Y25 I0 J0.476
X4.88 Y25 I-20.12 J0 F150
X45.12 Y25 I20.12 J0
X44.644 Y25.476 I-0.476 J0
G1 X44.168
G18 G3 X43.692 Z-2.324 I0 K0.476
G1 Z5
Y24.524
Z-1.848 F50
Z-2.724
G2 X44.168 Z-3.2 I0.476 K0
G1 X44.644
G17 G3 X45.12 Y25 I0 J0.476
X4.88 Y25 I-20.12 J0 F150
X45.12 Y25 I20.12 J0
X44.644 Y25.476 I-0.476 J0
G1 X44.168
G18 G3 X43.692 Z-2.724 I0 K0.476
G1 Z5
Y24.524
Z-2.248 F50
Z-3.024
G2 X44.168 Z-3.5 I0.476 K0
G1 X44.644
G17 G3 X45.12 Y25 I0 J0.476
X4.88 Y25 I-20.12 J0 F150
X45.12 Y25 I20.12 J0
X44.644 Y25.476 I-0.476 J0
G1 X44.168
G18 G3 X43.692 Z-3.024 I0 K0.476
G1 Z15
X25.192 Y24.524
Z5
Z0.952 F50
Z0.076
G2 X25.668 Z-0.4 I0.476 K0
G1 X26.144
G17 G3 X26.62 Y25 I0 J0.476
X23.38 Y25 I-1.62 J0 F150
X26.62 Y25 I1.62 J0
X26.144 Y25.476 I-0.476 J0
G1 X25.668
G18 G3 X25.192 Z0.076 I0 K0.476
G1 Z5
Y24.524
Z0.552 F50
Z-0.324
G2 X25.668 Z-0.8 I0.476 K0
G1 X26.144
G17 G3 X26.62 Y25 I0 J0.476
X23.38 Y25 I-1.62 J0 F150
X26.62 Y25 I1.62 J0
X26.144 Y25.476 I-0.476 J0
G1 X25.668
G18 G3 X25.192 Z-0.324 I0 K0.476
G1 Z5
Y24.524
Z0.152 F50
Z-0.724
G2 X25.668 Z-1.2 I0.476 K0
G1 X26.144
G17 G3 X26.62 Y25 I0 J0.476
X23.38 Y25 I-1.62 J0 F150
X26.62 Y25 I1.62 J0
X26.144 Y25.476 I-0.476 J0
G1 X25.668
G18 G3 X25.192 Z-0.724 I0 K0.476
G1 Z5
Y24.524
Z-0.248 F50
Z-1.124
G2 X25.668 Z-1.6 I0.476 K0
G1 X26.144
G17 G3 X26.62 Y25 I0 J0.476
X23.38 Y25 I-1.62 J0 F150
X26.62 Y25 I1.62 J0
X26.144 Y25.476 I-0.476 J0
G1 X25.668
G18 G3 X25.192 Z-1.124 I0 K0.476
G1 Z5
Y24.524
Z-0.648 F50
Z-1.524
G2 X25.668 Z-2 I0.476 K0
G1 X26.144
G17 G3 X26.62 Y25 I0 J0.476
X23.38 Y25 I-1.62 J0 F150
X26.62 Y25 I1.62 J0
X26.144 Y25.476 I-0.476 J0
G1 X25.668
G18 G3 X25.192 Z-1.524 I0 K0.476
G1 Z5
Y24.524
Z-1.048 F50
Z-1.924
G2 X25.668 Z-2.4 I0.476 K0
G1 X26.144
G17 G3 X26.62 Y25 I0 J0.476
X23.38 Y25 I-1.62 J0 F150
X26.62 Y25 I1.62 J0
X26.144 Y25.476 I-0.476 J0
G1 X25.668
G18 G3 X25.192 Z-1.924 I0 K0.476
G1 Z5
Y24.524
Z-1.448 F50
Z-2.324
G2 X25.668 Z-2.8 I0.476 K0
G1 X26.144
G17 G3 X26.62 Y25 I0 J0.476
X23.38 Y25 I-1.62 J0 F150
X26.62 Y25 I1.62 J0
X26.144 Y25.476 I-0.476 J0
G1 X25.668
G18 G3 X25.192 Z-2.324 I0 K0.476
G1 Z5
Y24.524
Z-1.848 F50
Z-2.724
G2 X25.668 Z-3.2 I0.476 K0
G1 X26.144
G17 G3 X26.62 Y25 I0 J0.476
X23.38 Y25 I-1.62 J0 F150
X26.62 Y25 I1.62 J0
X26.144 Y25.476 I-0.476 J0
G1 X25.668
G18 G3 X25.192 Z-2.724 I0 K0.476
G1 Z5
Y24.524
Z-2.248 F50
Z-3.124
G2 X25.668 Z-3.6 I0.476 K0
G1 X26.144
G17 G3 X26.62 Y25 I0 J0.476
X23.38 Y25 I-1.62 J0 F150
X26.62 Y25 I1.62 J0
X26.144 Y25.476 I-0.476 J0
G1 X25.668
G18 G3 X25.192 Z-3.124 I0 K0.476
G1 Z5
Y24.524
Z-2.648 F50
Z-3.524
G2 X25.668 Z-4 I0.476 K0
G1 X26.144
G17 G3 X26.62 Y25 I0 J0.476
X23.38 Y25 I-1.62 J0 F150
X26.62 Y25 I1.62 J0
X26.144 Y25.476 I-0.476 J0
G1 X25.668
G18 G3 X25.192 Z-3.524 I0 K0.476
G1 Z5
Y24.524
Z-3.048 F50
Z-3.924
G2 X25.668 Z-4.4 I0.476 K0
G1 X26.144
G17 G3 X26.62 Y25 I0 J0.476
X23.38 Y25 I-1.62 J0 F150
X26.62 Y25 I1.62 J0
X26.144 Y25.476 I-0.476 J0
G1 X25.668
G18 G3 X25.192 Z-3.924 I0 K0.476
G1 Z5
Y24.524
Z-3.448 F50
Z-4.324
G2 X25.668 Z-4.8 I0.476 K0
G1 X26.144
G17 G3 X26.62 Y25 I0 J0.476
X23.38 Y25 I-1.62 J0 F150
X26.62 Y25 I1.62 J0
X26.144 Y25.476 I-0.476 J0
G1 X25.668
G18 G3 X25.192 Z-4.324 I0 K0.476
G1 Z5
Y24.524
Z-3.848 F50
Z-4.724
G2 X25.668 Z-5.2 I0.476 K0
G1 X26.144
G17 G3 X26.62 Y25 I0 J0.476
X23.38 Y25 I-1.62 J0 F150
X26.62 Y25 I1.62 J0
X26.144 Y25.476 I-0.476 J0
G1 X25.668
G18 G3 X25.192 Z-4.724 I0 K0.476
G1 Z5
Y24.524
Z-4.248 F50
Z-5.124
G2 X25.668 Z-5.6 I0.476 K0
G1 X26.144
G17 G3 X26.62 Y25 I0 J0.476
X23.38 Y25 I-1.62 J0 F150
X26.62 Y25 I1.62 J0
X26.144 Y25.476 I-0.476 J0
G1 X25.668
G18 G3 X25.192 Z-5.124 I0 K0.476
G1 Z5
Y24.524
Z-4.648 F50
Z-5.524
G2 X25.668 Z-6 I0.476 K0
G1 X26.144
G17 G3 X26.62 Y25 I0 J0.476
X23.38 Y25 I-1.62 J0 F150
X26.62 Y25 I1.62 J0
X26.144 Y25.476 I-0.476 J0
G1 X25.668
G18 G3 X25.192 Z-5.524 I0 K0.476
G1 Z5
Y24.524
Z-5.048 F50
Z-5.924
G2 X25.668 Z-6.4 I0.476 K0
G1 X26.144
G17 G3 X26.62 Y25 I0 J0.476
X23.38 Y25 I-1.62 J0 F150
X26.62 Y25 I1.62 J0
X26.144 Y25.476 I-0.476 J0
G1 X25.668
G18 G3 X25.192 Z-5.924 I0 K0.476
G1 Z5
Y24.524
Z-5.448 F50
Z-6.324
G2 X25.668 Z-6.8 I0.476 K0
G1 X26.144
G17 G3 X26.62 Y25 I0 J0.476
X23.38 Y25 I-1.62 J0 F150
X26.62 Y25 I1.62 J0
X26.144 Y25.476 I-0.476 J0
G1 X25.668
G18 G3 X25.192 Z-6.324 I0 K0.476
G1 Z5
Y24.524
Z-5.848 F50
Z-6.724
G2 X25.668 Z-7.2 I0.476 K0
G1 X26.144
G17 G3 X26.62 Y25 I0 J0.476
X23.38 Y25 I-1.62 J0 F150
X26.62 Y25 I1.62 J0
X26.144 Y25.476 I-0.476 J0
G1 X25.668
G18 G3 X25.192 Z-6.724 I0 K0.476
G1 Z5
Y24.524
Z-6.248 F50
Z-7.024
G2 X25.668 Z-7.5 I0.476 K0
G1 X26.144
G17 G3 X26.62 Y25 I0 J0.476
X23.38 Y25 I-1.62 J0 F150
X26.62 Y25 I1.62 J0
X26.144 Y25.476 I-0.476 J0
G1 X25.668
G18 G3 X25.192 Z-7.024 I0 K0.476
G1 Z5
X25.231 Y53.811
Z0.952 F50
Z0.076
Y53.804 Z-0.007
X25.23 Y53.782 Z-0.087
Y53.747 Z-0.162
X25.228 Y53.7 Z-0.23
X25.227 Y53.641 Z-0.289
X25.225 Y53.573 Z-0.336
X25.223 Y53.498 Z-0.371
X25.221 Y53.418 Z-0.393
X25.219 Y53.335 Z-0.4
X25.208 Y52.859
G17 G3 X25.672 Y52.372 I0.476 J-0.012
G2 X24.328 Y-2.372 I-0.672 J-27.372 F150
X25.672 Y52.372 I0.672 J27.372
G3 X26.159 Y52.836 I0.012 J0.476
G1 X26.171 Y53.312
X26.173 Y53.394 Z-0.393
X26.175 Y53.475 Z-0.371
X26.177 Y53.55 Z-0.336
X26.179 Y53.618 Z-0.289
X26.18 Y53.676 Z-0.23
X26.181 Y53.724 Z-0.162
X26.182 Y53.759 Z-0.087
X26.183 Y53.78 Z-0.007
Y53.788 Z0.076
Z5
X25.231 Y53.811
Z0.552 F50
Z-0.324
Y53.804 Z-0.407
X25.23 Y53.782 Z-0.487
Y53.747 Z-0.562
X25.228 Y53.7 Z-0.63
X25.227 Y53.641 Z-0.689
X25.225 Y53.573 Z-0.736
X25.223 Y53.498 Z-0.771
X25.221 Y53.418 Z-0.793
X25.219 Y53.335 Z-0.8
X25.208 Y52.859
G3 X25.672 Y52.372 I0.476 J-0.012
G2 X24.328 Y-2.372 I-0.672 J-27.372 F150
X25.672 Y52.372 I0.672 J27.372
G3 X26.159 Y52.836 I0.012 J0.476
G1 X26.171 Y53.312
X26.173 Y53.394 Z-0.793
X26.175 Y53.475 Z-0.771
X26.177 Y53.55 Z-0.736
X26.179 Y53.618 Z-0.689
X26.18 Y53.676 Z-0.63
X26.181 Y53.724 Z-0.562
X26.182 Y53.759 Z-0.487
X26.183 Y53.78 Z-0.407
Y53.788 Z-0.324
Z5
X25.231 Y53.811
Z0.152 F50
Z-0.724
Y53.804 Z-0.807
X25.23 Y53.782 Z-0.887
Y53.747 Z-0.962
X25.228 Y53.7 Z-1.03
X25.227 Y53.641 Z-1.089
X25.225 Y53.573 Z-1.136
X25.223 Y53.498 Z-1.171
X25.221 Y53.418 Z-1.193
X25.219 Y53.335 Z-1.2
X25.208 Y52.859
G3 X25.672 Y52.372 I0.476 J-0.012
G2 X24.328 Y-2.372 I-0.672 J-27.372 F150
X25.672 Y52.372 I0.672 J27.372
G3 X26.159 Y52.836 I0.012 J0.476
G1 X26.171 Y53.312
X26.173 Y53.394 Z-1.193
X26.175 Y53.475 Z-1.171
X26.177 Y53.55 Z-1.136
X26.179 Y53.618 Z-1.089
X26.18 Y53.676 Z-1.03
X26.181 Y53.724 Z-0.962
X26.182 Y53.759 Z-0.887
X26.183 Y53.78 Z-0.807
Y53.788 Z-0.724
Z5
X25.231 Y53.811
Z-0.248 F50
Z-1.124
Y53.804 Z-1.207
X25.23 Y53.782 Z-1.287
Y53.747 Z-1.362
X25.228 Y53.7 Z-1.43
X25.227 Y53.641 Z-1.489
X25.225 Y53.573 Z-1.536
X25.223 Y53.498 Z-1.571
X25.221 Y53.418 Z-1.593
X25.219 Y53.335 Z-1.6
X25.208 Y52.859
G3 X25.672 Y52.372 I0.476 J-0.012
G2 X24.328 Y-2.372 I-0.672 J-27.372 F150
X25.672 Y52.372 I0.672 J27.372
G3 X26.159 Y52.836 I0.012 J0.476
G1 X26.171 Y53.312
X26.173 Y53.394 Z-1.593
X26.175 Y53.475 Z-1.571
X26.177 Y53.55 Z-1.536
X26.179 Y53.618 Z-1.489
X26.18 Y53.676 Z-1.43
X26.181 Y53.724 Z-1.362
X26.182 Y53.759 Z-1.287
X26.183 Y53.78 Z-1.207
Y53.788 Z-1.124
Z5
X25.231 Y53.811
Z-0.648 F50
Z-1.524
Y53.804 Z-1.607
X25.23 Y53.782 Z-1.687
Y53.747 Z-1.762
X25.228 Y53.7 Z-1.83
X25.227 Y53.641 Z-1.889
X25.225 Y53.573 Z-1.936
X25.223 Y53.498 Z-1.971
X25.221 Y53.418 Z-1.993
X25.219 Y53.335 Z-2
X25.208 Y52.859
G3 X25.672 Y52.372 I0.476 J-0.012
G2 X24.328 Y-2.372 I-0.672 J-27.372 F150
X25.672 Y52.372 I0.672 J27.372
G3 X26.159 Y52.836 I0.012 J0.476
G1 X26.171 Y53.312
X26.173 Y53.394 Z-1.993
X26.175 Y53.475 Z-1.971
X26.177 Y53.55 Z-1.936
X26.179 Y53.618 Z-1.889
X26.18 Y53.676 Z-1.83
X26.181 Y53.724 Z-1.762
X26.182 Y53.759 Z-1.687
X26.183 Y53.78 Z-1.607
Y53.788 Z-1.524
Z5
X25.231 Y53.811
Z-1.048 F50
Z-1.924
Y53.804 Z-2.007
X25.23 Y53.782 Z-2.087
Y53.747 Z-2.162
X25.228 Y53.7 Z-2.23
X25.227 Y53.641 Z-2.289
X25.225 Y53.573 Z-2.336
X25.223 Y53.498 Z-2.371
X25.221 Y53.418 Z-2.393
X25.219 Y53.335 Z-2.4
X25.208 Y52.859
G3 X25.672 Y52.372 I0.476 J-0.012
G2 X24.328 Y-2.372 I-0.672 J-27.372 F150
X25.672 Y52.372 I0.672 J27.372
G3 X26.159 Y52.836 I0.012 J0.476
G1 X26.171 Y53.312
X26.173 Y53.394 Z-2.393
X26.175 Y53.475 Z-2.371
X26.177 Y53.55 Z-2.336
X26.179 Y53.618 Z-2.289
X26.18 Y53.676 Z-2.23
X26.181 Y53.724 Z-2.162
X26.182 Y53.759 Z-2.087
X26.183 Y53.78 Z-2.007
Y53.788 Z-1.924
Z5
X25.231 Y53.811
Z-1.448 F50
Z-2.324
Y53.804 Z-2.407
X25.23 Y53.782 Z-2.487
Y53.747 Z-2.562
X25.228 Y53.7 Z-2.63
X25.227 Y53.641 Z-2.689
X25.225 Y53.573 Z-2.736
X25.223 Y53.498 Z-2.771
X25.221 Y53.418 Z-2.793
X25.219 Y53.335 Z-2.8
X25.208 Y52.859
G3 X25.672 Y52.372 I0.476 J-0.012
G2 X24.328 Y-2.372 I-0.672 J-27.372 F150
X25.672 Y52.372 I0.672 J27.372
G3 X26.159 Y52.836 I0.012 J0.476
G1 X26.171 Y53.312
X26.173 Y53.394 Z-2.793
X26.175 Y53.475 Z-2.771
X26.177 Y53.55 Z-2.736
X26.179 Y53.618 Z-2.689
X26.18 Y53.676 Z-2.63
X26.181 Y53.724 Z-2.562
X26.182 Y53.759 Z-2.487
X26.183 Y53.78 Z-2.407
Y53.788 Z-2.324
Z5
X25.231 Y53.811
Z-1.848 F50
Z-2.724
Y53.804 Z-2.807
X25.23 Y53.782 Z-2.887
Y53.747 Z-2.962
X25.228 Y53.7 Z-3.03
X25.227 Y53.641 Z-3.089
X25.225 Y53.573 Z-3.136
X25.223 Y53.498 Z-3.171
X25.221 Y53.418 Z-3.193
X25.219 Y53.335 Z-3.2
X25.208 Y52.859
G3 X25.672 Y52.372 I0.476 J-0.012
G2 X24.328 Y-2.372 I-0.672 J-27.372 F150
X25.672 Y52.372 I0.672 J27.372
G3 X26.159 Y52.836 I0.012 J0.476
G1 X26.171 Y53.312
X26.173 Y53.394 Z-3.193
X26.175 Y53.475 Z-3.171
X26.177 Y53.55 Z-3.136
X26.179 Y53.618 Z-3.089
X26.18 Y53.676 Z-3.03
X26.181 Y53.724 Z-2.962
X26.182 Y53.759 Z-2.887
X26.183 Y53.78 Z-2.807
Y53.788 Z-2.724
Z5
X25.231 Y53.811
Z-2.248 F50
Z-3.124
Y53.804 Z-3.207
X25.23 Y53.782 Z-3.287
Y53.747 Z-3.362
X25.228 Y53.7 Z-3.43
X25.227 Y53.641 Z-3.489
X25.225 Y53.573 Z-3.536
X25.223 Y53.498 Z-3.571
X25.221 Y53.418 Z-3.593
X25.219 Y53.335 Z-3.6
X25.208 Y52.859
G3 X25.672 Y52.372 I0.476 J-0.012
G2 X24.328 Y-2.372 I-0.672 J-27.372 F150
X25.672 Y52.372 I0.672 J27.372
G3 X26.159 Y52.836 I0.012 J0.476
G1 X26.171 Y53.312
X26.173 Y53.394 Z-3.593
X26.175 Y53.475 Z-3.571
X26.177 Y53.55 Z-3.536
X26.179 Y53.618 Z-3.489
X26.18 Y53.676 Z-3.43
X26.181 Y53.724 Z-3.362
X26.182 Y53.759 Z-3.287
X26.183 Y53.78 Z-3.207
Y53.788 Z-3.124
Z5
X25.231 Y53.811
Z-2.648 F50
Z-3.524
Y53.804 Z-3.607
X25.23 Y53.782 Z-3.687
Y53.747 Z-3.762
X25.228 Y53.7 Z-3.83
X25.227 Y53.641 Z-3.889
X25.225 Y53.573 Z-3.936
X25.223 Y53.498 Z-3.971
X25.221 Y53.418 Z-3.993
X25.219 Y53.335 Z-4
X25.208 Y52.859
G3 X25.672 Y52.372 I0.476 J-0.012
G2 X24.328 Y-2.372 I-0.672 J-27.372 F150
X25.672 Y52.372 I0.672 J27.372
G3 X26.159 Y52.836 I0.012 J0.476
G1 X26.171 Y53.312
X26.173 Y53.394 Z-3.993
X26.175 Y53.475 Z-3.971
X26.177 Y53.55 Z-3.936
X26.179 Y53.618 Z-3.889
X26.18 Y53.676 Z-3.83
X26.181 Y53.724 Z-3.762
X26.182 Y53.759 Z-3.687
X26.183 Y53.78 Z-3.607
Y53.788 Z-3.524
Z5
X25.231 Y53.811
Z-3.048 F50
Z-3.924
Y53.804 Z-4.007
X25.23 Y53.782 Z-4.087
Y53.747 Z-4.162
X25.228 Y53.7 Z-4.23
X25.227 Y53.641 Z-4.289
X25.225 Y53.573 Z-4.336
X25.223 Y53.498 Z-4.371
X25.221 Y53.418 Z-4.393
X25.219 Y53.335 Z-4.4
X25.208 Y52.859
G3 X25.672 Y52.372 I0.476 J-0.012
G2 X24.328 Y-2.372 I-0.672 J-27.372 F150
X25.672 Y52.372 I0.672 J27.372
G3 X26.159 Y52.836 I0.012 J0.476
G1 X26.171 Y53.312
X26.173 Y53.394 Z-4.393
X26.175 Y53.475 Z-4.371
X26.177 Y53.55 Z-4.336
X26.179 Y53.618 Z-4.289
X26.18 Y53.676 Z-4.23
X26.181 Y53.724 Z-4.162
X26.182 Y53.759 Z-4.087
X26.183 Y53.78 Z-4.007
Y53.788 Z-3.924
Z5
X25.231 Y53.811
Z-3.448 F50
Z-4.324
Y53.804 Z-4.407
X25.23 Y53.782 Z-4.487
Y53.747 Z-4.562
X25.228 Y53.7 Z-4.63
X25.227 Y53.641 Z-4.689
X25.225 Y53.573 Z-4.736
X25.223 Y53.498 Z-4.771
X25.221 Y53.418 Z-4.793
X25.219 Y53.335 Z-4.8
X25.208 Y52.859
G3 X25.672 Y52.372 I0.476 J-0.012
G2 X24.328 Y-2.372 I-0.672 J-27.372 F150
X25.672 Y52.372 I0.672 J27.372
G3 X26.159 Y52.836 I0.012 J0.476
G1 X26.171 Y53.312
X26.173 Y53.394 Z-4.793
X26.175 Y53.475 Z-4.771
X26.177 Y53.55 Z-4.736
X26.179 Y53.618 Z-4.689
X26.18 Y53.676 Z-4.63
X26.181 Y53.724 Z-4.562
X26.182 Y53.759 Z-4.487
X26.183 Y53.78 Z-4.407
Y53.788 Z-4.324
Z5
X25.231 Y53.811
Z-3.848 F50
Z-4.724
Y53.804 Z-4.807
X25.23 Y53.782 Z-4.887
Y53.747 Z-4.962
X25.228 Y53.7 Z-5.03
X25.227 Y53.641 Z-5.089
X25.225 Y53.573 Z-5.136
X25.223 Y53.498 Z-5.171
X25.221 Y53.418 Z-5.193
X25.219 Y53.335 Z-5.2
X25.208 Y52.859
G3 X25.672 Y52.372 I0.476 J-0.012
G2 X24.328 Y-2.372 I-0.672 J-27.372 F150
X25.672 Y52.372 I0.672 J27.372
G3 X26.159 Y52.836 I0.012 J0.476
G1 X26.171 Y53.312
X26.173 Y53.394 Z-5.193
X26.175 Y53.475 Z-5.171
X26.177 Y53.55 Z-5.136
X26.179 Y53.618 Z-5.089
X26.18 Y53.676 Z-5.03
X26.181 Y53.724 Z-4.962
X26.182 Y53.759 Z-4.887
X26.183 Y53.78 Z-4.807
Y53.788 Z-4.724
Z5
X25.231 Y53.811
Z-4.248 F50
Z-5.124
Y53.804 Z-5.207
X25.23 Y53.782 Z-5.287
Y53.747 Z-5.362
X25.228 Y53.7 Z-5.43
X25.227 Y53.641 Z-5.489
X25.225 Y53.573 Z-5.536
X25.223 Y53.498 Z-5.571
X25.221 Y53.418 Z-5.593
X25.219 Y53.335 Z-5.6
X25.208 Y52.859
G3 X25.672 Y52.372 I0.476 J-0.012
G2 X24.328 Y-2.372 I-0.672 J-27.372 F150
X25.672 Y52.372 I0.672 J27.372
G3 X26.159 Y52.836 I0.012 J0.476
G1 X26.171 Y53.312
X26.173 Y53.394 Z-5.593
X26.175 Y53.475 Z-5.571
X26.177 Y53.55 Z-5.536
X26.179 Y53.618 Z-5.489
X26.18 Y53.676 Z-5.43
X26.181 Y53.724 Z-5.362
X26.182 Y53.759 Z-5.287
X26.183 Y53.78 Z-5.207
Y53.788 Z-5.124
Z5
X25.231 Y53.811
Z-4.648 F50
Z-5.524
Y53.804 Z-5.607
X25.23 Y53.782 Z-5.687
Y53.747 Z-5.762
X25.228 Y53.7 Z-5.83
X25.227 Y53.641 Z-5.889
X25.225 Y53.573 Z-5.936
X25.223 Y53.498 Z-5.971
X25.221 Y53.418 Z-5.993
X25.219 Y53.335 Z-6
X25.208 Y52.859
G3 X25.672 Y52.372 I0.476 J-0.012
G2 X24.328 Y-2.372 I-0.672 J-27.372 F150
X25.672 Y52.372 I0.672 J27.372
G3 X26.159 Y52.836 I0.012 J0.476
G1 X26.171 Y53.312
X26.173 Y53.394 Z-5.993
X26.175 Y53.475 Z-5.971
X26.177 Y53.55 Z-5.936
X26.179 Y53.618 Z-5.889
X26.18 Y53.676 Z-5.83
X26.181 Y53.724 Z-5.762
X26.182 Y53.759 Z-5.687
X26.183 Y53.78 Z-5.607
Y53.788 Z-5.524
Z5
X25.231 Y53.811
Z-5.048 F50
Z-5.924
Y53.804 Z-6.007
X25.23 Y53.782 Z-6.087
Y53.747 Z-6.162
X25.228 Y53.7 Z-6.23
X25.227 Y53.641 Z-6.289
X25.225 Y53.573 Z-6.336
X25.223 Y53.498 Z-6.371
X25.221 Y53.418 Z-6.393
X25.219 Y53.335 Z-6.4
X25.208 Y52.859
G3 X25.672 Y52.372 I0.476 J-0.012
G2 X24.328 Y-2.372 I-0.672 J-27.372 F150
X25.672 Y52.372 I0.672 J27.372
G3 X26.159 Y52.836 I0.012 J0.476
G1 X26.171 Y53.312
X26.173 Y53.394 Z-6.393
X26.175 Y53.475 Z-6.371
X26.177 Y53.55 Z-6.336
X26.179 Y53.618 Z-6.289
X26.18 Y53.676 Z-6.23
X26.181 Y53.724 Z-6.162
X26.182 Y53.759 Z-6.087
X26.183 Y53.78 Z-6.007
Y53.788 Z-5.924
Z5
X25.231 Y53.811
Z-5.448 F50
Z-6.324
Y53.804 Z-6.407
X25.23 Y53.782 Z-6.487
Y53.747 Z-6.562
X25.228 Y53.7 Z-6.63
X25.227 Y53.641 Z-6.689
X25.225 Y53.573 Z-6.736
X25.223 Y53.498 Z-6.771
X25.221 Y53.418 Z-6.793
X25.219 Y53.335 Z-6.8
X25.208 Y52.859
G3 X25.672 Y52.372 I0.476 J-0.012
G2 X24.328 Y-2.372 I-0.672 J-27.372 F150
X25.672 Y52.372 I0.672 J27.372
G3 X26.159 Y52.836 I0.012 J0.476
G1 X26.171 Y53.312
X26.173 Y53.394 Z-6.793
X26.175 Y53.475 Z-6.771
X26.177 Y53.55 Z-6.736
X26.179 Y53.618 Z-6.689
X26.18 Y53.676 Z-6.63
X26.181 Y53.724 Z-6.562
X26.182 Y53.759 Z-6.487
X26.183 Y53.78 Z-6.407
Y53.788 Z-6.324
Z5
X25.231 Y53.811
Z-5.848 F50
Z-6.724
Y53.804 Z-6.807
X25.23 Y53.782 Z-6.887
Y53.747 Z-6.962
X25.228 Y53.7 Z-7.03
X25.227 Y53.641 Z-7.089
X25.225 Y53.573 Z-7.136
X25.223 Y53.498 Z-7.171
X25.221 Y53.418 Z-7.193
X25.219 Y53.335 Z-7.2
X25.208 Y52.859
G3 X25.672 Y52.372 I0.476 J-0.012
G2 X24.328 Y-2.372 I-0.672 J-27.372 F150
X25.672 Y52.372 I0.672 J27.372
G3 X26.159 Y52.836 I0.012 J0.476
G1 X26.171 Y53.312
X26.173 Y53.394 Z-7.193
X26.175 Y53.475 Z-7.171
X26.177 Y53.55 Z-7.136
X26.179 Y53.618 Z-7.089
X26.18 Y53.676 Z-7.03
X26.181 Y53.724 Z-6.962
X26.182 Y53.759 Z-6.887
X26.183 Y53.78 Z-6.807
Y53.788 Z-6.724
Z5
X25.231 Y53.811
Z-6.248 F50
Z-7.024
Y53.804 Z-7.107
X25.23 Y53.782 Z-7.187
Y53.747 Z-7.262
X25.228 Y53.7 Z-7.33
X25.227 Y53.641 Z-7.389
X25.225 Y53.573 Z-7.436
X25.223 Y53.498 Z-7.471
X25.221 Y53.418 Z-7.493
X25.219 Y53.335 Z-7.5
X25.208 Y52.859
G3 X25.672 Y52.372 I0.476 J-0.012
G2 X24.328 Y-2.372 I-0.672 J-27.372 F150
X25.672 Y52.372 I0.672 J27.372
G3 X26.159 Y52.836 I0.012 J0.476
G1 X26.171 Y53.312
X26.173 Y53.394 Z-7.493
X26.175 Y53.475 Z-7.471
X26.177 Y53.55 Z-7.436
X26.179 Y53.618 Z-7.389
X26.18 Y53.676 Z-7.33
X26.181 Y53.724 Z-7.262
X26.182 Y53.759 Z-7.187
X26.183 Y53.78 Z-7.107
Y53.788 Z-7.024
Z15

M9
M5
M30
