(z_axis_carriage)
(Machine)
(  vendor: Autodesk)
(  model: Generic 3-axis)
(  description: This machine has XYZ axis on the Head)
(T1 D=4.76 CR=0 - ZMIN=-8 - flat end mill)
G90 G94
G17
G21
(-Attention- Property Safe Retracts is set to Clearance Height.)
(Ensure the clearance height will clear the part and or fixtures.)
(Raise the Z-axis to a safe height before starting the program.)
(When using Fusion for Personal Use, the feedrate of rapid)
(moves is reduced to match the feedrate of cutting moves,)
(which can increase machining time. Unrestricted rapid moves)
(are available with a Fusion Subscription.)

(2D Contour4)
T1
S14000 M3
G17 G90 G94
G54
M8
G0 X127.606 Y63.389
Z15
G1 Z5 F150
Z0.952 F50
Z-0.3
G3 X126.394 Y62.611 I-0.606 J-0.389 F150
X127.606 Y63.389 I0.606 J0.389
G1 Z-0.6 F50
G3 X126.394 Y62.611 I-0.606 J-0.389 F150
X127.606 Y63.389 I0.606 J0.389
G1 Z-0.9 F50
G3 X126.394 Y62.611 I-0.606 J-0.389 F150
X127.606 Y63.389 I0.606 J0.389
G1 Z-1.2 F50
G3 X126.394 Y62.611 I-0.606 J-0.389 F150
X127.606 Y63.389 I0.606 J0.389
G1 Z-1.5 F50
G3 X126.394 Y62.611 I-0.606 J-0.389 F150
X127.606 Y63.389 I0.606 J0.389
G1 Z-1.8 F50
G3 X126.394 Y62.611 I-0.606 J-0.389 F150
X127.606 Y63.389 I0.606 J0.389
G1 Z-2.1 F50
G3 X126.394 Y62.611 I-0.606 J-0.389 F150
X127.606 Y63.389 I0.606 J0.389
G1 Z-2.4 F50
G3 X126.394 Y62.611 I-0.606 J-0.389 F150
X127.606 Y63.389 I0.606 J0.389
G1 Z-2.7 F50
G3 X126.394 Y62.611 I-0.606 J-0.389 F150
X127.606 Y63.389 I0.606 J0.389
G1 Z-3 F50
G3 X126.394 Y62.611 I-0.606 J-0.389 F150
X127.606 Y63.389 I0.606 J0.389
G1 Z-3.3 F50
G3 X126.394 Y62.611 I-0.606 J-0.389 F150
X127.606 Y63.389 I0.606 J0.389
G1 Z-3.6 F50
G3 X126.394 Y62.611 I-0.606 J-0.389 F150
X127.606 Y63.389 I0.606 J0.389
G1 Z-3.9 F50
G3 X126.394 Y62.611 I-0.606 J-0.389 F150
X127.606 Y63.389 I0.606 J0.389
G1 Z-4.2 F50
G3 X126.394 Y62.611 I-0.606 J-0.389 F150
X127.606 Y63.389 I0.606 J0.389
G1 Z-4.5 F50
G3 X126.394 Y62.611 I-0.606 J-0.389 F150
X127.606 Y63.389 I0.606 J0.389
G1 Z-4.8 F50
G3 X126.394 Y62.611 I-0.606 J-0.389 F150
X127.606 Y63.389 I0.606 J0.389
G1 Z-5.1 F50
G3 X126.394 Y62.611 I-0.606 J-0.389 F150
X127.606 Y63.389 I0.606 J0.389
G1 Z-5.4 F50
G3 X126.394 Y62.611 I-0.606 J-0.389 F150
X127.606 Y63.389 I0.606 J0.389
G1 Z-5.7 F50
G3 X126.394 Y62.611 I-0.606 J-0.389 F150
X127.606 Y63.389 I0.606 J0.389
G1 Z-6 F50
G3 X126.394 Y62.611 I-0.606 J-0.389 F150
X127.606 Y63.389 I0.606 J0.389
G1 Z-6.3 F50
G3 X126.394 Y62.611 I-0.606 J-0.389 F150
X127.606 Y63.389 I0.606 J0.389
G1 Z-6.6 F50
G3 X126.394 Y62.611 I-0.606 J-0.389 F150
X127.606 Y63.389 I0.606 J0.389
G1 Z-6.9 F50
G3 X126.394 Y62.611 I-0.606 J-0.389 F150
X127.606 Y63.389 I0.606 J0.389
G1 Z-7.2 F50
G3 X126.394 Y62.611 I-0.606 J-0.389 F150
X127.606 Y63.389 I0.606 J0.389
G1 Z-7.5 F50
G3 X126.394 Y62.611 I-0.606 J-0.389 F150
X127.606 Y63.389 I0.606 J0.389
G1 Z-7.8 F50
G3 X126.394 Y62.611 I-0.606 J-0.389 F150
X127.606 Y63.389 I0.606 J0.389
G1 Z-8 F50
G3 X126.394 Y62.611 I-0.606 J-0.389 F150
X127.606 Y63.389 I0.606 J0.389
G1 Z5
X159.606
Z0.952 F50
Z-0.3
G3 X158.394 Y62.611 I-0.606 J-0.389 F150
X159.606 Y63.389 I0.606 J0.389
G1 Z-0.6 F50
G3 X158.394 Y62.611 I-0.606 J-0.389 F150
X159.606 Y63.389 I0.606 J0.389
G1 Z-0.9 F50
G3 X158.394 Y62.611 I-0.606 J-0.389 F150
X159.606 Y63.389 I0.606 J0.389
G1 Z-1.2 F50
G3 X158.394 Y62.611 I-0.606 J-0.389 F150
X159.606 Y63.389 I0.606 J0.389
G1 Z-1.5 F50
G3 X158.394 Y62.611 I-0.606 J-0.389 F150
X159.606 Y63.389 I0.606 J0.389
G1 Z-1.8 F50
G3 X158.394 Y62.611 I-0.606 J-0.389 F150
X159.606 Y63.389 I0.606 J0.389
G1 Z-2.1 F50
G3 X158.394 Y62.611 I-0.606 J-0.389 F150
X159.606 Y63.389 I0.606 J0.389
G1 Z-2.4 F50
G3 X158.394 Y62.611 I-0.606 J-0.389 F150
X159.606 Y63.389 I0.606 J0.389
G1 Z-2.7 F50
G3 X158.394 Y62.611 I-0.606 J-0.389 F150
X159.606 Y63.389 I0.606 J0.389
G1 Z-3 F50
G3 X158.394 Y62.611 I-0.606 J-0.389 F150
X159.606 Y63.389 I0.606 J0.389
G1 Z-3.3 F50
G3 X158.394 Y62.611 I-0.606 J-0.389 F150
X159.606 Y63.389 I0.606 J0.389
G1 Z-3.6 F50
G3 X158.394 Y62.611 I-0.606 J-0.389 F150
X159.606 Y63.389 I0.606 J0.389
G1 Z-3.9 F50
G3 X158.394 Y62.611 I-0.606 J-0.389 F150
X159.606 Y63.389 I0.606 J0.389
G1 Z-4.2 F50
G3 X158.394 Y62.611 I-0.606 J-0.389 F150
X159.606 Y63.389 I0.606 J0.389
G1 Z-4.5 F50
G3 X158.394 Y62.611 I-0.606 J-0.389 F150
X159.606 Y63.389 I0.606 J0.389
G1 Z-4.8 F50
G3 X158.394 Y62.611 I-0.606 J-0.389 F150
X159.606 Y63.389 I0.606 J0.389
G1 Z-5.1 F50
G3 X158.394 Y62.611 I-0.606 J-0.389 F150
X159.606 Y63.389 I0.606 J0.389
G1 Z-5.4 F50
G3 X158.394 Y62.611 I-0.606 J-0.389 F150
X159.606 Y63.389 I0.606 J0.389
G1 Z-5.7 F50
G3 X158.394 Y62.611 I-0.606 J-0.389 F150
X159.606 Y63.389 I0.606 J0.389
G1 Z-6 F50
G3 X158.394 Y62.611 I-0.606 J-0.389 F150
X159.606 Y63.389 I0.606 J0.389
G1 Z-6.3 F50
G3 X158.394 Y62.611 I-0.606 J-0.389 F150
X159.606 Y63.389 I0.606 J0.389
G1 Z-6.6 F50
G3 X158.394 Y62.611 I-0.606 J-0.389 F150
X159.606 Y63.389 I0.606 J0.389
G1 Z-6.9 F50
G3 X158.394 Y62.611 I-0.606 J-0.389 F150
X159.606 Y63.389 I0.606 J0.389
G1 Z-7.2 F50
G3 X158.394 Y62.611 I-0.606 J-0.389 F150
X159.606 Y63.389 I0.606 J0.389
G1 Z-7.5 F50
G3 X158.394 Y62.611 I-0.606 J-0.389 F150
X159.606 Y63.389 I0.606 J0.389
G1 Z-7.8 F50
G3 X158.394 Y62.611 I-0.606 J-0.389 F150
X159.606 Y63.389 I0.606 J0.389
G1 Z-8 F50
G3 X158.394 Y62.611 I-0.606 J-0.389 F150
X159.606 Y63.389 I0.606 J0.389
G1 Z5
X194.52 Y61
Z0.952 F50
Z-0.3
G3 X193.48 Y61 I-0.52 J0 F150
X194.52 Y61 I0.52 J0
G1 Z-0.6 F50
G3 X193.48 Y61 I-0.52 J0 F150
X194.52 Y61 I0.52 J0
G1 Z-0.9 F50
G3 X193.48 Y61 I-0.52 J0 F150
X194.52 Y61 I0.52 J0
G1 Z-1.2 F50
G3 X193.48 Y61 I-0.52 J0 F150
X194.52 Y61 I0.52 J0
G1 Z-1.5 F50
G3 X193.48 Y61 I-0.52 J0 F150
X194.52 Y61 I0.52 J0
G1 Z-1.8 F50
G3 X193.48 Y61 I-0.52 J0 F150
X194.52 Y61 I0.52 J0
G1 Z-2.1 F50
G3 X193.48 Y61 I-0.52 J0 F150
X194.52 Y61 I0.52 J0
G1 Z-2.4 F50
G3 X193.48 Y61 I-0.52 J0 F150
X194.52 Y61 I0.52 J0
G1 Z-2.7 F50
G3 X193.48 Y61 I-0.52 J0 F150
X194.52 Y61 I0.52 J0
G1 Z-3 F50
G3 X193.48 Y61 I-0.52 J0 F150
X194.52 Y61 I0.52 J0
G1 Z-3.3 F50
G3 X193.48 Y61 I-0.52 J0 F150
X194.52 Y61 I0.52 J0
G1 Z-3.6 F50
G3 X193.48 Y61 I-0.52 J0 F150
X194.52 Y61 I0.52 J0
G1 Z-3.9 F50
G3 X193.48 Y61 I-0.52 J0 F150
X194.52 Y61 I0.52 J0
G1 Z-4.2 F50
G3 X193.48 Y61 I-0.52 J0 F150
X194.52 Y61 I0.52 J0
G1 Z-4.5 F50
G3 X193.48 Y61 I-0.52 J0 F150
X194.52 Y61 I0.52 J0
G1 Z-4.8 F50
G3 X193.48 Y61 I-0.52 J0 F150
X194.52 Y61 I0.52 J0
G1 Z-5.1 F50
G3 X193.48 Y61 I-0.52 J0 F150
X194.52 Y61 I0.52 J0
G1 Z-5.4 F50
G3 X193.48 Y61 I-0.52 J0 F150
X194.52 Y61 I0.52 J0
G1 Z-5.7 F50
G3 X193.48 Y61 I-0.52 J0 F150
X194.52 Y61 I0.52 J0
G1 Z-6 F50
G3 X193.48 Y61 I-0.52 J0 F150
X194.52 Y61 I0.52 J0
G1 Z-6.3 F50
G3 X193.48 Y61 I-0.52 J0 F150
X194.52 Y61 I0.52 J0
G1 Z-6.6 F50
G3 X193.48 Y61 I-0.52 J0 F150
X194.52 Y61 I0.52 J0
G1 Z-6.9 F50
G3 X193.48 Y61 I-0.52 J0 F150
X194.52 Y61 I0.52 J0
G1 Z-7.2 F50
G3 X193.48 Y61 I-0.52 J0 F150
X194.52 Y61 I0.52 J0
G1 Z-7.5 F50
G3 X193.48 Y61 I-0.52 J0 F150
X194.52 Y61 I0.52 J0
G1 Z-7.8 F50
G3 X193.48 Y61 I-0.52 J0 F150
X194.52 Y61 I0.52 J0
G1 Z-8 F50
G3 X193.48 Y61 I-0.52 J0 F150
X194.52 Y61 I0.52 J0
G1 Z5
X226.52
Z0.952 F50
Z-0.3
G3 X225.48 Y61 I-0.52 J0 F150
X226.52 Y61 I0.52 J0
G1 Z-0.6 F50
G3 X225.48 Y61 I-0.52 J0 F150
X226.52 Y61 I0.52 J0
G1 Z-0.9 F50
G3 X225.48 Y61 I-0.52 J0 F150
X226.52 Y61 I0.52 J0
G1 Z-1.2 F50
G3 X225.48 Y61 I-0.52 J0 F150
X226.52 Y61 I0.52 J0
G1 Z-1.5 F50
G3 X225.48 Y61 I-0.52 J0 F150
X226.52 Y61 I0.52 J0
G1 Z-1.8 F50
G3 X225.48 Y61 I-0.52 J0 F150
X226.52 Y61 I0.52 J0
G1 Z-2.1 F50
G3 X225.48 Y61 I-0.52 J0 F150
X226.52 Y61 I0.52 J0
G1 Z-2.4 F50
G3 X225.48 Y61 I-0.52 J0 F150
X226.52 Y61 I0.52 J0
G1 Z-2.7 F50
G3 X225.48 Y61 I-0.52 J0 F150
X226.52 Y61 I0.52 J0
G1 Z-3 F50
G3 X225.48 Y61 I-0.52 J0 F150
X226.52 Y61 I0.52 J0
G1 Z-3.3 F50
G3 X225.48 Y61 I-0.52 J0 F150
X226.52 Y61 I0.52 J0
G1 Z-3.6 F50
G3 X225.48 Y61 I-0.52 J0 F150
X226.52 Y61 I0.52 J0
G1 Z-3.9 F50
G3 X225.48 Y61 I-0.52 J0 F150
X226.52 Y61 I0.52 J0
G1 Z-4.2 F50
G3 X225.48 Y61 I-0.52 J0 F150
X226.52 Y61 I0.52 J0
G1 Z-4.5 F50
G3 X225.48 Y61 I-0.52 J0 F150
X226.52 Y61 I0.52 J0
G1 Z-4.8 F50
G3 X225.48 Y61 I-0.52 J0 F150
X226.52 Y61 I0.52 J0
G1 Z-5.1 F50
G3 X225.48 Y61 I-0.52 J0 F150
X226.52 Y61 I0.52 J0
G1 Z-5.4 F50
G3 X225.48 Y61 I-0.52 J0 F150
X226.52 Y61 I0.52 J0
G1 Z-5.7 F50
G3 X225.48 Y61 I-0.52 J0 F150
X226.52 Y61 I0.52 J0
G1 Z-6 F50
G3 X225.48 Y61 I-0.52 J0 F150
X226.52 Y61 I0.52 J0
G1 Z-6.3 F50
G3 X225.48 Y61 I-0.52 J0 F150
X226.52 Y61 I0.52 J0
G1 Z-6.6 F50
G3 X225.48 Y61 I-0.52 J0 F150
X226.52 Y61 I0.52 J0
G1 Z-6.9 F50
G3 X225.48 Y61 I-0.52 J0 F150
X226.52 Y61 I0.52 J0
G1 Z-7.2 F50
G3 X225.48 Y61 I-0.52 J0 F150
X226.52 Y61 I0.52 J0
G1 Z-7.5 F50
G3 X225.48 Y61 I-0.52 J0 F150
X226.52 Y61 I0.52 J0
G1 Z-7.8 F50
G3 X225.48 Y61 I-0.52 J0 F150
X226.52 Y61 I0.52 J0
G1 Z-8 F50
G3 X225.48 Y61 I-0.52 J0 F150
X226.52 Y61 I0.52 J0
G1 Z5
X235.606 Y63.389
Z0.952 F50
Z-0.3
G3 X234.394 Y62.611 I-0.606 J-0.389 F150
X235.606 Y63.389 I0.606 J0.389
G1 Z-0.6 F50
G3 X234.394 Y62.611 I-0.606 J-0.389 F150
X235.606 Y63.389 I0.606 J0.389
G1 Z-0.9 F50
G3 X234.394 Y62.611 I-0.606 J-0.389 F150
X235.606 Y63.389 I0.606 J0.389
G1 Z-1.2 F50
G3 X234.394 Y62.611 I-0.606 J-0.389 F150
X235.606 Y63.389 I0.606 J0.389
G1 Z-1.5 F50
G3 X234.394 Y62.611 I-0.606 J-0.389 F150
X235.606 Y63.389 I0.606 J0.389
G1 Z-1.8 F50
G3 X234.394 Y62.611 I-0.606 J-0.389 F150
X235.606 Y63.389 I0.606 J0.389
G1 Z-2.1 F50
G3 X234.394 Y62.611 I-0.606 J-0.389 F150
X235.606 Y63.389 I0.606 J0.389
G1 Z-2.4 F50
G3 X234.394 Y62.611 I-0.606 J-0.389 F150
X235.606 Y63.389 I0.606 J0.389
G1 Z-2.7 F50
G3 X234.394 Y62.611 I-0.606 J-0.389 F150
X235.606 Y63.389 I0.606 J0.389
G1 Z-3 F50
G3 X234.394 Y62.611 I-0.606 J-0.389 F150
X235.606 Y63.389 I0.606 J0.389
G1 Z-3.3 F50
G3 X234.394 Y62.611 I-0.606 J-0.389 F150
X235.606 Y63.389 I0.606 J0.389
G1 Z-3.6 F50
G3 X234.394 Y62.611 I-0.606 J-0.389 F150
X235.606 Y63.389 I0.606 J0.389
G1 Z-3.9 F50
G3 X234.394 Y62.611 I-0.606 J-0.389 F150
X235.606 Y63.389 I0.606 J0.389
G1 Z-4.2 F50
G3 X234.394 Y62.611 I-0.606 J-0.389 F150
X235.606 Y63.389 I0.606 J0.389
G1 Z-4.5 F50
G3 X234.394 Y62.611 I-0.606 J-0.389 F150
X235.606 Y63.389 I0.606 J0.389
G1 Z-4.8 F50
G3 X234.394 Y62.611 I-0.606 J-0.389 F150
X235.606 Y63.389 I0.606 J0.389
G1 Z-5.1 F50
G3 X234.394 Y62.611 I-0.606 J-0.389 F150
X235.606 Y63.389 I0.606 J0.389
G1 Z-5.4 F50
G3 X234.394 Y62.611 I-0.606 J-0.389 F150
X235.606 Y63.389 I0.606 J0.389
G1 Z-5.7 F50
G3 X234.394 Y62.611 I-0.606 J-0.389 F150
X235.606 Y63.389 I0.606 J0.389
G1 Z-6 F50
G3 X234.394 Y62.611 I-0.606 J-0.389 F150
X235.606 Y63.389 I0.606 J0.389
G1 Z-6.3 F50
G3 X234.394 Y62.611 I-0.606 J-0.389 F150
X235.606 Y63.389 I0.606 J0.389
G1 Z-6.6 F50
G3 X234.394 Y62.611 I-0.606 J-0.389 F150
X235.606 Y63.389 I0.606 J0.389
G1 Z-6.9 F50
G3 X234.394 Y62.611 I-0.606 J-0.389 F150
X235.606 Y63.389 I0.606 J0.389
G1 Z-7.2 F50
G3 X234.394 Y62.611 I-0.606 J-0.389 F150
X235.606 Y63.389 I0.606 J0.389
G1 Z-7.5 F50
G3 X234.394 Y62.611 I-0.606 J-0.389 F150
X235.606 Y63.389 I0.606 J0.389
G1 Z-7.8 F50
G3 X234.394 Y62.611 I-0.606 J-0.389 F150
X235.606 Y63.389 I0.606 J0.389
G1 Z-8 F50
G3 X234.394 Y62.611 I-0.606 J-0.389 F150
X235.606 Y63.389 I0.606 J0.389
G1 Z5
X226.52 Y25
Z0.952 F50
Z-0.3
G3 X225.48 Y25 I-0.52 J0 F150
X226.52 Y25 I0.52 J0
G1 Z-0.6 F50
G3 X225.48 Y25 I-0.52 J0 F150
X226.52 Y25 I0.52 J0
G1 Z-0.9 F50
G3 X225.48 Y25 I-0.52 J0 F150
X226.52 Y25 I0.52 J0
G1 Z-1.2 F50
G3 X225.48 Y25 I-0.52 J0 F150
X226.52 Y25 I0.52 J0
G1 Z-1.5 F50
G3 X225.48 Y25 I-0.52 J0 F150
X226.52 Y25 I0.52 J0
G1 Z-1.8 F50
G3 X225.48 Y25 I-0.52 J0 F150
X226.52 Y25 I0.52 J0
G1 Z-2.1 F50
G3 X225.48 Y25 I-0.52 J0 F150
X226.52 Y25 I0.52 J0
G1 Z-2.4 F50
G3 X225.48 Y25 I-0.52 J0 F150
X226.52 Y25 I0.52 J0
G1 Z-2.7 F50
G3 X225.48 Y25 I-0.52 J0 F150
X226.52 Y25 I0.52 J0
G1 Z-3 F50
G3 X225.48 Y25 I-0.52 J0 F150
X226.52 Y25 I0.52 J0
G1 Z-3.3 F50
G3 X225.48 Y25 I-0.52 J0 F150
X226.52 Y25 I0.52 J0
G1 Z-3.6 F50
G3 X225.48 Y25 I-0.52 J0 F150
X226.52 Y25 I0.52 J0
G1 Z-3.9 F50
G3 X225.48 Y25 I-0.52 J0 F150
X226.52 Y25 I0.52 J0
G1 Z-4.2 F50
G3 X225.48 Y25 I-0.52 J0 F150
X226.52 Y25 I0.52 J0
G1 Z-4.5 F50
G3 X225.48 Y25 I-0.52 J0 F150
X226.52 Y25 I0.52 J0
G1 Z-4.8 F50
G3 X225.48 Y25 I-0.52 J0 F150
X226.52 Y25 I0.52 J0
G1 Z-5.1 F50
G3 X225.48 Y25 I-0.52 J0 F150
X226.52 Y25 I0.52 J0
G1 Z-5.4 F50
G3 X225.48 Y25 I-0.52 J0 F150
X226.52 Y25 I0.52 J0
G1 Z-5.7 F50
G3 X225.48 Y25 I-0.52 J0 F150
X226.52 Y25 I0.52 J0
G1 Z-6 F50
G3 X225.48 Y25 I-0.52 J0 F150
X226.52 Y25 I0.52 J0
G1 Z-6.3 F50
G3 X225.48 Y25 I-0.52 J0 F150
X226.52 Y25 I0.52 J0
G1 Z-6.6 F50
G3 X225.48 Y25 I-0.52 J0 F150
X226.52 Y25 I0.52 J0
G1 Z-6.9 F50
G3 X225.48 Y25 I-0.52 J0 F150
X226.52 Y25 I0.52 J0
G1 Z-7.2 F50
G3 X225.48 Y25 I-0.52 J0 F150
X226.52 Y25 I0.52 J0
G1 Z-7.5 F50
G3 X225.48 Y25 I-0.52 J0 F150
X226.52 Y25 I0.52 J0
G1 Z-7.8 F50
G3 X225.48 Y25 I-0.52 J0 F150
X226.52 Y25 I0.52 J0
G1 Z-8 F50
G3 X225.48 Y25 I-0.52 J0 F150
X226.52 Y25 I0.52 J0
G1 Z5
X235.72 Y23
Z0.952 F50
Z-0.3
G3 X234.28 Y23 I-0.72 J0 F150
X235.72 Y23 I0.72 J0
G1 Z-0.6 F50
G3 X234.28 Y23 I-0.72 J0 F150
X235.72 Y23 I0.72 J0
G1 Z-0.9 F50
G3 X234.28 Y23 I-0.72 J0 F150
X235.72 Y23 I0.72 J0
G1 Z-1.2 F50
G3 X234.28 Y23 I-0.72 J0 F150
X235.72 Y23 I0.72 J0
G1 Z-1.5 F50
G3 X234.28 Y23 I-0.72 J0 F150
X235.72 Y23 I0.72 J0
G1 Z-1.8 F50
G3 X234.28 Y23 I-0.72 J0 F150
X235.72 Y23 I0.72 J0
G1 Z-2.1 F50
G3 X234.28 Y23 I-0.72 J0 F150
X235.72 Y23 I0.72 J0
G1 Z-2.4 F50
G3 X234.28 Y23 I-0.72 J0 F150
X235.72 Y23 I0.72 J0
G1 Z-2.7 F50
G3 X234.28 Y23 I-0.72 J0 F150
X235.72 Y23 I0.72 J0
G1 Z-3 F50
G3 X234.28 Y23 I-0.72 J0 F150
X235.72 Y23 I0.72 J0
G1 Z-3.3 F50
G3 X234.28 Y23 I-0.72 J0 F150
X235.72 Y23 I0.72 J0
G1 Z-3.6 F50
G3 X234.28 Y23 I-0.72 J0 F150
X235.72 Y23 I0.72 J0
G1 Z-3.9 F50
G3 X234.28 Y23 I-0.72 J0 F150
X235.72 Y23 I0.72 J0
G1 Z-4.2 F50
G3 X234.28 Y23 I-0.72 J0 F150
X235.72 Y23 I0.72 J0
G1 Z-4.5 F50
G3 X234.28 Y23 I-0.72 J0 F150
X235.72 Y23 I0.72 J0
G1 Z-4.8 F50
G3 X234.28 Y23 I-0.72 J0 F150
X235.72 Y23 I0.72 J0
G1 Z-5.1 F50
G3 X234.28 Y23 I-0.72 J0 F150
X235.72 Y23 I0.72 J0
G1 Z-5.4 F50
G3 X234.28 Y23 I-0.72 J0 F150
X235.72 Y23 I0.72 J0
G1 Z-5.7 F50
G3 X234.28 Y23 I-0.72 J0 F150
X235.72 Y23 I0.72 J0
G1 Z-6 F50
G3 X234.28 Y23 I-0.72 J0 F150
X235.72 Y23 I0.72 J0
G1 Z-6.3 F50
G3 X234.28 Y23 I-0.72 J0 F150
X235.72 Y23 I0.72 J0
G1 Z-6.6 F50
G3 X234.28 Y23 I-0.72 J0 F150
X235.72 Y23 I0.72 J0
G1 Z-6.9 F50
G3 X234.28 Y23 I-0.72 J0 F150
X235.72 Y23 I0.72 J0
G1 Z-7.2 F50
G3 X234.28 Y23 I-0.72 J0 F150
X235.72 Y23 I0.72 J0
G1 Z-7.5 F50
G3 X234.28 Y23 I-0.72 J0 F150
X235.72 Y23 I0.72 J0
G1 Z-7.8 F50
G3 X234.28 Y23 I-0.72 J0 F150
X235.72 Y23 I0.72 J0
G1 Z-8 F50
G3 X234.28 Y23 I-0.72 J0 F150
X235.72 Y23 I0.72 J0
G1 Z5
X194.368 Y25.368
Z0.952 F50
Z-0.3
G3 X193.632 Y24.632 I-0.368 J-0.368 F150
X194.368 Y25.368 I0.368 J0.368
G1 Z-0.6 F50
G3 X193.632 Y24.632 I-0.368 J-0.368 F150
X194.368 Y25.368 I0.368 J0.368
G1 Z-0.9 F50
G3 X193.632 Y24.632 I-0.368 J-0.368 F150
X194.368 Y25.368 I0.368 J0.368
G1 Z-1.2 F50
G3 X193.632 Y24.632 I-0.368 J-0.368 F150
X194.368 Y25.368 I0.368 J0.368
G1 Z-1.5 F50
G3 X193.632 Y24.632 I-0.368 J-0.368 F150
X194.368 Y25.368 I0.368 J0.368
G1 Z-1.8 F50
G3 X193.632 Y24.632 I-0.368 J-0.368 F150
X194.368 Y25.368 I0.368 J0.368
G1 Z-2.1 F50
G3 X193.632 Y24.632 I-0.368 J-0.368 F150
X194.368 Y25.368 I0.368 J0.368
G1 Z-2.4 F50
G3 X193.632 Y24.632 I-0.368 J-0.368 F150
X194.368 Y25.368 I0.368 J0.368
G1 Z-2.7 F50
G3 X193.632 Y24.632 I-0.368 J-0.368 F150
X194.368 Y25.368 I0.368 J0.368
G1 Z-3 F50
G3 X193.632 Y24.632 I-0.368 J-0.368 F150
X194.368 Y25.368 I0.368 J0.368
G1 Z-3.3 F50
G3 X193.632 Y24.632 I-0.368 J-0.368 F150
X194.368 Y25.368 I0.368 J0.368
G1 Z-3.6 F50
G3 X193.632 Y24.632 I-0.368 J-0.368 F150
X194.368 Y25.368 I0.368 J0.368
G1 Z-3.9 F50
G3 X193.632 Y24.632 I-0.368 J-0.368 F150
X194.368 Y25.368 I0.368 J0.368
G1 Z-4.2 F50
G3 X193.632 Y24.632 I-0.368 J-0.368 F150
X194.368 Y25.368 I0.368 J0.368
G1 Z-4.5 F50
G3 X193.632 Y24.632 I-0.368 J-0.368 F150
X194.368 Y25.368 I0.368 J0.368
G1 Z-4.8 F50
G3 X193.632 Y24.632 I-0.368 J-0.368 F150
X194.368 Y25.368 I0.368 J0.368
G1 Z-5.1 F50
G3 X193.632 Y24.632 I-0.368 J-0.368 F150
X194.368 Y25.368 I0.368 J0.368
G1 Z-5.4 F50
G3 X193.632 Y24.632 I-0.368 J-0.368 F150
X194.368 Y25.368 I0.368 J0.368
G1 Z-5.7 F50
G3 X193.632 Y24.632 I-0.368 J-0.368 F150
X194.368 Y25.368 I0.368 J0.368
G1 Z-6 F50
G3 X193.632 Y24.632 I-0.368 J-0.368 F150
X194.368 Y25.368 I0.368 J0.368
G1 Z-6.3 F50
G3 X193.632 Y24.632 I-0.368 J-0.368 F150
X194.368 Y25.368 I0.368 J0.368
G1 Z-6.6 F50
G3 X193.632 Y24.632 I-0.368 J-0.368 F150
X194.368 Y25.368 I0.368 J0.368
G1 Z-6.9 F50
G3 X193.632 Y24.632 I-0.368 J-0.368 F150
X194.368 Y25.368 I0.368 J0.368
G1 Z-7.2 F50
G3 X193.632 Y24.632 I-0.368 J-0.368 F150
X194.368 Y25.368 I0.368 J0.368
G1 Z-7.5 F50
G3 X193.632 Y24.632 I-0.368 J-0.368 F150
X194.368 Y25.368 I0.368 J0.368
G1 Z-7.8 F50
G3 X193.632 Y24.632 I-0.368 J-0.368 F150
X194.368 Y25.368 I0.368 J0.368
G1 Z-8 F50
G3 X193.632 Y24.632 I-0.368 J-0.368 F150
X194.368 Y25.368 I0.368 J0.368
G1 Z5
X159.72 Y23
Z0.952 F50
Z-0.3
G3 X158.28 Y23 I-0.72 J0 F150
X159.72 Y23 I0.72 J0
G1 Z-0.6 F50
G3 X158.28 Y23 I-0.72 J0 F150
X159.72 Y23 I0.72 J0
G1 Z-0.9 F50
G3 X158.28 Y23 I-0.72 J0 F150
X159.72 Y23 I0.72 J0
G1 Z-1.2 F50
G3 X158.28 Y23 I-0.72 J0 F150
X159.72 Y23 I0.72 J0
G1 Z-1.5 F50
G3 X158.28 Y23 I-0.72 J0 F150
X159.72 Y23 I0.72 J0
G1 Z-1.8 F50
G3 X158.28 Y23 I-0.72 J0 F150
X159.72 Y23 I0.72 J0
G1 Z-2.1 F50
G3 X158.28 Y23 I-0.72 J0 F150
X159.72 Y23 I0.72 J0
G1 Z-2.4 F50
G3 X158.28 Y23 I-0.72 J0 F150
X159.72 Y23 I0.72 J0
G1 Z-2.7 F50
G3 X158.28 Y23 I-0.72 J0 F150
X159.72 Y23 I0.72 J0
G1 Z-3 F50
G3 X158.28 Y23 I-0.72 J0 F150
X159.72 Y23 I0.72 J0
G1 Z-3.3 F50
G3 X158.28 Y23 I-0.72 J0 F150
X159.72 Y23 I0.72 J0
G1 Z-3.6 F50
G3 X158.28 Y23 I-0.72 J0 F150
X159.72 Y23 I0.72 J0
G1 Z-3.9 F50
G3 X158.28 Y23 I-0.72 J0 F150
X159.72 Y23 I0.72 J0
G1 Z-4.2 F50
G3 X158.28 Y23 I-0.72 J0 F150
X159.72 Y23 I0.72 J0
G1 Z-4.5 F50
G3 X158.28 Y23 I-0.72 J0 F150
X159.72 Y23 I0.72 J0
G1 Z-4.8 F50
G3 X158.28 Y23 I-0.72 J0 F150
X159.72 Y23 I0.72 J0
G1 Z-5.1 F50
G3 X158.28 Y23 I-0.72 J0 F150
X159.72 Y23 I0.72 J0
G1 Z-5.4 F50
G3 X158.28 Y23 I-0.72 J0 F150
X159.72 Y23 I0.72 J0
G1 Z-5.7 F50
G3 X158.28 Y23 I-0.72 J0 F150
X159.72 Y23 I0.72 J0
G1 Z-6 F50
G3 X158.28 Y23 I-0.72 J0 F150
X159.72 Y23 I0.72 J0
G1 Z-6.3 F50
G3 X158.28 Y23 I-0.72 J0 F150
X159.72 Y23 I0.72 J0
G1 Z-6.6 F50
G3 X158.28 Y23 I-0.72 J0 F150
X159.72 Y23 I0.72 J0
G1 Z-6.9 F50
G3 X158.28 Y23 I-0.72 J0 F150
X159.72 Y23 I0.72 J0
G1 Z-7.2 F50
G3 X158.28 Y23 I-0.72 J0 F150
X159.72 Y23 I0.72 J0
G1 Z-7.5 F50
G3 X158.28 Y23 I-0.72 J0 F150
X159.72 Y23 I0.72 J0
G1 Z-7.8 F50
G3 X158.28 Y23 I-0.72 J0 F150
X159.72 Y23 I0.72 J0
G1 Z-8 F50
G3 X158.28 Y23 I-0.72 J0 F150
X159.72 Y23 I0.72 J0
G1 Z5
X127.72
Z0.952 F50
Z-0.3
G3 X126.28 Y23 I-0.72 J0 F150
X127.72 Y23 I0.72 J0
G1 Z-0.6 F50
G3 X126.28 Y23 I-0.72 J0 F150
X127.72 Y23 I0.72 J0
G1 Z-0.9 F50
G3 X126.28 Y23 I-0.72 J0 F150
X127.72 Y23 I0.72 J0
G1 Z-1.2 F50
G3 X126.28 Y23 I-0.72 J0 F150
X127.72 Y23 I0.72 J0
G1 Z-1.5 F50
G3 X126.28 Y23 I-0.72 J0 F150
X127.72 Y23 I0.72 J0
G1 Z-1.8 F50
G3 X126.28 Y23 I-0.72 J0 F150
X127.72 Y23 I0.72 J0
G1 Z-2.1 F50
G3 X126.28 Y23 I-0.72 J0 F150
X127.72 Y23 I0.72 J0
G1 Z-2.4 F50
G3 X126.28 Y23 I-0.72 J0 F150
X127.72 Y23 I0.72 J0
G1 Z-2.7 F50
G3 X126.28 Y23 I-0.72 J0 F150
X127.72 Y23 I0.72 J0
G1 Z-3 F50
G3 X126.28 Y23 I-0.72 J0 F150
X127.72 Y23 I0.72 J0
G1 Z-3.3 F50
G3 X126.28 Y23 I-0.72 J0 F150
X127.72 Y23 I0.72 J0
G1 Z-3.6 F50
G3 X126.28 Y23 I-0.72 J0 F150
X127.72 Y23 I0.72 J0
G1 Z-3.9 F50
G3 X126.28 Y23 I-0.72 J0 F150
X127.72 Y23 I0.72 J0
G1 Z-4.2 F50
G3 X126.28 Y23 I-0.72 J0 F150
X127.72 Y23 I0.72 J0
G1 Z-4.5 F50
G3 X126.28 Y23 I-0.72 J0 F150
X127.72 Y23 I0.72 J0
G1 Z-4.8 F50
G3 X126.28 Y23 I-0.72 J0 F150
X127.72 Y23 I0.72 J0
G1 Z-5.1 F50
G3 X126.28 Y23 I-0.72 J0 F150
X127.72 Y23 I0.72 J0
G1 Z-5.4 F50
G3 X126.28 Y23 I-0.72 J0 F150
X127.72 Y23 I0.72 J0
G1 Z-5.7 F50
G3 X126.28 Y23 I-0.72 J0 F150
X127.72 Y23 I0.72 J0
G1 Z-6 F50
G3 X126.28 Y23 I-0.72 J0 F150
X127.72 Y23 I0.72 J0
G1 Z-6.3 F50
G3 X126.28 Y23 I-0.72 J0 F150
X127.72 Y23 I0.72 J0
G1 Z-6.6 F50
G3 X126.28 Y23 I-0.72 J0 F150
X127.72 Y23 I0.72 J0
G1 Z-6.9 F50
G3 X126.28 Y23 I-0.72 J0 F150
X127.72 Y23 I0.72 J0
G1 Z-7.2 F50
G3 X126.28 Y23 I-0.72 J0 F150
X127.72 Y23 I0.72 J0
G1 Z-7.5 F50
G3 X126.28 Y23 I-0.72 J0 F150
X127.72 Y23 I0.72 J0
G1 Z-7.8 F50
G3 X126.28 Y23 I-0.72 J0 F150
X127.72 Y23 I0.72 J0
G1 Z-8 F50
G3 X126.28 Y23 I-0.72 J0 F150
X127.72 Y23 I0.72 J0
G1 Z5
X95.22
Z0.952 F50
Z-0.3
G3 X94.78 Y23 I-0.22 J0 F150
X95.22 Y23 I0.22 J0
G1 Z-0.6 F50
G3 X94.78 Y23 I-0.22 J0 F150
X95.22 Y23 I0.22 J0
G1 Z-0.9 F50
G3 X94.78 Y23 I-0.22 J0 F150
X95.22 Y23 I0.22 J0
G1 Z-1.2 F50
G3 X94.78 Y23 I-0.22 J0 F150
X95.22 Y23 I0.22 J0
G1 Z-1.5 F50
G3 X94.78 Y23 I-0.22 J0 F150
X95.22 Y23 I0.22 J0
G1 Z-1.8 F50
G3 X94.78 Y23 I-0.22 J0 F150
X95.22 Y23 I0.22 J0
G1 Z-2.1 F50
G3 X94.78 Y23 I-0.22 J0 F150
X95.22 Y23 I0.22 J0
G1 Z-2.4 F50
G3 X94.78 Y23 I-0.22 J0 F150
X95.22 Y23 I0.22 J0
G1 Z-2.7 F50
G3 X94.78 Y23 I-0.22 J0 F150
X95.22 Y23 I0.22 J0
G1 Z-3 F50
G3 X94.78 Y23 I-0.22 J0 F150
X95.22 Y23 I0.22 J0
G1 Z-3.3 F50
G3 X94.78 Y23 I-0.22 J0 F150
X95.22 Y23 I0.22 J0
G1 Z-3.6 F50
G3 X94.78 Y23 I-0.22 J0 F150
X95.22 Y23 I0.22 J0
G1 Z-3.9 F50
G3 X94.78 Y23 I-0.22 J0 F150
X95.22 Y23 I0.22 J0
G1 Z-4.2 F50
G3 X94.78 Y23 I-0.22 J0 F150
X95.22 Y23 I0.22 J0
G1 Z-4.5 F50
G3 X94.78 Y23 I-0.22 J0 F150
X95.22 Y23 I0.22 J0
G1 Z-4.8 F50
G3 X94.78 Y23 I-0.22 J0 F150
X95.22 Y23 I0.22 J0
G1 Z-5.1 F50
G3 X94.78 Y23 I-0.22 J0 F150
X95.22 Y23 I0.22 J0
G1 Z-5.4 F50
G3 X94.78 Y23 I-0.22 J0 F150
X95.22 Y23 I0.22 J0
G1 Z-5.7 F50
G3 X94.78 Y23 I-0.22 J0 F150
X95.22 Y23 I0.22 J0
G1 Z-6 F50
G3 X94.78 Y23 I-0.22 J0 F150
X95.22 Y23 I0.22 J0
G1 Z-6.3 F50
G3 X94.78 Y23 I-0.22 J0 F150
X95.22 Y23 I0.22 J0
G1 Z-6.6 F50
G3 X94.78 Y23 I-0.22 J0 F150
X95.22 Y23 I0.22 J0
G1 Z-6.9 F50
G3 X94.78 Y23 I-0.22 J0 F150
X95.22 Y23 I0.22 J0
G1 Z-7.2 F50
G3 X94.78 Y23 I-0.22 J0 F150
X95.22 Y23 I0.22 J0
G1 Z-7.5 F50
G3 X94.78 Y23 I-0.22 J0 F150
X95.22 Y23 I0.22 J0
G1 Z-7.8 F50
G3 X94.78 Y23 I-0.22 J0 F150
X95.22 Y23 I0.22 J0
G1 Z-8 F50
G3 X94.78 Y23 I-0.22 J0 F150
X95.22 Y23 I0.22 J0
G1 Z5
X63.606 Y23.389
Z0.952 F50
Z-0.3
G3 X62.394 Y22.611 I-0.606 J-0.389 F150
X63.606 Y23.389 I0.606 J0.389
G1 Z-0.6 F50
G3 X62.394 Y22.611 I-0.606 J-0.389 F150
X63.606 Y23.389 I0.606 J0.389
G1 Z-0.9 F50
G3 X62.394 Y22.611 I-0.606 J-0.389 F150
X63.606 Y23.389 I0.606 J0.389
G1 Z-1.2 F50
G3 X62.394 Y22.611 I-0.606 J-0.389 F150
X63.606 Y23.389 I0.606 J0.389
G1 Z-1.5 F50
G3 X62.394 Y22.611 I-0.606 J-0.389 F150
X63.606 Y23.389 I0.606 J0.389
G1 Z-1.8 F50
G3 X62.394 Y22.611 I-0.606 J-0.389 F150
X63.606 Y23.389 I0.606 J0.389
G1 Z-2.1 F50
G3 X62.394 Y22.611 I-0.606 J-0.389 F150
X63.606 Y23.389 I0.606 J0.389
G1 Z-2.4 F50
G3 X62.394 Y22.611 I-0.606 J-0.389 F150
X63.606 Y23.389 I0.606 J0.389
G1 Z-2.7 F50
G3 X62.394 Y22.611 I-0.606 J-0.389 F150
X63.606 Y23.389 I0.606 J0.389
G1 Z-3 F50
G3 X62.394 Y22.611 I-0.606 J-0.389 F150
X63.606 Y23.389 I0.606 J0.389
G1 Z-3.3 F50
G3 X62.394 Y22.611 I-0.606 J-0.389 F150
X63.606 Y23.389 I0.606 J0.389
G1 Z-3.6 F50
G3 X62.394 Y22.611 I-0.606 J-0.389 F150
X63.606 Y23.389 I0.606 J0.389
G1 Z-3.9 F50
G3 X62.394 Y22.611 I-0.606 J-0.389 F150
X63.606 Y23.389 I0.606 J0.389
G1 Z-4.2 F50
G3 X62.394 Y22.611 I-0.606 J-0.389 F150
X63.606 Y23.389 I0.606 J0.389
G1 Z-4.5 F50
G3 X62.394 Y22.611 I-0.606 J-0.389 F150
X63.606 Y23.389 I0.606 J0.389
G1 Z-4.8 F50
G3 X62.394 Y22.611 I-0.606 J-0.389 F150
X63.606 Y23.389 I0.606 J0.389
G1 Z-5.1 F50
G3 X62.394 Y22.611 I-0.606 J-0.389 F150
X63.606 Y23.389 I0.606 J0.389
G1 Z-5.4 F50
G3 X62.394 Y22.611 I-0.606 J-0.389 F150
X63.606 Y23.389 I0.606 J0.389
G1 Z-5.7 F50
G3 X62.394 Y22.611 I-0.606 J-0.389 F150
X63.606 Y23.389 I0.606 J0.389
G1 Z-6 F50
G3 X62.394 Y22.611 I-0.606 J-0.389 F150
X63.606 Y23.389 I0.606 J0.389
G1 Z-6.3 F50
G3 X62.394 Y22.611 I-0.606 J-0.389 F150
X63.606 Y23.389 I0.606 J0.389
G1 Z-6.6 F50
G3 X62.394 Y22.611 I-0.606 J-0.389 F150
X63.606 Y23.389 I0.606 J0.389
G1 Z-6.9 F50
G3 X62.394 Y22.611 I-0.606 J-0.389 F150
X63.606 Y23.389 I0.606 J0.389
G1 Z-7.2 F50
G3 X62.394 Y22.611 I-0.606 J-0.389 F150
X63.606 Y23.389 I0.606 J0.389
G1 Z-7.5 F50
G3 X62.394 Y22.611 I-0.606 J-0.389 F150
X63.606 Y23.389 I0.606 J0.389
G1 Z-7.8 F50
G3 X62.394 Y22.611 I-0.606 J-0.389 F150
X63.606 Y23.389 I0.606 J0.389
G1 Z-8 F50
G3 X62.394 Y22.611 I-0.606 J-0.389 F150
X63.606 Y23.389 I0.606 J0.389
G1 Z5
X46.368 Y25.368
Z0.952 F50
Z-0.3
G3 X45.632 Y24.632 I-0.368 J-0.368 F150
X46.368 Y25.368 I0.368 J0.368
G1 Z-0.6 F50
G3 X45.632 Y24.632 I-0.368 J-0.368 F150
X46.368 Y25.368 I0.368 J0.368
G1 Z-0.9 F50
G3 X45.632 Y24.632 I-0.368 J-0.368 F150
X46.368 Y25.368 I0.368 J0.368
G1 Z-1.2 F50
G3 X45.632 Y24.632 I-0.368 J-0.368 F150
X46.368 Y25.368 I0.368 J0.368
G1 Z-1.5 F50
G3 X45.632 Y24.632 I-0.368 J-0.368 F150
X46.368 Y25.368 I0.368 J0.368
G1 Z-1.8 F50
G3 X45.632 Y24.632 I-0.368 J-0.368 F150
X46.368 Y25.368 I0.368 J0.368
G1 Z-2.1 F50
G3 X45.632 Y24.632 I-0.368 J-0.368 F150
X46.368 Y25.368 I0.368 J0.368
G1 Z-2.4 F50
G3 X45.632 Y24.632 I-0.368 J-0.368 F150
X46.368 Y25.368 I0.368 J0.368
G1 Z-2.7 F50
G3 X45.632 Y24.632 I-0.368 J-0.368 F150
X46.368 Y25.368 I0.368 J0.368
G1 Z-3 F50
G3 X45.632 Y24.632 I-0.368 J-0.368 F150
X46.368 Y25.368 I0.368 J0.368
G1 Z-3.3 F50
G3 X45.632 Y24.632 I-0.368 J-0.368 F150
X46.368 Y25.368 I0.368 J0.368
G1 Z-3.6 F50
G3 X45.632 Y24.632 I-0.368 J-0.368 F150
X46.368 Y25.368 I0.368 J0.368
G1 Z-3.9 F50
G3 X45.632 Y24.632 I-0.368 J-0.368 F150
X46.368 Y25.368 I0.368 J0.368
G1 Z-4.2 F50
G3 X45.632 Y24.632 I-0.368 J-0.368 F150
X46.368 Y25.368 I0.368 J0.368
G1 Z-4.5 F50
G3 X45.632 Y24.632 I-0.368 J-0.368 F150
X46.368 Y25.368 I0.368 J0.368
G1 Z-4.8 F50
G3 X45.632 Y24.632 I-0.368 J-0.368 F150
X46.368 Y25.368 I0.368 J0.368
G1 Z-5.1 F50
G3 X45.632 Y24.632 I-0.368 J-0.368 F150
X46.368 Y25.368 I0.368 J0.368
G1 Z-5.4 F50
G3 X45.632 Y24.632 I-0.368 J-0.368 F150
X46.368 Y25.368 I0.368 J0.368
G1 Z-5.7 F50
G3 X45.632 Y24.632 I-0.368 J-0.368 F150
X46.368 Y25.368 I0.368 J0.368
G1 Z-6 F50
G3 X45.632 Y24.632 I-0.368 J-0.368 F150
X46.368 Y25.368 I0.368 J0.368
G1 Z-6.3 F50
G3 X45.632 Y24.632 I-0.368 J-0.368 F150
X46.368 Y25.368 I0.368 J0.368
G1 Z-6.6 F50
G3 X45.632 Y24.632 I-0.368 J-0.368 F150
X46.368 Y25.368 I0.368 J0.368
G1 Z-6.9 F50
G3 X45.632 Y24.632 I-0.368 J-0.368 F150
X46.368 Y25.368 I0.368 J0.368
G1 Z-7.2 F50
G3 X45.632 Y24.632 I-0.368 J-0.368 F150
X46.368 Y25.368 I0.368 J0.368
G1 Z-7.5 F50
G3 X45.632 Y24.632 I-0.368 J-0.368 F150
X46.368 Y25.368 I0.368 J0.368
G1 Z-7.8 F50
G3 X45.632 Y24.632 I-0.368 J-0.368 F150
X46.368 Y25.368 I0.368 J0.368
G1 Z-8 F50
G3 X45.632 Y24.632 I-0.368 J-0.368 F150
X46.368 Y25.368 I0.368 J0.368
G1 Z5
X14.52 Y25
Z0.952 F50
Z-0.3
G3 X13.48 Y25 I-0.52 J0 F150
X14.52 Y25 I0.52 J0
G1 Z-0.6 F50
G3 X13.48 Y25 I-0.52 J0 F150
X14.52 Y25 I0.52 J0
G1 Z-0.9 F50
G3 X13.48 Y25 I-0.52 J0 F150
X14.52 Y25 I0.52 J0
G1 Z-1.2 F50
G3 X13.48 Y25 I-0.52 J0 F150
X14.52 Y25 I0.52 J0
G1 Z-1.5 F50
G3 X13.48 Y25 I-0.52 J0 F150
X14.52 Y25 I0.52 J0
G1 Z-1.8 F50
G3 X13.48 Y25 I-0.52 J0 F150
X14.52 Y25 I0.52 J0
G1 Z-2.1 F50
G3 X13.48 Y25 I-0.52 J0 F150
X14.52 Y25 I0.52 J0
G1 Z-2.4 F50
G3 X13.48 Y25 I-0.52 J0 F150
X14.52 Y25 I0.52 J0
G1 Z-2.7 F50
G3 X13.48 Y25 I-0.52 J0 F150
X14.52 Y25 I0.52 J0
G1 Z-3 F50
G3 X13.48 Y25 I-0.52 J0 F150
X14.52 Y25 I0.52 J0
G1 Z-3.3 F50
G3 X13.48 Y25 I-0.52 J0 F150
X14.52 Y25 I0.52 J0
G1 Z-3.6 F50
G3 X13.48 Y25 I-0.52 J0 F150
X14.52 Y25 I0.52 J0
G1 Z-3.9 F50
G3 X13.48 Y25 I-0.52 J0 F150
X14.52 Y25 I0.52 J0
G1 Z-4.2 F50
G3 X13.48 Y25 I-0.52 J0 F150
X14.52 Y25 I0.52 J0
G1 Z-4.5 F50
G3 X13.48 Y25 I-0.52 J0 F150
X14.52 Y25 I0.52 J0
G1 Z-4.8 F50
G3 X13.48 Y25 I-0.52 J0 F150
X14.52 Y25 I0.52 J0
G1 Z-5.1 F50
G3 X13.48 Y25 I-0.52 J0 F150
X14.52 Y25 I0.52 J0
G1 Z-5.4 F50
G3 X13.48 Y25 I-0.52 J0 F150
X14.52 Y25 I0.52 J0
G1 Z-5.7 F50
G3 X13.48 Y25 I-0.52 J0 F150
X14.52 Y25 I0.52 J0
G1 Z-6 F50
G3 X13.48 Y25 I-0.52 J0 F150
X14.52 Y25 I0.52 J0
G1 Z-6.3 F50
G3 X13.48 Y25 I-0.52 J0 F150
X14.52 Y25 I0.52 J0
G1 Z-6.6 F50
G3 X13.48 Y25 I-0.52 J0 F150
X14.52 Y25 I0.52 J0
G1 Z-6.9 F50
G3 X13.48 Y25 I-0.52 J0 F150
X14.52 Y25 I0.52 J0
G1 Z-7.2 F50
G3 X13.48 Y25 I-0.52 J0 F150
X14.52 Y25 I0.52 J0
G1 Z-7.5 F50
G3 X13.48 Y25 I-0.52 J0 F150
X14.52 Y25 I0.52 J0
G1 Z-7.8 F50
G3 X13.48 Y25 I-0.52 J0 F150
X14.52 Y25 I0.52 J0
G1 Z-8 F50
G3 X13.48 Y25 I-0.52 J0 F150
X14.52 Y25 I0.52 J0
G1 Z5
X14.368 Y61.368
Z0.952 F50
Z-0.3
G3 X13.632 Y60.632 I-0.368 J-0.368 F150
X14.368 Y61.368 I0.368 J0.368
G1 Z-0.6 F50
G3 X13.632 Y60.632 I-0.368 J-0.368 F150
X14.368 Y61.368 I0.368 J0.368
G1 Z-0.9 F50
G3 X13.632 Y60.632 I-0.368 J-0.368 F150
X14.368 Y61.368 I0.368 J0.368
G1 Z-1.2 F50
G3 X13.632 Y60.632 I-0.368 J-0.368 F150
X14.368 Y61.368 I0.368 J0.368
G1 Z-1.5 F50
G3 X13.632 Y60.632 I-0.368 J-0.368 F150
X14.368 Y61.368 I0.368 J0.368
G1 Z-1.8 F50
G3 X13.632 Y60.632 I-0.368 J-0.368 F150
X14.368 Y61.368 I0.368 J0.368
G1 Z-2.1 F50
G3 X13.632 Y60.632 I-0.368 J-0.368 F150
X14.368 Y61.368 I0.368 J0.368
G1 Z-2.4 F50
G3 X13.632 Y60.632 I-0.368 J-0.368 F150
X14.368 Y61.368 I0.368 J0.368
G1 Z-2.7 F50
G3 X13.632 Y60.632 I-0.368 J-0.368 F150
X14.368 Y61.368 I0.368 J0.368
G1 Z-3 F50
G3 X13.632 Y60.632 I-0.368 J-0.368 F150
X14.368 Y61.368 I0.368 J0.368
G1 Z-3.3 F50
G3 X13.632 Y60.632 I-0.368 J-0.368 F150
X14.368 Y61.368 I0.368 J0.368
G1 Z-3.6 F50
G3 X13.632 Y60.632 I-0.368 J-0.368 F150
X14.368 Y61.368 I0.368 J0.368
G1 Z-3.9 F50
G3 X13.632 Y60.632 I-0.368 J-0.368 F150
X14.368 Y61.368 I0.368 J0.368
G1 Z-4.2 F50
G3 X13.632 Y60.632 I-0.368 J-0.368 F150
X14.368 Y61.368 I0.368 J0.368
G1 Z-4.5 F50
G3 X13.632 Y60.632 I-0.368 J-0.368 F150
X14.368 Y61.368 I0.368 J0.368
G1 Z-4.8 F50
G3 X13.632 Y60.632 I-0.368 J-0.368 F150
X14.368 Y61.368 I0.368 J0.368
G1 Z-5.1 F50
G3 X13.632 Y60.632 I-0.368 J-0.368 F150
X14.368 Y61.368 I0.368 J0.368
G1 Z-5.4 F50
G3 X13.632 Y60.632 I-0.368 J-0.368 F150
X14.368 Y61.368 I0.368 J0.368
G1 Z-5.7 F50
G3 X13.632 Y60.632 I-0.368 J-0.368 F150
X14.368 Y61.368 I0.368 J0.368
G1 Z-6 F50
G3 X13.632 Y60.632 I-0.368 J-0.368 F150
X14.368 Y61.368 I0.368 J0.368
G1 Z-6.3 F50
G3 X13.632 Y60.632 I-0.368 J-0.368 F150
X14.368 Y61.368 I0.368 J0.368
G1 Z-6.6 F50
G3 X13.632 Y60.632 I-0.368 J-0.368 F150
X14.368 Y61.368 I0.368 J0.368
G1 Z-6.9 F50
G3 X13.632 Y60.632 I-0.368 J-0.368 F150
X14.368 Y61.368 I0.368 J0.368
G1 Z-7.2 F50
G3 X13.632 Y60.632 I-0.368 J-0.368 F150
X14.368 Y61.368 I0.368 J0.368
G1 Z-7.5 F50
G3 X13.632 Y60.632 I-0.368 J-0.368 F150
X14.368 Y61.368 I0.368 J0.368
G1 Z-7.8 F50
G3 X13.632 Y60.632 I-0.368 J-0.368 F150
X14.368 Y61.368 I0.368 J0.368
G1 Z-8 F50
G3 X13.632 Y60.632 I-0.368 J-0.368 F150
X14.368 Y61.368 I0.368 J0.368
G1 Z5
X46.52 Y61
Z0.952 F50
Z-0.3
G3 X45.48 Y61 I-0.52 J0 F150
X46.52 Y61 I0.52 J0
G1 Z-0.6 F50
G3 X45.48 Y61 I-0.52 J0 F150
X46.52 Y61 I0.52 J0
G1 Z-0.9 F50
G3 X45.48 Y61 I-0.52 J0 F150
X46.52 Y61 I0.52 J0
G1 Z-1.2 F50
G3 X45.48 Y61 I-0.52 J0 F150
X46.52 Y61 I0.52 J0
G1 Z-1.5 F50
G3 X45.48 Y61 I-0.52 J0 F150
X46.52 Y61 I0.52 J0
G1 Z-1.8 F50
G3 X45.48 Y61 I-0.52 J0 F150
X46.52 Y61 I0.52 J0
G1 Z-2.1 F50
G3 X45.48 Y61 I-0.52 J0 F150
X46.52 Y61 I0.52 J0
G1 Z-2.4 F50
G3 X45.48 Y61 I-0.52 J0 F150
X46.52 Y61 I0.52 J0
G1 Z-2.7 F50
G3 X45.48 Y61 I-0.52 J0 F150
X46.52 Y61 I0.52 J0
G1 Z-3 F50
G3 X45.48 Y61 I-0.52 J0 F150
X46.52 Y61 I0.52 J0
G1 Z-3.3 F50
G3 X45.48 Y61 I-0.52 J0 F150
X46.52 Y61 I0.52 J0
G1 Z-3.6 F50
G3 X45.48 Y61 I-0.52 J0 F150
X46.52 Y61 I0.52 J0
G1 Z-3.9 F50
G3 X45.48 Y61 I-0.52 J0 F150
X46.52 Y61 I0.52 J0
G1 Z-4.2 F50
G3 X45.48 Y61 I-0.52 J0 F150
X46.52 Y61 I0.52 J0
G1 Z-4.5 F50
G3 X45.48 Y61 I-0.52 J0 F150
X46.52 Y61 I0.52 J0
G1 Z-4.8 F50
G3 X45.48 Y61 I-0.52 J0 F150
X46.52 Y61 I0.52 J0
G1 Z-5.1 F50
G3 X45.48 Y61 I-0.52 J0 F150
X46.52 Y61 I0.52 J0
G1 Z-5.4 F50
G3 X45.48 Y61 I-0.52 J0 F150
X46.52 Y61 I0.52 J0
G1 Z-5.7 F50
G3 X45.48 Y61 I-0.52 J0 F150
X46.52 Y61 I0.52 J0
G1 Z-6 F50
G3 X45.48 Y61 I-0.52 J0 F150
X46.52 Y61 I0.52 J0
G1 Z-6.3 F50
G3 X45.48 Y61 I-0.52 J0 F150
X46.52 Y61 I0.52 J0
G1 Z-6.6 F50
G3 X45.48 Y61 I-0.52 J0 F150
X46.52 Y61 I0.52 J0
G1 Z-6.9 F50
G3 X45.48 Y61 I-0.52 J0 F150
X46.52 Y61 I0.52 J0
G1 Z-7.2 F50
G3 X45.48 Y61 I-0.52 J0 F150
X46.52 Y61 I0.52 J0
G1 Z-7.5 F50
G3 X45.48 Y61 I-0.52 J0 F150
X46.52 Y61 I0.52 J0
G1 Z-7.8 F50
G3 X45.48 Y61 I-0.52 J0 F150
X46.52 Y61 I0.52 J0
G1 Z-8 F50
G3 X45.48 Y61 I-0.52 J0 F150
X46.52 Y61 I0.52 J0
G1 Z5
X63.72 Y63
Z0.952 F50
Z-0.3
G3 X62.28 Y63 I-0.72 J0 F150
X63.72 Y63 I0.72 J0
G1 Z-0.6 F50
G3 X62.28 Y63 I-0.72 J0 F150
X63.72 Y63 I0.72 J0
G1 Z-0.9 F50
G3 X62.28 Y63 I-0.72 J0 F150
X63.72 Y63 I0.72 J0
G1 Z-1.2 F50
G3 X62.28 Y63 I-0.72 J0 F150
X63.72 Y63 I0.72 J0
G1 Z-1.5 F50
G3 X62.28 Y63 I-0.72 J0 F150
X63.72 Y63 I0.72 J0
G1 Z-1.8 F50
G3 X62.28 Y63 I-0.72 J0 F150
X63.72 Y63 I0.72 J0
G1 Z-2.1 F50
G3 X62.28 Y63 I-0.72 J0 F150
X63.72 Y63 I0.72 J0
G1 Z-2.4 F50
G3 X62.28 Y63 I-0.72 J0 F150
X63.72 Y63 I0.72 J0
G1 Z-2.7 F50
G3 X62.28 Y63 I-0.72 J0 F150
X63.72 Y63 I0.72 J0
G1 Z-3 F50
G3 X62.28 Y63 I-0.72 J0 F150
X63.72 Y63 I0.72 J0
G1 Z-3.3 F50
G3 X62.28 Y63 I-0.72 J0 F150
X63.72 Y63 I0.72 J0
G1 Z-3.6 F50
G3 X62.28 Y63 I-0.72 J0 F150
X63.72 Y63 I0.72 J0
G1 Z-3.9 F50
G3 X62.28 Y63 I-0.72 J0 F150
X63.72 Y63 I0.72 J0
G1 Z-4.2 F50
G3 X62.28 Y63 I-0.72 J0 F150
X63.72 Y63 I0.72 J0
G1 Z-4.5 F50
G3 X62.28 Y63 I-0.72 J0 F150
X63.72 Y63 I0.72 J0
G1 Z-4.8 F50
G3 X62.28 Y63 I-0.72 J0 F150
X63.72 Y63 I0.72 J0
G1 Z-5.1 F50
G3 X62.28 Y63 I-0.72 J0 F150
X63.72 Y63 I0.72 J0
G1 Z-5.4 F50
G3 X62.28 Y63 I-0.72 J0 F150
X63.72 Y63 I0.72 J0
G1 Z-5.7 F50
G3 X62.28 Y63 I-0.72 J0 F150
X63.72 Y63 I0.72 J0
G1 Z-6 F50
G3 X62.28 Y63 I-0.72 J0 F150
X63.72 Y63 I0.72 J0
G1 Z-6.3 F50
G3 X62.28 Y63 I-0.72 J0 F150
X63.72 Y63 I0.72 J0
G1 Z-6.6 F50
G3 X62.28 Y63 I-0.72 J0 F150
X63.72 Y63 I0.72 J0
G1 Z-6.9 F50
G3 X62.28 Y63 I-0.72 J0 F150
X63.72 Y63 I0.72 J0
G1 Z-7.2 F50
G3 X62.28 Y63 I-0.72 J0 F150
X63.72 Y63 I0.72 J0
G1 Z-7.5 F50
G3 X62.28 Y63 I-0.72 J0 F150
X63.72 Y63 I0.72 J0
G1 Z-7.8 F50
G3 X62.28 Y63 I-0.72 J0 F150
X63.72 Y63 I0.72 J0
G1 Z-8 F50
G3 X62.28 Y63 I-0.72 J0 F150
X63.72 Y63 I0.72 J0
G1 Z5
X94.78
Z0.952 F50
Z-0.3
G3 X95.22 Y63 I0.22 J0 F150
X94.78 Y63 I-0.22 J0
G1 Z-0.6 F50
G3 X95.22 Y63 I0.22 J0 F150
X94.78 Y63 I-0.22 J0
G1 Z-0.9 F50
G3 X95.22 Y63 I0.22 J0 F150
X94.78 Y63 I-0.22 J0
G1 Z-1.2 F50
G3 X95.22 Y63 I0.22 J0 F150
X94.78 Y63 I-0.22 J0
G1 Z-1.5 F50
G3 X95.22 Y63 I0.22 J0 F150
X94.78 Y63 I-0.22 J0
G1 Z-1.8 F50
G3 X95.22 Y63 I0.22 J0 F150
X94.78 Y63 I-0.22 J0
G1 Z-2.1 F50
G3 X95.22 Y63 I0.22 J0 F150
X94.78 Y63 I-0.22 J0
G1 Z-2.4 F50
G3 X95.22 Y63 I0.22 J0 F150
X94.78 Y63 I-0.22 J0
G1 Z-2.7 F50
G3 X95.22 Y63 I0.22 J0 F150
X94.78 Y63 I-0.22 J0
G1 Z-3 F50
G3 X95.22 Y63 I0.22 J0 F150
X94.78 Y63 I-0.22 J0
G1 Z-3.3 F50
G3 X95.22 Y63 I0.22 J0 F150
X94.78 Y63 I-0.22 J0
G1 Z-3.6 F50
G3 X95.22 Y63 I0.22 J0 F150
X94.78 Y63 I-0.22 J0
G1 Z-3.9 F50
G3 X95.22 Y63 I0.22 J0 F150
X94.78 Y63 I-0.22 J0
G1 Z-4.2 F50
G3 X95.22 Y63 I0.22 J0 F150
X94.78 Y63 I-0.22 J0
G1 Z-4.5 F50
G3 X95.22 Y63 I0.22 J0 F150
X94.78 Y63 I-0.22 J0
G1 Z-4.8 F50
G3 X95.22 Y63 I0.22 J0 F150
X94.78 Y63 I-0.22 J0
G1 Z-5.1 F50
G3 X95.22 Y63 I0.22 J0 F150
X94.78 Y63 I-0.22 J0
G1 Z-5.4 F50
G3 X95.22 Y63 I0.22 J0 F150
X94.78 Y63 I-0.22 J0
G1 Z-5.7 F50
G3 X95.22 Y63 I0.22 J0 F150
X94.78 Y63 I-0.22 J0
G1 Z-6 F50
G3 X95.22 Y63 I0.22 J0 F150
X94.78 Y63 I-0.22 J0
G1 Z-6.3 F50
G3 X95.22 Y63 I0.22 J0 F150
X94.78 Y63 I-0.22 J0
G1 Z-6.6 F50
G3 X95.22 Y63 I0.22 J0 F150
X94.78 Y63 I-0.22 J0
G1 Z-6.9 F50
G3 X95.22 Y63 I0.22 J0 F150
X94.78 Y63 I-0.22 J0
G1 Z-7.2 F50
G3 X95.22 Y63 I0.22 J0 F150
X94.78 Y63 I-0.22 J0
G1 Z-7.5 F50
G3 X95.22 Y63 I0.22 J0 F150
X94.78 Y63 I-0.22 J0
G1 Z-7.8 F50
G3 X95.22 Y63 I0.22 J0 F150
X94.78 Y63 I-0.22 J0
G1 Z-8 F50
G3 X95.22 Y63 I0.22 J0 F150
X94.78 Y63 I-0.22 J0
G1 Z15
(When using Fusion for Personal Use, the feedrate of rapid)
(moves is reduced to match the feedrate of cutting moves,)
(which can increase machining time. Unrestricted rapid moves)
(are available with a Fusion Subscription.)

(2D Pocket2)
G0 X192.835 Y23.229
G1 Z15 F150
Z5
Z2.976 F50
X192.864 Y23.21 Z2.796
X192.95 Y23.158 Z2.643
X193.084 Y23.088 Z2.539
X193.248 Y23.018 Z2.5
G3 X194.752 Y26.982 Z2.35 I0.752 J1.982
X193.248 Y23.018 Z2.2 I-0.752 J-1.982
X194.752 Y26.982 Z2.05 I0.752 J1.982
X193.248 Y23.018 Z1.9 I-0.752 J-1.982
X194.752 Y26.982 Z1.75 I0.752 J1.982
X193.248 Y23.018 Z1.6 I-0.752 J-1.982
X194.752 Y26.982 Z1.45 I0.752 J1.982
X193.248 Y23.018 Z1.3 I-0.752 J-1.982
X194.752 Y26.982 Z1.15 I0.752 J1.982
X193.248 Y23.018 Z1 I-0.752 J-1.982
X194.752 Y26.982 Z0.85 I0.752 J1.982
X193.248 Y23.018 Z0.7 I-0.752 J-1.982
X194.752 Y26.982 Z0.55 I0.752 J1.982
X193.248 Y23.018 Z0.4 I-0.752 J-1.982
X194.752 Y26.982 Z0.25 I0.752 J1.982
X193.248 Y23.018 Z0.1 I-0.752 J-1.982
X194.752 Y26.982 Z-0.05 I0.752 J1.982
X193.248 Y23.018 Z-0.2 I-0.752 J-1.982
X196.12 Y25 Z-0.292 I0.752 J1.982
X191.88 Y25 I-2.12 J0 F150
X196.12 Y25 I2.12 J0
X191.88 Y25 Z-0.442 I-2.12 J0 F50
X196.093 Y24.66 Z-0.585 I2.12 J0
X191.907 Y25.34 I-2.093 J0.34 F150
X196.093 Y24.66 I2.093 J-0.34
X191.907 Y25.34 Z-0.735 I-2.093 J0.34 F50
X196.011 Y24.329 Z-0.877 I2.093 J-0.34
X191.989 Y25.671 I-2.011 J0.671 F150
X196.011 Y24.329 I2.011 J-0.671
X191.989 Y25.671 Z-1.027 I-2.011 J0.671 F50
X195.877 Y24.015 Z-1.169 I2.011 J-0.671
X192.123 Y25.985 I-1.877 J0.985 F150
X195.877 Y24.015 I1.877 J-0.985
X192.123 Y25.985 Z-1.319 I-1.877 J0.985 F50
X195.695 Y23.726 Z-1.462 I1.877 J-0.985
X192.305 Y26.274 I-1.695 J1.274 F150
X195.695 Y23.726 I1.695 J-1.274
X192.305 Y26.274 Z-1.612 I-1.695 J1.274 F50
X195.469 Y23.471 Z-1.754 I1.695 J-1.274
X192.531 Y26.529 I-1.469 J1.529 F150
X195.469 Y23.471 I1.469 J-1.529
X192.531 Y26.529 Z-1.904 I-1.469 J1.529 F50
X195.204 Y23.255 Z-2.046 I1.469 J-1.529
X192.796 Y26.745 I-1.204 J1.745 F150
X195.204 Y23.255 I1.204 J-1.745
X192.796 Y26.745 Z-2.196 I-1.204 J1.745 F50
X194.909 Y23.085 Z-2.338 I1.204 J-1.745
X193.091 Y26.915 I-0.909 J1.915 F150
X194.909 Y23.085 I0.909 J-1.915
X193.091 Y26.915 Z-2.488 I-0.909 J1.915 F50
X194.59 Y22.964 Z-2.631 I0.909 J-1.915
X193.41 Y27.036 I-0.59 J2.036 F150
X194.59 Y22.964 I0.59 J-2.036
X193.41 Y27.036 Z-2.781 I-0.59 J2.036 F50
X194.256 Y22.895 Z-2.923 I0.59 J-2.036
X193.744 Y27.105 I-0.256 J2.105 F150
X194.256 Y22.895 I0.256 J-2.105
X193.744 Y27.105 Z-3.073 I-0.256 J2.105 F50
X193.915 Y22.882 Z-3.215 I0.256 J-2.105
X194.085 Y27.118 I0.085 J2.118 F150
X193.915 Y22.882 I-0.085 J-2.118
X194.085 Y27.118 Z-3.365 I0.085 J2.118 F50
X193.576 Y22.923 Z-3.508 I-0.085 J-2.118
X194.424 Y27.077 I0.424 J2.077 F150
X193.576 Y22.923 I-0.424 J-2.077
X194.424 Y27.077 Z-3.658 I0.424 J2.077 F50
X193.248 Y23.018 Z-3.8 I-0.424 J-2.077
X194.752 Y26.982 I0.752 J1.982 F150
X193.248 Y23.018 I-0.752 J-1.982
G1 X193.306 Y23 Z-3.788
X193.366 Y22.99 Z-3.776
X193.427 Y22.987 Z-3.764
X193.503 Y22.995 Z-3.712
X193.578 Y23.015 Z-3.661
X193.625 Y23.035 Z-3.583
X193.67 Y23.06 Z-3.506
X193.7 Y23.08 Z-3.324
Z15
X12.835 Y59.229
Z5
Z2.976 F50
X12.864 Y59.21 Z2.796
X12.95 Y59.158 Z2.643
X13.084 Y59.088 Z2.539
X13.248 Y59.018 Z2.5
G3 X14.752 Y62.982 Z2.35 I0.752 J1.982
X13.248 Y59.018 Z2.2 I-0.752 J-1.982
X14.752 Y62.982 Z2.05 I0.752 J1.982
X13.248 Y59.018 Z1.9 I-0.752 J-1.982
X14.752 Y62.982 Z1.75 I0.752 J1.982
X13.248 Y59.018 Z1.6 I-0.752 J-1.982
X14.752 Y62.982 Z1.45 I0.752 J1.982
X13.248 Y59.018 Z1.3 I-0.752 J-1.982
X14.752 Y62.982 Z1.15 I0.752 J1.982
X13.248 Y59.018 Z1 I-0.752 J-1.982
X14.752 Y62.982 Z0.85 I0.752 J1.982
X13.248 Y59.018 Z0.7 I-0.752 J-1.982
X14.752 Y62.982 Z0.55 I0.752 J1.982
X13.248 Y59.018 Z0.4 I-0.752 J-1.982
X14.752 Y62.982 Z0.25 I0.752 J1.982
X13.248 Y59.018 Z0.1 I-0.752 J-1.982
X14.752 Y62.982 Z-0.05 I0.752 J1.982
X13.248 Y59.018 Z-0.2 I-0.752 J-1.982
X16.12 Y61 Z-0.292 I0.752 J1.982
X11.88 Y61 I-2.12 J0 F150
X16.12 Y61 I2.12 J0
X11.88 Y61 Z-0.442 I-2.12 J0 F50
X16.093 Y60.66 Z-0.585 I2.12 J0
X11.907 Y61.34 I-2.093 J0.34 F150
X16.093 Y60.66 I2.093 J-0.34
X11.907 Y61.34 Z-0.735 I-2.093 J0.34 F50
X16.011 Y60.329 Z-0.877 I2.093 J-0.34
X11.989 Y61.671 I-2.011 J0.671 F150
X16.011 Y60.329 I2.011 J-0.671
X11.989 Y61.671 Z-1.027 I-2.011 J0.671 F50
X15.877 Y60.015 Z-1.169 I2.011 J-0.671
X12.123 Y61.985 I-1.877 J0.985 F150
X15.877 Y60.015 I1.877 J-0.985
X12.123 Y61.985 Z-1.319 I-1.877 J0.985 F50
X15.695 Y59.726 Z-1.462 I1.877 J-0.985
X12.305 Y62.274 I-1.695 J1.274 F150
X15.695 Y59.726 I1.695 J-1.274
X12.305 Y62.274 Z-1.612 I-1.695 J1.274 F50
X15.469 Y59.471 Z-1.754 I1.695 J-1.274
X12.531 Y62.529 I-1.469 J1.529 F150
X15.469 Y59.471 I1.469 J-1.529
X12.531 Y62.529 Z-1.904 I-1.469 J1.529 F50
X15.204 Y59.255 Z-2.046 I1.469 J-1.529
X12.796 Y62.745 I-1.204 J1.745 F150
X15.204 Y59.255 I1.204 J-1.745
X12.796 Y62.745 Z-2.196 I-1.204 J1.745 F50
X14.909 Y59.085 Z-2.338 I1.204 J-1.745
X13.091 Y62.915 I-0.909 J1.915 F150
X14.909 Y59.085 I0.909 J-1.915
X13.091 Y62.915 Z-2.488 I-0.909 J1.915 F50
X14.59 Y58.964 Z-2.631 I0.909 J-1.915
X13.41 Y63.036 I-0.59 J2.036 F150
X14.59 Y58.964 I0.59 J-2.036
X13.41 Y63.036 Z-2.781 I-0.59 J2.036 F50
X14.256 Y58.895 Z-2.923 I0.59 J-2.036
X13.744 Y63.105 I-0.256 J2.105 F150
X14.256 Y58.895 I0.256 J-2.105
X13.744 Y63.105 Z-3.073 I-0.256 J2.105 F50
X13.915 Y58.882 Z-3.215 I0.256 J-2.105
X14.085 Y63.118 I0.085 J2.118 F150
X13.915 Y58.882 I-0.085 J-2.118
X14.085 Y63.118 Z-3.365 I0.085 J2.118 F50
X13.576 Y58.923 Z-3.508 I-0.085 J-2.118
X14.424 Y63.077 I0.424 J2.077 F150
X13.576 Y58.923 I-0.424 J-2.077
X14.424 Y63.077 Z-3.658 I0.424 J2.077 F50
X13.248 Y59.018 Z-3.8 I-0.424 J-2.077
X14.752 Y62.982 I0.752 J1.982 F150
X13.248 Y59.018 I-0.752 J-1.982
G1 X13.306 Y59 Z-3.788
X13.366 Y58.99 Z-3.776
X13.427 Y58.987 Z-3.764
X13.503 Y58.995 Z-3.712
X13.578 Y59.015 Z-3.661
X13.625 Y59.035 Z-3.583
X13.67 Y59.06 Z-3.506
X13.7 Y59.08 Z-3.324
Z15
X12.835 Y23.229
Z5
Z2.976 F50
X12.864 Y23.21 Z2.796
X12.95 Y23.158 Z2.643
X13.084 Y23.088 Z2.539
X13.248 Y23.018 Z2.5
G3 X14.752 Y26.982 Z2.35 I0.752 J1.982
X13.248 Y23.018 Z2.2 I-0.752 J-1.982
X14.752 Y26.982 Z2.05 I0.752 J1.982
X13.248 Y23.018 Z1.9 I-0.752 J-1.982
X14.752 Y26.982 Z1.75 I0.752 J1.982
X13.248 Y23.018 Z1.6 I-0.752 J-1.982
X14.752 Y26.982 Z1.45 I0.752 J1.982
X13.248 Y23.018 Z1.3 I-0.752 J-1.982
X14.752 Y26.982 Z1.15 I0.752 J1.982
X13.248 Y23.018 Z1 I-0.752 J-1.982
X14.752 Y26.982 Z0.85 I0.752 J1.982
X13.248 Y23.018 Z0.7 I-0.752 J-1.982
X14.752 Y26.982 Z0.55 I0.752 J1.982
X13.248 Y23.018 Z0.4 I-0.752 J-1.982
X14.752 Y26.982 Z0.25 I0.752 J1.982
X13.248 Y23.018 Z0.1 I-0.752 J-1.982
X14.752 Y26.982 Z-0.05 I0.752 J1.982
X13.248 Y23.018 Z-0.2 I-0.752 J-1.982
X16.12 Y25 Z-0.292 I0.752 J1.982
X11.88 Y25 I-2.12 J0 F150
X16.12 Y25 I2.12 J0
X11.88 Y25 Z-0.442 I-2.12 J0 F50
X16.093 Y24.66 Z-0.585 I2.12 J0
X11.907 Y25.34 I-2.093 J0.34 F150
X16.093 Y24.66 I2.093 J-0.34
X11.907 Y25.34 Z-0.735 I-2.093 J0.34 F50
X16.011 Y24.329 Z-0.877 I2.093 J-0.34
X11.989 Y25.671 I-2.011 J0.671 F150
X16.011 Y24.329 I2.011 J-0.671
X11.989 Y25.671 Z-1.027 I-2.011 J0.671 F50
X15.877 Y24.015 Z-1.169 I2.011 J-0.671
X12.123 Y25.985 I-1.877 J0.985 F150
X15.877 Y24.015 I1.877 J-0.985
X12.123 Y25.985 Z-1.319 I-1.877 J0.985 F50
X15.695 Y23.726 Z-1.462 I1.877 J-0.985
X12.305 Y26.274 I-1.695 J1.274 F150
X15.695 Y23.726 I1.695 J-1.274
X12.305 Y26.274 Z-1.612 I-1.695 J1.274 F50
X15.469 Y23.471 Z-1.754 I1.695 J-1.274
X12.531 Y26.529 I-1.469 J1.529 F150
X15.469 Y23.471 I1.469 J-1.529
X12.531 Y26.529 Z-1.904 I-1.469 J1.529 F50
X15.204 Y23.255 Z-2.046 I1.469 J-1.529
X12.796 Y26.745 I-1.204 J1.745 F150
X15.204 Y23.255 I1.204 J-1.745
X12.796 Y26.745 Z-2.196 I-1.204 J1.745 F50
X14.909 Y23.085 Z-2.338 I1.204 J-1.745
X13.091 Y26.915 I-0.909 J1.915 F150
X14.909 Y23.085 I0.909 J-1.915
X13.091 Y26.915 Z-2.488 I-0.909 J1.915 F50
X14.59 Y22.964 Z-2.631 I0.909 J-1.915
X13.41 Y27.036 I-0.59 J2.036 F150
X14.59 Y22.964 I0.59 J-2.036
X13.41 Y27.036 Z-2.781 I-0.59 J2.036 F50
X14.256 Y22.895 Z-2.923 I0.59 J-2.036
X13.744 Y27.105 I-0.256 J2.105 F150
X14.256 Y22.895 I0.256 J-2.105
X13.744 Y27.105 Z-3.073 I-0.256 J2.105 F50
X13.915 Y22.882 Z-3.215 I0.256 J-2.105
X14.085 Y27.118 I0.085 J2.118 F150
X13.915 Y22.882 I-0.085 J-2.118
X14.085 Y27.118 Z-3.365 I0.085 J2.118 F50
X13.576 Y22.923 Z-3.508 I-0.085 J-2.118
X14.424 Y27.077 I0.424 J2.077 F150
X13.576 Y22.923 I-0.424 J-2.077
X14.424 Y27.077 Z-3.658 I0.424 J2.077 F50
X13.248 Y23.018 Z-3.8 I-0.424 J-2.077
X14.752 Y26.982 I0.752 J1.982 F150
X13.248 Y23.018 I-0.752 J-1.982
G1 X13.306 Y23 Z-3.788
X13.366 Y22.99 Z-3.776
X13.427 Y22.987 Z-3.764
X13.503 Y22.995 Z-3.712
X13.578 Y23.015 Z-3.661
X13.625 Y23.035 Z-3.583
X13.67 Y23.06 Z-3.506
X13.7 Y23.08 Z-3.324
Z15
X44.835 Y23.229
Z5
Z2.976 F50
X44.864 Y23.21 Z2.796
X44.95 Y23.158 Z2.643
X45.084 Y23.088 Z2.539
X45.248 Y23.018 Z2.5
G3 X46.752 Y26.982 Z2.35 I0.752 J1.982
X45.248 Y23.018 Z2.2 I-0.752 J-1.982
X46.752 Y26.982 Z2.05 I0.752 J1.982
X45.248 Y23.018 Z1.9 I-0.752 J-1.982
X46.752 Y26.982 Z1.75 I0.752 J1.982
X45.248 Y23.018 Z1.6 I-0.752 J-1.982
X46.752 Y26.982 Z1.45 I0.752 J1.982
X45.248 Y23.018 Z1.3 I-0.752 J-1.982
X46.752 Y26.982 Z1.15 I0.752 J1.982
X45.248 Y23.018 Z1 I-0.752 J-1.982
X46.752 Y26.982 Z0.85 I0.752 J1.982
X45.248 Y23.018 Z0.7 I-0.752 J-1.982
X46.752 Y26.982 Z0.55 I0.752 J1.982
X45.248 Y23.018 Z0.4 I-0.752 J-1.982
X46.752 Y26.982 Z0.25 I0.752 J1.982
X45.248 Y23.018 Z0.1 I-0.752 J-1.982
X46.752 Y26.982 Z-0.05 I0.752 J1.982
X45.248 Y23.018 Z-0.2 I-0.752 J-1.982
X48.12 Y25 Z-0.292 I0.752 J1.982
X43.88 Y25 I-2.12 J0 F150
X48.12 Y25 I2.12 J0
X43.88 Y25 Z-0.442 I-2.12 J0 F50
X48.093 Y24.66 Z-0.585 I2.12 J0
X43.907 Y25.34 I-2.093 J0.34 F150
X48.093 Y24.66 I2.093 J-0.34
X43.907 Y25.34 Z-0.735 I-2.093 J0.34 F50
X48.011 Y24.329 Z-0.877 I2.093 J-0.34
X43.989 Y25.671 I-2.011 J0.671 F150
X48.011 Y24.329 I2.011 J-0.671
X43.989 Y25.671 Z-1.027 I-2.011 J0.671 F50
X47.877 Y24.015 Z-1.169 I2.011 J-0.671
X44.123 Y25.985 I-1.877 J0.985 F150
X47.877 Y24.015 I1.877 J-0.985
X44.123 Y25.985 Z-1.319 I-1.877 J0.985 F50
X47.695 Y23.726 Z-1.462 I1.877 J-0.985
X44.305 Y26.274 I-1.695 J1.274 F150
X47.695 Y23.726 I1.695 J-1.274
X44.305 Y26.274 Z-1.612 I-1.695 J1.274 F50
X47.469 Y23.471 Z-1.754 I1.695 J-1.274
X44.531 Y26.529 I-1.469 J1.529 F150
X47.469 Y23.471 I1.469 J-1.529
X44.531 Y26.529 Z-1.904 I-1.469 J1.529 F50
X47.204 Y23.255 Z-2.046 I1.469 J-1.529
X44.796 Y26.745 I-1.204 J1.745 F150
X47.204 Y23.255 I1.204 J-1.745
X44.796 Y26.745 Z-2.196 I-1.204 J1.745 F50
X46.909 Y23.085 Z-2.338 I1.204 J-1.745
X45.091 Y26.915 I-0.909 J1.915 F150
X46.909 Y23.085 I0.909 J-1.915
X45.091 Y26.915 Z-2.488 I-0.909 J1.915 F50
X46.59 Y22.964 Z-2.631 I0.909 J-1.915
X45.41 Y27.036 I-0.59 J2.036 F150
X46.59 Y22.964 I0.59 J-2.036
X45.41 Y27.036 Z-2.781 I-0.59 J2.036 F50
X46.256 Y22.895 Z-2.923 I0.59 J-2.036
X45.744 Y27.105 I-0.256 J2.105 F150
X46.256 Y22.895 I0.256 J-2.105
X45.744 Y27.105 Z-3.073 I-0.256 J2.105 F50
X45.915 Y22.882 Z-3.215 I0.256 J-2.105
X46.085 Y27.118 I0.085 J2.118 F150
X45.915 Y22.882 I-0.085 J-2.118
X46.085 Y27.118 Z-3.365 I0.085 J2.118 F50
X45.576 Y22.923 Z-3.508 I-0.085 J-2.118
X46.424 Y27.077 I0.424 J2.077 F150
X45.576 Y22.923 I-0.424 J-2.077
X46.424 Y27.077 Z-3.658 I0.424 J2.077 F50
X45.248 Y23.018 Z-3.8 I-0.424 J-2.077
X46.752 Y26.982 I0.752 J1.982 F150
X45.248 Y23.018 I-0.752 J-1.982
G1 X45.306 Y23 Z-3.788
X45.366 Y22.99 Z-3.776
X45.427 Y22.987 Z-3.764
X45.503 Y22.995 Z-3.712
X45.578 Y23.015 Z-3.661
X45.625 Y23.035 Z-3.583
X45.67 Y23.06 Z-3.506
X45.7 Y23.08 Z-3.324
Z15
X44.835 Y59.229
Z5
Z2.976 F50
X44.864 Y59.21 Z2.796
X44.95 Y59.158 Z2.643
X45.084 Y59.088 Z2.539
X45.248 Y59.018 Z2.5
G3 X46.752 Y62.982 Z2.35 I0.752 J1.982
X45.248 Y59.018 Z2.2 I-0.752 J-1.982
X46.752 Y62.982 Z2.05 I0.752 J1.982
X45.248 Y59.018 Z1.9 I-0.752 J-1.982
X46.752 Y62.982 Z1.75 I0.752 J1.982
X45.248 Y59.018 Z1.6 I-0.752 J-1.982
X46.752 Y62.982 Z1.45 I0.752 J1.982
X45.248 Y59.018 Z1.3 I-0.752 J-1.982
X46.752 Y62.982 Z1.15 I0.752 J1.982
X45.248 Y59.018 Z1 I-0.752 J-1.982
X46.752 Y62.982 Z0.85 I0.752 J1.982
X45.248 Y59.018 Z0.7 I-0.752 J-1.982
X46.752 Y62.982 Z0.55 I0.752 J1.982
X45.248 Y59.018 Z0.4 I-0.752 J-1.982
X46.752 Y62.982 Z0.25 I0.752 J1.982
X45.248 Y59.018 Z0.1 I-0.752 J-1.982
X46.752 Y62.982 Z-0.05 I0.752 J1.982
X45.248 Y59.018 Z-0.2 I-0.752 J-1.982
X48.12 Y61 Z-0.292 I0.752 J1.982
X43.88 Y61 I-2.12 J0 F150
X48.12 Y61 I2.12 J0
X43.88 Y61 Z-0.442 I-2.12 J0 F50
X48.093 Y60.66 Z-0.585 I2.12 J0
X43.907 Y61.34 I-2.093 J0.34 F150
X48.093 Y60.66 I2.093 J-0.34
X43.907 Y61.34 Z-0.735 I-2.093 J0.34 F50
X48.011 Y60.329 Z-0.877 I2.093 J-0.34
X43.989 Y61.671 I-2.011 J0.671 F150
X48.011 Y60.329 I2.011 J-0.671
X43.989 Y61.671 Z-1.027 I-2.011 J0.671 F50
X47.877 Y60.015 Z-1.169 I2.011 J-0.671
X44.123 Y61.985 I-1.877 J0.985 F150
X47.877 Y60.015 I1.877 J-0.985
X44.123 Y61.985 Z-1.319 I-1.877 J0.985 F50
X47.695 Y59.726 Z-1.462 I1.877 J-0.985
X44.305 Y62.274 I-1.695 J1.274 F150
X47.695 Y59.726 I1.695 J-1.274
X44.305 Y62.274 Z-1.612 I-1.695 J1.274 F50
X47.469 Y59.471 Z-1.754 I1.695 J-1.274
X44.531 Y62.529 I-1.469 J1.529 F150
X47.469 Y59.471 I1.469 J-1.529
X44.531 Y62.529 Z-1.904 I-1.469 J1.529 F50
X47.204 Y59.255 Z-2.046 I1.469 J-1.529
X44.796 Y62.745 I-1.204 J1.745 F150
X47.204 Y59.255 I1.204 J-1.745
X44.796 Y62.745 Z-2.196 I-1.204 J1.745 F50
X46.909 Y59.085 Z-2.338 I1.204 J-1.745
X45.091 Y62.915 I-0.909 J1.915 F150
X46.909 Y59.085 I0.909 J-1.915
X45.091 Y62.915 Z-2.488 I-0.909 J1.915 F50
X46.59 Y58.964 Z-2.631 I0.909 J-1.915
X45.41 Y63.036 I-0.59 J2.036 F150
X46.59 Y58.964 I0.59 J-2.036
X45.41 Y63.036 Z-2.781 I-0.59 J2.036 F50
X46.256 Y58.895 Z-2.923 I0.59 J-2.036
X45.744 Y63.105 I-0.256 J2.105 F150
X46.256 Y58.895 I0.256 J-2.105
X45.744 Y63.105 Z-3.073 I-0.256 J2.105 F50
X45.915 Y58.882 Z-3.215 I0.256 J-2.105
X46.085 Y63.118 I0.085 J2.118 F150
X45.915 Y58.882 I-0.085 J-2.118
X46.085 Y63.118 Z-3.365 I0.085 J2.118 F50
X45.576 Y58.923 Z-3.508 I-0.085 J-2.118
X46.424 Y63.077 I0.424 J2.077 F150
X45.576 Y58.923 I-0.424 J-2.077
X46.424 Y63.077 Z-3.658 I0.424 J2.077 F50
X45.248 Y59.018 Z-3.8 I-0.424 J-2.077
X46.752 Y62.982 I0.752 J1.982 F150
X45.248 Y59.018 I-0.752 J-1.982
G1 X45.306 Y59 Z-3.788
X45.366 Y58.99 Z-3.776
X45.427 Y58.987 Z-3.764
X45.503 Y58.995 Z-3.712
X45.578 Y59.015 Z-3.661
X45.625 Y59.035 Z-3.583
X45.67 Y59.06 Z-3.506
X45.7 Y59.08 Z-3.324
Z15
X99.023 Y52.618
Z5
Z2.976 F50
X99.028 Y52.614 Z2.896
X99.072 Y52.582 Z2.743
X99.158 Y52.526 Z2.617
X99.28 Y52.459 Z2.532
X99.426 Y52.395 Z2.5
G3 X100.574 Y55.424 Z2.35 I0.574 J1.515
X99.426 Y52.395 Z2.2 I-0.574 J-1.515
X100.574 Y55.424 Z2.05 I0.574 J1.515
X99.426 Y52.395 Z1.9 I-0.574 J-1.515
X100.574 Y55.424 Z1.75 I0.574 J1.515
X99.426 Y52.395 Z1.6 I-0.574 J-1.515
X100.574 Y55.424 Z1.45 I0.574 J1.515
X99.426 Y52.395 Z1.3 I-0.574 J-1.515
X100.574 Y55.424 Z1.15 I0.574 J1.515
X99.426 Y52.395 Z1 I-0.574 J-1.515
X100.574 Y55.424 Z0.85 I0.574 J1.515
X99.426 Y52.395 Z0.7 I-0.574 J-1.515
X100.574 Y55.424 Z0.55 I0.574 J1.515
X99.426 Y52.395 Z0.4 I-0.574 J-1.515
X100.574 Y55.424 Z0.25 I0.574 J1.515
X99.426 Y52.395 Z0.1 I-0.574 J-1.515
X100.574 Y55.424 Z-0.05 I0.574 J1.515
X99.426 Y52.395 Z-0.2 I-0.574 J-1.515
X101.62 Y53.91 Z-0.292 I0.574 J1.515
X98.38 Y53.91 I-1.62 J0 F150
X101.62 Y53.91 I1.62 J0
X98.38 Y53.91 Z-0.442 I-1.62 J0 F50
X101.599 Y53.65 Z-0.585 I1.62 J0
X98.401 Y54.169 I-1.599 J0.26 F150
X101.599 Y53.65 I1.599 J-0.26
X98.401 Y54.169 Z-0.735 I-1.599 J0.26 F50
X101.537 Y53.397 Z-0.877 I1.599 J-0.26
X98.463 Y54.423 I-1.537 J0.513 F150
X101.537 Y53.397 I1.537 J-0.513
X98.463 Y54.423 Z-1.027 I-1.537 J0.513 F50
X101.434 Y53.157 Z-1.169 I1.537 J-0.513
X98.566 Y54.662 I-1.434 J0.753 F150
X101.434 Y53.157 I1.434 J-0.753
X98.566 Y54.662 Z-1.319 I-1.434 J0.753 F50
X101.295 Y52.936 Z-1.462 I1.434 J-0.753
X98.705 Y54.883 I-1.295 J0.973 F150
X101.295 Y52.936 I1.295 J-0.973
X98.705 Y54.883 Z-1.612 I-1.295 J0.973 F50
X101.122 Y52.741 Z-1.754 I1.295 J-0.973
X98.878 Y55.078 I-1.122 J1.168 F150
X101.122 Y52.741 I1.122 J-1.168
X98.878 Y55.078 Z-1.904 I-1.122 J1.168 F50
X100.92 Y52.576 Z-2.046 I1.122 J-1.168
X99.08 Y55.243 I-0.92 J1.333 F150
X100.92 Y52.576 I0.92 J-1.333
X99.08 Y55.243 Z-2.196 I-0.92 J1.333 F50
X100.694 Y52.446 Z-2.338 I0.92 J-1.333
X99.306 Y55.373 I-0.694 J1.464 F150
X100.694 Y52.446 I0.694 J-1.464
X99.306 Y55.373 Z-2.488 I-0.694 J1.464 F50
X100.451 Y52.354 Z-2.631 I0.694 J-1.464
X99.549 Y55.466 I-0.451 J1.556 F150
X100.451 Y52.354 I0.451 J-1.556
X99.549 Y55.466 Z-2.781 I-0.451 J1.556 F50
X100.195 Y52.301 Z-2.923 I0.451 J-1.556
X99.805 Y55.518 I-0.195 J1.608 F150
X100.195 Y52.301 I0.195 J-1.608
X99.805 Y55.518 Z-3.073 I-0.195 J1.608 F50
X99.935 Y52.291 Z-3.215 I0.195 J-1.608
X100.065 Y55.528 I0.065 J1.619 F150
X99.935 Y52.291 I-0.065 J-1.619
X100.065 Y55.528 Z-3.365 I0.065 J1.619 F50
X99.676 Y52.322 Z-3.508 I-0.065 J-1.619
X100.324 Y55.497 I0.324 J1.587 F150
X99.676 Y52.322 I-0.324 J-1.587
X100.324 Y55.497 Z-3.658 I0.324 J1.587 F50
X99.426 Y52.395 Z-3.8 I-0.324 J-1.587
X100.574 Y55.424 I0.574 J1.515 F150
X99.426 Y52.395 I-0.574 J-1.515
G1 X99.484 Y52.377 Z-3.788
X99.543 Y52.367 Z-3.776
X99.604 Y52.364 Z-3.764
X99.681 Y52.372 Z-3.712
X99.755 Y52.392 Z-3.661
X99.803 Y52.412 Z-3.583
X99.848 Y52.437 Z-3.506
X99.878 Y52.457 Z-3.324
Z15
X99.023 Y28.618
Z5
Z2.976 F50
X99.028 Y28.614 Z2.896
X99.072 Y28.582 Z2.743
X99.158 Y28.526 Z2.617
X99.28 Y28.459 Z2.532
X99.426 Y28.395 Z2.5
G3 X100.574 Y31.424 Z2.35 I0.574 J1.515
X99.426 Y28.395 Z2.2 I-0.574 J-1.515
X100.574 Y31.424 Z2.05 I0.574 J1.515
X99.426 Y28.395 Z1.9 I-0.574 J-1.515
X100.574 Y31.424 Z1.75 I0.574 J1.515
X99.426 Y28.395 Z1.6 I-0.574 J-1.515
X100.574 Y31.424 Z1.45 I0.574 J1.515
X99.426 Y28.395 Z1.3 I-0.574 J-1.515
X100.574 Y31.424 Z1.15 I0.574 J1.515
X99.426 Y28.395 Z1 I-0.574 J-1.515
X100.574 Y31.424 Z0.85 I0.574 J1.515
X99.426 Y28.395 Z0.7 I-0.574 J-1.515
X100.574 Y31.424 Z0.55 I0.574 J1.515
X99.426 Y28.395 Z0.4 I-0.574 J-1.515
X100.574 Y31.424 Z0.25 I0.574 J1.515
X99.426 Y28.395 Z0.1 I-0.574 J-1.515
X100.574 Y31.424 Z-0.05 I0.574 J1.515
X99.426 Y28.395 Z-0.2 I-0.574 J-1.515
X101.62 Y29.91 Z-0.292 I0.574 J1.515
X98.38 Y29.91 I-1.62 J0 F150
X101.62 Y29.91 I1.62 J0
X98.38 Y29.91 Z-0.442 I-1.62 J0 F50
X101.599 Y29.65 Z-0.585 I1.62 J0
X98.401 Y30.169 I-1.599 J0.26 F150
X101.599 Y29.65 I1.599 J-0.26
X98.401 Y30.169 Z-0.735 I-1.599 J0.26 F50
X101.537 Y29.397 Z-0.877 I1.599 J-0.26
X98.463 Y30.423 I-1.537 J0.513 F150
X101.537 Y29.397 I1.537 J-0.513
X98.463 Y30.423 Z-1.027 I-1.537 J0.513 F50
X101.434 Y29.157 Z-1.169 I1.537 J-0.513
X98.566 Y30.662 I-1.434 J0.753 F150
X101.434 Y29.157 I1.434 J-0.753
X98.566 Y30.662 Z-1.319 I-1.434 J0.753 F50
X101.295 Y28.936 Z-1.462 I1.434 J-0.753
X98.705 Y30.883 I-1.295 J0.973 F150
X101.295 Y28.936 I1.295 J-0.973
X98.705 Y30.883 Z-1.612 I-1.295 J0.973 F50
X101.122 Y28.741 Z-1.754 I1.295 J-0.973
X98.878 Y31.078 I-1.122 J1.168 F150
X101.122 Y28.741 I1.122 J-1.168
X98.878 Y31.078 Z-1.904 I-1.122 J1.168 F50
X100.92 Y28.576 Z-2.046 I1.122 J-1.168
X99.08 Y31.243 I-0.92 J1.333 F150
X100.92 Y28.576 I0.92 J-1.333
X99.08 Y31.243 Z-2.196 I-0.92 J1.333 F50
X100.694 Y28.446 Z-2.338 I0.92 J-1.333
X99.306 Y31.373 I-0.694 J1.464 F150
X100.694 Y28.446 I0.694 J-1.464
X99.306 Y31.373 Z-2.488 I-0.694 J1.464 F50
X100.451 Y28.354 Z-2.631 I0.694 J-1.464
X99.549 Y31.466 I-0.451 J1.556 F150
X100.451 Y28.354 I0.451 J-1.556
X99.549 Y31.466 Z-2.781 I-0.451 J1.556 F50
X100.195 Y28.301 Z-2.923 I0.451 J-1.556
X99.805 Y31.518 I-0.195 J1.608 F150
X100.195 Y28.301 I0.195 J-1.608
X99.805 Y31.518 Z-3.073 I-0.195 J1.608 F50
X99.935 Y28.291 Z-3.215 I0.195 J-1.608
X100.065 Y31.528 I0.065 J1.619 F150
X99.935 Y28.291 I-0.065 J-1.619
X100.065 Y31.528 Z-3.365 I0.065 J1.619 F50
X99.676 Y28.322 Z-3.508 I-0.065 J-1.619
X100.324 Y31.497 I0.324 J1.587 F150
X99.676 Y28.322 I-0.324 J-1.587
X100.324 Y31.497 Z-3.658 I0.324 J1.587 F50
X99.426 Y28.395 Z-3.8 I-0.324 J-1.587
X100.574 Y31.424 I0.574 J1.515 F150
X99.426 Y28.395 I-0.574 J-1.515
G1 X99.484 Y28.377 Z-3.788
X99.543 Y28.367 Z-3.776
X99.604 Y28.364 Z-3.764
X99.681 Y28.372 Z-3.712
X99.755 Y28.392 Z-3.661
X99.803 Y28.412 Z-3.583
X99.848 Y28.437 Z-3.506
X99.878 Y28.457 Z-3.324
Z15
X139.023 Y52.618
Z5
Z2.976 F50
X139.028 Y52.614 Z2.896
X139.072 Y52.582 Z2.743
X139.158 Y52.526 Z2.617
X139.28 Y52.459 Z2.532
X139.426 Y52.395 Z2.5
G3 X140.574 Y55.424 Z2.35 I0.574 J1.515
X139.426 Y52.395 Z2.2 I-0.574 J-1.515
X140.574 Y55.424 Z2.05 I0.574 J1.515
X139.426 Y52.395 Z1.9 I-0.574 J-1.515
X140.574 Y55.424 Z1.75 I0.574 J1.515
X139.426 Y52.395 Z1.6 I-0.574 J-1.515
X140.574 Y55.424 Z1.45 I0.574 J1.515
X139.426 Y52.395 Z1.3 I-0.574 J-1.515
X140.574 Y55.424 Z1.15 I0.574 J1.515
X139.426 Y52.395 Z1 I-0.574 J-1.515
X140.574 Y55.424 Z0.85 I0.574 J1.515
X139.426 Y52.395 Z0.7 I-0.574 J-1.515
X140.574 Y55.424 Z0.55 I0.574 J1.515
X139.426 Y52.395 Z0.4 I-0.574 J-1.515
X140.574 Y55.424 Z0.25 I0.574 J1.515
X139.426 Y52.395 Z0.1 I-0.574 J-1.515
X140.574 Y55.424 Z-0.05 I0.574 J1.515
X139.426 Y52.395 Z-0.2 I-0.574 J-1.515
X141.62 Y53.91 Z-0.292 I0.574 J1.515
X138.38 Y53.91 I-1.62 J0 F150
X141.62 Y53.91 I1.62 J0
X138.38 Y53.91 Z-0.442 I-1.62 J0 F50
X141.599 Y53.65 Z-0.585 I1.62 J0
X138.401 Y54.169 I-1.599 J0.26 F150
X141.599 Y53.65 I1.599 J-0.26
X138.401 Y54.169 Z-0.735 I-1.599 J0.26 F50
X141.537 Y53.397 Z-0.877 I1.599 J-0.26
X138.463 Y54.423 I-1.537 J0.513 F150
X141.537 Y53.397 I1.537 J-0.513
X138.463 Y54.423 Z-1.027 I-1.537 J0.513 F50
X141.434 Y53.157 Z-1.169 I1.537 J-0.513
X138.566 Y54.662 I-1.434 J0.753 F150
X141.434 Y53.157 I1.434 J-0.753
X138.566 Y54.662 Z-1.319 I-1.434 J0.753 F50
X141.295 Y52.936 Z-1.462 I1.434 J-0.753
X138.705 Y54.883 I-1.295 J0.973 F150
X141.295 Y52.936 I1.295 J-0.973
X138.705 Y54.883 Z-1.612 I-1.295 J0.973 F50
X141.122 Y52.741 Z-1.754 I1.295 J-0.973
X138.878 Y55.078 I-1.122 J1.168 F150
X141.122 Y52.741 I1.122 J-1.168
X138.878 Y55.078 Z-1.904 I-1.122 J1.168 F50
X140.92 Y52.576 Z-2.046 I1.122 J-1.168
X139.08 Y55.243 I-0.92 J1.333 F150
X140.92 Y52.576 I0.92 J-1.333
X139.08 Y55.243 Z-2.196 I-0.92 J1.333 F50
X140.694 Y52.446 Z-2.338 I0.92 J-1.333
X139.306 Y55.373 I-0.694 J1.464 F150
X140.694 Y52.446 I0.694 J-1.464
X139.306 Y55.373 Z-2.488 I-0.694 J1.464 F50
X140.451 Y52.354 Z-2.631 I0.694 J-1.464
X139.549 Y55.466 I-0.451 J1.556 F150
X140.451 Y52.354 I0.451 J-1.556
X139.549 Y55.466 Z-2.781 I-0.451 J1.556 F50
X140.195 Y52.301 Z-2.923 I0.451 J-1.556
X139.805 Y55.518 I-0.195 J1.608 F150
X140.195 Y52.301 I0.195 J-1.608
X139.805 Y55.518 Z-3.073 I-0.195 J1.608 F50
X139.935 Y52.291 Z-3.215 I0.195 J-1.608
X140.065 Y55.528 I0.065 J1.619 F150
X139.935 Y52.291 I-0.065 J-1.619
X140.065 Y55.528 Z-3.365 I0.065 J1.619 F50
X139.676 Y52.322 Z-3.508 I-0.065 J-1.619
X140.324 Y55.497 I0.324 J1.587 F150
X139.676 Y52.322 I-0.324 J-1.587
X140.324 Y55.497 Z-3.658 I0.324 J1.587 F50
X139.426 Y52.395 Z-3.8 I-0.324 J-1.587
X140.574 Y55.424 I0.574 J1.515 F150
X139.426 Y52.395 I-0.574 J-1.515
G1 X139.484 Y52.377 Z-3.788
X139.543 Y52.367 Z-3.776
X139.604 Y52.364 Z-3.764
X139.681 Y52.372 Z-3.712
X139.755 Y52.392 Z-3.661
X139.803 Y52.412 Z-3.583
X139.848 Y52.437 Z-3.506
X139.878 Y52.457 Z-3.324
Z15
X139.023 Y28.618
Z5
Z2.976 F50
X139.028 Y28.614 Z2.896
X139.072 Y28.582 Z2.743
X139.158 Y28.526 Z2.617
X139.28 Y28.459 Z2.532
X139.426 Y28.395 Z2.5
G3 X140.574 Y31.424 Z2.35 I0.574 J1.515
X139.426 Y28.395 Z2.2 I-0.574 J-1.515
X140.574 Y31.424 Z2.05 I0.574 J1.515
X139.426 Y28.395 Z1.9 I-0.574 J-1.515
X140.574 Y31.424 Z1.75 I0.574 J1.515
X139.426 Y28.395 Z1.6 I-0.574 J-1.515
X140.574 Y31.424 Z1.45 I0.574 J1.515
X139.426 Y28.395 Z1.3 I-0.574 J-1.515
X140.574 Y31.424 Z1.15 I0.574 J1.515
X139.426 Y28.395 Z1 I-0.574 J-1.515
X140.574 Y31.424 Z0.85 I0.574 J1.515
X139.426 Y28.395 Z0.7 I-0.574 J-1.515
X140.574 Y31.424 Z0.55 I0.574 J1.515
X139.426 Y28.395 Z0.4 I-0.574 J-1.515
X140.574 Y31.424 Z0.25 I0.574 J1.515
X139.426 Y28.395 Z0.1 I-0.574 J-1.515
X140.574 Y31.424 Z-0.05 I0.574 J1.515
X139.426 Y28.395 Z-0.2 I-0.574 J-1.515
X141.62 Y29.91 Z-0.292 I0.574 J1.515
X138.38 Y29.91 I-1.62 J0 F150
X141.62 Y29.91 I1.62 J0
X138.38 Y29.91 Z-0.442 I-1.62 J0 F50
X141.599 Y29.65 Z-0.585 I1.62 J0
X138.401 Y30.169 I-1.599 J0.26 F150
X141.599 Y29.65 I1.599 J-0.26
X138.401 Y30.169 Z-0.735 I-1.599 J0.26 F50
X141.537 Y29.397 Z-0.877 I1.599 J-0.26
X138.463 Y30.423 I-1.537 J0.513 F150
X141.537 Y29.397 I1.537 J-0.513
X138.463 Y30.423 Z-1.027 I-1.537 J0.513 F50
X141.434 Y29.157 Z-1.169 I1.537 J-0.513
X138.566 Y30.662 I-1.434 J0.753 F150
X141.434 Y29.157 I1.434 J-0.753
X138.566 Y30.662 Z-1.319 I-1.434 J0.753 F50
X141.295 Y28.936 Z-1.462 I1.434 J-0.753
X138.705 Y30.883 I-1.295 J0.973 F150
X141.295 Y28.936 I1.295 J-0.973
X138.705 Y30.883 Z-1.612 I-1.295 J0.973 F50
X141.122 Y28.741 Z-1.754 I1.295 J-0.973
X138.878 Y31.078 I-1.122 J1.168 F150
X141.122 Y28.741 I1.122 J-1.168
X138.878 Y31.078 Z-1.904 I-1.122 J1.168 F50
X140.92 Y28.576 Z-2.046 I1.122 J-1.168
X139.08 Y31.243 I-0.92 J1.333 F150
X140.92 Y28.576 I0.92 J-1.333
X139.08 Y31.243 Z-2.196 I-0.92 J1.333 F50
X140.694 Y28.446 Z-2.338 I0.92 J-1.333
X139.306 Y31.373 I-0.694 J1.464 F150
X140.694 Y28.446 I0.694 J-1.464
X139.306 Y31.373 Z-2.488 I-0.694 J1.464 F50
X140.451 Y28.354 Z-2.631 I0.694 J-1.464
X139.549 Y31.466 I-0.451 J1.556 F150
X140.451 Y28.354 I0.451 J-1.556
X139.549 Y31.466 Z-2.781 I-0.451 J1.556 F50
X140.195 Y28.301 Z-2.923 I0.451 J-1.556
X139.805 Y31.518 I-0.195 J1.608 F150
X140.195 Y28.301 I0.195 J-1.608
X139.805 Y31.518 Z-3.073 I-0.195 J1.608 F50
X139.935 Y28.291 Z-3.215 I0.195 J-1.608
X140.065 Y31.528 I0.065 J1.619 F150
X139.935 Y28.291 I-0.065 J-1.619
X140.065 Y31.528 Z-3.365 I0.065 J1.619 F50
X139.676 Y28.322 Z-3.508 I-0.065 J-1.619
X140.324 Y31.497 I0.324 J1.587 F150
X139.676 Y28.322 I-0.324 J-1.587
X140.324 Y31.497 Z-3.658 I0.324 J1.587 F50
X139.426 Y28.395 Z-3.8 I-0.324 J-1.587
X140.574 Y31.424 I0.574 J1.515 F150
X139.426 Y28.395 I-0.574 J-1.515
G1 X139.484 Y28.377 Z-3.788
X139.543 Y28.367 Z-3.776
X139.604 Y28.364 Z-3.764
X139.681 Y28.372 Z-3.712
X139.755 Y28.392 Z-3.661
X139.803 Y28.412 Z-3.583
X139.848 Y28.437 Z-3.506
X139.878 Y28.457 Z-3.324
Z15
X192.835 Y59.229
Z5
Z2.976 F50
X192.864 Y59.21 Z2.796
X192.95 Y59.158 Z2.643
X193.084 Y59.088 Z2.539
X193.248 Y59.018 Z2.5
G3 X194.752 Y62.982 Z2.35 I0.752 J1.982
X193.248 Y59.018 Z2.2 I-0.752 J-1.982
X194.752 Y62.982 Z2.05 I0.752 J1.982
X193.248 Y59.018 Z1.9 I-0.752 J-1.982
X194.752 Y62.982 Z1.75 I0.752 J1.982
X193.248 Y59.018 Z1.6 I-0.752 J-1.982
X194.752 Y62.982 Z1.45 I0.752 J1.982
X193.248 Y59.018 Z1.3 I-0.752 J-1.982
X194.752 Y62.982 Z1.15 I0.752 J1.982
X193.248 Y59.018 Z1 I-0.752 J-1.982
X194.752 Y62.982 Z0.85 I0.752 J1.982
X193.248 Y59.018 Z0.7 I-0.752 J-1.982
X194.752 Y62.982 Z0.55 I0.752 J1.982
X193.248 Y59.018 Z0.4 I-0.752 J-1.982
X194.752 Y62.982 Z0.25 I0.752 J1.982
X193.248 Y59.018 Z0.1 I-0.752 J-1.982
X194.752 Y62.982 Z-0.05 I0.752 J1.982
X193.248 Y59.018 Z-0.2 I-0.752 J-1.982
X196.12 Y61 Z-0.292 I0.752 J1.982
X191.88 Y61 I-2.12 J0 F150
X196.12 Y61 I2.12 J0
X191.88 Y61 Z-0.442 I-2.12 J0 F50
X196.093 Y60.66 Z-0.585 I2.12 J0
X191.907 Y61.34 I-2.093 J0.34 F150
X196.093 Y60.66 I2.093 J-0.34
X191.907 Y61.34 Z-0.735 I-2.093 J0.34 F50
X196.011 Y60.329 Z-0.877 I2.093 J-0.34
X191.989 Y61.671 I-2.011 J0.671 F150
X196.011 Y60.329 I2.011 J-0.671
X191.989 Y61.671 Z-1.027 I-2.011 J0.671 F50
X195.877 Y60.015 Z-1.169 I2.011 J-0.671
X192.123 Y61.985 I-1.877 J0.985 F150
X195.877 Y60.015 I1.877 J-0.985
X192.123 Y61.985 Z-1.319 I-1.877 J0.985 F50
X195.695 Y59.726 Z-1.462 I1.877 J-0.985
X192.305 Y62.274 I-1.695 J1.274 F150
X195.695 Y59.726 I1.695 J-1.274
X192.305 Y62.274 Z-1.612 I-1.695 J1.274 F50
X195.469 Y59.471 Z-1.754 I1.695 J-1.274
X192.531 Y62.529 I-1.469 J1.529 F150
X195.469 Y59.471 I1.469 J-1.529
X192.531 Y62.529 Z-1.904 I-1.469 J1.529 F50
X195.204 Y59.255 Z-2.046 I1.469 J-1.529
X192.796 Y62.745 I-1.204 J1.745 F150
X195.204 Y59.255 I1.204 J-1.745
X192.796 Y62.745 Z-2.196 I-1.204 J1.745 F50
X194.909 Y59.085 Z-2.338 I1.204 J-1.745
X193.091 Y62.915 I-0.909 J1.915 F150
X194.909 Y59.085 I0.909 J-1.915
X193.091 Y62.915 Z-2.488 I-0.909 J1.915 F50
X194.59 Y58.964 Z-2.631 I0.909 J-1.915
X193.41 Y63.036 I-0.59 J2.036 F150
X194.59 Y58.964 I0.59 J-2.036
X193.41 Y63.036 Z-2.781 I-0.59 J2.036 F50
X194.256 Y58.895 Z-2.923 I0.59 J-2.036
X193.744 Y63.105 I-0.256 J2.105 F150
X194.256 Y58.895 I0.256 J-2.105
X193.744 Y63.105 Z-3.073 I-0.256 J2.105 F50
X193.915 Y58.882 Z-3.215 I0.256 J-2.105
X194.085 Y63.118 I0.085 J2.118 F150
X193.915 Y58.882 I-0.085 J-2.118
X194.085 Y63.118 Z-3.365 I0.085 J2.118 F50
X193.576 Y58.923 Z-3.508 I-0.085 J-2.118
X194.424 Y63.077 I0.424 J2.077 F150
X193.576 Y58.923 I-0.424 J-2.077
X194.424 Y63.077 Z-3.658 I0.424 J2.077 F50
X193.248 Y59.018 Z-3.8 I-0.424 J-2.077
X194.752 Y62.982 I0.752 J1.982 F150
X193.248 Y59.018 I-0.752 J-1.982
G1 X193.306 Y59 Z-3.788
X193.366 Y58.99 Z-3.776
X193.427 Y58.987 Z-3.764
X193.503 Y58.995 Z-3.712
X193.578 Y59.015 Z-3.661
X193.625 Y59.035 Z-3.583
X193.67 Y59.06 Z-3.506
X193.7 Y59.08 Z-3.324
Z15
X224.835 Y23.229
Z5
Z2.976 F50
X224.864 Y23.21 Z2.796
X224.95 Y23.158 Z2.643
X225.084 Y23.088 Z2.539
X225.248 Y23.018 Z2.5
G3 X226.752 Y26.982 Z2.35 I0.752 J1.982
X225.248 Y23.018 Z2.2 I-0.752 J-1.982
X226.752 Y26.982 Z2.05 I0.752 J1.982
X225.248 Y23.018 Z1.9 I-0.752 J-1.982
X226.752 Y26.982 Z1.75 I0.752 J1.982
X225.248 Y23.018 Z1.6 I-0.752 J-1.982
X226.752 Y26.982 Z1.45 I0.752 J1.982
X225.248 Y23.018 Z1.3 I-0.752 J-1.982
X226.752 Y26.982 Z1.15 I0.752 J1.982
X225.248 Y23.018 Z1 I-0.752 J-1.982
X226.752 Y26.982 Z0.85 I0.752 J1.982
X225.248 Y23.018 Z0.7 I-0.752 J-1.982
X226.752 Y26.982 Z0.55 I0.752 J1.982
X225.248 Y23.018 Z0.4 I-0.752 J-1.982
X226.752 Y26.982 Z0.25 I0.752 J1.982
X225.248 Y23.018 Z0.1 I-0.752 J-1.982
X226.752 Y26.982 Z-0.05 I0.752 J1.982
X225.248 Y23.018 Z-0.2 I-0.752 J-1.982
X228.12 Y25 Z-0.292 I0.752 J1.982
X223.88 Y25 I-2.12 J0 F150
X228.12 Y25 I2.12 J0
X223.88 Y25 Z-0.442 I-2.12 J0 F50
X228.093 Y24.66 Z-0.585 I2.12 J0
X223.907 Y25.34 I-2.093 J0.34 F150
X228.093 Y24.66 I2.093 J-0.34
X223.907 Y25.34 Z-0.735 I-2.093 J0.34 F50
X228.011 Y24.329 Z-0.877 I2.093 J-0.34
X223.989 Y25.671 I-2.011 J0.671 F150
X228.011 Y24.329 I2.011 J-0.671
X223.989 Y25.671 Z-1.027 I-2.011 J0.671 F50
X227.877 Y24.015 Z-1.169 I2.011 J-0.671
X224.123 Y25.985 I-1.877 J0.985 F150
X227.877 Y24.015 I1.877 J-0.985
X224.123 Y25.985 Z-1.319 I-1.877 J0.985 F50
X227.695 Y23.726 Z-1.462 I1.877 J-0.985
X224.305 Y26.274 I-1.695 J1.274 F150
X227.695 Y23.726 I1.695 J-1.274
X224.305 Y26.274 Z-1.612 I-1.695 J1.274 F50
X227.469 Y23.471 Z-1.754 I1.695 J-1.274
X224.531 Y26.529 I-1.469 J1.529 F150
X227.469 Y23.471 I1.469 J-1.529
X224.531 Y26.529 Z-1.904 I-1.469 J1.529 F50
X227.204 Y23.255 Z-2.046 I1.469 J-1.529
X224.796 Y26.745 I-1.204 J1.745 F150
X227.204 Y23.255 I1.204 J-1.745
X224.796 Y26.745 Z-2.196 I-1.204 J1.745 F50
X226.909 Y23.085 Z-2.338 I1.204 J-1.745
X225.091 Y26.915 I-0.909 J1.915 F150
X226.909 Y23.085 I0.909 J-1.915
X225.091 Y26.915 Z-2.488 I-0.909 J1.915 F50
X226.59 Y22.964 Z-2.631 I0.909 J-1.915
X225.41 Y27.036 I-0.59 J2.036 F150
X226.59 Y22.964 I0.59 J-2.036
X225.41 Y27.036 Z-2.781 I-0.59 J2.036 F50
X226.256 Y22.895 Z-2.923 I0.59 J-2.036
X225.744 Y27.105 I-0.256 J2.105 F150
X226.256 Y22.895 I0.256 J-2.105
X225.744 Y27.105 Z-3.073 I-0.256 J2.105 F50
X225.915 Y22.882 Z-3.215 I0.256 J-2.105
X226.085 Y27.118 I0.085 J2.118 F150
X225.915 Y22.882 I-0.085 J-2.118
X226.085 Y27.118 Z-3.365 I0.085 J2.118 F50
X225.576 Y22.923 Z-3.508 I-0.085 J-2.118
X226.424 Y27.077 I0.424 J2.077 F150
X225.576 Y22.923 I-0.424 J-2.077
X226.424 Y27.077 Z-3.658 I0.424 J2.077 F50
X225.248 Y23.018 Z-3.8 I-0.424 J-2.077
X226.752 Y26.982 I0.752 J1.982 F150
X225.248 Y23.018 I-0.752 J-1.982
G1 X225.306 Y23 Z-3.788
X225.366 Y22.99 Z-3.776
X225.427 Y22.987 Z-3.764
X225.503 Y22.995 Z-3.712
X225.578 Y23.015 Z-3.661
X225.625 Y23.035 Z-3.583
X225.67 Y23.06 Z-3.506
X225.7 Y23.08 Z-3.324
Z15
X224.835 Y59.229
Z5
Z2.976 F50
X224.864 Y59.21 Z2.796
X224.95 Y59.158 Z2.643
X225.084 Y59.088 Z2.539
X225.248 Y59.018 Z2.5
G3 X226.752 Y62.982 Z2.35 I0.752 J1.982
X225.248 Y59.018 Z2.2 I-0.752 J-1.982
X226.752 Y62.982 Z2.05 I0.752 J1.982
X225.248 Y59.018 Z1.9 I-0.752 J-1.982
X226.752 Y62.982 Z1.75 I0.752 J1.982
X225.248 Y59.018 Z1.6 I-0.752 J-1.982
X226.752 Y62.982 Z1.45 I0.752 J1.982
X225.248 Y59.018 Z1.3 I-0.752 J-1.982
X226.752 Y62.982 Z1.15 I0.752 J1.982
X225.248 Y59.018 Z1 I-0.752 J-1.982
X226.752 Y62.982 Z0.85 I0.752 J1.982
X225.248 Y59.018 Z0.7 I-0.752 J-1.982
X226.752 Y62.982 Z0.55 I0.752 J1.982
X225.248 Y59.018 Z0.4 I-0.752 J-1.982
X226.752 Y62.982 Z0.25 I0.752 J1.982
X225.248 Y59.018 Z0.1 I-0.752 J-1.982
X226.752 Y62.982 Z-0.05 I0.752 J1.982
X225.248 Y59.018 Z-0.2 I-0.752 J-1.982
X228.12 Y61 Z-0.292 I0.752 J1.982
X223.88 Y61 I-2.12 J0 F150
X228.12 Y61 I2.12 J0
X223.88 Y61 Z-0.442 I-2.12 J0 F50
X228.093 Y60.66 Z-0.585 I2.12 J0
X223.907 Y61.34 I-2.093 J0.34 F150
X228.093 Y60.66 I2.093 J-0.34
X223.907 Y61.34 Z-0.735 I-2.093 J0.34 F50
X228.011 Y60.329 Z-0.877 I2.093 J-0.34
X223.989 Y61.671 I-2.011 J0.671 F150
X228.011 Y60.329 I2.011 J-0.671
X223.989 Y61.671 Z-1.027 I-2.011 J0.671 F50
X227.877 Y60.015 Z-1.169 I2.011 J-0.671
X224.123 Y61.985 I-1.877 J0.985 F150
X227.877 Y60.015 I1.877 J-0.985
X224.123 Y61.985 Z-1.319 I-1.877 J0.985 F50
X227.695 Y59.726 Z-1.462 I1.877 J-0.985
X224.305 Y62.274 I-1.695 J1.274 F150
X227.695 Y59.726 I1.695 J-1.274
X224.305 Y62.274 Z-1.612 I-1.695 J1.274 F50
X227.469 Y59.471 Z-1.754 I1.695 J-1.274
X224.531 Y62.529 I-1.469 J1.529 F150
X227.469 Y59.471 I1.469 J-1.529
X224.531 Y62.529 Z-1.904 I-1.469 J1.529 F50
X227.204 Y59.255 Z-2.046 I1.469 J-1.529
X224.796 Y62.745 I-1.204 J1.745 F150
X227.204 Y59.255 I1.204 J-1.745
X224.796 Y62.745 Z-2.196 I-1.204 J1.745 F50
X226.909 Y59.085 Z-2.338 I1.204 J-1.745
X225.091 Y62.915 I-0.909 J1.915 F150
X226.909 Y59.085 I0.909 J-1.915
X225.091 Y62.915 Z-2.488 I-0.909 J1.915 F50
X226.59 Y58.964 Z-2.631 I0.909 J-1.915
X225.41 Y63.036 I-0.59 J2.036 F150
X226.59 Y58.964 I0.59 J-2.036
X225.41 Y63.036 Z-2.781 I-0.59 J2.036 F50
X226.256 Y58.895 Z-2.923 I0.59 J-2.036
X225.744 Y63.105 I-0.256 J2.105 F150
X226.256 Y58.895 I0.256 J-2.105
X225.744 Y63.105 Z-3.073 I-0.256 J2.105 F50
X225.915 Y58.882 Z-3.215 I0.256 J-2.105
X226.085 Y63.118 I0.085 J2.118 F150
X225.915 Y58.882 I-0.085 J-2.118
X226.085 Y63.118 Z-3.365 I0.085 J2.118 F50
X225.576 Y58.923 Z-3.508 I-0.085 J-2.118
X226.424 Y63.077 I0.424 J2.077 F150
X225.576 Y58.923 I-0.424 J-2.077
X226.424 Y63.077 Z-3.658 I0.424 J2.077 F50
X225.248 Y59.018 Z-3.8 I-0.424 J-2.077
X226.752 Y62.982 I0.752 J1.982 F150
X225.248 Y59.018 I-0.752 J-1.982
G1 X225.306 Y59 Z-3.788
X225.366 Y58.99 Z-3.776
X225.427 Y58.987 Z-3.764
X225.503 Y58.995 Z-3.712
X225.578 Y59.015 Z-3.661
X225.625 Y59.035 Z-3.583
X225.67 Y59.06 Z-3.506
X225.7 Y59.08 Z-3.324
Z15

(Drill3)
G0 X100 Y29.91
Z15
Z5
Z1.2
Z-1.8
G1 Z-4.1 F50
G0 Z1.2
Z-2.1
G1 Z-4.4 F50
G0 Z1.2
Z-2.4
G1 Z-4.7 F50
G0 Z1.2
Z-2.7
G1 Z-5 F50
G0 Z1.2
Z-3
G1 Z-5.3 F50
G0 Z1.2
Z-3.3
G1 Z-5.6 F50
G0 Z1.2
Z-3.6
G1 Z-5.9 F50
G0 Z1.2
Z-3.9
G1 Z-6.2 F50
G0 Z1.2
Z-4.2
G1 Z-6.5 F50
G0 Z1.2
Z-4.5
G1 Z-6.8 F50
G0 Z1.2
Z-4.8
G1 Z-7.1 F50
G0 Z1.2
Z-5.1
G1 Z-7.4 F50
G0 Z1.2
Z-5.4
G1 Z-7.7 F50
G0 Z1.2
Z-5.7
G1 Z-8 F50
G4 P1.
G0 Z5
Y53.91
Z1.2
Z-1.8
G1 Z-4.1 F50
G0 Z1.2
Z-2.1
G1 Z-4.4 F50
G0 Z1.2
Z-2.4
G1 Z-4.7 F50
G0 Z1.2
Z-2.7
G1 Z-5 F50
G0 Z1.2
Z-3
G1 Z-5.3 F50
G0 Z1.2
Z-3.3
G1 Z-5.6 F50
G0 Z1.2
Z-3.6
G1 Z-5.9 F50
G0 Z1.2
Z-3.9
G1 Z-6.2 F50
G0 Z1.2
Z-4.2
G1 Z-6.5 F50
G0 Z1.2
Z-4.5
G1 Z-6.8 F50
G0 Z1.2
Z-4.8
G1 Z-7.1 F50
G0 Z1.2
Z-5.1
G1 Z-7.4 F50
G0 Z1.2
Z-5.4
G1 Z-7.7 F50
G0 Z1.2
Z-5.7
G1 Z-8 F50
G4 P1.
G0 Z5
X140
Z1.2
Z-1.8
G1 Z-4.1 F50
G0 Z1.2
Z-2.1
G1 Z-4.4 F50
G0 Z1.2
Z-2.4
G1 Z-4.7 F50
G0 Z1.2
Z-2.7
G1 Z-5 F50
G0 Z1.2
Z-3
G1 Z-5.3 F50
G0 Z1.2
Z-3.3
G1 Z-5.6 F50
G0 Z1.2
Z-3.6
G1 Z-5.9 F50
G0 Z1.2
Z-3.9
G1 Z-6.2 F50
G0 Z1.2
Z-4.2
G1 Z-6.5 F50
G0 Z1.2
Z-4.5
G1 Z-6.8 F50
G0 Z1.2
Z-4.8
G1 Z-7.1 F50
G0 Z1.2
Z-5.1
G1 Z-7.4 F50
G0 Z1.2
Z-5.4
G1 Z-7.7 F50
G0 Z1.2
Z-5.7
G1 Z-8 F50
G4 P1.
G0 Z5
Y29.91
Z1.2
Z-1.8
G1 Z-4.1 F50
G0 Z1.2
Z-2.1
G1 Z-4.4 F50
G0 Z1.2
Z-2.4
G1 Z-4.7 F50
G0 Z1.2
Z-2.7
G1 Z-5 F50
G0 Z1.2
Z-3
G1 Z-5.3 F50
G0 Z1.2
Z-3.3
G1 Z-5.6 F50
G0 Z1.2
Z-3.6
G1 Z-5.9 F50
G0 Z1.2
Z-3.9
G1 Z-6.2 F50
G0 Z1.2
Z-4.2
G1 Z-6.5 F50
G0 Z1.2
Z-4.5
G1 Z-6.8 F50
G0 Z1.2
Z-4.8
G1 Z-7.1 F50
G0 Z1.2
Z-5.1
G1 Z-7.4 F50
G0 Z1.2
Z-5.4
G1 Z-7.7 F50
G0 Z1.2
Z-5.7
G1 Z-8 F50
G4 P1.
G0 Z5
Z15
(When using Fusion for Personal Use, the feedrate of rapid)
(moves is reduced to match the feedrate of cutting moves,)
(which can increase machining time. Unrestricted rapid moves)
(are available with a Fusion Subscription.)

(2D Contour5)
G0 X-0.476 Y89.808
G1 Z15 F200
Z5
Z0.952 F66.7
Z0.076
G19 G2 Y89.332 Z-0.4 J-0.476 K0 F50
G1 Y88.856
G17 G3 X0 Y88.38 I0.476 J0
G1 X270 F200
G2 X272.38 Y86 I0 J-2.38
G1 Y0
G2 X270 Y-2.38 I-2.38 J0
G1 X0
G2 X-2.38 Y0 I0 J2.38
G1 Y86
G2 X0 Y88.38 I2.38 J0
G3 X0.476 Y88.856 I0 J0.476
G1 Y89.332
G19 G3 Y89.808 Z0.076 J0 K0.476
G1 Z5
X-0.476
Z0.552 F66.7
Z-0.324
G2 Y89.332 Z-0.8 J-0.476 K0 F50
G1 Y88.856
G17 G3 X0 Y88.38 I0.476 J0
G1 X270 F200
G2 X272.38 Y86 I0 J-2.38
G1 Y0
G2 X270 Y-2.38 I-2.38 J0
G1 X0
G2 X-2.38 Y0 I0 J2.38
G1 Y86
G2 X0 Y88.38 I2.38 J0
G3 X0.476 Y88.856 I0 J0.476
G1 Y89.332
G19 G3 Y89.808 Z-0.324 J0 K0.476
G1 Z5
X-0.476
Z0.152 F66.7
Z-0.724
G2 Y89.332 Z-1.2 J-0.476 K0 F50
G1 Y88.856
G17 G3 X0 Y88.38 I0.476 J0
G1 X270 F200
G2 X272.38 Y86 I0 J-2.38
G1 Y0
G2 X270 Y-2.38 I-2.38 J0
G1 X0
G2 X-2.38 Y0 I0 J2.38
G1 Y86
G2 X0 Y88.38 I2.38 J0
G3 X0.476 Y88.856 I0 J0.476
G1 Y89.332
G19 G3 Y89.808 Z-0.724 J0 K0.476
G1 Z5
X-0.476
Z-0.248 F66.7
Z-1.124
G2 Y89.332 Z-1.6 J-0.476 K0 F50
G1 Y88.856
G17 G3 X0 Y88.38 I0.476 J0
G1 X270 F200
G2 X272.38 Y86 I0 J-2.38
G1 Y0
G2 X270 Y-2.38 I-2.38 J0
G1 X0
G2 X-2.38 Y0 I0 J2.38
G1 Y86
G2 X0 Y88.38 I2.38 J0
G3 X0.476 Y88.856 I0 J0.476
G1 Y89.332
G19 G3 Y89.808 Z-1.124 J0 K0.476
G1 Z5
X-0.476
Z-0.648 F66.7
Z-1.524
G2 Y89.332 Z-2 J-0.476 K0 F50
G1 Y88.856
G17 G3 X0 Y88.38 I0.476 J0
G1 X270 F200
G2 X272.38 Y86 I0 J-2.38
G1 Y0
G2 X270 Y-2.38 I-2.38 J0
G1 X0
G2 X-2.38 Y0 I0 J2.38
G1 Y86
G2 X0 Y88.38 I2.38 J0
G3 X0.476 Y88.856 I0 J0.476
G1 Y89.332
G19 G3 Y89.808 Z-1.524 J0 K0.476
G1 Z5
X-0.476
Z-1.048 F66.7
Z-1.924
G2 Y89.332 Z-2.4 J-0.476 K0 F50
G1 Y88.856
G17 G3 X0 Y88.38 I0.476 J0
G1 X270 F200
G2 X272.38 Y86 I0 J-2.38
G1 Y0
G2 X270 Y-2.38 I-2.38 J0
G1 X0
G2 X-2.38 Y0 I0 J2.38
G1 Y86
G2 X0 Y88.38 I2.38 J0
G3 X0.476 Y88.856 I0 J0.476
G1 Y89.332
G19 G3 Y89.808 Z-1.924 J0 K0.476
G1 Z5
X-0.476
Z-1.448 F66.7
Z-2.324
G2 Y89.332 Z-2.8 J-0.476 K0 F50
G1 Y88.856
G17 G3 X0 Y88.38 I0.476 J0
G1 X270 F200
G2 X272.38 Y86 I0 J-2.38
G1 Y0
G2 X270 Y-2.38 I-2.38 J0
G1 X0
G2 X-2.38 Y0 I0 J2.38
G1 Y86
G2 X0 Y88.38 I2.38 J0
G3 X0.476 Y88.856 I0 J0.476
G1 Y89.332
G19 G3 Y89.808 Z-2.324 J0 K0.476
G1 Z5
X-0.476
Z-1.848 F66.7
Z-2.724
G2 Y89.332 Z-3.2 J-0.476 K0 F50
G1 Y88.856
G17 G3 X0 Y88.38 I0.476 J0
G1 X270 F200
G2 X272.38 Y86 I0 J-2.38
G1 Y0
G2 X270 Y-2.38 I-2.38 J0
G1 X0
G2 X-2.38 Y0 I0 J2.38
G1 Y86
G2 X0 Y88.38 I2.38 J0
G3 X0.476 Y88.856 I0 J0.476
G1 Y89.332
G19 G3 Y89.808 Z-2.724 J0 K0.476
G1 Z5
X-0.476
Z-2.248 F66.7
Z-3.124
G2 Y89.332 Z-3.6 J-0.476 K0 F50
G1 Y88.856
G17 G3 X0 Y88.38 I0.476 J0
G1 X270 F200
G2 X272.38 Y86 I0 J-2.38
G1 Y0
G2 X270 Y-2.38 I-2.38 J0
G1 X0
G2 X-2.38 Y0 I0 J2.38
G1 Y86
G2 X0 Y88.38 I2.38 J0
G3 X0.476 Y88.856 I0 J0.476
G1 Y89.332
G19 G3 Y89.808 Z-3.124 J0 K0.476
G1 Z5
X-0.476
Z-2.648 F66.7
Z-3.524
G2 Y89.332 Z-4 J-0.476 K0 F50
G1 Y88.856
G17 G3 X0 Y88.38 I0.476 J0
G1 X270 F200
G2 X272.38 Y86 I0 J-2.38
G1 Y0
G2 X270 Y-2.38 I-2.38 J0
G1 X0
G2 X-2.38 Y0 I0 J2.38
G1 Y86
G2 X0 Y88.38 I2.38 J0
G3 X0.476 Y88.856 I0 J0.476
G1 Y89.332
G19 G3 Y89.808 Z-3.524 J0 K0.476
G1 Z5
X-0.476
Z-3.048 F66.7
Z-3.924
G2 Y89.332 Z-4.4 J-0.476 K0 F50
G1 Y88.856
G17 G3 X0 Y88.38 I0.476 J0
G1 X270 F200
G2 X272.38 Y86 I0 J-2.38
G1 Y0
G2 X270 Y-2.38 I-2.38 J0
G1 X0
G2 X-2.38 Y0 I0 J2.38
G1 Y86
G2 X0 Y88.38 I2.38 J0
G3 X0.476 Y88.856 I0 J0.476
G1 Y89.332
G19 G3 Y89.808 Z-3.924 J0 K0.476
G1 Z5
X-0.476
Z-3.448 F66.7
Z-4.324
G2 Y89.332 Z-4.8 J-0.476 K0 F50
G1 Y88.856
G17 G3 X0 Y88.38 I0.476 J0
G1 X270 F200
G2 X272.38 Y86 I0 J-2.38
G1 Y0
G2 X270 Y-2.38 I-2.38 J0
G1 X0
G2 X-2.38 Y0 I0 J2.38
G1 Y86
G2 X0 Y88.38 I2.38 J0
G3 X0.476 Y88.856 I0 J0.476
G1 Y89.332
G19 G3 Y89.808 Z-4.324 J0 K0.476
G1 Z5
X-0.476
Z-3.848 F66.7
Z-4.724
G2 Y89.332 Z-5.2 J-0.476 K0 F50
G1 Y88.856
G17 G3 X0 Y88.38 I0.476 J0
G1 X270 F200
G2 X272.38 Y86 I0 J-2.38
G1 Y0
G2 X270 Y-2.38 I-2.38 J0
G1 X0
G2 X-2.38 Y0 I0 J2.38
G1 Y86
G2 X0 Y88.38 I2.38 J0
G3 X0.476 Y88.856 I0 J0.476
G1 Y89.332
G19 G3 Y89.808 Z-4.724 J0 K0.476
G1 Z5
X-0.476
Z-4.248 F66.7
Z-5.124
G2 Y89.332 Z-5.6 J-0.476 K0 F50
G1 Y88.856
G17 G3 X0 Y88.38 I0.476 J0
G1 X270 F200
G2 X272.38 Y86 I0 J-2.38
G1 Y0
G2 X270 Y-2.38 I-2.38 J0
G1 X0
G2 X-2.38 Y0 I0 J2.38
G1 Y86
G2 X0 Y88.38 I2.38 J0
G3 X0.476 Y88.856 I0 J0.476
G1 Y89.332
G19 G3 Y89.808 Z-5.124 J0 K0.476
G1 Z5
X-0.476
Z-4.648 F66.7
Z-5.524
G2 Y89.332 Z-6 J-0.476 K0 F50
G1 Y88.856
G17 G3 X0 Y88.38 I0.476 J0
G1 X270 F200
G2 X272.38 Y86 I0 J-2.38
G1 Y0
G2 X270 Y-2.38 I-2.38 J0
G1 X0
G2 X-2.38 Y0 I0 J2.38
G1 Y86
G2 X0 Y88.38 I2.38 J0
G3 X0.476 Y88.856 I0 J0.476
G1 Y89.332
G19 G3 Y89.808 Z-5.524 J0 K0.476
G1 Z5
X-0.476
Z-5.048 F66.7
Z-5.924
G2 Y89.332 Z-6.4 J-0.476 K0 F50
G1 Y88.856
G17 G3 X0 Y88.38 I0.476 J0
G1 X270 F200
G2 X272.38 Y86 I0 J-2.38
G1 Y0
G2 X270 Y-2.38 I-2.38 J0
G1 X0
G2 X-2.38 Y0 I0 J2.38
G1 Y86
G2 X0 Y88.38 I2.38 J0
G3 X0.476 Y88.856 I0 J0.476
G1 Y89.332
G19 G3 Y89.808 Z-5.924 J0 K0.476
G1 Z5
X-0.476
Z-5.448 F66.7
Z-6.324
G2 Y89.332 Z-6.8 J-0.476 K0 F50
G1 Y88.856
G17 G3 X0 Y88.38 I0.476 J0
G1 X270 F200
G2 X272.38 Y86 I0 J-2.38
G1 Y0
G2 X270 Y-2.38 I-2.38 J0
G1 X0
G2 X-2.38 Y0 I0 J2.38
G1 Y86
G2 X0 Y88.38 I2.38 J0
G3 X0.476 Y88.856 I0 J0.476
G1 Y89.332
G19 G3 Y89.808 Z-6.324 J0 K0.476
G1 Z5
X-0.476
Z-5.848 F66.7
Z-6.724
G2 Y89.332 Z-7.2 J-0.476 K0 F50
G1 Y88.856
G17 G3 X0 Y88.38 I0.476 J0
G1 X270 F200
G2 X272.38 Y86 I0 J-2.38
G1 Y0
G2 X270 Y-2.38 I-2.38 J0
G1 X0
G2 X-2.38 Y0 I0 J2.38
G1 Y86
G2 X0 Y88.38 I2.38 J0
G3 X0.476 Y88.856 I0 J0.476
G1 Y89.332
G19 G3 Y89.808 Z-6.724 J0 K0.476
G1 Z5
X-0.476
Z-6.248 F66.7
Z-7.124
G2 Y89.332 Z-7.6 J-0.476 K0 F50
G1 Y88.856
G17 G3 X0 Y88.38 I0.476 J0
G1 X270 F200
G2 X272.38 Y86 I0 J-2.38
G1 Y0
G2 X270 Y-2.38 I-2.38 J0
G1 X0
G2 X-2.38 Y0 I0 J2.38
G1 Y86
G2 X0 Y88.38 I2.38 J0
G3 X0.476 Y88.856 I0 J0.476
G1 Y89.332
G19 G3 Y89.808 Z-7.124 J0 K0.476
G1 Z5
X-0.476
Z-6.648 F66.7
Z-7.524
G2 Y89.332 Z-8 J-0.476 K0 F50
G1 Y88.856
G17 G3 X0 Y88.38 I0.476 J0
G1 X270 F200
G2 X272.38 Y86 I0 J-2.38
G1 Y0
G2 X270 Y-2.38 I-2.38 J0
G1 X0
G2 X-2.38 Y0 I0 J2.38
G1 Y86
G2 X0 Y88.38 I2.38 J0
G3 X0.476 Y88.856 I0 J0.476
G1 Y89.332
G19 G3 Y89.808 Z-7.524 J0 K0.476
G1 Z15
G17

M9
M5
M30
