(base_plate)
(Machine)
(  vendor: Autodesk)
(  model: Generic 3-axis)
(  description: This machine has XY axis on the Table and Z axis on the Head)
(T3 D=3.1 CR=0 - ZMIN=-6.1 - flat end mill)
G90 G94
G17
G21
(-Attention- Property Safe Retracts is set to Clearance Height.)
(Ensure the clearance height will clear the part and or fixtures.)
(Raise the Z-axis to a safe height before starting the program.)
(When using Fusion for Personal Use, the feedrate of rapid)
(moves is reduced to match the feedrate of cutting moves,)
(which can increase machining time. Unrestricted rapid moves)
(are available with a Fusion Subscription.)

(Bore4)
T3
S19000 M3
G17 G90 G94
G54
M8
G0 X140.519 Y145.375
Z15
G1 Z-1 F200
Z-2.69 F50
G18 G2 X140.829 Z-3 I0.31 K0
G1 X140.984
G17 G3 X141.259 Y145.65 I0 J0.275
X140.159 Y145.65 Z-3.147 I-0.55 J0 F200
X141.259 Y145.65 Z-3.294 I0.55 J0
X140.159 Y145.65 Z-3.441 I-0.55 J0
X141.259 Y145.65 Z-3.587 I0.55 J0
X140.159 Y145.65 Z-3.734 I-0.55 J0
X141.259 Y145.65 Z-3.881 I0.55 J0
X140.159 Y145.65 Z-4.028 I-0.55 J0
X141.259 Y145.65 Z-4.175 I0.55 J0
X140.159 Y145.65 Z-4.322 I-0.55 J0
X141.259 Y145.65 Z-4.468 I0.55 J0
X140.159 Y145.65 Z-4.615 I-0.55 J0
X141.259 Y145.65 Z-4.762 I0.55 J0
X140.159 Y145.65 Z-4.909 I-0.55 J0
X141.259 Y145.65 Z-5.056 I0.55 J0
X140.159 Y145.65 Z-5.203 I-0.55 J0
X141.259 Y145.65 Z-5.35 I0.55 J0
X140.159 Y145.65 Z-5.496 I-0.55 J0
X141.259 Y145.65 Z-5.643 I0.55 J0
X140.159 Y145.65 Z-5.79 I-0.55 J0
X141.259 Y145.65 Z-5.937 I0.55 J0
X140.159 Y145.65 Z-6.084 I-0.55 J0
X140.191 Y145.463 Z-6.1 I0.55 J0
X141.226 Y145.837 I0.517 J0.187
X140.191 Y145.463 I-0.517 J-0.187
X140.544 Y145.298 I0.259 J0.094 F50
G1 X140.689 Y145.351
X140.754 Y145.374 Z-6.092
X140.816 Y145.396 Z-6.069
X140.871 Y145.416 Z-6.032
X140.917 Y145.433 Z-5.983
X140.952 Y145.446 Z-5.925
X140.974 Y145.453 Z-5.859
X140.981 Y145.456 Z-5.79
Z5 F200
X152.21 Y138.625
Z-1
Z-2.69 F50
G18 G2 X152.52 Z-3 I0.31 K0
G1 X152.675
G17 G3 X152.95 Y138.9 I0 J0.275
X151.85 Y138.9 Z-3.147 I-0.55 J0 F200
X152.95 Y138.9 Z-3.294 I0.55 J0
X151.85 Y138.9 Z-3.441 I-0.55 J0
X152.95 Y138.9 Z-3.587 I0.55 J0
X151.85 Y138.9 Z-3.734 I-0.55 J0
X152.95 Y138.9 Z-3.881 I0.55 J0
X151.85 Y138.9 Z-4.028 I-0.55 J0
X152.95 Y138.9 Z-4.175 I0.55 J0
X151.85 Y138.9 Z-4.322 I-0.55 J0
X152.95 Y138.9 Z-4.468 I0.55 J0
X151.85 Y138.9 Z-4.615 I-0.55 J0
X152.95 Y138.9 Z-4.762 I0.55 J0
X151.85 Y138.9 Z-4.909 I-0.55 J0
X152.95 Y138.9 Z-5.056 I0.55 J0
X151.85 Y138.9 Z-5.203 I-0.55 J0
X152.95 Y138.9 Z-5.35 I0.55 J0
X151.85 Y138.9 Z-5.496 I-0.55 J0
X152.95 Y138.9 Z-5.643 I0.55 J0
X151.85 Y138.9 Z-5.79 I-0.55 J0
X152.95 Y138.9 Z-5.937 I0.55 J0
X151.85 Y138.9 Z-6.084 I-0.55 J0
X151.883 Y138.713 Z-6.1 I0.55 J0
X152.917 Y139.087 I0.517 J0.187
X151.883 Y138.713 I-0.517 J-0.187
X152.235 Y138.548 I0.259 J0.094 F50
G1 X152.381 Y138.601
X152.446 Y138.624 Z-6.092
X152.507 Y138.646 Z-6.069
X152.562 Y138.666 Z-6.032
X152.609 Y138.683 Z-5.983
X152.643 Y138.696 Z-5.925
X152.665 Y138.703 Z-5.859
X152.672 Y138.706 Z-5.79
Z5 F200
X163.901 Y145.375
Z-1
Z-2.69 F50
G18 G2 X164.211 Z-3 I0.31 K0
G1 X164.366
G17 G3 X164.641 Y145.65 I0 J0.275
X163.541 Y145.65 Z-3.147 I-0.55 J0 F200
X164.641 Y145.65 Z-3.294 I0.55 J0
X163.541 Y145.65 Z-3.441 I-0.55 J0
X164.641 Y145.65 Z-3.587 I0.55 J0
X163.541 Y145.65 Z-3.734 I-0.55 J0
X164.641 Y145.65 Z-3.881 I0.55 J0
X163.541 Y145.65 Z-4.028 I-0.55 J0
X164.641 Y145.65 Z-4.175 I0.55 J0
X163.541 Y145.65 Z-4.322 I-0.55 J0
X164.641 Y145.65 Z-4.468 I0.55 J0
X163.541 Y145.65 Z-4.615 I-0.55 J0
X164.641 Y145.65 Z-4.762 I0.55 J0
X163.541 Y145.65 Z-4.909 I-0.55 J0
X164.641 Y145.65 Z-5.056 I0.55 J0
X163.541 Y145.65 Z-5.203 I-0.55 J0
X164.641 Y145.65 Z-5.35 I0.55 J0
X163.541 Y145.65 Z-5.496 I-0.55 J0
X164.641 Y145.65 Z-5.643 I0.55 J0
X163.541 Y145.65 Z-5.79 I-0.55 J0
X164.641 Y145.65 Z-5.937 I0.55 J0
X163.541 Y145.65 Z-6.084 I-0.55 J0
X163.574 Y145.463 Z-6.1 I0.55 J0
X164.609 Y145.837 I0.517 J0.187
X163.574 Y145.463 I-0.517 J-0.187
X163.926 Y145.298 I0.259 J0.094 F50
G1 X164.072 Y145.351
X164.137 Y145.374 Z-6.092
X164.199 Y145.396 Z-6.069
X164.254 Y145.416 Z-6.032
X164.3 Y145.433 Z-5.983
X164.335 Y145.446 Z-5.925
X164.356 Y145.453 Z-5.859
X164.364 Y145.456 Z-5.79
Z5 F200
X163.901 Y158.875
Z-1
Z-2.69 F50
G18 G2 X164.211 Z-3 I0.31 K0
G1 X164.366
G17 G3 X164.641 Y159.15 I0 J0.275
X163.541 Y159.15 Z-3.147 I-0.55 J0 F200
X164.641 Y159.15 Z-3.294 I0.55 J0
X163.541 Y159.15 Z-3.441 I-0.55 J0
X164.641 Y159.15 Z-3.587 I0.55 J0
X163.541 Y159.15 Z-3.734 I-0.55 J0
X164.641 Y159.15 Z-3.881 I0.55 J0
X163.541 Y159.15 Z-4.028 I-0.55 J0
X164.641 Y159.15 Z-4.175 I0.55 J0
X163.541 Y159.15 Z-4.322 I-0.55 J0
X164.641 Y159.15 Z-4.468 I0.55 J0
X163.541 Y159.15 Z-4.615 I-0.55 J0
X164.641 Y159.15 Z-4.762 I0.55 J0
X163.541 Y159.15 Z-4.909 I-0.55 J0
X164.641 Y159.15 Z-5.056 I0.55 J0
X163.541 Y159.15 Z-5.203 I-0.55 J0
X164.641 Y159.15 Z-5.35 I0.55 J0
X163.541 Y159.15 Z-5.496 I-0.55 J0
X164.641 Y159.15 Z-5.643 I0.55 J0
X163.541 Y159.15 Z-5.79 I-0.55 J0
X164.641 Y159.15 Z-5.937 I0.55 J0
X163.541 Y159.15 Z-6.084 I-0.55 J0
X163.574 Y158.963 Z-6.1 I0.55 J0
X164.609 Y159.337 I0.517 J0.187
X163.574 Y158.963 I-0.517 J-0.187
X163.926 Y158.798 I0.259 J0.094 F50
G1 X164.072 Y158.851
X164.137 Y158.874 Z-6.092
X164.199 Y158.896 Z-6.069
X164.254 Y158.916 Z-6.032
X164.3 Y158.933 Z-5.983
X164.335 Y158.946 Z-5.925
X164.356 Y158.953 Z-5.859
X164.364 Y158.956 Z-5.79
Z5 F200
X152.21 Y165.625
Z-1
Z-2.69 F50
G18 G2 X152.52 Z-3 I0.31 K0
G1 X152.675
G17 G3 X152.95 Y165.9 I0 J0.275
X151.85 Y165.9 Z-3.147 I-0.55 J0 F200
X152.95 Y165.9 Z-3.294 I0.55 J0
X151.85 Y165.9 Z-3.441 I-0.55 J0
X152.95 Y165.9 Z-3.587 I0.55 J0
X151.85 Y165.9 Z-3.734 I-0.55 J0
X152.95 Y165.9 Z-3.881 I0.55 J0
X151.85 Y165.9 Z-4.028 I-0.55 J0
X152.95 Y165.9 Z-4.175 I0.55 J0
X151.85 Y165.9 Z-4.322 I-0.55 J0
X152.95 Y165.9 Z-4.468 I0.55 J0
X151.85 Y165.9 Z-4.615 I-0.55 J0
X152.95 Y165.9 Z-4.762 I0.55 J0
X151.85 Y165.9 Z-4.909 I-0.55 J0
X152.95 Y165.9 Z-5.056 I0.55 J0
X151.85 Y165.9 Z-5.203 I-0.55 J0
X152.95 Y165.9 Z-5.35 I0.55 J0
X151.85 Y165.9 Z-5.496 I-0.55 J0
X152.95 Y165.9 Z-5.643 I0.55 J0
X151.85 Y165.9 Z-5.79 I-0.55 J0
X152.95 Y165.9 Z-5.937 I0.55 J0
X151.85 Y165.9 Z-6.084 I-0.55 J0
X151.883 Y165.713 Z-6.1 I0.55 J0
X152.917 Y166.087 I0.517 J0.187
X151.883 Y165.713 I-0.517 J-0.187
X152.235 Y165.548 I0.259 J0.094 F50
G1 X152.381 Y165.601
X152.446 Y165.624 Z-6.092
X152.507 Y165.646 Z-6.069
X152.562 Y165.666 Z-6.032
X152.609 Y165.683 Z-5.983
X152.643 Y165.696 Z-5.925
X152.665 Y165.703 Z-5.859
X152.672 Y165.706 Z-5.79
Z5 F200
X140.519 Y158.875
Z-1
Z-2.69 F50
G18 G2 X140.829 Z-3 I0.31 K0
G1 X140.984
G17 G3 X141.259 Y159.15 I0 J0.275
X140.159 Y159.15 Z-3.147 I-0.55 J0 F200
X141.259 Y159.15 Z-3.294 I0.55 J0
X140.159 Y159.15 Z-3.441 I-0.55 J0
X141.259 Y159.15 Z-3.587 I0.55 J0
X140.159 Y159.15 Z-3.734 I-0.55 J0
X141.259 Y159.15 Z-3.881 I0.55 J0
X140.159 Y159.15 Z-4.028 I-0.55 J0
X141.259 Y159.15 Z-4.175 I0.55 J0
X140.159 Y159.15 Z-4.322 I-0.55 J0
X141.259 Y159.15 Z-4.468 I0.55 J0
X140.159 Y159.15 Z-4.615 I-0.55 J0
X141.259 Y159.15 Z-4.762 I0.55 J0
X140.159 Y159.15 Z-4.909 I-0.55 J0
X141.259 Y159.15 Z-5.056 I0.55 J0
X140.159 Y159.15 Z-5.203 I-0.55 J0
X141.259 Y159.15 Z-5.35 I0.55 J0
X140.159 Y159.15 Z-5.496 I-0.55 J0
X141.259 Y159.15 Z-5.643 I0.55 J0
X140.159 Y159.15 Z-5.79 I-0.55 J0
X141.259 Y159.15 Z-5.937 I0.55 J0
X140.159 Y159.15 Z-6.084 I-0.55 J0
X140.191 Y158.963 Z-6.1 I0.55 J0
X141.226 Y159.337 I0.517 J0.187
X140.191 Y158.963 I-0.517 J-0.187
X140.544 Y158.798 I0.259 J0.094 F50
G1 X140.689 Y158.851
X140.754 Y158.874 Z-6.092
X140.816 Y158.896 Z-6.069
X140.871 Y158.916 Z-6.032
X140.917 Y158.933 Z-5.983
X140.952 Y158.946 Z-5.925
X140.974 Y158.953 Z-5.859
X140.981 Y158.956 Z-5.79
Z15 F200
(When using Fusion for Personal Use, the feedrate of rapid)
(moves is reduced to match the feedrate of cutting moves,)
(which can increase machining time. Unrestricted rapid moves)
(are available with a Fusion Subscription.)

(2D Pocket1)
G0 X152.091 Y167.255
G1 Z15 F200
Z5
Z2.808 F50
X152.058 Y167.24 Z2.663 F100
X151.968 Y167.196 Z2.551
X151.847 Y167.123 Z2.5
G3 X153.488 Y164.677 Z2.014 I0.82 J-1.223
X151.847 Y167.123 Z1.528 I-0.82 J1.223
X153.488 Y164.677 Z1.041 I0.82 J-1.223
X151.847 Y167.123 Z0.555 I-0.82 J1.223
X153.488 Y164.677 Z0.069 I0.82 J-1.223
X151.847 Y167.123 Z-0.417 I-0.82 J1.223
X153.488 Y164.677 Z-0.903 I0.82 J-1.223
X151.847 Y167.123 Z-1.39 I-0.82 J1.223
X153.488 Y164.677 Z-1.876 I0.82 J-1.223
X151.847 Y167.123 Z-2.362 I-0.82 J1.223
X153.488 Y164.677 Z-2.848 I0.82 J-1.223
X154.14 Y165.9 Z-3 I-0.82 J1.223
X150.66 Y165.9 I-1.74 J0 F200
X154.14 Y165.9 I1.74 J0
G2 X154.789 Y167.049 I1.343 J0 F100
G3 X154.961 Y168.358 I-0.437 J0.723
X149.839 Y163.442 I-2.561 J-2.458 F200
X154.961 Y168.358 I2.561 J2.458
G1 X154.915 Y168.395 Z-2.988 F50
X154.863 Y168.423 Z-2.976
X154.815 Y168.438 Z-2.943
X154.765 Y168.445 Z-2.909
X154.698 Y168.441 Z-2.809
X154.675 Y168.436 Z-2.69
Z15 F200
X140.4 Y160.505
Z5
Z2.808 F50
X140.367 Y160.49 Z2.663 F100
X140.277 Y160.446 Z2.551
X140.156 Y160.373 Z2.5
G3 X141.797 Y157.927 Z2.014 I0.82 J-1.223
X140.156 Y160.373 Z1.528 I-0.82 J1.223
X141.797 Y157.927 Z1.041 I0.82 J-1.223
X140.156 Y160.373 Z0.555 I-0.82 J1.223
X141.797 Y157.927 Z0.069 I0.82 J-1.223
X140.156 Y160.373 Z-0.417 I-0.82 J1.223
X141.797 Y157.927 Z-0.903 I0.82 J-1.223
X140.156 Y160.373 Z-1.39 I-0.82 J1.223
X141.797 Y157.927 Z-1.876 I0.82 J-1.223
X140.156 Y160.373 Z-2.362 I-0.82 J1.223
X141.797 Y157.927 Z-2.848 I0.82 J-1.223
X142.449 Y159.15 Z-3 I-0.82 J1.223
X138.969 Y159.15 I-1.74 J0 F200
X142.449 Y159.15 I1.74 J0
G2 X143.098 Y160.299 I1.343 J0 F100
G3 X143.27 Y161.608 I-0.437 J0.723
X138.148 Y156.692 I-2.561 J-2.458 F200
X143.27 Y161.608 I2.561 J2.458
G1 X143.224 Y161.645 Z-2.988 F50
X143.172 Y161.673 Z-2.976
X143.124 Y161.688 Z-2.943
X143.074 Y161.695 Z-2.909
X143.007 Y161.691 Z-2.809
X142.984 Y161.686 Z-2.69
Z15 F200
X140.4 Y147.005
Z5
Z2.808 F50
X140.367 Y146.99 Z2.663 F100
X140.277 Y146.946 Z2.551
X140.156 Y146.873 Z2.5
G3 X141.797 Y144.427 Z2.014 I0.82 J-1.223
X140.156 Y146.873 Z1.528 I-0.82 J1.223
X141.797 Y144.427 Z1.041 I0.82 J-1.223
X140.156 Y146.873 Z0.555 I-0.82 J1.223
X141.797 Y144.427 Z0.069 I0.82 J-1.223
X140.156 Y146.873 Z-0.417 I-0.82 J1.223
X141.797 Y144.427 Z-0.903 I0.82 J-1.223
X140.156 Y146.873 Z-1.39 I-0.82 J1.223
X141.797 Y144.427 Z-1.876 I0.82 J-1.223
X140.156 Y146.873 Z-2.362 I-0.82 J1.223
X141.797 Y144.427 Z-2.848 I0.82 J-1.223
X142.449 Y145.65 Z-3 I-0.82 J1.223
X138.969 Y145.65 I-1.74 J0 F200
X142.449 Y145.65 I1.74 J0
G2 X143.098 Y146.799 I1.343 J0 F100
G3 X143.27 Y148.108 I-0.437 J0.723
X138.148 Y143.192 I-2.561 J-2.458 F200
X143.27 Y148.108 I2.561 J2.458
G1 X143.224 Y148.145 Z-2.988 F50
X143.172 Y148.173 Z-2.976
X143.124 Y148.188 Z-2.943
X143.074 Y148.195 Z-2.909
X143.007 Y148.191 Z-2.809
X142.984 Y148.186 Z-2.69
Z15 F200
X152.091 Y140.255
Z5
Z2.808 F50
X152.058 Y140.24 Z2.663 F100
X151.968 Y140.196 Z2.551
X151.847 Y140.123 Z2.5
G3 X153.488 Y137.677 Z2.014 I0.82 J-1.223
X151.847 Y140.123 Z1.528 I-0.82 J1.223
X153.488 Y137.677 Z1.041 I0.82 J-1.223
X151.847 Y140.123 Z0.555 I-0.82 J1.223
X153.488 Y137.677 Z0.069 I0.82 J-1.223
X151.847 Y140.123 Z-0.417 I-0.82 J1.223
X153.488 Y137.677 Z-0.903 I0.82 J-1.223
X151.847 Y140.123 Z-1.39 I-0.82 J1.223
X153.488 Y137.677 Z-1.876 I0.82 J-1.223
X151.847 Y140.123 Z-2.362 I-0.82 J1.223
X153.488 Y137.677 Z-2.848 I0.82 J-1.223
X154.14 Y138.9 Z-3 I-0.82 J1.223
X150.66 Y138.9 I-1.74 J0 F200
X154.14 Y138.9 I1.74 J0
G2 X154.789 Y140.049 I1.343 J0 F100
G3 X154.961 Y141.358 I-0.437 J0.723
X149.839 Y136.442 I-2.561 J-2.458 F200
X154.961 Y141.358 I2.561 J2.458
G1 X154.915 Y141.395 Z-2.988 F50
X154.863 Y141.423 Z-2.976
X154.815 Y141.438 Z-2.943
X154.765 Y141.445 Z-2.909
X154.698 Y141.441 Z-2.809
X154.675 Y141.436 Z-2.69
Z15 F200
X163.782 Y147.005
Z5
Z2.808 F50
X163.749 Y146.99 Z2.663 F100
X163.659 Y146.946 Z2.551
X163.538 Y146.873 Z2.5
G3 X165.179 Y144.427 Z2.014 I0.82 J-1.223
X163.538 Y146.873 Z1.528 I-0.82 J1.223
X165.179 Y144.427 Z1.041 I0.82 J-1.223
X163.538 Y146.873 Z0.555 I-0.82 J1.223
X165.179 Y144.427 Z0.069 I0.82 J-1.223
X163.538 Y146.873 Z-0.417 I-0.82 J1.223
X165.179 Y144.427 Z-0.903 I0.82 J-1.223
X163.538 Y146.873 Z-1.39 I-0.82 J1.223
X165.179 Y144.427 Z-1.876 I0.82 J-1.223
X163.538 Y146.873 Z-2.362 I-0.82 J1.223
X165.179 Y144.427 Z-2.848 I0.82 J-1.223
X165.831 Y145.65 Z-3 I-0.82 J1.223
X162.351 Y145.65 I-1.74 J0 F200
X165.831 Y145.65 I1.74 J0
G2 X166.48 Y146.799 I1.343 J0 F100
G3 X166.652 Y148.108 I-0.437 J0.723
X161.53 Y143.192 I-2.561 J-2.458 F200
X166.652 Y148.108 I2.561 J2.458
G1 X166.606 Y148.145 Z-2.988 F50
X166.554 Y148.173 Z-2.976
X166.506 Y148.188 Z-2.943
X166.456 Y148.195 Z-2.909
X166.389 Y148.191 Z-2.809
X166.366 Y148.186 Z-2.69
Z15 F200
X163.782 Y160.505
Z5
Z2.808 F50
X163.749 Y160.49 Z2.663 F100
X163.659 Y160.446 Z2.551
X163.538 Y160.373 Z2.5
G3 X165.179 Y157.927 Z2.014 I0.82 J-1.223
X163.538 Y160.373 Z1.528 I-0.82 J1.223
X165.179 Y157.927 Z1.041 I0.82 J-1.223
X163.538 Y160.373 Z0.555 I-0.82 J1.223
X165.179 Y157.927 Z0.069 I0.82 J-1.223
X163.538 Y160.373 Z-0.417 I-0.82 J1.223
X165.179 Y157.927 Z-0.903 I0.82 J-1.223
X163.538 Y160.373 Z-1.39 I-0.82 J1.223
X165.179 Y157.927 Z-1.876 I0.82 J-1.223
X163.538 Y160.373 Z-2.362 I-0.82 J1.223
X165.179 Y157.927 Z-2.848 I0.82 J-1.223
X165.831 Y159.15 Z-3 I-0.82 J1.223
X162.351 Y159.15 I-1.74 J0 F200
X165.831 Y159.15 I1.74 J0
G2 X166.48 Y160.299 I1.343 J0 F100
G3 X166.652 Y161.608 I-0.437 J0.723
X161.53 Y156.692 I-2.561 J-2.458 F200
X166.652 Y161.608 I2.561 J2.458
G1 X166.606 Y161.645 Z-2.988 F50
X166.554 Y161.673 Z-2.976
X166.506 Y161.688 Z-2.943
X166.456 Y161.695 Z-2.909
X166.389 Y161.691 Z-2.809
X166.366 Y161.686 Z-2.69
Z15 F200
(When using Fusion for Personal Use, the feedrate of rapid)
(moves is reduced to match the feedrate of cutting moves,)
(which can increase machining time. Unrestricted rapid moves)
(are available with a Fusion Subscription.)

(Bore5)
G0 X282.642 Y295.847
G1 Z15 F200
Z2
Z0.31 F50
G18 G2 X282.952 Z0 I0.31 K0
G1 X283.107
G17 G3 X283.417 Y296.157 I0 J0.31
X280.717 Y296.157 Z-0.203 I-1.35 J0 F200
X283.417 Y296.157 Z-0.406 I1.35 J0
X280.717 Y296.157 Z-0.608 I-1.35 J0
X283.417 Y296.157 Z-0.811 I1.35 J0
X280.717 Y296.157 Z-1.014 I-1.35 J0
X283.417 Y296.157 Z-1.217 I1.35 J0
X280.717 Y296.157 Z-1.42 I-1.35 J0
X283.417 Y296.157 Z-1.622 I1.35 J0
X280.717 Y296.157 Z-1.825 I-1.35 J0
X283.417 Y296.157 Z-2.028 I1.35 J0
X280.717 Y296.157 Z-2.231 I-1.35 J0
X283.417 Y296.157 Z-2.433 I1.35 J0
X280.717 Y296.157 Z-2.636 I-1.35 J0
X283.417 Y296.157 Z-2.839 I1.35 J0
X280.717 Y296.157 Z-3.042 I-1.35 J0
X283.417 Y296.157 Z-3.245 I1.35 J0
X280.717 Y296.157 Z-3.447 I-1.35 J0
X283.417 Y296.157 Z-3.65 I1.35 J0
X280.717 Y296.157 Z-3.853 I-1.35 J0
X283.417 Y296.157 Z-4.056 I1.35 J0
X280.717 Y296.157 Z-4.259 I-1.35 J0
X283.417 Y296.157 Z-4.461 I1.35 J0
X280.717 Y296.157 Z-4.664 I-1.35 J0
X283.417 Y296.157 Z-4.867 I1.35 J0
X280.717 Y296.157 Z-5.07 I-1.35 J0
X283.417 Y296.157 Z-5.272 I1.35 J0
X280.717 Y296.157 Z-5.475 I-1.35 J0
X283.417 Y296.157 Z-5.678 I1.35 J0
X280.717 Y296.157 Z-5.881 I-1.35 J0
X282.238 Y294.818 Z-5.99 I1.35 J0
X283.374 Y296.496 Z-6.1 I-0.171 J1.339
X280.76 Y295.819 I-1.307 J-0.339
X283.374 Y296.496 I1.307 J0.339
X282.996 Y296.718 I-0.3 J-0.078 F50
G1 X282.846 Y296.679
X282.779 Y296.662 Z-6.092
X282.716 Y296.646 Z-6.069
X282.659 Y296.631 Z-6.032
X282.611 Y296.619 Z-5.983
X282.575 Y296.609 Z-5.925
X282.553 Y296.603 Z-5.859
X282.546 Y296.602 Z-5.79
Z5 F200
X282.642 Y263.847
Z2
Z0.31 F50
G18 G2 X282.952 Z0 I0.31 K0
G1 X283.107
G17 G3 X283.417 Y264.157 I0 J0.31
X280.717 Y264.157 Z-0.203 I-1.35 J0 F200
X283.417 Y264.157 Z-0.406 I1.35 J0
X280.717 Y264.157 Z-0.608 I-1.35 J0
X283.417 Y264.157 Z-0.811 I1.35 J0
X280.717 Y264.157 Z-1.014 I-1.35 J0
X283.417 Y264.157 Z-1.217 I1.35 J0
X280.717 Y264.157 Z-1.42 I-1.35 J0
X283.417 Y264.157 Z-1.622 I1.35 J0
X280.717 Y264.157 Z-1.825 I-1.35 J0
X283.417 Y264.157 Z-2.028 I1.35 J0
X280.717 Y264.157 Z-2.231 I-1.35 J0
X283.417 Y264.157 Z-2.433 I1.35 J0
X280.717 Y264.157 Z-2.636 I-1.35 J0
X283.417 Y264.157 Z-2.839 I1.35 J0
X280.717 Y264.157 Z-3.042 I-1.35 J0
X283.417 Y264.157 Z-3.245 I1.35 J0
X280.717 Y264.157 Z-3.447 I-1.35 J0
X283.417 Y264.157 Z-3.65 I1.35 J0
X280.717 Y264.157 Z-3.853 I-1.35 J0
X283.417 Y264.157 Z-4.056 I1.35 J0
X280.717 Y264.157 Z-4.259 I-1.35 J0
X283.417 Y264.157 Z-4.461 I1.35 J0
X280.717 Y264.157 Z-4.664 I-1.35 J0
X283.417 Y264.157 Z-4.867 I1.35 J0
X280.717 Y264.157 Z-5.07 I-1.35 J0
X283.417 Y264.157 Z-5.272 I1.35 J0
X280.717 Y264.157 Z-5.475 I-1.35 J0
X283.417 Y264.157 Z-5.678 I1.35 J0
X280.717 Y264.157 Z-5.881 I-1.35 J0
X282.238 Y262.818 Z-5.99 I1.35 J0
X283.374 Y264.496 Z-6.1 I-0.171 J1.339
X280.76 Y263.819 I-1.307 J-0.339
X283.374 Y264.496 I1.307 J0.339
X282.996 Y264.718 I-0.3 J-0.078 F50
G1 X282.846 Y264.679
X282.779 Y264.662 Z-6.092
X282.716 Y264.646 Z-6.069
X282.659 Y264.631 Z-6.032
X282.611 Y264.619 Z-5.983
X282.575 Y264.609 Z-5.925
X282.553 Y264.603 Z-5.859
X282.546 Y264.602 Z-5.79
Z5 F200
X246.642 Y263.847
Z2
Z0.31 F50
G18 G2 X246.952 Z0 I0.31 K0
G1 X247.107
G17 G3 X247.417 Y264.157 I0 J0.31
X244.717 Y264.157 Z-0.203 I-1.35 J0 F200
X247.417 Y264.157 Z-0.406 I1.35 J0
X244.717 Y264.157 Z-0.608 I-1.35 J0
X247.417 Y264.157 Z-0.811 I1.35 J0
X244.717 Y264.157 Z-1.014 I-1.35 J0
X247.417 Y264.157 Z-1.217 I1.35 J0
X244.717 Y264.157 Z-1.42 I-1.35 J0
X247.417 Y264.157 Z-1.622 I1.35 J0
X244.717 Y264.157 Z-1.825 I-1.35 J0
X247.417 Y264.157 Z-2.028 I1.35 J0
X244.717 Y264.157 Z-2.231 I-1.35 J0
X247.417 Y264.157 Z-2.433 I1.35 J0
X244.717 Y264.157 Z-2.636 I-1.35 J0
X247.417 Y264.157 Z-2.839 I1.35 J0
X244.717 Y264.157 Z-3.042 I-1.35 J0
X247.417 Y264.157 Z-3.245 I1.35 J0
X244.717 Y264.157 Z-3.447 I-1.35 J0
X247.417 Y264.157 Z-3.65 I1.35 J0
X244.717 Y264.157 Z-3.853 I-1.35 J0
X247.417 Y264.157 Z-4.056 I1.35 J0
X244.717 Y264.157 Z-4.259 I-1.35 J0
X247.417 Y264.157 Z-4.461 I1.35 J0
X244.717 Y264.157 Z-4.664 I-1.35 J0
X247.417 Y264.157 Z-4.867 I1.35 J0
X244.717 Y264.157 Z-5.07 I-1.35 J0
X247.417 Y264.157 Z-5.272 I1.35 J0
X244.717 Y264.157 Z-5.475 I-1.35 J0
X247.417 Y264.157 Z-5.678 I1.35 J0
X244.717 Y264.157 Z-5.881 I-1.35 J0
X246.238 Y262.818 Z-5.99 I1.35 J0
X247.374 Y264.496 Z-6.1 I-0.171 J1.339
X244.76 Y263.819 I-1.307 J-0.339
X247.374 Y264.496 I1.307 J0.339
X246.996 Y264.718 I-0.3 J-0.078 F50
G1 X246.846 Y264.679
X246.779 Y264.662 Z-6.092
X246.716 Y264.646 Z-6.069
X246.659 Y264.631 Z-6.032
X246.611 Y264.619 Z-5.983
X246.575 Y264.609 Z-5.925
X246.553 Y264.603 Z-5.859
X246.546 Y264.602 Z-5.79
Z5 F200
X246.642 Y295.847
Z2
Z0.31 F50
G18 G2 X246.952 Z0 I0.31 K0
G1 X247.107
G17 G3 X247.417 Y296.157 I0 J0.31
X244.717 Y296.157 Z-0.203 I-1.35 J0 F200
X247.417 Y296.157 Z-0.406 I1.35 J0
X244.717 Y296.157 Z-0.608 I-1.35 J0
X247.417 Y296.157 Z-0.811 I1.35 J0
X244.717 Y296.157 Z-1.014 I-1.35 J0
X247.417 Y296.157 Z-1.217 I1.35 J0
X244.717 Y296.157 Z-1.42 I-1.35 J0
X247.417 Y296.157 Z-1.622 I1.35 J0
X244.717 Y296.157 Z-1.825 I-1.35 J0
X247.417 Y296.157 Z-2.028 I1.35 J0
X244.717 Y296.157 Z-2.231 I-1.35 J0
X247.417 Y296.157 Z-2.433 I1.35 J0
X244.717 Y296.157 Z-2.636 I-1.35 J0
X247.417 Y296.157 Z-2.839 I1.35 J0
X244.717 Y296.157 Z-3.042 I-1.35 J0
X247.417 Y296.157 Z-3.245 I1.35 J0
X244.717 Y296.157 Z-3.447 I-1.35 J0
X247.417 Y296.157 Z-3.65 I1.35 J0
X244.717 Y296.157 Z-3.853 I-1.35 J0
X247.417 Y296.157 Z-4.056 I1.35 J0
X244.717 Y296.157 Z-4.259 I-1.35 J0
X247.417 Y296.157 Z-4.461 I1.35 J0
X244.717 Y296.157 Z-4.664 I-1.35 J0
X247.417 Y296.157 Z-4.867 I1.35 J0
X244.717 Y296.157 Z-5.07 I-1.35 J0
X247.417 Y296.157 Z-5.272 I1.35 J0
X244.717 Y296.157 Z-5.475 I-1.35 J0
X247.417 Y296.157 Z-5.678 I1.35 J0
X244.717 Y296.157 Z-5.881 I-1.35 J0
X246.238 Y294.818 Z-5.99 I1.35 J0
X247.374 Y296.496 Z-6.1 I-0.171 J1.339
X244.76 Y295.819 I-1.307 J-0.339
X247.374 Y296.496 I1.307 J0.339
X246.996 Y296.718 I-0.3 J-0.078 F50
G1 X246.846 Y296.679
X246.779 Y296.662 Z-6.092
X246.716 Y296.646 Z-6.069
X246.659 Y296.631 Z-6.032
X246.611 Y296.619 Z-5.983
X246.575 Y296.609 Z-5.925
X246.553 Y296.603 Z-5.859
X246.546 Y296.602 Z-5.79
Z5 F200
X59.823 Y264.333
Z2
Z0.31 F50
G18 G2 X60.133 Z0 I0.31 K0
G1 X60.288
G17 G3 X60.598 Y264.643 I0 J0.31
X57.898 Y264.643 Z-0.203 I-1.35 J0 F200
X60.598 Y264.643 Z-0.406 I1.35 J0
X57.898 Y264.643 Z-0.608 I-1.35 J0
X60.598 Y264.643 Z-0.811 I1.35 J0
X57.898 Y264.643 Z-1.014 I-1.35 J0
X60.598 Y264.643 Z-1.217 I1.35 J0
X57.898 Y264.643 Z-1.42 I-1.35 J0
X60.598 Y264.643 Z-1.622 I1.35 J0
X57.898 Y264.643 Z-1.825 I-1.35 J0
X60.598 Y264.643 Z-2.028 I1.35 J0
X57.898 Y264.643 Z-2.231 I-1.35 J0
X60.598 Y264.643 Z-2.433 I1.35 J0
X57.898 Y264.643 Z-2.636 I-1.35 J0
X60.598 Y264.643 Z-2.839 I1.35 J0
X57.898 Y264.643 Z-3.042 I-1.35 J0
X60.598 Y264.643 Z-3.245 I1.35 J0
X57.898 Y264.643 Z-3.447 I-1.35 J0
X60.598 Y264.643 Z-3.65 I1.35 J0
X57.898 Y264.643 Z-3.853 I-1.35 J0
X60.598 Y264.643 Z-4.056 I1.35 J0
X57.898 Y264.643 Z-4.259 I-1.35 J0
X60.598 Y264.643 Z-4.461 I1.35 J0
X57.898 Y264.643 Z-4.664 I-1.35 J0
X60.598 Y264.643 Z-4.867 I1.35 J0
X57.898 Y264.643 Z-5.07 I-1.35 J0
X60.598 Y264.643 Z-5.272 I1.35 J0
X57.898 Y264.643 Z-5.475 I-1.35 J0
X60.598 Y264.643 Z-5.678 I1.35 J0
X57.898 Y264.643 Z-5.881 I-1.35 J0
X59.418 Y263.304 Z-5.99 I1.35 J0
X60.554 Y264.981 Z-6.1 I-0.171 J1.339
X57.941 Y264.304 I-1.307 J-0.339
X60.554 Y264.981 I1.307 J0.339
X60.177 Y265.204 I-0.3 J-0.078 F50
G1 X60.027 Y265.165
X59.96 Y265.148 Z-6.092
X59.896 Y265.131 Z-6.069
X59.839 Y265.116 Z-6.032
X59.792 Y265.104 Z-5.983
X59.756 Y265.095 Z-5.925
X59.734 Y265.089 Z-5.859
X59.726 Y265.087 Z-5.79
Z5 F200
X59.823 Y296.333
Z2
Z0.31 F50
G18 G2 X60.133 Z0 I0.31 K0
G1 X60.288
G17 G3 X60.598 Y296.643 I0 J0.31
X57.898 Y296.643 Z-0.203 I-1.35 J0 F200
X60.598 Y296.643 Z-0.406 I1.35 J0
X57.898 Y296.643 Z-0.608 I-1.35 J0
X60.598 Y296.643 Z-0.811 I1.35 J0
X57.898 Y296.643 Z-1.014 I-1.35 J0
X60.598 Y296.643 Z-1.217 I1.35 J0
X57.898 Y296.643 Z-1.42 I-1.35 J0
X60.598 Y296.643 Z-1.622 I1.35 J0
X57.898 Y296.643 Z-1.825 I-1.35 J0
X60.598 Y296.643 Z-2.028 I1.35 J0
X57.898 Y296.643 Z-2.231 I-1.35 J0
X60.598 Y296.643 Z-2.433 I1.35 J0
X57.898 Y296.643 Z-2.636 I-1.35 J0
X60.598 Y296.643 Z-2.839 I1.35 J0
X57.898 Y296.643 Z-3.042 I-1.35 J0
X60.598 Y296.643 Z-3.245 I1.35 J0
X57.898 Y296.643 Z-3.447 I-1.35 J0
X60.598 Y296.643 Z-3.65 I1.35 J0
X57.898 Y296.643 Z-3.853 I-1.35 J0
X60.598 Y296.643 Z-4.056 I1.35 J0
X57.898 Y296.643 Z-4.259 I-1.35 J0
X60.598 Y296.643 Z-4.461 I1.35 J0
X57.898 Y296.643 Z-4.664 I-1.35 J0
X60.598 Y296.643 Z-4.867 I1.35 J0
X57.898 Y296.643 Z-5.07 I-1.35 J0
X60.598 Y296.643 Z-5.272 I1.35 J0
X57.898 Y296.643 Z-5.475 I-1.35 J0
X60.598 Y296.643 Z-5.678 I1.35 J0
X57.898 Y296.643 Z-5.881 I-1.35 J0
X59.418 Y295.304 Z-5.99 I1.35 J0
X60.554 Y296.981 Z-6.1 I-0.171 J1.339
X57.941 Y296.304 I-1.307 J-0.339
X60.554 Y296.981 I1.307 J0.339
X60.177 Y297.204 I-0.3 J-0.078 F50
G1 X60.027 Y297.165
X59.96 Y297.148 Z-6.092
X59.896 Y297.131 Z-6.069
X59.839 Y297.116 Z-6.032
X59.792 Y297.104 Z-5.983
X59.756 Y297.095 Z-5.925
X59.734 Y297.089 Z-5.859
X59.726 Y297.087 Z-5.79
Z5 F200
X23.823 Y296.333
Z2
Z0.31 F50
G18 G2 X24.133 Z0 I0.31 K0
G1 X24.288
G17 G3 X24.598 Y296.643 I0 J0.31
X21.898 Y296.643 Z-0.203 I-1.35 J0 F200
X24.598 Y296.643 Z-0.406 I1.35 J0
X21.898 Y296.643 Z-0.608 I-1.35 J0
X24.598 Y296.643 Z-0.811 I1.35 J0
X21.898 Y296.643 Z-1.014 I-1.35 J0
X24.598 Y296.643 Z-1.217 I1.35 J0
X21.898 Y296.643 Z-1.42 I-1.35 J0
X24.598 Y296.643 Z-1.622 I1.35 J0
X21.898 Y296.643 Z-1.825 I-1.35 J0
X24.598 Y296.643 Z-2.028 I1.35 J0
X21.898 Y296.643 Z-2.231 I-1.35 J0
X24.598 Y296.643 Z-2.433 I1.35 J0
X21.898 Y296.643 Z-2.636 I-1.35 J0
X24.598 Y296.643 Z-2.839 I1.35 J0
X21.898 Y296.643 Z-3.042 I-1.35 J0
X24.598 Y296.643 Z-3.245 I1.35 J0
X21.898 Y296.643 Z-3.447 I-1.35 J0
X24.598 Y296.643 Z-3.65 I1.35 J0
X21.898 Y296.643 Z-3.853 I-1.35 J0
X24.598 Y296.643 Z-4.056 I1.35 J0
X21.898 Y296.643 Z-4.259 I-1.35 J0
X24.598 Y296.643 Z-4.461 I1.35 J0
X21.898 Y296.643 Z-4.664 I-1.35 J0
X24.598 Y296.643 Z-4.867 I1.35 J0
X21.898 Y296.643 Z-5.07 I-1.35 J0
X24.598 Y296.643 Z-5.272 I1.35 J0
X21.898 Y296.643 Z-5.475 I-1.35 J0
X24.598 Y296.643 Z-5.678 I1.35 J0
X21.898 Y296.643 Z-5.881 I-1.35 J0
X23.418 Y295.304 Z-5.99 I1.35 J0
X24.554 Y296.981 Z-6.1 I-0.171 J1.339
X21.941 Y296.304 I-1.307 J-0.339
X24.554 Y296.981 I1.307 J0.339
X24.177 Y297.204 I-0.3 J-0.078 F50
G1 X24.027 Y297.165
X23.96 Y297.148 Z-6.092
X23.896 Y297.131 Z-6.069
X23.839 Y297.116 Z-6.032
X23.792 Y297.104 Z-5.983
X23.756 Y297.095 Z-5.925
X23.734 Y297.089 Z-5.859
X23.726 Y297.087 Z-5.79
Z5 F200
X23.823 Y264.333
Z2
Z0.31 F50
G18 G2 X24.133 Z0 I0.31 K0
G1 X24.288
G17 G3 X24.598 Y264.643 I0 J0.31
X21.898 Y264.643 Z-0.203 I-1.35 J0 F200
X24.598 Y264.643 Z-0.406 I1.35 J0
X21.898 Y264.643 Z-0.608 I-1.35 J0
X24.598 Y264.643 Z-0.811 I1.35 J0
X21.898 Y264.643 Z-1.014 I-1.35 J0
X24.598 Y264.643 Z-1.217 I1.35 J0
X21.898 Y264.643 Z-1.42 I-1.35 J0
X24.598 Y264.643 Z-1.622 I1.35 J0
X21.898 Y264.643 Z-1.825 I-1.35 J0
X24.598 Y264.643 Z-2.028 I1.35 J0
X21.898 Y264.643 Z-2.231 I-1.35 J0
X24.598 Y264.643 Z-2.433 I1.35 J0
X21.898 Y264.643 Z-2.636 I-1.35 J0
X24.598 Y264.643 Z-2.839 I1.35 J0
X21.898 Y264.643 Z-3.042 I-1.35 J0
X24.598 Y264.643 Z-3.245 I1.35 J0
X21.898 Y264.643 Z-3.447 I-1.35 J0
X24.598 Y264.643 Z-3.65 I1.35 J0
X21.898 Y264.643 Z-3.853 I-1.35 J0
X24.598 Y264.643 Z-4.056 I1.35 J0
X21.898 Y264.643 Z-4.259 I-1.35 J0
X24.598 Y264.643 Z-4.461 I1.35 J0
X21.898 Y264.643 Z-4.664 I-1.35 J0
X24.598 Y264.643 Z-4.867 I1.35 J0
X21.898 Y264.643 Z-5.07 I-1.35 J0
X24.598 Y264.643 Z-5.272 I1.35 J0
X21.898 Y264.643 Z-5.475 I-1.35 J0
X24.598 Y264.643 Z-5.678 I1.35 J0
X21.898 Y264.643 Z-5.881 I-1.35 J0
X23.418 Y263.304 Z-5.99 I1.35 J0
X24.554 Y264.981 Z-6.1 I-0.171 J1.339
X21.941 Y264.304 I-1.307 J-0.339
X24.554 Y264.981 I1.307 J0.339
X24.177 Y265.204 I-0.3 J-0.078 F50
G1 X24.027 Y265.165
X23.96 Y265.148 Z-6.092
X23.896 Y265.131 Z-6.069
X23.839 Y265.116 Z-6.032
X23.792 Y265.104 Z-5.983
X23.756 Y265.095 Z-5.925
X23.734 Y265.089 Z-5.859
X23.726 Y265.087 Z-5.79
Z5 F200
X23.823 Y8.333
Z2
Z0.31 F50
G18 G2 X24.133 Z0 I0.31 K0
G1 X24.288
G17 G3 X24.598 Y8.643 I0 J0.31
X21.898 Y8.643 Z-0.203 I-1.35 J0 F200
X24.598 Y8.643 Z-0.406 I1.35 J0
X21.898 Y8.643 Z-0.608 I-1.35 J0
X24.598 Y8.643 Z-0.811 I1.35 J0
X21.898 Y8.643 Z-1.014 I-1.35 J0
X24.598 Y8.643 Z-1.217 I1.35 J0
X21.898 Y8.643 Z-1.42 I-1.35 J0
X24.598 Y8.643 Z-1.622 I1.35 J0
X21.898 Y8.643 Z-1.825 I-1.35 J0
X24.598 Y8.643 Z-2.028 I1.35 J0
X21.898 Y8.643 Z-2.231 I-1.35 J0
X24.598 Y8.643 Z-2.433 I1.35 J0
X21.898 Y8.643 Z-2.636 I-1.35 J0
X24.598 Y8.643 Z-2.839 I1.35 J0
X21.898 Y8.643 Z-3.042 I-1.35 J0
X24.598 Y8.643 Z-3.245 I1.35 J0
X21.898 Y8.643 Z-3.447 I-1.35 J0
X24.598 Y8.643 Z-3.65 I1.35 J0
X21.898 Y8.643 Z-3.853 I-1.35 J0
X24.598 Y8.643 Z-4.056 I1.35 J0
X21.898 Y8.643 Z-4.259 I-1.35 J0
X24.598 Y8.643 Z-4.461 I1.35 J0
X21.898 Y8.643 Z-4.664 I-1.35 J0
X24.598 Y8.643 Z-4.867 I1.35 J0
X21.898 Y8.643 Z-5.07 I-1.35 J0
X24.598 Y8.643 Z-5.272 I1.35 J0
X21.898 Y8.643 Z-5.475 I-1.35 J0
X24.598 Y8.643 Z-5.678 I1.35 J0
X21.898 Y8.643 Z-5.881 I-1.35 J0
X23.418 Y7.304 Z-5.99 I1.35 J0
X24.554 Y8.981 Z-6.1 I-0.171 J1.339
X21.941 Y8.304 I-1.307 J-0.339
X24.554 Y8.981 I1.307 J0.339
X24.177 Y9.204 I-0.3 J-0.078 F50
G1 X24.027 Y9.165
X23.96 Y9.148 Z-6.092
X23.896 Y9.131 Z-6.069
X23.839 Y9.116 Z-6.032
X23.792 Y9.104 Z-5.983
X23.756 Y9.095 Z-5.925
X23.734 Y9.089 Z-5.859
X23.726 Y9.087 Z-5.79
Z5 F200
X23.823 Y40.333
Z2
Z0.31 F50
G18 G2 X24.133 Z0 I0.31 K0
G1 X24.288
G17 G3 X24.598 Y40.643 I0 J0.31
X21.898 Y40.643 Z-0.203 I-1.35 J0 F200
X24.598 Y40.643 Z-0.406 I1.35 J0
X21.898 Y40.643 Z-0.608 I-1.35 J0
X24.598 Y40.643 Z-0.811 I1.35 J0
X21.898 Y40.643 Z-1.014 I-1.35 J0
X24.598 Y40.643 Z-1.217 I1.35 J0
X21.898 Y40.643 Z-1.42 I-1.35 J0
X24.598 Y40.643 Z-1.622 I1.35 J0
X21.898 Y40.643 Z-1.825 I-1.35 J0
X24.598 Y40.643 Z-2.028 I1.35 J0
X21.898 Y40.643 Z-2.231 I-1.35 J0
X24.598 Y40.643 Z-2.433 I1.35 J0
X21.898 Y40.643 Z-2.636 I-1.35 J0
X24.598 Y40.643 Z-2.839 I1.35 J0
X21.898 Y40.643 Z-3.042 I-1.35 J0
X24.598 Y40.643 Z-3.245 I1.35 J0
X21.898 Y40.643 Z-3.447 I-1.35 J0
X24.598 Y40.643 Z-3.65 I1.35 J0
X21.898 Y40.643 Z-3.853 I-1.35 J0
X24.598 Y40.643 Z-4.056 I1.35 J0
X21.898 Y40.643 Z-4.259 I-1.35 J0
X24.598 Y40.643 Z-4.461 I1.35 J0
X21.898 Y40.643 Z-4.664 I-1.35 J0
X24.598 Y40.643 Z-4.867 I1.35 J0
X21.898 Y40.643 Z-5.07 I-1.35 J0
X24.598 Y40.643 Z-5.272 I1.35 J0
X21.898 Y40.643 Z-5.475 I-1.35 J0
X24.598 Y40.643 Z-5.678 I1.35 J0
X21.898 Y40.643 Z-5.881 I-1.35 J0
X23.418 Y39.304 Z-5.99 I1.35 J0
X24.554 Y40.981 Z-6.1 I-0.171 J1.339
X21.941 Y40.304 I-1.307 J-0.339
X24.554 Y40.981 I1.307 J0.339
X24.177 Y41.204 I-0.3 J-0.078 F50
G1 X24.027 Y41.165
X23.96 Y41.148 Z-6.092
X23.896 Y41.131 Z-6.069
X23.839 Y41.116 Z-6.032
X23.792 Y41.104 Z-5.983
X23.756 Y41.095 Z-5.925
X23.734 Y41.089 Z-5.859
X23.726 Y41.087 Z-5.79
Z5 F200
X59.823 Y40.333
Z2
Z0.31 F50
G18 G2 X60.133 Z0 I0.31 K0
G1 X60.288
G17 G3 X60.598 Y40.643 I0 J0.31
X57.898 Y40.643 Z-0.203 I-1.35 J0 F200
X60.598 Y40.643 Z-0.406 I1.35 J0
X57.898 Y40.643 Z-0.608 I-1.35 J0
X60.598 Y40.643 Z-0.811 I1.35 J0
X57.898 Y40.643 Z-1.014 I-1.35 J0
X60.598 Y40.643 Z-1.217 I1.35 J0
X57.898 Y40.643 Z-1.42 I-1.35 J0
X60.598 Y40.643 Z-1.622 I1.35 J0
X57.898 Y40.643 Z-1.825 I-1.35 J0
X60.598 Y40.643 Z-2.028 I1.35 J0
X57.898 Y40.643 Z-2.231 I-1.35 J0
X60.598 Y40.643 Z-2.433 I1.35 J0
X57.898 Y40.643 Z-2.636 I-1.35 J0
X60.598 Y40.643 Z-2.839 I1.35 J0
X57.898 Y40.643 Z-3.042 I-1.35 J0
X60.598 Y40.643 Z-3.245 I1.35 J0
X57.898 Y40.643 Z-3.447 I-1.35 J0
X60.598 Y40.643 Z-3.65 I1.35 J0
X57.898 Y40.643 Z-3.853 I-1.35 J0
X60.598 Y40.643 Z-4.056 I1.35 J0
X57.898 Y40.643 Z-4.259 I-1.35 J0
X60.598 Y40.643 Z-4.461 I1.35 J0
X57.898 Y40.643 Z-4.664 I-1.35 J0
X60.598 Y40.643 Z-4.867 I1.35 J0
X57.898 Y40.643 Z-5.07 I-1.35 J0
X60.598 Y40.643 Z-5.272 I1.35 J0
X57.898 Y40.643 Z-5.475 I-1.35 J0
X60.598 Y40.643 Z-5.678 I1.35 J0
X57.898 Y40.643 Z-5.881 I-1.35 J0
X59.418 Y39.304 Z-5.99 I1.35 J0
X60.554 Y40.981 Z-6.1 I-0.171 J1.339
X57.941 Y40.304 I-1.307 J-0.339
X60.554 Y40.981 I1.307 J0.339
X60.177 Y41.204 I-0.3 J-0.078 F50
G1 X60.027 Y41.165
X59.96 Y41.148 Z-6.092
X59.896 Y41.131 Z-6.069
X59.839 Y41.116 Z-6.032
X59.792 Y41.104 Z-5.983
X59.756 Y41.095 Z-5.925
X59.734 Y41.089 Z-5.859
X59.726 Y41.087 Z-5.79
Z5 F200
X59.823 Y8.333
Z2
Z0.31 F50
G18 G2 X60.133 Z0 I0.31 K0
G1 X60.288
G17 G3 X60.598 Y8.643 I0 J0.31
X57.898 Y8.643 Z-0.203 I-1.35 J0 F200
X60.598 Y8.643 Z-0.406 I1.35 J0
X57.898 Y8.643 Z-0.608 I-1.35 J0
X60.598 Y8.643 Z-0.811 I1.35 J0
X57.898 Y8.643 Z-1.014 I-1.35 J0
X60.598 Y8.643 Z-1.217 I1.35 J0
X57.898 Y8.643 Z-1.42 I-1.35 J0
X60.598 Y8.643 Z-1.622 I1.35 J0
X57.898 Y8.643 Z-1.825 I-1.35 J0
X60.598 Y8.643 Z-2.028 I1.35 J0
X57.898 Y8.643 Z-2.231 I-1.35 J0
X60.598 Y8.643 Z-2.433 I1.35 J0
X57.898 Y8.643 Z-2.636 I-1.35 J0
X60.598 Y8.643 Z-2.839 I1.35 J0
X57.898 Y8.643 Z-3.042 I-1.35 J0
X60.598 Y8.643 Z-3.245 I1.35 J0
X57.898 Y8.643 Z-3.447 I-1.35 J0
X60.598 Y8.643 Z-3.65 I1.35 J0
X57.898 Y8.643 Z-3.853 I-1.35 J0
X60.598 Y8.643 Z-4.056 I1.35 J0
X57.898 Y8.643 Z-4.259 I-1.35 J0
X60.598 Y8.643 Z-4.461 I1.35 J0
X57.898 Y8.643 Z-4.664 I-1.35 J0
X60.598 Y8.643 Z-4.867 I1.35 J0
X57.898 Y8.643 Z-5.07 I-1.35 J0
X60.598 Y8.643 Z-5.272 I1.35 J0
X57.898 Y8.643 Z-5.475 I-1.35 J0
X60.598 Y8.643 Z-5.678 I1.35 J0
X57.898 Y8.643 Z-5.881 I-1.35 J0
X59.418 Y7.304 Z-5.99 I1.35 J0
X60.554 Y8.981 Z-6.1 I-0.171 J1.339
X57.941 Y8.304 I-1.307 J-0.339
X60.554 Y8.981 I1.307 J0.339
X60.177 Y9.204 I-0.3 J-0.078 F50
G1 X60.027 Y9.165
X59.96 Y9.148 Z-6.092
X59.896 Y9.131 Z-6.069
X59.839 Y9.116 Z-6.032
X59.792 Y9.104 Z-5.983
X59.756 Y9.095 Z-5.925
X59.734 Y9.089 Z-5.859
X59.726 Y9.087 Z-5.79
Z5 F200
X246.642 Y39.847
Z2
Z0.31 F50
G18 G2 X246.952 Z0 I0.31 K0
G1 X247.107
G17 G3 X247.417 Y40.157 I0 J0.31
X244.717 Y40.157 Z-0.203 I-1.35 J0 F200
X247.417 Y40.157 Z-0.406 I1.35 J0
X244.717 Y40.157 Z-0.608 I-1.35 J0
X247.417 Y40.157 Z-0.811 I1.35 J0
X244.717 Y40.157 Z-1.014 I-1.35 J0
X247.417 Y40.157 Z-1.217 I1.35 J0
X244.717 Y40.157 Z-1.42 I-1.35 J0
X247.417 Y40.157 Z-1.622 I1.35 J0
X244.717 Y40.157 Z-1.825 I-1.35 J0
X247.417 Y40.157 Z-2.028 I1.35 J0
X244.717 Y40.157 Z-2.231 I-1.35 J0
X247.417 Y40.157 Z-2.433 I1.35 J0
X244.717 Y40.157 Z-2.636 I-1.35 J0
X247.417 Y40.157 Z-2.839 I1.35 J0
X244.717 Y40.157 Z-3.042 I-1.35 J0
X247.417 Y40.157 Z-3.245 I1.35 J0
X244.717 Y40.157 Z-3.447 I-1.35 J0
X247.417 Y40.157 Z-3.65 I1.35 J0
X244.717 Y40.157 Z-3.853 I-1.35 J0
X247.417 Y40.157 Z-4.056 I1.35 J0
X244.717 Y40.157 Z-4.259 I-1.35 J0
X247.417 Y40.157 Z-4.461 I1.35 J0
X244.717 Y40.157 Z-4.664 I-1.35 J0
X247.417 Y40.157 Z-4.867 I1.35 J0
X244.717 Y40.157 Z-5.07 I-1.35 J0
X247.417 Y40.157 Z-5.272 I1.35 J0
X244.717 Y40.157 Z-5.475 I-1.35 J0
X247.417 Y40.157 Z-5.678 I1.35 J0
X244.717 Y40.157 Z-5.881 I-1.35 J0
X246.238 Y38.818 Z-5.99 I1.35 J0
X247.374 Y40.496 Z-6.1 I-0.171 J1.339
X244.76 Y39.819 I-1.307 J-0.339
X247.374 Y40.496 I1.307 J0.339
X246.996 Y40.718 I-0.3 J-0.078 F50
G1 X246.846 Y40.679
X246.779 Y40.662 Z-6.092
X246.716 Y40.646 Z-6.069
X246.659 Y40.631 Z-6.032
X246.611 Y40.619 Z-5.983
X246.575 Y40.609 Z-5.925
X246.553 Y40.603 Z-5.859
X246.546 Y40.602 Z-5.79
Z5 F200
X246.642 Y7.847
Z2
Z0.31 F50
G18 G2 X246.952 Z0 I0.31 K0
G1 X247.107
G17 G3 X247.417 Y8.157 I0 J0.31
X244.717 Y8.157 Z-0.203 I-1.35 J0 F200
X247.417 Y8.157 Z-0.406 I1.35 J0
X244.717 Y8.157 Z-0.608 I-1.35 J0
X247.417 Y8.157 Z-0.811 I1.35 J0
X244.717 Y8.157 Z-1.014 I-1.35 J0
X247.417 Y8.157 Z-1.217 I1.35 J0
X244.717 Y8.157 Z-1.42 I-1.35 J0
X247.417 Y8.157 Z-1.622 I1.35 J0
X244.717 Y8.157 Z-1.825 I-1.35 J0
X247.417 Y8.157 Z-2.028 I1.35 J0
X244.717 Y8.157 Z-2.231 I-1.35 J0
X247.417 Y8.157 Z-2.433 I1.35 J0
X244.717 Y8.157 Z-2.636 I-1.35 J0
X247.417 Y8.157 Z-2.839 I1.35 J0
X244.717 Y8.157 Z-3.042 I-1.35 J0
X247.417 Y8.157 Z-3.245 I1.35 J0
X244.717 Y8.157 Z-3.447 I-1.35 J0
X247.417 Y8.157 Z-3.65 I1.35 J0
X244.717 Y8.157 Z-3.853 I-1.35 J0
X247.417 Y8.157 Z-4.056 I1.35 J0
X244.717 Y8.157 Z-4.259 I-1.35 J0
X247.417 Y8.157 Z-4.461 I1.35 J0
X244.717 Y8.157 Z-4.664 I-1.35 J0
X247.417 Y8.157 Z-4.867 I1.35 J0
X244.717 Y8.157 Z-5.07 I-1.35 J0
X247.417 Y8.157 Z-5.272 I1.35 J0
X244.717 Y8.157 Z-5.475 I-1.35 J0
X247.417 Y8.157 Z-5.678 I1.35 J0
X244.717 Y8.157 Z-5.881 I-1.35 J0
X246.238 Y6.818 Z-5.99 I1.35 J0
X247.374 Y8.496 Z-6.1 I-0.171 J1.339
X244.76 Y7.819 I-1.307 J-0.339
X247.374 Y8.496 I1.307 J0.339
X246.996 Y8.718 I-0.3 J-0.078 F50
G1 X246.846 Y8.679
X246.779 Y8.662 Z-6.092
X246.716 Y8.646 Z-6.069
X246.659 Y8.631 Z-6.032
X246.611 Y8.619 Z-5.983
X246.575 Y8.609 Z-5.925
X246.553 Y8.603 Z-5.859
X246.546 Y8.602 Z-5.79
Z5 F200
X282.642 Y7.847
Z2
Z0.31 F50
G18 G2 X282.952 Z0 I0.31 K0
G1 X283.107
G17 G3 X283.417 Y8.157 I0 J0.31
X280.717 Y8.157 Z-0.203 I-1.35 J0 F200
X283.417 Y8.157 Z-0.406 I1.35 J0
X280.717 Y8.157 Z-0.608 I-1.35 J0
X283.417 Y8.157 Z-0.811 I1.35 J0
X280.717 Y8.157 Z-1.014 I-1.35 J0
X283.417 Y8.157 Z-1.217 I1.35 J0
X280.717 Y8.157 Z-1.42 I-1.35 J0
X283.417 Y8.157 Z-1.622 I1.35 J0
X280.717 Y8.157 Z-1.825 I-1.35 J0
X283.417 Y8.157 Z-2.028 I1.35 J0
X280.717 Y8.157 Z-2.231 I-1.35 J0
X283.417 Y8.157 Z-2.433 I1.35 J0
X280.717 Y8.157 Z-2.636 I-1.35 J0
X283.417 Y8.157 Z-2.839 I1.35 J0
X280.717 Y8.157 Z-3.042 I-1.35 J0
X283.417 Y8.157 Z-3.245 I1.35 J0
X280.717 Y8.157 Z-3.447 I-1.35 J0
X283.417 Y8.157 Z-3.65 I1.35 J0
X280.717 Y8.157 Z-3.853 I-1.35 J0
X283.417 Y8.157 Z-4.056 I1.35 J0
X280.717 Y8.157 Z-4.259 I-1.35 J0
X283.417 Y8.157 Z-4.461 I1.35 J0
X280.717 Y8.157 Z-4.664 I-1.35 J0
X283.417 Y8.157 Z-4.867 I1.35 J0
X280.717 Y8.157 Z-5.07 I-1.35 J0
X283.417 Y8.157 Z-5.272 I1.35 J0
X280.717 Y8.157 Z-5.475 I-1.35 J0
X283.417 Y8.157 Z-5.678 I1.35 J0
X280.717 Y8.157 Z-5.881 I-1.35 J0
X282.238 Y6.818 Z-5.99 I1.35 J0
X283.374 Y8.496 Z-6.1 I-0.171 J1.339
X280.76 Y7.819 I-1.307 J-0.339
X283.374 Y8.496 I1.307 J0.339
X282.996 Y8.718 I-0.3 J-0.078 F50
G1 X282.846 Y8.679
X282.779 Y8.662 Z-6.092
X282.716 Y8.646 Z-6.069
X282.659 Y8.631 Z-6.032
X282.611 Y8.619 Z-5.983
X282.575 Y8.609 Z-5.925
X282.553 Y8.603 Z-5.859
X282.546 Y8.602 Z-5.79
Z5 F200
X282.642 Y39.847
Z2
Z0.31 F50
G18 G2 X282.952 Z0 I0.31 K0
G1 X283.107
G17 G3 X283.417 Y40.157 I0 J0.31
X280.717 Y40.157 Z-0.203 I-1.35 J0 F200
X283.417 Y40.157 Z-0.406 I1.35 J0
X280.717 Y40.157 Z-0.608 I-1.35 J0
X283.417 Y40.157 Z-0.811 I1.35 J0
X280.717 Y40.157 Z-1.014 I-1.35 J0
X283.417 Y40.157 Z-1.217 I1.35 J0
X280.717 Y40.157 Z-1.42 I-1.35 J0
X283.417 Y40.157 Z-1.622 I1.35 J0
X280.717 Y40.157 Z-1.825 I-1.35 J0
X283.417 Y40.157 Z-2.028 I1.35 J0
X280.717 Y40.157 Z-2.231 I-1.35 J0
X283.417 Y40.157 Z-2.433 I1.35 J0
X280.717 Y40.157 Z-2.636 I-1.35 J0
X283.417 Y40.157 Z-2.839 I1.35 J0
X280.717 Y40.157 Z-3.042 I-1.35 J0
X283.417 Y40.157 Z-3.245 I1.35 J0
X280.717 Y40.157 Z-3.447 I-1.35 J0
X283.417 Y40.157 Z-3.65 I1.35 J0
X280.717 Y40.157 Z-3.853 I-1.35 J0
X283.417 Y40.157 Z-4.056 I1.35 J0
X280.717 Y40.157 Z-4.259 I-1.35 J0
X283.417 Y40.157 Z-4.461 I1.35 J0
X280.717 Y40.157 Z-4.664 I-1.35 J0
X283.417 Y40.157 Z-4.867 I1.35 J0
X280.717 Y40.157 Z-5.07 I-1.35 J0
X283.417 Y40.157 Z-5.272 I1.35 J0
X280.717 Y40.157 Z-5.475 I-1.35 J0
X283.417 Y40.157 Z-5.678 I1.35 J0
X280.717 Y40.157 Z-5.881 I-1.35 J0
X282.238 Y38.818 Z-5.99 I1.35 J0
X283.374 Y40.496 Z-6.1 I-0.171 J1.339
X280.76 Y39.819 I-1.307 J-0.339
X283.374 Y40.496 I1.307 J0.339
X282.996 Y40.718 I-0.3 J-0.078 F50
G1 X282.846 Y40.679
X282.779 Y40.662 Z-6.092
X282.716 Y40.646 Z-6.069
X282.659 Y40.631 Z-6.032
X282.611 Y40.619 Z-5.983
X282.575 Y40.609 Z-5.925
X282.553 Y40.603 Z-5.859
X282.546 Y40.602 Z-5.79
Z15 F200

M9
M5
M30
