(base_plate)
(Machine)
(  vendor: Autodesk)
(  model: Generic 3-axis)
(  description: This machine has XY axis on the Table and Z axis on the Head)
(T3 D=3.1 CR=0 - ZMIN=-6.1 - flat end mill)
G90 G94
G17
G21
(-Attention- Property Safe Retracts is set to Clearance Height.)
(Ensure the clearance height will clear the part and or fixtures.)
(Raise the Z-axis to a safe height before starting the program.)
(When using Fusion for Personal Use, the feedrate of rapid)
(moves is reduced to match the feedrate of cutting moves,)
(which can increase machining time. Unrestricted rapid moves)
(are available with a Fusion Subscription.)

(Bore4)
T3
S22000 M3
G17 G90 G94
G54
M8
G0 X140.519 Y145.375
Z15
G1 Z-1 F200
Z-2.69 F50
G18 G2 X140.829 Z-3 I0.31 K0
G1 X140.984
G17 G3 X141.259 Y145.65 I0 J0.275
X140.159 Y145.65 Z-3.147 I-0.55 J0 F200
X141.259 Y145.65 Z-3.294 I0.55 J0
X140.159 Y145.65 Z-3.441 I-0.55 J0
X141.259 Y145.65 Z-3.587 I0.55 J0
X140.159 Y145.65 Z-3.734 I-0.55 J0
X141.259 Y145.65 Z-3.881 I0.55 J0
X140.159 Y145.65 Z-4.028 I-0.55 J0
X141.259 Y145.65 Z-4.175 I0.55 J0
X140.159 Y145.65 Z-4.322 I-0.55 J0
X141.259 Y145.65 Z-4.468 I0.55 J0
X140.159 Y145.65 Z-4.615 I-0.55 J0
X141.259 Y145.65 Z-4.762 I0.55 J0
X140.159 Y145.65 Z-4.909 I-0.55 J0
X141.259 Y145.65 Z-5.056 I0.55 J0
X140.159 Y145.65 Z-5.203 I-0.55 J0
X141.259 Y145.65 Z-5.35 I0.55 J0
X140.159 Y145.65 Z-5.496 I-0.55 J0
X141.259 Y145.65 Z-5.643 I0.55 J0
X140.159 Y145.65 Z-5.79 I-0.55 J0
X141.259 Y145.65 Z-5.937 I0.55 J0
X140.159 Y145.65 Z-6.084 I-0.55 J0
X140.191 Y145.463 Z-6.1 I0.55 J0
X141.226 Y145.837 I0.517 J0.187
X140.191 Y145.463 I-0.517 J-0.187
X140.544 Y145.298 I0.259 J0.094 F50
G1 X140.689 Y145.351
X140.754 Y145.374 Z-6.092
X140.816 Y145.396 Z-6.069
X140.871 Y145.416 Z-6.032
X140.917 Y145.433 Z-5.983
X140.952 Y145.446 Z-5.925
X140.974 Y145.453 Z-5.859
X140.981 Y145.456 Z-5.79
Z5 F200
X152.21 Y138.625
Z-1
Z-2.69 F50
G18 G2 X152.52 Z-3 I0.31 K0
G1 X152.675
G17 G3 X152.95 Y138.9 I0 J0.275
X151.85 Y138.9 Z-3.147 I-0.55 J0 F200
X152.95 Y138.9 Z-3.294 I0.55 J0
X151.85 Y138.9 Z-3.441 I-0.55 J0
X152.95 Y138.9 Z-3.587 I0.55 J0
X151.85 Y138.9 Z-3.734 I-0.55 J0
X152.95 Y138.9 Z-3.881 I0.55 J0
X151.85 Y138.9 Z-4.028 I-0.55 J0
X152.95 Y138.9 Z-4.175 I0.55 J0
X151.85 Y138.9 Z-4.322 I-0.55 J0
X152.95 Y138.9 Z-4.468 I0.55 J0
X151.85 Y138.9 Z-4.615 I-0.55 J0
X152.95 Y138.9 Z-4.762 I0.55 J0
X151.85 Y138.9 Z-4.909 I-0.55 J0
X152.95 Y138.9 Z-5.056 I0.55 J0
X151.85 Y138.9 Z-5.203 I-0.55 J0
X152.95 Y138.9 Z-5.35 I0.55 J0
X151.85 Y138.9 Z-5.496 I-0.55 J0
X152.95 Y138.9 Z-5.643 I0.55 J0
X151.85 Y138.9 Z-5.79 I-0.55 J0
X152.95 Y138.9 Z-5.937 I0.55 J0
X151.85 Y138.9 Z-6.084 I-0.55 J0
X151.883 Y138.713 Z-6.1 I0.55 J0
X152.917 Y139.087 I0.517 J0.187
X151.883 Y138.713 I-0.517 J-0.187
X152.235 Y138.548 I0.259 J0.094 F50
G1 X152.381 Y138.601
X152.446 Y138.624 Z-6.092
X152.507 Y138.646 Z-6.069
X152.562 Y138.666 Z-6.032
X152.609 Y138.683 Z-5.983
X152.643 Y138.696 Z-5.925
X152.665 Y138.703 Z-5.859
X152.672 Y138.706 Z-5.79
Z5 F200
X163.901 Y145.375
Z-1
Z-2.69 F50
G18 G2 X164.211 Z-3 I0.31 K0
G1 X164.366
G17 G3 X164.641 Y145.65 I0 J0.275
X163.541 Y145.65 Z-3.147 I-0.55 J0 F200
X164.641 Y145.65 Z-3.294 I0.55 J0
X163.541 Y145.65 Z-3.441 I-0.55 J0
X164.641 Y145.65 Z-3.587 I0.55 J0
X163.541 Y145.65 Z-3.734 I-0.55 J0
X164.641 Y145.65 Z-3.881 I0.55 J0
X163.541 Y145.65 Z-4.028 I-0.55 J0
X164.641 Y145.65 Z-4.175 I0.55 J0
X163.541 Y145.65 Z-4.322 I-0.55 J0
X164.641 Y145.65 Z-4.468 I0.55 J0
X163.541 Y145.65 Z-4.615 I-0.55 J0
X164.641 Y145.65 Z-4.762 I0.55 J0
X163.541 Y145.65 Z-4.909 I-0.55 J0
X164.641 Y145.65 Z-5.056 I0.55 J0
X163.541 Y145.65 Z-5.203 I-0.55 J0
X164.641 Y145.65 Z-5.35 I0.55 J0
X163.541 Y145.65 Z-5.496 I-0.55 J0
X164.641 Y145.65 Z-5.643 I0.55 J0
X163.541 Y145.65 Z-5.79 I-0.55 J0
X164.641 Y145.65 Z-5.937 I0.55 J0
X163.541 Y145.65 Z-6.084 I-0.55 J0
X163.574 Y145.463 Z-6.1 I0.55 J0
X164.609 Y145.837 I0.517 J0.187
X163.574 Y145.463 I-0.517 J-0.187
X163.926 Y145.298 I0.259 J0.094 F50
G1 X164.072 Y145.351
X164.137 Y145.374 Z-6.092
X164.199 Y145.396 Z-6.069
X164.254 Y145.416 Z-6.032
X164.3 Y145.433 Z-5.983
X164.335 Y145.446 Z-5.925
X164.356 Y145.453 Z-5.859
X164.364 Y145.456 Z-5.79
Z5 F200
X163.901 Y158.875
Z-1
Z-2.69 F50
G18 G2 X164.211 Z-3 I0.31 K0
G1 X164.366
G17 G3 X164.641 Y159.15 I0 J0.275
X163.541 Y159.15 Z-3.147 I-0.55 J0 F200
X164.641 Y159.15 Z-3.294 I0.55 J0
X163.541 Y159.15 Z-3.441 I-0.55 J0
X164.641 Y159.15 Z-3.587 I0.55 J0
X163.541 Y159.15 Z-3.734 I-0.55 J0
X164.641 Y159.15 Z-3.881 I0.55 J0
X163.541 Y159.15 Z-4.028 I-0.55 J0
X164.641 Y159.15 Z-4.175 I0.55 J0
X163.541 Y159.15 Z-4.322 I-0.55 J0
X164.641 Y159.15 Z-4.468 I0.55 J0
X163.541 Y159.15 Z-4.615 I-0.55 J0
X164.641 Y159.15 Z-4.762 I0.55 J0
X163.541 Y159.15 Z-4.909 I-0.55 J0
X164.641 Y159.15 Z-5.056 I0.55 J0
X163.541 Y159.15 Z-5.203 I-0.55 J0
X164.641 Y159.15 Z-5.35 I0.55 J0
X163.541 Y159.15 Z-5.496 I-0.55 J0
X164.641 Y159.15 Z-5.643 I0.55 J0
X163.541 Y159.15 Z-5.79 I-0.55 J0
X164.641 Y159.15 Z-5.937 I0.55 J0
X163.541 Y159.15 Z-6.084 I-0.55 J0
X163.574 Y158.963 Z-6.1 I0.55 J0
X164.609 Y159.337 I0.517 J0.187
X163.574 Y158.963 I-0.517 J-0.187
X163.926 Y158.798 I0.259 J0.094 F50
G1 X164.072 Y158.851
X164.137 Y158.874 Z-6.092
X164.199 Y158.896 Z-6.069
X164.254 Y158.916 Z-6.032
X164.3 Y158.933 Z-5.983
X164.335 Y158.946 Z-5.925
X164.356 Y158.953 Z-5.859
X164.364 Y158.956 Z-5.79
Z5 F200
X152.21 Y165.625
Z-1
Z-2.69 F50
G18 G2 X152.52 Z-3 I0.31 K0
G1 X152.675
G17 G3 X152.95 Y165.9 I0 J0.275
X151.85 Y165.9 Z-3.147 I-0.55 J0 F200
X152.95 Y165.9 Z-3.294 I0.55 J0
X151.85 Y165.9 Z-3.441 I-0.55 J0
X152.95 Y165.9 Z-3.587 I0.55 J0
X151.85 Y165.9 Z-3.734 I-0.55 J0
X152.95 Y165.9 Z-3.881 I0.55 J0
X151.85 Y165.9 Z-4.028 I-0.55 J0
X152.95 Y165.9 Z-4.175 I0.55 J0
X151.85 Y165.9 Z-4.322 I-0.55 J0
X152.95 Y165.9 Z-4.468 I0.55 J0
X151.85 Y165.9 Z-4.615 I-0.55 J0
X152.95 Y165.9 Z-4.762 I0.55 J0
X151.85 Y165.9 Z-4.909 I-0.55 J0
X152.95 Y165.9 Z-5.056 I0.55 J0
X151.85 Y165.9 Z-5.203 I-0.55 J0
X152.95 Y165.9 Z-5.35 I0.55 J0
X151.85 Y165.9 Z-5.496 I-0.55 J0
X152.95 Y165.9 Z-5.643 I0.55 J0
X151.85 Y165.9 Z-5.79 I-0.55 J0
X152.95 Y165.9 Z-5.937 I0.55 J0
X151.85 Y165.9 Z-6.084 I-0.55 J0
X151.883 Y165.713 Z-6.1 I0.55 J0
X152.917 Y166.087 I0.517 J0.187
X151.883 Y165.713 I-0.517 J-0.187
X152.235 Y165.548 I0.259 J0.094 F50
G1 X152.381 Y165.601
X152.446 Y165.624 Z-6.092
X152.507 Y165.646 Z-6.069
X152.562 Y165.666 Z-6.032
X152.609 Y165.683 Z-5.983
X152.643 Y165.696 Z-5.925
X152.665 Y165.703 Z-5.859
X152.672 Y165.706 Z-5.79
Z5 F200
X140.519 Y158.875
Z-1
Z-2.69 F50
G18 G2 X140.829 Z-3 I0.31 K0
G1 X140.984
G17 G3 X141.259 Y159.15 I0 J0.275
X140.159 Y159.15 Z-3.147 I-0.55 J0 F200
X141.259 Y159.15 Z-3.294 I0.55 J0
X140.159 Y159.15 Z-3.441 I-0.55 J0
X141.259 Y159.15 Z-3.587 I0.55 J0
X140.159 Y159.15 Z-3.734 I-0.55 J0
X141.259 Y159.15 Z-3.881 I0.55 J0
X140.159 Y159.15 Z-4.028 I-0.55 J0
X141.259 Y159.15 Z-4.175 I0.55 J0
X140.159 Y159.15 Z-4.322 I-0.55 J0
X141.259 Y159.15 Z-4.468 I0.55 J0
X140.159 Y159.15 Z-4.615 I-0.55 J0
X141.259 Y159.15 Z-4.762 I0.55 J0
X140.159 Y159.15 Z-4.909 I-0.55 J0
X141.259 Y159.15 Z-5.056 I0.55 J0
X140.159 Y159.15 Z-5.203 I-0.55 J0
X141.259 Y159.15 Z-5.35 I0.55 J0
X140.159 Y159.15 Z-5.496 I-0.55 J0
X141.259 Y159.15 Z-5.643 I0.55 J0
X140.159 Y159.15 Z-5.79 I-0.55 J0
X141.259 Y159.15 Z-5.937 I0.55 J0
X140.159 Y159.15 Z-6.084 I-0.55 J0
X140.191 Y158.963 Z-6.1 I0.55 J0
X141.226 Y159.337 I0.517 J0.187
X140.191 Y158.963 I-0.517 J-0.187
X140.544 Y158.798 I0.259 J0.094 F50
G1 X140.689 Y158.851
X140.754 Y158.874 Z-6.092
X140.816 Y158.896 Z-6.069
X140.871 Y158.916 Z-6.032
X140.917 Y158.933 Z-5.983
X140.952 Y158.946 Z-5.925
X140.974 Y158.953 Z-5.859
X140.981 Y158.956 Z-5.79
Z15 F200
(When using Fusion for Personal Use, the feedrate of rapid)
(moves is reduced to match the feedrate of cutting moves,)
(which can increase machining time. Unrestricted rapid moves)
(are available with a Fusion Subscription.)

(2D Pocket1)
G0 X153.672 Y164.602
G1 Z15 F200
Z5
Z2.808 F50
X153.704 Y164.619 Z2.663 F100
X153.79 Y164.672 Z2.551
X153.903 Y164.755 Z2.5
G3 X152.052 Y167.045 Z2.014 I-0.926 J1.145
X153.903 Y164.755 Z1.528 I0.926 J-1.145
X152.052 Y167.045 Z1.041 I-0.926 J1.145
X153.903 Y164.755 Z0.555 I0.926 J-1.145
X152.052 Y167.045 Z0.069 I-0.926 J1.145
X153.903 Y164.755 Z-0.417 I0.926 J-1.145
X152.052 Y167.045 Z-0.903 I-0.926 J1.145
X153.903 Y164.755 Z-1.39 I0.926 J-1.145
X152.052 Y167.045 Z-1.876 I-0.926 J1.145
X153.903 Y164.755 Z-2.362 I0.926 J-1.145
X154.45 Y165.9 Z-2.5 I-0.926 J1.145
X150.35 Y165.9 I-2.05 J0 F200
X154.45 Y165.9 I2.05 J0
X154.188 Y166.206 I-0.31 J0 F50
G1 X152.705 Y166.441
X152.637 Y166.452 Z-2.492
X152.573 Y166.462 Z-2.469
X152.515 Y166.471 Z-2.432
X152.466 Y166.479 Z-2.383
X152.43 Y166.485 Z-2.325
X152.407 Y166.488 Z-2.259
X152.399 Y166.49 Z-2.19
Z15 F200
X141.981 Y157.852
Z5
Z2.808 F50
X142.013 Y157.869 Z2.663 F100
X142.099 Y157.922 Z2.551
X142.212 Y158.005 Z2.5
G3 X140.361 Y160.295 Z2.014 I-0.926 J1.145
X142.212 Y158.005 Z1.528 I0.926 J-1.145
X140.361 Y160.295 Z1.041 I-0.926 J1.145
X142.212 Y158.005 Z0.555 I0.926 J-1.145
X140.361 Y160.295 Z0.069 I-0.926 J1.145
X142.212 Y158.005 Z-0.417 I0.926 J-1.145
X140.361 Y160.295 Z-0.903 I-0.926 J1.145
X142.212 Y158.005 Z-1.39 I0.926 J-1.145
X140.361 Y160.295 Z-1.876 I-0.926 J1.145
X142.212 Y158.005 Z-2.362 I0.926 J-1.145
X142.759 Y159.15 Z-2.5 I-0.926 J1.145
X138.659 Y159.15 I-2.05 J0 F200
X142.759 Y159.15 I2.05 J0
X142.497 Y159.456 I-0.31 J0 F50
G1 X141.014 Y159.691
X140.946 Y159.702 Z-2.492
X140.882 Y159.712 Z-2.469
X140.824 Y159.721 Z-2.432
X140.775 Y159.729 Z-2.383
X140.739 Y159.735 Z-2.325
X140.716 Y159.738 Z-2.259
X140.708 Y159.74 Z-2.19
Z15 F200
X141.981 Y144.352
Z5
Z2.808 F50
X142.013 Y144.369 Z2.663 F100
X142.099 Y144.422 Z2.551
X142.212 Y144.505 Z2.5
G3 X140.361 Y146.795 Z2.014 I-0.926 J1.145
X142.212 Y144.505 Z1.528 I0.926 J-1.145
X140.361 Y146.795 Z1.041 I-0.926 J1.145
X142.212 Y144.505 Z0.555 I0.926 J-1.145
X140.361 Y146.795 Z0.069 I-0.926 J1.145
X142.212 Y144.505 Z-0.417 I0.926 J-1.145
X140.361 Y146.795 Z-0.903 I-0.926 J1.145
X142.212 Y144.505 Z-1.39 I0.926 J-1.145
X140.361 Y146.795 Z-1.876 I-0.926 J1.145
X142.212 Y144.505 Z-2.362 I0.926 J-1.145
X142.759 Y145.65 Z-2.5 I-0.926 J1.145
X138.659 Y145.65 I-2.05 J0 F200
X142.759 Y145.65 I2.05 J0
X142.497 Y145.956 I-0.31 J0 F50
G1 X141.014 Y146.191
X140.946 Y146.202 Z-2.492
X140.882 Y146.212 Z-2.469
X140.824 Y146.221 Z-2.432
X140.775 Y146.229 Z-2.383
X140.739 Y146.235 Z-2.325
X140.716 Y146.238 Z-2.259
X140.708 Y146.24 Z-2.19
Z15 F200
X153.672 Y137.602
Z5
Z2.808 F50
X153.704 Y137.619 Z2.663 F100
X153.79 Y137.672 Z2.551
X153.903 Y137.755 Z2.5
G3 X152.052 Y140.045 Z2.014 I-0.926 J1.145
X153.903 Y137.755 Z1.528 I0.926 J-1.145
X152.052 Y140.045 Z1.041 I-0.926 J1.145
X153.903 Y137.755 Z0.555 I0.926 J-1.145
X152.052 Y140.045 Z0.069 I-0.926 J1.145
X153.903 Y137.755 Z-0.417 I0.926 J-1.145
X152.052 Y140.045 Z-0.903 I-0.926 J1.145
X153.903 Y137.755 Z-1.39 I0.926 J-1.145
X152.052 Y140.045 Z-1.876 I-0.926 J1.145
X153.903 Y137.755 Z-2.362 I0.926 J-1.145
X154.45 Y138.9 Z-2.5 I-0.926 J1.145
X150.35 Y138.9 I-2.05 J0 F200
X154.45 Y138.9 I2.05 J0
X154.188 Y139.206 I-0.31 J0 F50
G1 X152.705 Y139.441
X152.637 Y139.452 Z-2.492
X152.573 Y139.462 Z-2.469
X152.515 Y139.471 Z-2.432
X152.466 Y139.479 Z-2.383
X152.43 Y139.485 Z-2.325
X152.407 Y139.488 Z-2.259
X152.399 Y139.49 Z-2.19
Z15 F200
X165.363 Y144.352
Z5
Z2.808 F50
X165.395 Y144.369 Z2.663 F100
X165.481 Y144.422 Z2.551
X165.594 Y144.505 Z2.5
G3 X163.743 Y146.795 Z2.014 I-0.926 J1.145
X165.594 Y144.505 Z1.528 I0.926 J-1.145
X163.743 Y146.795 Z1.041 I-0.926 J1.145
X165.594 Y144.505 Z0.555 I0.926 J-1.145
X163.743 Y146.795 Z0.069 I-0.926 J1.145
X165.594 Y144.505 Z-0.417 I0.926 J-1.145
X163.743 Y146.795 Z-0.903 I-0.926 J1.145
X165.594 Y144.505 Z-1.39 I0.926 J-1.145
X163.743 Y146.795 Z-1.876 I-0.926 J1.145
X165.594 Y144.505 Z-2.362 I0.926 J-1.145
X166.141 Y145.65 Z-2.5 I-0.926 J1.145
X162.041 Y145.65 I-2.05 J0 F200
X166.141 Y145.65 I2.05 J0
X165.88 Y145.956 I-0.31 J0 F50
G1 X164.396 Y146.191
X164.328 Y146.202 Z-2.492
X164.264 Y146.212 Z-2.469
X164.206 Y146.221 Z-2.432
X164.157 Y146.229 Z-2.383
X164.121 Y146.235 Z-2.325
X164.098 Y146.238 Z-2.259
X164.09 Y146.24 Z-2.19
Z15 F200
X165.363 Y157.852
Z5
Z2.808 F50
X165.395 Y157.869 Z2.663 F100
X165.481 Y157.922 Z2.551
X165.594 Y158.005 Z2.5
G3 X163.743 Y160.295 Z2.014 I-0.926 J1.145
X165.594 Y158.005 Z1.528 I0.926 J-1.145
X163.743 Y160.295 Z1.041 I-0.926 J1.145
X165.594 Y158.005 Z0.555 I0.926 J-1.145
X163.743 Y160.295 Z0.069 I-0.926 J1.145
X165.594 Y158.005 Z-0.417 I0.926 J-1.145
X163.743 Y160.295 Z-0.903 I-0.926 J1.145
X165.594 Y158.005 Z-1.39 I0.926 J-1.145
X163.743 Y160.295 Z-1.876 I-0.926 J1.145
X165.594 Y158.005 Z-2.362 I0.926 J-1.145
X166.141 Y159.15 Z-2.5 I-0.926 J1.145
X162.041 Y159.15 I-2.05 J0 F200
X166.141 Y159.15 I2.05 J0
X165.88 Y159.456 I-0.31 J0 F50
G1 X164.396 Y159.691
X164.328 Y159.702 Z-2.492
X164.264 Y159.712 Z-2.469
X164.206 Y159.721 Z-2.432
X164.157 Y159.729 Z-2.383
X164.121 Y159.735 Z-2.325
X164.098 Y159.738 Z-2.259
X164.09 Y159.74 Z-2.19
Z15 F200
(When using Fusion for Personal Use, the feedrate of rapid)
(moves is reduced to match the feedrate of cutting moves,)
(which can increase machining time. Unrestricted rapid moves)
(are available with a Fusion Subscription.)

(Bore5)
G0 X282.642 Y295.847
G1 Z15 F200
Z2
Z0.31 F50
G18 G2 X282.952 Z0 I0.31 K0
G1 X283.107
G17 G3 X283.417 Y296.157 I0 J0.31
X280.717 Y296.157 Z-0.203 I-1.35 J0 F200
X283.417 Y296.157 Z-0.406 I1.35 J0
X280.717 Y296.157 Z-0.608 I-1.35 J0
X283.417 Y296.157 Z-0.811 I1.35 J0
X280.717 Y296.157 Z-1.014 I-1.35 J0
X283.417 Y296.157 Z-1.217 I1.35 J0
X280.717 Y296.157 Z-1.42 I-1.35 J0
X283.417 Y296.157 Z-1.622 I1.35 J0
X280.717 Y296.157 Z-1.825 I-1.35 J0
X283.417 Y296.157 Z-2.028 I1.35 J0
X280.717 Y296.157 Z-2.231 I-1.35 J0
X283.417 Y296.157 Z-2.433 I1.35 J0
X280.717 Y296.157 Z-2.636 I-1.35 J0
X283.417 Y296.157 Z-2.839 I1.35 J0
X280.717 Y296.157 Z-3.042 I-1.35 J0
X283.417 Y296.157 Z-3.245 I1.35 J0
X280.717 Y296.157 Z-3.447 I-1.35 J0
X283.417 Y296.157 Z-3.65 I1.35 J0
X280.717 Y296.157 Z-3.853 I-1.35 J0
X283.417 Y296.157 Z-4.056 I1.35 J0
X280.717 Y296.157 Z-4.259 I-1.35 J0
X283.417 Y296.157 Z-4.461 I1.35 J0
X280.717 Y296.157 Z-4.664 I-1.35 J0
X283.417 Y296.157 Z-4.867 I1.35 J0
X280.717 Y296.157 Z-5.07 I-1.35 J0
X283.417 Y296.157 Z-5.272 I1.35 J0
X280.717 Y296.157 Z-5.475 I-1.35 J0
X283.417 Y296.157 Z-5.678 I1.35 J0
X280.717 Y296.157 Z-5.881 I-1.35 J0
X282.238 Y294.818 Z-5.99 I1.35 J0
X283.374 Y296.496 Z-6.1 I-0.171 J1.339
X280.76 Y295.819 I-1.307 J-0.339
X283.374 Y296.496 I1.307 J0.339
X282.996 Y296.718 I-0.3 J-0.078 F50
G1 X282.846 Y296.679
X282.779 Y296.662 Z-6.092
X282.716 Y296.646 Z-6.069
X282.659 Y296.631 Z-6.032
X282.611 Y296.619 Z-5.983
X282.575 Y296.609 Z-5.925
X282.553 Y296.603 Z-5.859
X282.546 Y296.602 Z-5.79
Z5 F200
X282.642 Y263.847
Z2
Z0.31 F50
G18 G2 X282.952 Z0 I0.31 K0
G1 X283.107
G17 G3 X283.417 Y264.157 I0 J0.31
X280.717 Y264.157 Z-0.203 I-1.35 J0 F200
X283.417 Y264.157 Z-0.406 I1.35 J0
X280.717 Y264.157 Z-0.608 I-1.35 J0
X283.417 Y264.157 Z-0.811 I1.35 J0
X280.717 Y264.157 Z-1.014 I-1.35 J0
X283.417 Y264.157 Z-1.217 I1.35 J0
X280.717 Y264.157 Z-1.42 I-1.35 J0
X283.417 Y264.157 Z-1.622 I1.35 J0
X280.717 Y264.157 Z-1.825 I-1.35 J0
X283.417 Y264.157 Z-2.028 I1.35 J0
X280.717 Y264.157 Z-2.231 I-1.35 J0
X283.417 Y264.157 Z-2.433 I1.35 J0
X280.717 Y264.157 Z-2.636 I-1.35 J0
X283.417 Y264.157 Z-2.839 I1.35 J0
X280.717 Y264.157 Z-3.042 I-1.35 J0
X283.417 Y264.157 Z-3.245 I1.35 J0
X280.717 Y264.157 Z-3.447 I-1.35 J0
X283.417 Y264.157 Z-3.65 I1.35 J0
X280.717 Y264.157 Z-3.853 I-1.35 J0
X283.417 Y264.157 Z-4.056 I1.35 J0
X280.717 Y264.157 Z-4.259 I-1.35 J0
X283.417 Y264.157 Z-4.461 I1.35 J0
X280.717 Y264.157 Z-4.664 I-1.35 J0
X283.417 Y264.157 Z-4.867 I1.35 J0
X280.717 Y264.157 Z-5.07 I-1.35 J0
X283.417 Y264.157 Z-5.272 I1.35 J0
X280.717 Y264.157 Z-5.475 I-1.35 J0
X283.417 Y264.157 Z-5.678 I1.35 J0
X280.717 Y264.157 Z-5.881 I-1.35 J0
X282.238 Y262.818 Z-5.99 I1.35 J0
X283.374 Y264.496 Z-6.1 I-0.171 J1.339
X280.76 Y263.819 I-1.307 J-0.339
X283.374 Y264.496 I1.307 J0.339
X282.996 Y264.718 I-0.3 J-0.078 F50
G1 X282.846 Y264.679
X282.779 Y264.662 Z-6.092
X282.716 Y264.646 Z-6.069
X282.659 Y264.631 Z-6.032
X282.611 Y264.619 Z-5.983
X282.575 Y264.609 Z-5.925
X282.553 Y264.603 Z-5.859
X282.546 Y264.602 Z-5.79
Z5 F200
X246.642 Y263.847
Z2
Z0.31 F50
G18 G2 X246.952 Z0 I0.31 K0
G1 X247.107
G17 G3 X247.417 Y264.157 I0 J0.31
X244.717 Y264.157 Z-0.203 I-1.35 J0 F200
X247.417 Y264.157 Z-0.406 I1.35 J0
X244.717 Y264.157 Z-0.608 I-1.35 J0
X247.417 Y264.157 Z-0.811 I1.35 J0
X244.717 Y264.157 Z-1.014 I-1.35 J0
X247.417 Y264.157 Z-1.217 I1.35 J0
X244.717 Y264.157 Z-1.42 I-1.35 J0
X247.417 Y264.157 Z-1.622 I1.35 J0
X244.717 Y264.157 Z-1.825 I-1.35 J0
X247.417 Y264.157 Z-2.028 I1.35 J0
X244.717 Y264.157 Z-2.231 I-1.35 J0
X247.417 Y264.157 Z-2.433 I1.35 J0
X244.717 Y264.157 Z-2.636 I-1.35 J0
X247.417 Y264.157 Z-2.839 I1.35 J0
X244.717 Y264.157 Z-3.042 I-1.35 J0
X247.417 Y264.157 Z-3.245 I1.35 J0
X244.717 Y264.157 Z-3.447 I-1.35 J0
X247.417 Y264.157 Z-3.65 I1.35 J0
X244.717 Y264.157 Z-3.853 I-1.35 J0
X247.417 Y264.157 Z-4.056 I1.35 J0
X244.717 Y264.157 Z-4.259 I-1.35 J0
X247.417 Y264.157 Z-4.461 I1.35 J0
X244.717 Y264.157 Z-4.664 I-1.35 J0
X247.417 Y264.157 Z-4.867 I1.35 J0
X244.717 Y264.157 Z-5.07 I-1.35 J0
X247.417 Y264.157 Z-5.272 I1.35 J0
X244.717 Y264.157 Z-5.475 I-1.35 J0
X247.417 Y264.157 Z-5.678 I1.35 J0
X244.717 Y264.157 Z-5.881 I-1.35 J0
X246.238 Y262.818 Z-5.99 I1.35 J0
X247.374 Y264.496 Z-6.1 I-0.171 J1.339
X244.76 Y263.819 I-1.307 J-0.339
X247.374 Y264.496 I1.307 J0.339
X246.996 Y264.718 I-0.3 J-0.078 F50
G1 X246.846 Y264.679
X246.779 Y264.662 Z-6.092
X246.716 Y264.646 Z-6.069
X246.659 Y264.631 Z-6.032
X246.611 Y264.619 Z-5.983
X246.575 Y264.609 Z-5.925
X246.553 Y264.603 Z-5.859
X246.546 Y264.602 Z-5.79
Z5 F200
X246.642 Y295.847
Z2
Z0.31 F50
G18 G2 X246.952 Z0 I0.31 K0
G1 X247.107
G17 G3 X247.417 Y296.157 I0 J0.31
X244.717 Y296.157 Z-0.203 I-1.35 J0 F200
X247.417 Y296.157 Z-0.406 I1.35 J0
X244.717 Y296.157 Z-0.608 I-1.35 J0
X247.417 Y296.157 Z-0.811 I1.35 J0
X244.717 Y296.157 Z-1.014 I-1.35 J0
X247.417 Y296.157 Z-1.217 I1.35 J0
X244.717 Y296.157 Z-1.42 I-1.35 J0
X247.417 Y296.157 Z-1.622 I1.35 J0
X244.717 Y296.157 Z-1.825 I-1.35 J0
X247.417 Y296.157 Z-2.028 I1.35 J0
X244.717 Y296.157 Z-2.231 I-1.35 J0
X247.417 Y296.157 Z-2.433 I1.35 J0
X244.717 Y296.157 Z-2.636 I-1.35 J0
X247.417 Y296.157 Z-2.839 I1.35 J0
X244.717 Y296.157 Z-3.042 I-1.35 J0
X247.417 Y296.157 Z-3.245 I1.35 J0
X244.717 Y296.157 Z-3.447 I-1.35 J0
X247.417 Y296.157 Z-3.65 I1.35 J0
X244.717 Y296.157 Z-3.853 I-1.35 J0
X247.417 Y296.157 Z-4.056 I1.35 J0
X244.717 Y296.157 Z-4.259 I-1.35 J0
X247.417 Y296.157 Z-4.461 I1.35 J0
X244.717 Y296.157 Z-4.664 I-1.35 J0
X247.417 Y296.157 Z-4.867 I1.35 J0
X244.717 Y296.157 Z-5.07 I-1.35 J0
X247.417 Y296.157 Z-5.272 I1.35 J0
X244.717 Y296.157 Z-5.475 I-1.35 J0
X247.417 Y296.157 Z-5.678 I1.35 J0
X244.717 Y296.157 Z-5.881 I-1.35 J0
X246.238 Y294.818 Z-5.99 I1.35 J0
X247.374 Y296.496 Z-6.1 I-0.171 J1.339
X244.76 Y295.819 I-1.307 J-0.339
X247.374 Y296.496 I1.307 J0.339
X246.996 Y296.718 I-0.3 J-0.078 F50
G1 X246.846 Y296.679
X246.779 Y296.662 Z-6.092
X246.716 Y296.646 Z-6.069
X246.659 Y296.631 Z-6.032
X246.611 Y296.619 Z-5.983
X246.575 Y296.609 Z-5.925
X246.553 Y296.603 Z-5.859
X246.546 Y296.602 Z-5.79
Z5 F200
X59.823 Y264.333
Z2
Z0.31 F50
G18 G2 X60.133 Z0 I0.31 K0
G1 X60.288
G17 G3 X60.598 Y264.643 I0 J0.31
X57.898 Y264.643 Z-0.203 I-1.35 J0 F200
X60.598 Y264.643 Z-0.406 I1.35 J0
X57.898 Y264.643 Z-0.608 I-1.35 J0
X60.598 Y264.643 Z-0.811 I1.35 J0
X57.898 Y264.643 Z-1.014 I-1.35 J0
X60.598 Y264.643 Z-1.217 I1.35 J0
X57.898 Y264.643 Z-1.42 I-1.35 J0
X60.598 Y264.643 Z-1.622 I1.35 J0
X57.898 Y264.643 Z-1.825 I-1.35 J0
X60.598 Y264.643 Z-2.028 I1.35 J0
X57.898 Y264.643 Z-2.231 I-1.35 J0
X60.598 Y264.643 Z-2.433 I1.35 J0
X57.898 Y264.643 Z-2.636 I-1.35 J0
X60.598 Y264.643 Z-2.839 I1.35 J0
X57.898 Y264.643 Z-3.042 I-1.35 J0
X60.598 Y264.643 Z-3.245 I1.35 J0
X57.898 Y264.643 Z-3.447 I-1.35 J0
X60.598 Y264.643 Z-3.65 I1.35 J0
X57.898 Y264.643 Z-3.853 I-1.35 J0
X60.598 Y264.643 Z-4.056 I1.35 J0
X57.898 Y264.643 Z-4.259 I-1.35 J0
X60.598 Y264.643 Z-4.461 I1.35 J0
X57.898 Y264.643 Z-4.664 I-1.35 J0
X60.598 Y264.643 Z-4.867 I1.35 J0
X57.898 Y264.643 Z-5.07 I-1.35 J0
X60.598 Y264.643 Z-5.272 I1.35 J0
X57.898 Y264.643 Z-5.475 I-1.35 J0
X60.598 Y264.643 Z-5.678 I1.35 J0
X57.898 Y264.643 Z-5.881 I-1.35 J0
X59.418 Y263.304 Z-5.99 I1.35 J0
X60.554 Y264.981 Z-6.1 I-0.171 J1.339
X57.941 Y264.304 I-1.307 J-0.339
X60.554 Y264.981 I1.307 J0.339
X60.177 Y265.204 I-0.3 J-0.078 F50
G1 X60.027 Y265.165
X59.96 Y265.148 Z-6.092
X59.896 Y265.131 Z-6.069
X59.839 Y265.116 Z-6.032
X59.792 Y265.104 Z-5.983
X59.756 Y265.095 Z-5.925
X59.734 Y265.089 Z-5.859
X59.726 Y265.087 Z-5.79
Z5 F200
X59.823 Y296.333
Z2
Z0.31 F50
G18 G2 X60.133 Z0 I0.31 K0
G1 X60.288
G17 G3 X60.598 Y296.643 I0 J0.31
X57.898 Y296.643 Z-0.203 I-1.35 J0 F200
X60.598 Y296.643 Z-0.406 I1.35 J0
X57.898 Y296.643 Z-0.608 I-1.35 J0
X60.598 Y296.643 Z-0.811 I1.35 J0
X57.898 Y296.643 Z-1.014 I-1.35 J0
X60.598 Y296.643 Z-1.217 I1.35 J0
X57.898 Y296.643 Z-1.42 I-1.35 J0
X60.598 Y296.643 Z-1.622 I1.35 J0
X57.898 Y296.643 Z-1.825 I-1.35 J0
X60.598 Y296.643 Z-2.028 I1.35 J0
X57.898 Y296.643 Z-2.231 I-1.35 J0
X60.598 Y296.643 Z-2.433 I1.35 J0
X57.898 Y296.643 Z-2.636 I-1.35 J0
X60.598 Y296.643 Z-2.839 I1.35 J0
X57.898 Y296.643 Z-3.042 I-1.35 J0
X60.598 Y296.643 Z-3.245 I1.35 J0
X57.898 Y296.643 Z-3.447 I-1.35 J0
X60.598 Y296.643 Z-3.65 I1.35 J0
X57.898 Y296.643 Z-3.853 I-1.35 J0
X60.598 Y296.643 Z-4.056 I1.35 J0
X57.898 Y296.643 Z-4.259 I-1.35 J0
X60.598 Y296.643 Z-4.461 I1.35 J0
X57.898 Y296.643 Z-4.664 I-1.35 J0
X60.598 Y296.643 Z-4.867 I1.35 J0
X57.898 Y296.643 Z-5.07 I-1.35 J0
X60.598 Y296.643 Z-5.272 I1.35 J0
X57.898 Y296.643 Z-5.475 I-1.35 J0
X60.598 Y296.643 Z-5.678 I1.35 J0
X57.898 Y296.643 Z-5.881 I-1.35 J0
X59.418 Y295.304 Z-5.99 I1.35 J0
X60.554 Y296.981 Z-6.1 I-0.171 J1.339
X57.941 Y296.304 I-1.307 J-0.339
X60.554 Y296.981 I1.307 J0.339
X60.177 Y297.204 I-0.3 J-0.078 F50
G1 X60.027 Y297.165
X59.96 Y297.148 Z-6.092
X59.896 Y297.131 Z-6.069
X59.839 Y297.116 Z-6.032
X59.792 Y297.104 Z-5.983
X59.756 Y297.095 Z-5.925
X59.734 Y297.089 Z-5.859
X59.726 Y297.087 Z-5.79
Z5 F200
X23.823 Y296.333
Z2
Z0.31 F50
G18 G2 X24.133 Z0 I0.31 K0
G1 X24.288
G17 G3 X24.598 Y296.643 I0 J0.31
X21.898 Y296.643 Z-0.203 I-1.35 J0 F200
X24.598 Y296.643 Z-0.406 I1.35 J0
X21.898 Y296.643 Z-0.608 I-1.35 J0
X24.598 Y296.643 Z-0.811 I1.35 J0
X21.898 Y296.643 Z-1.014 I-1.35 J0
X24.598 Y296.643 Z-1.217 I1.35 J0
X21.898 Y296.643 Z-1.42 I-1.35 J0
X24.598 Y296.643 Z-1.622 I1.35 J0
X21.898 Y296.643 Z-1.825 I-1.35 J0
X24.598 Y296.643 Z-2.028 I1.35 J0
X21.898 Y296.643 Z-2.231 I-1.35 J0
X24.598 Y296.643 Z-2.433 I1.35 J0
X21.898 Y296.643 Z-2.636 I-1.35 J0
X24.598 Y296.643 Z-2.839 I1.35 J0
X21.898 Y296.643 Z-3.042 I-1.35 J0
X24.598 Y296.643 Z-3.245 I1.35 J0
X21.898 Y296.643 Z-3.447 I-1.35 J0
X24.598 Y296.643 Z-3.65 I1.35 J0
X21.898 Y296.643 Z-3.853 I-1.35 J0
X24.598 Y296.643 Z-4.056 I1.35 J0
X21.898 Y296.643 Z-4.259 I-1.35 J0
X24.598 Y296.643 Z-4.461 I1.35 J0
X21.898 Y296.643 Z-4.664 I-1.35 J0
X24.598 Y296.643 Z-4.867 I1.35 J0
X21.898 Y296.643 Z-5.07 I-1.35 J0
X24.598 Y296.643 Z-5.272 I1.35 J0
X21.898 Y296.643 Z-5.475 I-1.35 J0
X24.598 Y296.643 Z-5.678 I1.35 J0
X21.898 Y296.643 Z-5.881 I-1.35 J0
X23.418 Y295.304 Z-5.99 I1.35 J0
X24.554 Y296.981 Z-6.1 I-0.171 J1.339
X21.941 Y296.304 I-1.307 J-0.339
X24.554 Y296.981 I1.307 J0.339
X24.177 Y297.204 I-0.3 J-0.078 F50
G1 X24.027 Y297.165
X23.96 Y297.148 Z-6.092
X23.896 Y297.131 Z-6.069
X23.839 Y297.116 Z-6.032
X23.792 Y297.104 Z-5.983
X23.756 Y297.095 Z-5.925
X23.734 Y297.089 Z-5.859
X23.726 Y297.087 Z-5.79
Z5 F200
X23.823 Y264.333
Z2
Z0.31 F50
G18 G2 X24.133 Z0 I0.31 K0
G1 X24.288
G17 G3 X24.598 Y264.643 I0 J0.31
X21.898 Y264.643 Z-0.203 I-1.35 J0 F200
X24.598 Y264.643 Z-0.406 I1.35 J0
X21.898 Y264.643 Z-0.608 I-1.35 J0
X24.598 Y264.643 Z-0.811 I1.35 J0
X21.898 Y264.643 Z-1.014 I-1.35 J0
X24.598 Y264.643 Z-1.217 I1.35 J0
X21.898 Y264.643 Z-1.42 I-1.35 J0
X24.598 Y264.643 Z-1.622 I1.35 J0
X21.898 Y264.643 Z-1.825 I-1.35 J0
X24.598 Y264.643 Z-2.028 I1.35 J0
X21.898 Y264.643 Z-2.231 I-1.35 J0
X24.598 Y264.643 Z-2.433 I1.35 J0
X21.898 Y264.643 Z-2.636 I-1.35 J0
X24.598 Y264.643 Z-2.839 I1.35 J0
X21.898 Y264.643 Z-3.042 I-1.35 J0
X24.598 Y264.643 Z-3.245 I1.35 J0
X21.898 Y264.643 Z-3.447 I-1.35 J0
X24.598 Y264.643 Z-3.65 I1.35 J0
X21.898 Y264.643 Z-3.853 I-1.35 J0
X24.598 Y264.643 Z-4.056 I1.35 J0
X21.898 Y264.643 Z-4.259 I-1.35 J0
X24.598 Y264.643 Z-4.461 I1.35 J0
X21.898 Y264.643 Z-4.664 I-1.35 J0
X24.598 Y264.643 Z-4.867 I1.35 J0
X21.898 Y264.643 Z-5.07 I-1.35 J0
X24.598 Y264.643 Z-5.272 I1.35 J0
X21.898 Y264.643 Z-5.475 I-1.35 J0
X24.598 Y264.643 Z-5.678 I1.35 J0
X21.898 Y264.643 Z-5.881 I-1.35 J0
X23.418 Y263.304 Z-5.99 I1.35 J0
X24.554 Y264.981 Z-6.1 I-0.171 J1.339
X21.941 Y264.304 I-1.307 J-0.339
X24.554 Y264.981 I1.307 J0.339
X24.177 Y265.204 I-0.3 J-0.078 F50
G1 X24.027 Y265.165
X23.96 Y265.148 Z-6.092
X23.896 Y265.131 Z-6.069
X23.839 Y265.116 Z-6.032
X23.792 Y265.104 Z-5.983
X23.756 Y265.095 Z-5.925
X23.734 Y265.089 Z-5.859
X23.726 Y265.087 Z-5.79
Z5 F200
X23.823 Y8.333
Z2
Z0.31 F50
G18 G2 X24.133 Z0 I0.31 K0
G1 X24.288
G17 G3 X24.598 Y8.643 I0 J0.31
X21.898 Y8.643 Z-0.203 I-1.35 J0 F200
X24.598 Y8.643 Z-0.406 I1.35 J0
X21.898 Y8.643 Z-0.608 I-1.35 J0
X24.598 Y8.643 Z-0.811 I1.35 J0
X21.898 Y8.643 Z-1.014 I-1.35 J0
X24.598 Y8.643 Z-1.217 I1.35 J0
X21.898 Y8.643 Z-1.42 I-1.35 J0
X24.598 Y8.643 Z-1.622 I1.35 J0
X21.898 Y8.643 Z-1.825 I-1.35 J0
X24.598 Y8.643 Z-2.028 I1.35 J0
X21.898 Y8.643 Z-2.231 I-1.35 J0
X24.598 Y8.643 Z-2.433 I1.35 J0
X21.898 Y8.643 Z-2.636 I-1.35 J0
X24.598 Y8.643 Z-2.839 I1.35 J0
X21.898 Y8.643 Z-3.042 I-1.35 J0
X24.598 Y8.643 Z-3.245 I1.35 J0
X21.898 Y8.643 Z-3.447 I-1.35 J0
X24.598 Y8.643 Z-3.65 I1.35 J0
X21.898 Y8.643 Z-3.853 I-1.35 J0
X24.598 Y8.643 Z-4.056 I1.35 J0
X21.898 Y8.643 Z-4.259 I-1.35 J0
X24.598 Y8.643 Z-4.461 I1.35 J0
X21.898 Y8.643 Z-4.664 I-1.35 J0
X24.598 Y8.643 Z-4.867 I1.35 J0
X21.898 Y8.643 Z-5.07 I-1.35 J0
X24.598 Y8.643 Z-5.272 I1.35 J0
X21.898 Y8.643 Z-5.475 I-1.35 J0
X24.598 Y8.643 Z-5.678 I1.35 J0
X21.898 Y8.643 Z-5.881 I-1.35 J0
X23.418 Y7.304 Z-5.99 I1.35 J0
X24.554 Y8.981 Z-6.1 I-0.171 J1.339
X21.941 Y8.304 I-1.307 J-0.339
X24.554 Y8.981 I1.307 J0.339
X24.177 Y9.204 I-0.3 J-0.078 F50
G1 X24.027 Y9.165
X23.96 Y9.148 Z-6.092
X23.896 Y9.131 Z-6.069
X23.839 Y9.116 Z-6.032
X23.792 Y9.104 Z-5.983
X23.756 Y9.095 Z-5.925
X23.734 Y9.089 Z-5.859
X23.726 Y9.087 Z-5.79
Z5 F200
X23.823 Y40.333
Z2
Z0.31 F50
G18 G2 X24.133 Z0 I0.31 K0
G1 X24.288
G17 G3 X24.598 Y40.643 I0 J0.31
X21.898 Y40.643 Z-0.203 I-1.35 J0 F200
X24.598 Y40.643 Z-0.406 I1.35 J0
X21.898 Y40.643 Z-0.608 I-1.35 J0
X24.598 Y40.643 Z-0.811 I1.35 J0
X21.898 Y40.643 Z-1.014 I-1.35 J0
X24.598 Y40.643 Z-1.217 I1.35 J0
X21.898 Y40.643 Z-1.42 I-1.35 J0
X24.598 Y40.643 Z-1.622 I1.35 J0
X21.898 Y40.643 Z-1.825 I-1.35 J0
X24.598 Y40.643 Z-2.028 I1.35 J0
X21.898 Y40.643 Z-2.231 I-1.35 J0
X24.598 Y40.643 Z-2.433 I1.35 J0
X21.898 Y40.643 Z-2.636 I-1.35 J0
X24.598 Y40.643 Z-2.839 I1.35 J0
X21.898 Y40.643 Z-3.042 I-1.35 J0
X24.598 Y40.643 Z-3.245 I1.35 J0
X21.898 Y40.643 Z-3.447 I-1.35 J0
X24.598 Y40.643 Z-3.65 I1.35 J0
X21.898 Y40.643 Z-3.853 I-1.35 J0
X24.598 Y40.643 Z-4.056 I1.35 J0
X21.898 Y40.643 Z-4.259 I-1.35 J0
X24.598 Y40.643 Z-4.461 I1.35 J0
X21.898 Y40.643 Z-4.664 I-1.35 J0
X24.598 Y40.643 Z-4.867 I1.35 J0
X21.898 Y40.643 Z-5.07 I-1.35 J0
X24.598 Y40.643 Z-5.272 I1.35 J0
X21.898 Y40.643 Z-5.475 I-1.35 J0
X24.598 Y40.643 Z-5.678 I1.35 J0
X21.898 Y40.643 Z-5.881 I-1.35 J0
X23.418 Y39.304 Z-5.99 I1.35 J0
X24.554 Y40.981 Z-6.1 I-0.171 J1.339
X21.941 Y40.304 I-1.307 J-0.339
X24.554 Y40.981 I1.307 J0.339
X24.177 Y41.204 I-0.3 J-0.078 F50
G1 X24.027 Y41.165
X23.96 Y41.148 Z-6.092
X23.896 Y41.131 Z-6.069
X23.839 Y41.116 Z-6.032
X23.792 Y41.104 Z-5.983
X23.756 Y41.095 Z-5.925
X23.734 Y41.089 Z-5.859
X23.726 Y41.087 Z-5.79
Z5 F200
X59.823 Y40.333
Z2
Z0.31 F50
G18 G2 X60.133 Z0 I0.31 K0
G1 X60.288
G17 G3 X60.598 Y40.643 I0 J0.31
X57.898 Y40.643 Z-0.203 I-1.35 J0 F200
X60.598 Y40.643 Z-0.406 I1.35 J0
X57.898 Y40.643 Z-0.608 I-1.35 J0
X60.598 Y40.643 Z-0.811 I1.35 J0
X57.898 Y40.643 Z-1.014 I-1.35 J0
X60.598 Y40.643 Z-1.217 I1.35 J0
X57.898 Y40.643 Z-1.42 I-1.35 J0
X60.598 Y40.643 Z-1.622 I1.35 J0
X57.898 Y40.643 Z-1.825 I-1.35 J0
X60.598 Y40.643 Z-2.028 I1.35 J0
X57.898 Y40.643 Z-2.231 I-1.35 J0
X60.598 Y40.643 Z-2.433 I1.35 J0
X57.898 Y40.643 Z-2.636 I-1.35 J0
X60.598 Y40.643 Z-2.839 I1.35 J0
X57.898 Y40.643 Z-3.042 I-1.35 J0
X60.598 Y40.643 Z-3.245 I1.35 J0
X57.898 Y40.643 Z-3.447 I-1.35 J0
X60.598 Y40.643 Z-3.65 I1.35 J0
X57.898 Y40.643 Z-3.853 I-1.35 J0
X60.598 Y40.643 Z-4.056 I1.35 J0
X57.898 Y40.643 Z-4.259 I-1.35 J0
X60.598 Y40.643 Z-4.461 I1.35 J0
X57.898 Y40.643 Z-4.664 I-1.35 J0
X60.598 Y40.643 Z-4.867 I1.35 J0
X57.898 Y40.643 Z-5.07 I-1.35 J0
X60.598 Y40.643 Z-5.272 I1.35 J0
X57.898 Y40.643 Z-5.475 I-1.35 J0
X60.598 Y40.643 Z-5.678 I1.35 J0
X57.898 Y40.643 Z-5.881 I-1.35 J0
X59.418 Y39.304 Z-5.99 I1.35 J0
X60.554 Y40.981 Z-6.1 I-0.171 J1.339
X57.941 Y40.304 I-1.307 J-0.339
X60.554 Y40.981 I1.307 J0.339
X60.177 Y41.204 I-0.3 J-0.078 F50
G1 X60.027 Y41.165
X59.96 Y41.148 Z-6.092
X59.896 Y41.131 Z-6.069
X59.839 Y41.116 Z-6.032
X59.792 Y41.104 Z-5.983
X59.756 Y41.095 Z-5.925
X59.734 Y41.089 Z-5.859
X59.726 Y41.087 Z-5.79
Z5 F200
X59.823 Y8.333
Z2
Z0.31 F50
G18 G2 X60.133 Z0 I0.31 K0
G1 X60.288
G17 G3 X60.598 Y8.643 I0 J0.31
X57.898 Y8.643 Z-0.203 I-1.35 J0 F200
X60.598 Y8.643 Z-0.406 I1.35 J0
X57.898 Y8.643 Z-0.608 I-1.35 J0
X60.598 Y8.643 Z-0.811 I1.35 J0
X57.898 Y8.643 Z-1.014 I-1.35 J0
X60.598 Y8.643 Z-1.217 I1.35 J0
X57.898 Y8.643 Z-1.42 I-1.35 J0
X60.598 Y8.643 Z-1.622 I1.35 J0
X57.898 Y8.643 Z-1.825 I-1.35 J0
X60.598 Y8.643 Z-2.028 I1.35 J0
X57.898 Y8.643 Z-2.231 I-1.35 J0
X60.598 Y8.643 Z-2.433 I1.35 J0
X57.898 Y8.643 Z-2.636 I-1.35 J0
X60.598 Y8.643 Z-2.839 I1.35 J0
X57.898 Y8.643 Z-3.042 I-1.35 J0
X60.598 Y8.643 Z-3.245 I1.35 J0
X57.898 Y8.643 Z-3.447 I-1.35 J0
X60.598 Y8.643 Z-3.65 I1.35 J0
X57.898 Y8.643 Z-3.853 I-1.35 J0
X60.598 Y8.643 Z-4.056 I1.35 J0
X57.898 Y8.643 Z-4.259 I-1.35 J0
X60.598 Y8.643 Z-4.461 I1.35 J0
X57.898 Y8.643 Z-4.664 I-1.35 J0
X60.598 Y8.643 Z-4.867 I1.35 J0
X57.898 Y8.643 Z-5.07 I-1.35 J0
X60.598 Y8.643 Z-5.272 I1.35 J0
X57.898 Y8.643 Z-5.475 I-1.35 J0
X60.598 Y8.643 Z-5.678 I1.35 J0
X57.898 Y8.643 Z-5.881 I-1.35 J0
X59.418 Y7.304 Z-5.99 I1.35 J0
X60.554 Y8.981 Z-6.1 I-0.171 J1.339
X57.941 Y8.304 I-1.307 J-0.339
X60.554 Y8.981 I1.307 J0.339
X60.177 Y9.204 I-0.3 J-0.078 F50
G1 X60.027 Y9.165
X59.96 Y9.148 Z-6.092
X59.896 Y9.131 Z-6.069
X59.839 Y9.116 Z-6.032
X59.792 Y9.104 Z-5.983
X59.756 Y9.095 Z-5.925
X59.734 Y9.089 Z-5.859
X59.726 Y9.087 Z-5.79
Z5 F200
X246.642 Y39.847
Z2
Z0.31 F50
G18 G2 X246.952 Z0 I0.31 K0
G1 X247.107
G17 G3 X247.417 Y40.157 I0 J0.31
X244.717 Y40.157 Z-0.203 I-1.35 J0 F200
X247.417 Y40.157 Z-0.406 I1.35 J0
X244.717 Y40.157 Z-0.608 I-1.35 J0
X247.417 Y40.157 Z-0.811 I1.35 J0
X244.717 Y40.157 Z-1.014 I-1.35 J0
X247.417 Y40.157 Z-1.217 I1.35 J0
X244.717 Y40.157 Z-1.42 I-1.35 J0
X247.417 Y40.157 Z-1.622 I1.35 J0
X244.717 Y40.157 Z-1.825 I-1.35 J0
X247.417 Y40.157 Z-2.028 I1.35 J0
X244.717 Y40.157 Z-2.231 I-1.35 J0
X247.417 Y40.157 Z-2.433 I1.35 J0
X244.717 Y40.157 Z-2.636 I-1.35 J0
X247.417 Y40.157 Z-2.839 I1.35 J0
X244.717 Y40.157 Z-3.042 I-1.35 J0
X247.417 Y40.157 Z-3.245 I1.35 J0
X244.717 Y40.157 Z-3.447 I-1.35 J0
X247.417 Y40.157 Z-3.65 I1.35 J0
X244.717 Y40.157 Z-3.853 I-1.35 J0
X247.417 Y40.157 Z-4.056 I1.35 J0
X244.717 Y40.157 Z-4.259 I-1.35 J0
X247.417 Y40.157 Z-4.461 I1.35 J0
X244.717 Y40.157 Z-4.664 I-1.35 J0
X247.417 Y40.157 Z-4.867 I1.35 J0
X244.717 Y40.157 Z-5.07 I-1.35 J0
X247.417 Y40.157 Z-5.272 I1.35 J0
X244.717 Y40.157 Z-5.475 I-1.35 J0
X247.417 Y40.157 Z-5.678 I1.35 J0
X244.717 Y40.157 Z-5.881 I-1.35 J0
X246.238 Y38.818 Z-5.99 I1.35 J0
X247.374 Y40.496 Z-6.1 I-0.171 J1.339
X244.76 Y39.819 I-1.307 J-0.339
X247.374 Y40.496 I1.307 J0.339
X246.996 Y40.718 I-0.3 J-0.078 F50
G1 X246.846 Y40.679
X246.779 Y40.662 Z-6.092
X246.716 Y40.646 Z-6.069
X246.659 Y40.631 Z-6.032
X246.611 Y40.619 Z-5.983
X246.575 Y40.609 Z-5.925
X246.553 Y40.603 Z-5.859
X246.546 Y40.602 Z-5.79
Z5 F200
X246.642 Y7.847
Z2
Z0.31 F50
G18 G2 X246.952 Z0 I0.31 K0
G1 X247.107
G17 G3 X247.417 Y8.157 I0 J0.31
X244.717 Y8.157 Z-0.203 I-1.35 J0 F200
X247.417 Y8.157 Z-0.406 I1.35 J0
X244.717 Y8.157 Z-0.608 I-1.35 J0
X247.417 Y8.157 Z-0.811 I1.35 J0
X244.717 Y8.157 Z-1.014 I-1.35 J0
X247.417 Y8.157 Z-1.217 I1.35 J0
X244.717 Y8.157 Z-1.42 I-1.35 J0
X247.417 Y8.157 Z-1.622 I1.35 J0
X244.717 Y8.157 Z-1.825 I-1.35 J0
X247.417 Y8.157 Z-2.028 I1.35 J0
X244.717 Y8.157 Z-2.231 I-1.35 J0
X247.417 Y8.157 Z-2.433 I1.35 J0
X244.717 Y8.157 Z-2.636 I-1.35 J0
X247.417 Y8.157 Z-2.839 I1.35 J0
X244.717 Y8.157 Z-3.042 I-1.35 J0
X247.417 Y8.157 Z-3.245 I1.35 J0
X244.717 Y8.157 Z-3.447 I-1.35 J0
X247.417 Y8.157 Z-3.65 I1.35 J0
X244.717 Y8.157 Z-3.853 I-1.35 J0
X247.417 Y8.157 Z-4.056 I1.35 J0
X244.717 Y8.157 Z-4.259 I-1.35 J0
X247.417 Y8.157 Z-4.461 I1.35 J0
X244.717 Y8.157 Z-4.664 I-1.35 J0
X247.417 Y8.157 Z-4.867 I1.35 J0
X244.717 Y8.157 Z-5.07 I-1.35 J0
X247.417 Y8.157 Z-5.272 I1.35 J0
X244.717 Y8.157 Z-5.475 I-1.35 J0
X247.417 Y8.157 Z-5.678 I1.35 J0
X244.717 Y8.157 Z-5.881 I-1.35 J0
X246.238 Y6.818 Z-5.99 I1.35 J0
X247.374 Y8.496 Z-6.1 I-0.171 J1.339
X244.76 Y7.819 I-1.307 J-0.339
X247.374 Y8.496 I1.307 J0.339
X246.996 Y8.718 I-0.3 J-0.078 F50
G1 X246.846 Y8.679
X246.779 Y8.662 Z-6.092
X246.716 Y8.646 Z-6.069
X246.659 Y8.631 Z-6.032
X246.611 Y8.619 Z-5.983
X246.575 Y8.609 Z-5.925
X246.553 Y8.603 Z-5.859
X246.546 Y8.602 Z-5.79
Z5 F200
X282.642 Y7.847
Z2
Z0.31 F50
G18 G2 X282.952 Z0 I0.31 K0
G1 X283.107
G17 G3 X283.417 Y8.157 I0 J0.31
X280.717 Y8.157 Z-0.203 I-1.35 J0 F200
X283.417 Y8.157 Z-0.406 I1.35 J0
X280.717 Y8.157 Z-0.608 I-1.35 J0
X283.417 Y8.157 Z-0.811 I1.35 J0
X280.717 Y8.157 Z-1.014 I-1.35 J0
X283.417 Y8.157 Z-1.217 I1.35 J0
X280.717 Y8.157 Z-1.42 I-1.35 J0
X283.417 Y8.157 Z-1.622 I1.35 J0
X280.717 Y8.157 Z-1.825 I-1.35 J0
X283.417 Y8.157 Z-2.028 I1.35 J0
X280.717 Y8.157 Z-2.231 I-1.35 J0
X283.417 Y8.157 Z-2.433 I1.35 J0
X280.717 Y8.157 Z-2.636 I-1.35 J0
X283.417 Y8.157 Z-2.839 I1.35 J0
X280.717 Y8.157 Z-3.042 I-1.35 J0
X283.417 Y8.157 Z-3.245 I1.35 J0
X280.717 Y8.157 Z-3.447 I-1.35 J0
X283.417 Y8.157 Z-3.65 I1.35 J0
X280.717 Y8.157 Z-3.853 I-1.35 J0
X283.417 Y8.157 Z-4.056 I1.35 J0
X280.717 Y8.157 Z-4.259 I-1.35 J0
X283.417 Y8.157 Z-4.461 I1.35 J0
X280.717 Y8.157 Z-4.664 I-1.35 J0
X283.417 Y8.157 Z-4.867 I1.35 J0
X280.717 Y8.157 Z-5.07 I-1.35 J0
X283.417 Y8.157 Z-5.272 I1.35 J0
X280.717 Y8.157 Z-5.475 I-1.35 J0
X283.417 Y8.157 Z-5.678 I1.35 J0
X280.717 Y8.157 Z-5.881 I-1.35 J0
X282.238 Y6.818 Z-5.99 I1.35 J0
X283.374 Y8.496 Z-6.1 I-0.171 J1.339
X280.76 Y7.819 I-1.307 J-0.339
X283.374 Y8.496 I1.307 J0.339
X282.996 Y8.718 I-0.3 J-0.078 F50
G1 X282.846 Y8.679
X282.779 Y8.662 Z-6.092
X282.716 Y8.646 Z-6.069
X282.659 Y8.631 Z-6.032
X282.611 Y8.619 Z-5.983
X282.575 Y8.609 Z-5.925
X282.553 Y8.603 Z-5.859
X282.546 Y8.602 Z-5.79
Z5 F200
X282.642 Y39.847
Z2
Z0.31 F50
G18 G2 X282.952 Z0 I0.31 K0
G1 X283.107
G17 G3 X283.417 Y40.157 I0 J0.31
X280.717 Y40.157 Z-0.203 I-1.35 J0 F200
X283.417 Y40.157 Z-0.406 I1.35 J0
X280.717 Y40.157 Z-0.608 I-1.35 J0
X283.417 Y40.157 Z-0.811 I1.35 J0
X280.717 Y40.157 Z-1.014 I-1.35 J0
X283.417 Y40.157 Z-1.217 I1.35 J0
X280.717 Y40.157 Z-1.42 I-1.35 J0
X283.417 Y40.157 Z-1.622 I1.35 J0
X280.717 Y40.157 Z-1.825 I-1.35 J0
X283.417 Y40.157 Z-2.028 I1.35 J0
X280.717 Y40.157 Z-2.231 I-1.35 J0
X283.417 Y40.157 Z-2.433 I1.35 J0
X280.717 Y40.157 Z-2.636 I-1.35 J0
X283.417 Y40.157 Z-2.839 I1.35 J0
X280.717 Y40.157 Z-3.042 I-1.35 J0
X283.417 Y40.157 Z-3.245 I1.35 J0
X280.717 Y40.157 Z-3.447 I-1.35 J0
X283.417 Y40.157 Z-3.65 I1.35 J0
X280.717 Y40.157 Z-3.853 I-1.35 J0
X283.417 Y40.157 Z-4.056 I1.35 J0
X280.717 Y40.157 Z-4.259 I-1.35 J0
X283.417 Y40.157 Z-4.461 I1.35 J0
X280.717 Y40.157 Z-4.664 I-1.35 J0
X283.417 Y40.157 Z-4.867 I1.35 J0
X280.717 Y40.157 Z-5.07 I-1.35 J0
X283.417 Y40.157 Z-5.272 I1.35 J0
X280.717 Y40.157 Z-5.475 I-1.35 J0
X283.417 Y40.157 Z-5.678 I1.35 J0
X280.717 Y40.157 Z-5.881 I-1.35 J0
X282.238 Y38.818 Z-5.99 I1.35 J0
X283.374 Y40.496 Z-6.1 I-0.171 J1.339
X280.76 Y39.819 I-1.307 J-0.339
X283.374 Y40.496 I1.307 J0.339
X282.996 Y40.718 I-0.3 J-0.078 F50
G1 X282.846 Y40.679
X282.779 Y40.662 Z-6.092
X282.716 Y40.646 Z-6.069
X282.659 Y40.631 Z-6.032
X282.611 Y40.619 Z-5.983
X282.575 Y40.609 Z-5.925
X282.553 Y40.603 Z-5.859
X282.546 Y40.602 Z-5.79
Z15 F200

M9
M5
M30
