(grid8x8_550)
(Machine)
(  vendor: Autodesk)
(  model: Generic 3-axis)
(  description: This machine has XY axis on the Table and Z axis on the Head)
(T2 D=6.35 CR=0 - ZMIN=-12 - flat end mill)
G90 G94
G17
G21
(-Attention- Property Safe Retracts is set to Clearance Height.)
(Ensure the clearance height will clear the part and or fixtures.)
(Raise the Z-axis to a safe height before starting the program.)

(Drill1)
T2
S10000 M3
G17 G90 G94
G54
M8
G0 X392.857 Y78.571
Z15
G0 Z5
Z2
G1 Z-3 F333.3
G0 Z5
Z-1
G1 Z-6 F333.3
G0 Z5
Z-4
G1 Z-9 F333.3
G0 Z5
Z-7
G1 Z-12 F333.3
G4 P1.
G0 Z5
Y157.143
Z2
G1 Z-3 F333.3
G0 Z5
Z-1
G1 Z-6 F333.3
G0 Z5
Z-4
G1 Z-9 F333.3
G0 Z5
Z-7
G1 Z-12 F333.3
G4 P1.
G0 Z5
X314.286
Z2
G1 Z-3 F333.3
G0 Z5
Z-1
G1 Z-6 F333.3
G0 Z5
Z-4
G1 Z-9 F333.3
G0 Z5
Z-7
G1 Z-12 F333.3
G4 P1.
G0 Z5
Y78.571
Z2
G1 Z-3 F333.3
G0 Z5
Z-1
G1 Z-6 F333.3
G0 Z5
Z-4
G1 Z-9 F333.3
G0 Z5
Z-7
G1 Z-12 F333.3
G4 P1.
G0 Z5
X235.714
Z2
G1 Z-3 F333.3
G0 Z5
Z-1
G1 Z-6 F333.3
G0 Z5
Z-4
G1 Z-9 F333.3
G0 Z5
Z-7
G1 Z-12 F333.3
G4 P1.
G0 Z5
Y157.143
Z2
G1 Z-3 F333.3
G0 Z5
Z-1
G1 Z-6 F333.3
G0 Z5
Z-4
G1 Z-9 F333.3
G0 Z5
Z-7
G1 Z-12 F333.3
G4 P1.
G0 Z5
X157.143
Z2
G1 Z-3 F333.3
G0 Z5
Z-1
G1 Z-6 F333.3
G0 Z5
Z-4
G1 Z-9 F333.3
G0 Z5
Z-7
G1 Z-12 F333.3
G4 P1.
G0 Z5
Y78.571
Z2
G1 Z-3 F333.3
G0 Z5
Z-1
G1 Z-6 F333.3
G0 Z5
Z-4
G1 Z-9 F333.3
G0 Z5
Z-7
G1 Z-12 F333.3
G4 P1.
G0 Z5
X78.571
Z2
G1 Z-3 F333.3
G0 Z5
Z-1
G1 Z-6 F333.3
G0 Z5
Z-4
G1 Z-9 F333.3
G0 Z5
Z-7
G1 Z-12 F333.3
G4 P1.
G0 Z5
Y157.143
Z2
G1 Z-3 F333.3
G0 Z5
Z-1
G1 Z-6 F333.3
G0 Z5
Z-4
G1 Z-9 F333.3
G0 Z5
Z-7
G1 Z-12 F333.3
G4 P1.
G0 Z5
X0
Z2
G1 Z-3 F333.3
G0 Z5
Z-1
G1 Z-6 F333.3
G0 Z5
Z-4
G1 Z-9 F333.3
G0 Z5
Z-7
G1 Z-12 F333.3
G4 P1.
G0 Z5
Y78.571
Z2
G1 Z-3 F333.3
G0 Z5
Z-1
G1 Z-6 F333.3
G0 Z5
Z-4
G1 Z-9 F333.3
G0 Z5
Z-7
G1 Z-12 F333.3
G4 P1.
G0 Z5
Y0
Z2
G1 Z-3 F333.3
G0 Z5
Z-1
G1 Z-6 F333.3
G0 Z5
Z-4
G1 Z-9 F333.3
G0 Z5
Z-7
G1 Z-12 F333.3
G4 P1.
G0 Z5
X78.571
Z2
G1 Z-3 F333.3
G0 Z5
Z-1
G1 Z-6 F333.3
G0 Z5
Z-4
G1 Z-9 F333.3
G0 Z5
Z-7
G1 Z-12 F333.3
G4 P1.
G0 Z5
X157.143
Z2
G1 Z-3 F333.3
G0 Z5
Z-1
G1 Z-6 F333.3
G0 Z5
Z-4
G1 Z-9 F333.3
G0 Z5
Z-7
G1 Z-12 F333.3
G4 P1.
G0 Z5
X235.714
Z2
G1 Z-3 F333.3
G0 Z5
Z-1
G1 Z-6 F333.3
G0 Z5
Z-4
G1 Z-9 F333.3
G0 Z5
Z-7
G1 Z-12 F333.3
G4 P1.
G0 Z5
X314.286
Z2
G1 Z-3 F333.3
G0 Z5
Z-1
G1 Z-6 F333.3
G0 Z5
Z-4
G1 Z-9 F333.3
G0 Z5
Z-7
G1 Z-12 F333.3
G4 P1.
G0 Z5
X392.857
Z2
G1 Z-3 F333.3
G0 Z5
Z-1
G1 Z-6 F333.3
G0 Z5
Z-4
G1 Z-9 F333.3
G0 Z5
Z-7
G1 Z-12 F333.3
G4 P1.
G0 Z5
X471.429
Z2
G1 Z-3 F333.3
G0 Z5
Z-1
G1 Z-6 F333.3
G0 Z5
Z-4
G1 Z-9 F333.3
G0 Z5
Z-7
G1 Z-12 F333.3
G4 P1.
G0 Z5
X550
Z2
G1 Z-3 F333.3
G0 Z5
Z-1
G1 Z-6 F333.3
G0 Z5
Z-4
G1 Z-9 F333.3
G0 Z5
Z-7
G1 Z-12 F333.3
G4 P1.
G0 Z5
Y78.571
Z2
G1 Z-3 F333.3
G0 Z5
Z-1
G1 Z-6 F333.3
G0 Z5
Z-4
G1 Z-9 F333.3
G0 Z5
Z-7
G1 Z-12 F333.3
G4 P1.
G0 Z5
X471.429
Z2
G1 Z-3 F333.3
G0 Z5
Z-1
G1 Z-6 F333.3
G0 Z5
Z-4
G1 Z-9 F333.3
G0 Z5
Z-7
G1 Z-12 F333.3
G4 P1.
G0 Z5
Y157.143
Z2
G1 Z-3 F333.3
G0 Z5
Z-1
G1 Z-6 F333.3
G0 Z5
Z-4
G1 Z-9 F333.3
G0 Z5
Z-7
G1 Z-12 F333.3
G4 P1.
G0 Z5
X550
Z2
G1 Z-3 F333.3
G0 Z5
Z-1
G1 Z-6 F333.3
G0 Z5
Z-4
G1 Z-9 F333.3
G0 Z5
Z-7
G1 Z-12 F333.3
G4 P1.
G0 Z5
Y235.714
Z2
G1 Z-3 F333.3
G0 Z5
Z-1
G1 Z-6 F333.3
G0 Z5
Z-4
G1 Z-9 F333.3
G0 Z5
Z-7
G1 Z-12 F333.3
G4 P1.
G0 Z5
X471.429
Z2
G1 Z-3 F333.3
G0 Z5
Z-1
G1 Z-6 F333.3
G0 Z5
Z-4
G1 Z-9 F333.3
G0 Z5
Z-7
G1 Z-12 F333.3
G4 P1.
G0 Z5
Y314.286
Z2
G1 Z-3 F333.3
G0 Z5
Z-1
G1 Z-6 F333.3
G0 Z5
Z-4
G1 Z-9 F333.3
G0 Z5
Z-7
G1 Z-12 F333.3
G4 P1.
G0 Z5
X550
Z2
G1 Z-3 F333.3
G0 Z5
Z-1
G1 Z-6 F333.3
G0 Z5
Z-4
G1 Z-9 F333.3
G0 Z5
Z-7
G1 Z-12 F333.3
G4 P1.
G0 Z5
Y392.857
Z2
G1 Z-3 F333.3
G0 Z5
Z-1
G1 Z-6 F333.3
G0 Z5
Z-4
G1 Z-9 F333.3
G0 Z5
Z-7
G1 Z-12 F333.3
G4 P1.
G0 Z5
X471.429
Z2
G1 Z-3 F333.3
G0 Z5
Z-1
G1 Z-6 F333.3
G0 Z5
Z-4
G1 Z-9 F333.3
G0 Z5
Z-7
G1 Z-12 F333.3
G4 P1.
G0 Z5
Y471.429
Z2
G1 Z-3 F333.3
G0 Z5
Z-1
G1 Z-6 F333.3
G0 Z5
Z-4
G1 Z-9 F333.3
G0 Z5
Z-7
G1 Z-12 F333.3
G4 P1.
G0 Z5
X550
Z2
G1 Z-3 F333.3
G0 Z5
Z-1
G1 Z-6 F333.3
G0 Z5
Z-4
G1 Z-9 F333.3
G0 Z5
Z-7
G1 Z-12 F333.3
G4 P1.
G0 Z5
Y550
Z2
G1 Z-3 F333.3
G0 Z5
Z-1
G1 Z-6 F333.3
G0 Z5
Z-4
G1 Z-9 F333.3
G0 Z5
Z-7
G1 Z-12 F333.3
G4 P1.
G0 Z5
X471.429
Z2
G1 Z-3 F333.3
G0 Z5
Z-1
G1 Z-6 F333.3
G0 Z5
Z-4
G1 Z-9 F333.3
G0 Z5
Z-7
G1 Z-12 F333.3
G4 P1.
G0 Z5
X392.857
Z2
G1 Z-3 F333.3
G0 Z5
Z-1
G1 Z-6 F333.3
G0 Z5
Z-4
G1 Z-9 F333.3
G0 Z5
Z-7
G1 Z-12 F333.3
G4 P1.
G0 Z5
Y471.429
Z2
G1 Z-3 F333.3
G0 Z5
Z-1
G1 Z-6 F333.3
G0 Z5
Z-4
G1 Z-9 F333.3
G0 Z5
Z-7
G1 Z-12 F333.3
G4 P1.
G0 Z5
Y392.857
Z2
G1 Z-3 F333.3
G0 Z5
Z-1
G1 Z-6 F333.3
G0 Z5
Z-4
G1 Z-9 F333.3
G0 Z5
Z-7
G1 Z-12 F333.3
G4 P1.
G0 Z5
Y314.286
Z2
G1 Z-3 F333.3
G0 Z5
Z-1
G1 Z-6 F333.3
G0 Z5
Z-4
G1 Z-9 F333.3
G0 Z5
Z-7
G1 Z-12 F333.3
G4 P1.
G0 Z5
Y235.714
Z2
G1 Z-3 F333.3
G0 Z5
Z-1
G1 Z-6 F333.3
G0 Z5
Z-4
G1 Z-9 F333.3
G0 Z5
Z-7
G1 Z-12 F333.3
G4 P1.
G0 Z5
X314.286
Z2
G1 Z-3 F333.3
G0 Z5
Z-1
G1 Z-6 F333.3
G0 Z5
Z-4
G1 Z-9 F333.3
G0 Z5
Z-7
G1 Z-12 F333.3
G4 P1.
G0 Z5
Y314.286
Z2
G1 Z-3 F333.3
G0 Z5
Z-1
G1 Z-6 F333.3
G0 Z5
Z-4
G1 Z-9 F333.3
G0 Z5
Z-7
G1 Z-12 F333.3
G4 P1.
G0 Z5
X235.714
Z2
G1 Z-3 F333.3
G0 Z5
Z-1
G1 Z-6 F333.3
G0 Z5
Z-4
G1 Z-9 F333.3
G0 Z5
Z-7
G1 Z-12 F333.3
G4 P1.
G0 Z5
Y235.714
Z2
G1 Z-3 F333.3
G0 Z5
Z-1
G1 Z-6 F333.3
G0 Z5
Z-4
G1 Z-9 F333.3
G0 Z5
Z-7
G1 Z-12 F333.3
G4 P1.
G0 Z5
X157.143
Z2
G1 Z-3 F333.3
G0 Z5
Z-1
G1 Z-6 F333.3
G0 Z5
Z-4
G1 Z-9 F333.3
G0 Z5
Z-7
G1 Z-12 F333.3
G4 P1.
G0 Z5
Y314.286
Z2
G1 Z-3 F333.3
G0 Z5
Z-1
G1 Z-6 F333.3
G0 Z5
Z-4
G1 Z-9 F333.3
G0 Z5
Z-7
G1 Z-12 F333.3
G4 P1.
G0 Z5
X78.571
Z2
G1 Z-3 F333.3
G0 Z5
Z-1
G1 Z-6 F333.3
G0 Z5
Z-4
G1 Z-9 F333.3
G0 Z5
Z-7
G1 Z-12 F333.3
G4 P1.
G0 Z5
Y235.714
Z2
G1 Z-3 F333.3
G0 Z5
Z-1
G1 Z-6 F333.3
G0 Z5
Z-4
G1 Z-9 F333.3
G0 Z5
Z-7
G1 Z-12 F333.3
G4 P1.
G0 Z5
X0
Z2
G1 Z-3 F333.3
G0 Z5
Z-1
G1 Z-6 F333.3
G0 Z5
Z-4
G1 Z-9 F333.3
G0 Z5
Z-7
G1 Z-12 F333.3
G4 P1.
G0 Z5
Y314.286
Z2
G1 Z-3 F333.3
G0 Z5
Z-1
G1 Z-6 F333.3
G0 Z5
Z-4
G1 Z-9 F333.3
G0 Z5
Z-7
G1 Z-12 F333.3
G4 P1.
G0 Z5
Y392.857
Z2
G1 Z-3 F333.3
G0 Z5
Z-1
G1 Z-6 F333.3
G0 Z5
Z-4
G1 Z-9 F333.3
G0 Z5
Z-7
G1 Z-12 F333.3
G4 P1.
G0 Z5
X78.571
Z2
G1 Z-3 F333.3
G0 Z5
Z-1
G1 Z-6 F333.3
G0 Z5
Z-4
G1 Z-9 F333.3
G0 Z5
Z-7
G1 Z-12 F333.3
G4 P1.
G0 Z5
X157.143
Z2
G1 Z-3 F333.3
G0 Z5
Z-1
G1 Z-6 F333.3
G0 Z5
Z-4
G1 Z-9 F333.3
G0 Z5
Z-7
G1 Z-12 F333.3
G4 P1.
G0 Z5
Y471.429
Z2
G1 Z-3 F333.3
G0 Z5
Z-1
G1 Z-6 F333.3
G0 Z5
Z-4
G1 Z-9 F333.3
G0 Z5
Z-7
G1 Z-12 F333.3
G4 P1.
G0 Z5
X78.571
Z2
G1 Z-3 F333.3
G0 Z5
Z-1
G1 Z-6 F333.3
G0 Z5
Z-4
G1 Z-9 F333.3
G0 Z5
Z-7
G1 Z-12 F333.3
G4 P1.
G0 Z5
X0
Z2
G1 Z-3 F333.3
G0 Z5
Z-1
G1 Z-6 F333.3
G0 Z5
Z-4
G1 Z-9 F333.3
G0 Z5
Z-7
G1 Z-12 F333.3
G4 P1.
G0 Z5
Y550
Z2
G1 Z-3 F333.3
G0 Z5
Z-1
G1 Z-6 F333.3
G0 Z5
Z-4
G1 Z-9 F333.3
G0 Z5
Z-7
G1 Z-12 F333.3
G4 P1.
G0 Z5
X78.571
Z2
G1 Z-3 F333.3
G0 Z5
Z-1
G1 Z-6 F333.3
G0 Z5
Z-4
G1 Z-9 F333.3
G0 Z5
Z-7
G1 Z-12 F333.3
G4 P1.
G0 Z5
X157.143
Z2
G1 Z-3 F333.3
G0 Z5
Z-1
G1 Z-6 F333.3
G0 Z5
Z-4
G1 Z-9 F333.3
G0 Z5
Z-7
G1 Z-12 F333.3
G4 P1.
G0 Z5
X235.714
Z2
G1 Z-3 F333.3
G0 Z5
Z-1
G1 Z-6 F333.3
G0 Z5
Z-4
G1 Z-9 F333.3
G0 Z5
Z-7
G1 Z-12 F333.3
G4 P1.
G0 Z5
X314.286
Z2
G1 Z-3 F333.3
G0 Z5
Z-1
G1 Z-6 F333.3
G0 Z5
Z-4
G1 Z-9 F333.3
G0 Z5
Z-7
G1 Z-12 F333.3
G4 P1.
G0 Z5
Y471.429
Z2
G1 Z-3 F333.3
G0 Z5
Z-1
G1 Z-6 F333.3
G0 Z5
Z-4
G1 Z-9 F333.3
G0 Z5
Z-7
G1 Z-12 F333.3
G4 P1.
G0 Z5
X235.714
Z2
G1 Z-3 F333.3
G0 Z5
Z-1
G1 Z-6 F333.3
G0 Z5
Z-4
G1 Z-9 F333.3
G0 Z5
Z-7
G1 Z-12 F333.3
G4 P1.
G0 Z5
Y392.857
Z2
G1 Z-3 F333.3
G0 Z5
Z-1
G1 Z-6 F333.3
G0 Z5
Z-4
G1 Z-9 F333.3
G0 Z5
Z-7
G1 Z-12 F333.3
G4 P1.
G0 Z5
X314.286
Z2
G1 Z-3 F333.3
G0 Z5
Z-1
G1 Z-6 F333.3
G0 Z5
Z-4
G1 Z-9 F333.3
G0 Z5
Z-7
G1 Z-12 F333.3
G4 P1.
G0 Z5
Z15

M9
M5
M30
