(spindle_mount)
(Machine)
(  vendor: Autodesk)
(  model: Generic 3-axis)
(  description: This machine has XYZ axis on the Head)
(T1 D=4 CR=0 - ZMIN=-6.33 - flat end mill)
G90 G94
G17
G21
(-Attention- Property Safe Retracts is set to Clearance Height.)
(Ensure the clearance height will clear the part and or fixtures.)
(Raise the Z-axis to a safe height before starting the program.)

(Drill4)
T1
S16000 M3
G17 G90 G94
G54
M8
G0 X25 Y-226
Z15.5
G0 Z5.5
Z2.67
Z-0.33
G1 Z-2.63 F50
G0 Z2.67
Z-0.63
G1 Z-2.93 F50
G0 Z2.67
Z-0.93
G1 Z-3.23 F50
G0 Z2.67
Z-1.23
G1 Z-3.53 F50
G0 Z2.67
Z-1.53
G1 Z-3.83 F50
G0 Z2.67
Z-1.83
G1 Z-4.13 F50
G0 Z2.67
Z-2.13
G1 Z-4.43 F50
G0 Z2.67
Z-2.43
G1 Z-4.73 F50
G0 Z2.67
Z-2.73
G1 Z-5.03 F50
G0 Z2.67
Z-3.03
G1 Z-5.33 F50
G0 Z2.67
Z-3.33
G1 Z-5.63 F50
G0 Z2.67
Z-3.63
G1 Z-5.93 F50
G0 Z2.67
Z-3.93
G1 Z-6.23 F50
G0 Z2.67
Z-4.23
G1 Z-6.33 F50
G4 P1.
G0 Z5.5
X61
Z2.67
Z-0.33
G1 Z-2.63 F50
G0 Z2.67
Z-0.63
G1 Z-2.93 F50
G0 Z2.67
Z-0.93
G1 Z-3.23 F50
G0 Z2.67
Z-1.23
G1 Z-3.53 F50
G0 Z2.67
Z-1.53
G1 Z-3.83 F50
G0 Z2.67
Z-1.83
G1 Z-4.13 F50
G0 Z2.67
Z-2.13
G1 Z-4.43 F50
G0 Z2.67
Z-2.43
G1 Z-4.73 F50
G0 Z2.67
Z-2.73
G1 Z-5.03 F50
G0 Z2.67
Z-3.03
G1 Z-5.33 F50
G0 Z2.67
Z-3.33
G1 Z-5.63 F50
G0 Z2.67
Z-3.63
G1 Z-5.93 F50
G0 Z2.67
Z-3.93
G1 Z-6.23 F50
G0 Z2.67
Z-4.23
G1 Z-6.33 F50
G4 P1.
G0 Z5.5
Y-194
Z2.67
Z-0.33
G1 Z-2.63 F50
G0 Z2.67
Z-0.63
G1 Z-2.93 F50
G0 Z2.67
Z-0.93
G1 Z-3.23 F50
G0 Z2.67
Z-1.23
G1 Z-3.53 F50
G0 Z2.67
Z-1.53
G1 Z-3.83 F50
G0 Z2.67
Z-1.83
G1 Z-4.13 F50
G0 Z2.67
Z-2.13
G1 Z-4.43 F50
G0 Z2.67
Z-2.43
G1 Z-4.73 F50
G0 Z2.67
Z-2.73
G1 Z-5.03 F50
G0 Z2.67
Z-3.03
G1 Z-5.33 F50
G0 Z2.67
Z-3.33
G1 Z-5.63 F50
G0 Z2.67
Z-3.63
G1 Z-5.93 F50
G0 Z2.67
Z-3.93
G1 Z-6.23 F50
G0 Z2.67
Z-4.23
G1 Z-6.33 F50
G4 P1.
G0 Z5.5
X25
Z2.67
Z-0.33
G1 Z-2.63 F50
G0 Z2.67
Z-0.63
G1 Z-2.93 F50
G0 Z2.67
Z-0.93
G1 Z-3.23 F50
G0 Z2.67
Z-1.23
G1 Z-3.53 F50
G0 Z2.67
Z-1.53
G1 Z-3.83 F50
G0 Z2.67
Z-1.83
G1 Z-4.13 F50
G0 Z2.67
Z-2.13
G1 Z-4.43 F50
G0 Z2.67
Z-2.43
G1 Z-4.73 F50
G0 Z2.67
Z-2.73
G1 Z-5.03 F50
G0 Z2.67
Z-3.03
G1 Z-5.33 F50
G0 Z2.67
Z-3.33
G1 Z-5.63 F50
G0 Z2.67
Z-3.63
G1 Z-5.93 F50
G0 Z2.67
Z-3.93
G1 Z-6.23 F50
G0 Z2.67
Z-4.23
G1 Z-6.33 F50
G4 P1.
G0 Z5.5
X29.91 Y-140
Z2.67
Z-0.33
G1 Z-2.63 F50
G0 Z2.67
Z-0.63
G1 Z-2.93 F50
G0 Z2.67
Z-0.93
G1 Z-3.23 F50
G0 Z2.67
Z-1.23
G1 Z-3.53 F50
G0 Z2.67
Z-1.53
G1 Z-3.83 F50
G0 Z2.67
Z-1.83
G1 Z-4.13 F50
G0 Z2.67
Z-2.13
G1 Z-4.43 F50
G0 Z2.67
Z-2.43
G1 Z-4.73 F50
G0 Z2.67
Z-2.73
G1 Z-5.03 F50
G0 Z2.67
Z-3.03
G1 Z-5.33 F50
G0 Z2.67
Z-3.33
G1 Z-5.63 F50
G0 Z2.67
Z-3.63
G1 Z-5.93 F50
G0 Z2.67
Z-3.93
G1 Z-6.23 F50
G0 Z2.67
Z-4.23
G1 Z-6.33 F50
G4 P1.
G0 Z5.5
X53.91
Z2.67
Z-0.33
G1 Z-2.63 F50
G0 Z2.67
Z-0.63
G1 Z-2.93 F50
G0 Z2.67
Z-0.93
G1 Z-3.23 F50
G0 Z2.67
Z-1.23
G1 Z-3.53 F50
G0 Z2.67
Z-1.53
G1 Z-3.83 F50
G0 Z2.67
Z-1.83
G1 Z-4.13 F50
G0 Z2.67
Z-2.13
G1 Z-4.43 F50
G0 Z2.67
Z-2.43
G1 Z-4.73 F50
G0 Z2.67
Z-2.73
G1 Z-5.03 F50
G0 Z2.67
Z-3.03
G1 Z-5.33 F50
G0 Z2.67
Z-3.33
G1 Z-5.63 F50
G0 Z2.67
Z-3.63
G1 Z-5.93 F50
G0 Z2.67
Z-3.93
G1 Z-6.23 F50
G0 Z2.67
Z-4.23
G1 Z-6.33 F50
G4 P1.
G0 Z5.5
Y-100
Z2.67
Z-0.33
G1 Z-2.63 F50
G0 Z2.67
Z-0.63
G1 Z-2.93 F50
G0 Z2.67
Z-0.93
G1 Z-3.23 F50
G0 Z2.67
Z-1.23
G1 Z-3.53 F50
G0 Z2.67
Z-1.53
G1 Z-3.83 F50
G0 Z2.67
Z-1.83
G1 Z-4.13 F50
G0 Z2.67
Z-2.13
G1 Z-4.43 F50
G0 Z2.67
Z-2.43
G1 Z-4.73 F50
G0 Z2.67
Z-2.73
G1 Z-5.03 F50
G0 Z2.67
Z-3.03
G1 Z-5.33 F50
G0 Z2.67
Z-3.33
G1 Z-5.63 F50
G0 Z2.67
Z-3.63
G1 Z-5.93 F50
G0 Z2.67
Z-3.93
G1 Z-6.23 F50
G0 Z2.67
Z-4.23
G1 Z-6.33 F50
G4 P1.
G0 Z5.5
X29.91
Z2.67
Z-0.33
G1 Z-2.63 F50
G0 Z2.67
Z-0.63
G1 Z-2.93 F50
G0 Z2.67
Z-0.93
G1 Z-3.23 F50
G0 Z2.67
Z-1.23
G1 Z-3.53 F50
G0 Z2.67
Z-1.53
G1 Z-3.83 F50
G0 Z2.67
Z-1.83
G1 Z-4.13 F50
G0 Z2.67
Z-2.13
G1 Z-4.43 F50
G0 Z2.67
Z-2.43
G1 Z-4.73 F50
G0 Z2.67
Z-2.73
G1 Z-5.03 F50
G0 Z2.67
Z-3.03
G1 Z-5.33 F50
G0 Z2.67
Z-3.33
G1 Z-5.63 F50
G0 Z2.67
Z-3.63
G1 Z-5.93 F50
G0 Z2.67
Z-3.93
G1 Z-6.23 F50
G0 Z2.67
Z-4.23
G1 Z-6.33 F50
G4 P1.
G0 Z5.5
X25 Y-46
Z2.67
Z-0.33
G1 Z-2.63 F50
G0 Z2.67
Z-0.63
G1 Z-2.93 F50
G0 Z2.67
Z-0.93
G1 Z-3.23 F50
G0 Z2.67
Z-1.23
G1 Z-3.53 F50
G0 Z2.67
Z-1.53
G1 Z-3.83 F50
G0 Z2.67
Z-1.83
G1 Z-4.13 F50
G0 Z2.67
Z-2.13
G1 Z-4.43 F50
G0 Z2.67
Z-2.43
G1 Z-4.73 F50
G0 Z2.67
Z-2.73
G1 Z-5.03 F50
G0 Z2.67
Z-3.03
G1 Z-5.33 F50
G0 Z2.67
Z-3.33
G1 Z-5.63 F50
G0 Z2.67
Z-3.63
G1 Z-5.93 F50
G0 Z2.67
Z-3.93
G1 Z-6.23 F50
G0 Z2.67
Z-4.23
G1 Z-6.33 F50
G4 P1.
G0 Z5.5
X61
Z2.67
Z-0.33
G1 Z-2.63 F50
G0 Z2.67
Z-0.63
G1 Z-2.93 F50
G0 Z2.67
Z-0.93
G1 Z-3.23 F50
G0 Z2.67
Z-1.23
G1 Z-3.53 F50
G0 Z2.67
Z-1.53
G1 Z-3.83 F50
G0 Z2.67
Z-1.83
G1 Z-4.13 F50
G0 Z2.67
Z-2.13
G1 Z-4.43 F50
G0 Z2.67
Z-2.43
G1 Z-4.73 F50
G0 Z2.67
Z-2.73
G1 Z-5.03 F50
G0 Z2.67
Z-3.03
G1 Z-5.33 F50
G0 Z2.67
Z-3.33
G1 Z-5.63 F50
G0 Z2.67
Z-3.63
G1 Z-5.93 F50
G0 Z2.67
Z-3.93
G1 Z-6.23 F50
G0 Z2.67
Z-4.23
G1 Z-6.33 F50
G4 P1.
G0 Z5.5
Y-14
Z2.67
Z-0.33
G1 Z-2.63 F50
G0 Z2.67
Z-0.63
G1 Z-2.93 F50
G0 Z2.67
Z-0.93
G1 Z-3.23 F50
G0 Z2.67
Z-1.23
G1 Z-3.53 F50
G0 Z2.67
Z-1.53
G1 Z-3.83 F50
G0 Z2.67
Z-1.83
G1 Z-4.13 F50
G0 Z2.67
Z-2.13
G1 Z-4.43 F50
G0 Z2.67
Z-2.43
G1 Z-4.73 F50
G0 Z2.67
Z-2.73
G1 Z-5.03 F50
G0 Z2.67
Z-3.03
G1 Z-5.33 F50
G0 Z2.67
Z-3.33
G1 Z-5.63 F50
G0 Z2.67
Z-3.63
G1 Z-5.93 F50
G0 Z2.67
Z-3.93
G1 Z-6.23 F50
G0 Z2.67
Z-4.23
G1 Z-6.33 F50
G4 P1.
G0 Z5.5
X25
Z2.67
Z-0.33
G1 Z-2.63 F50
G0 Z2.67
Z-0.63
G1 Z-2.93 F50
G0 Z2.67
Z-0.93
G1 Z-3.23 F50
G0 Z2.67
Z-1.23
G1 Z-3.53 F50
G0 Z2.67
Z-1.53
G1 Z-3.83 F50
G0 Z2.67
Z-1.83
G1 Z-4.13 F50
G0 Z2.67
Z-2.13
G1 Z-4.43 F50
G0 Z2.67
Z-2.43
G1 Z-4.73 F50
G0 Z2.67
Z-2.73
G1 Z-5.03 F50
G0 Z2.67
Z-3.03
G1 Z-5.33 F50
G0 Z2.67
Z-3.33
G1 Z-5.63 F50
G0 Z2.67
Z-3.63
G1 Z-5.93 F50
G0 Z2.67
Z-3.93
G1 Z-6.23 F50
G0 Z2.67
Z-4.23
G1 Z-6.33 F50
G4 P1.
G0 Z5.5
Z15.5
(When using Fusion for Personal Use, the feedrate of rapid)
(moves is reduced to match the feedrate of cutting moves,)
(which can increase machining time. Unrestricted rapid moves)
(are available with a Fusion Subscription.)

(Circular1)
G0 X62.5 Y-14.4
G1 Z15.5 F150
Z1.4
Z-0.2 F50
G18 G2 X62.9 Z-0.6 I0.4 K0
G1 X63.1
G17 G3 X63.5 Y-14 I0 J0.4
X58.5 Y-14 I-2.5 J0 F150
X63.5 Y-14 I2.5 J0
X63.1 Y-13.6 I-0.4 J0
G1 X62.9
G18 G3 X62.5 Z-0.2 I0 K0.4
G1 Z5.5
Y-14.4
Z0.8
Z-0.8 F50
G2 X62.9 Z-1.2 I0.4 K0
G1 X63.1
G17 G3 X63.5 Y-14 I0 J0.4
X58.5 Y-14 I-2.5 J0 F150
X63.5 Y-14 I2.5 J0
X63.1 Y-13.6 I-0.4 J0
G1 X62.9
G18 G3 X62.5 Z-0.8 I0 K0.4
G1 Z5.5
Y-14.4
Z0.235
Z-1.365 F50
G2 X62.9 Z-1.765 I0.4 K0
G1 X63.1
G17 G3 X63.5 Y-14 I0 J0.4
X58.5 Y-14 I-2.5 J0 F150
X63.5 Y-14 I2.5 J0
X63.1 Y-13.6 I-0.4 J0
G1 X62.9
G18 G3 X62.5 Z-1.365 I0 K0.4
G1 Z5.5
Y-14.4
Z-0.33
Z-1.93 F50
G2 X62.9 Z-2.33 I0.4 K0
G1 X63.1
G17 G3 X63.5 Y-14 I0 J0.4
X58.5 Y-14 I-2.5 J0 F150
X63.5 Y-14 I2.5 J0
X63.1 Y-13.6 I-0.4 J0
G1 X62.9
G18 G3 X62.5 Z-1.93 I0 K0.4
G1 Z5.5
Y-46.4
Z1.4
Z-0.2 F50
G2 X62.9 Z-0.6 I0.4 K0
G1 X63.1
G17 G3 X63.5 Y-46 I0 J0.4
X58.5 Y-46 I-2.5 J0 F150
X63.5 Y-46 I2.5 J0
X63.1 Y-45.6 I-0.4 J0
G1 X62.9
G18 G3 X62.5 Z-0.2 I0 K0.4
G1 Z5.5
Y-46.4
Z0.8
Z-0.8 F50
G2 X62.9 Z-1.2 I0.4 K0
G1 X63.1
G17 G3 X63.5 Y-46 I0 J0.4
X58.5 Y-46 I-2.5 J0 F150
X63.5 Y-46 I2.5 J0
X63.1 Y-45.6 I-0.4 J0
G1 X62.9
G18 G3 X62.5 Z-0.8 I0 K0.4
G1 Z5.5
Y-46.4
Z0.235
Z-1.365 F50
G2 X62.9 Z-1.765 I0.4 K0
G1 X63.1
G17 G3 X63.5 Y-46 I0 J0.4
X58.5 Y-46 I-2.5 J0 F150
X63.5 Y-46 I2.5 J0
X63.1 Y-45.6 I-0.4 J0
G1 X62.9
G18 G3 X62.5 Z-1.365 I0 K0.4
G1 Z5.5
Y-46.4
Z-0.33
Z-1.93 F50
G2 X62.9 Z-2.33 I0.4 K0
G1 X63.1
G17 G3 X63.5 Y-46 I0 J0.4
X58.5 Y-46 I-2.5 J0 F150
X63.5 Y-46 I2.5 J0
X63.1 Y-45.6 I-0.4 J0
G1 X62.9
G18 G3 X62.5 Z-1.93 I0 K0.4
G1 Z5.5
X26.5 Y-46.4
Z1.4
Z-0.2 F50
G2 X26.9 Z-0.6 I0.4 K0
G1 X27.1
G17 G3 X27.5 Y-46 I0 J0.4
X22.5 Y-46 I-2.5 J0 F150
X27.5 Y-46 I2.5 J0
X27.1 Y-45.6 I-0.4 J0
G1 X26.9
G18 G3 X26.5 Z-0.2 I0 K0.4
G1 Z5.5
Y-46.4
Z0.8
Z-0.8 F50
G2 X26.9 Z-1.2 I0.4 K0
G1 X27.1
G17 G3 X27.5 Y-46 I0 J0.4
X22.5 Y-46 I-2.5 J0 F150
X27.5 Y-46 I2.5 J0
X27.1 Y-45.6 I-0.4 J0
G1 X26.9
G18 G3 X26.5 Z-0.8 I0 K0.4
G1 Z5.5
Y-46.4
Z0.235
Z-1.365 F50
G2 X26.9 Z-1.765 I0.4 K0
G1 X27.1
G17 G3 X27.5 Y-46 I0 J0.4
X22.5 Y-46 I-2.5 J0 F150
X27.5 Y-46 I2.5 J0
X27.1 Y-45.6 I-0.4 J0
G1 X26.9
G18 G3 X26.5 Z-1.365 I0 K0.4
G1 Z5.5
Y-46.4
Z-0.33
Z-1.93 F50
G2 X26.9 Z-2.33 I0.4 K0
G1 X27.1
G17 G3 X27.5 Y-46 I0 J0.4
X22.5 Y-46 I-2.5 J0 F150
X27.5 Y-46 I2.5 J0
X27.1 Y-45.6 I-0.4 J0
G1 X26.9
G18 G3 X26.5 Z-1.93 I0 K0.4
G1 Z5.5
Y-14.4
Z1.4
Z-0.2 F50
G2 X26.9 Z-0.6 I0.4 K0
G1 X27.1
G17 G3 X27.5 Y-14 I0 J0.4
X22.5 Y-14 I-2.5 J0 F150
X27.5 Y-14 I2.5 J0
X27.1 Y-13.6 I-0.4 J0
G1 X26.9
G18 G3 X26.5 Z-0.2 I0 K0.4
G1 Z5.5
Y-14.4
Z0.8
Z-0.8 F50
G2 X26.9 Z-1.2 I0.4 K0
G1 X27.1
G17 G3 X27.5 Y-14 I0 J0.4
X22.5 Y-14 I-2.5 J0 F150
X27.5 Y-14 I2.5 J0
X27.1 Y-13.6 I-0.4 J0
G1 X26.9
G18 G3 X26.5 Z-0.8 I0 K0.4
G1 Z5.5
Y-14.4
Z0.235
Z-1.365 F50
G2 X26.9 Z-1.765 I0.4 K0
G1 X27.1
G17 G3 X27.5 Y-14 I0 J0.4
X22.5 Y-14 I-2.5 J0 F150
X27.5 Y-14 I2.5 J0
X27.1 Y-13.6 I-0.4 J0
G1 X26.9
G18 G3 X26.5 Z-1.365 I0 K0.4
G1 Z5.5
Y-14.4
Z-0.33
Z-1.93 F50
G2 X26.9 Z-2.33 I0.4 K0
G1 X27.1
G17 G3 X27.5 Y-14 I0 J0.4
X22.5 Y-14 I-2.5 J0 F150
X27.5 Y-14 I2.5 J0
X27.1 Y-13.6 I-0.4 J0
G1 X26.9
G18 G3 X26.5 Z-1.93 I0 K0.4
G1 Z5.5
X30.91 Y-100.4
Z1.4
Z-0.2 F50
G2 X31.31 Z-0.6 I0.4 K0
G1 X31.51
G17 G3 X31.91 Y-100 I0 J0.4
X27.91 Y-100 I-2 J0 F150
X31.91 Y-100 I2 J0
X31.51 Y-99.6 I-0.4 J0
G1 X31.31
G18 G3 X30.91 Z-0.2 I0 K0.4
G1 Z5.5
Y-100.4
Z0.8
Z-0.8 F50
G2 X31.31 Z-1.2 I0.4 K0
G1 X31.51
G17 G3 X31.91 Y-100 I0 J0.4
X27.91 Y-100 I-2 J0 F150
X31.91 Y-100 I2 J0
X31.51 Y-99.6 I-0.4 J0
G1 X31.31
G18 G3 X30.91 Z-0.8 I0 K0.4
G1 Z5.5
Y-100.4
Z0.235
Z-1.365 F50
G2 X31.31 Z-1.765 I0.4 K0
G1 X31.51
G17 G3 X31.91 Y-100 I0 J0.4
X27.91 Y-100 I-2 J0 F150
X31.91 Y-100 I2 J0
X31.51 Y-99.6 I-0.4 J0
G1 X31.31
G18 G3 X30.91 Z-1.365 I0 K0.4
G1 Z5.5
Y-100.4
Z-0.33
Z-1.93 F50
G2 X31.31 Z-2.33 I0.4 K0
G1 X31.51
G17 G3 X31.91 Y-100 I0 J0.4
X27.91 Y-100 I-2 J0 F150
X31.91 Y-100 I2 J0
X31.51 Y-99.6 I-0.4 J0
G1 X31.31
G18 G3 X30.91 Z-1.93 I0 K0.4
G1 Z5.5
X54.91 Y-100.4
Z1.4
Z-0.2 F50
G2 X55.31 Z-0.6 I0.4 K0
G1 X55.51
G17 G3 X55.91 Y-100 I0 J0.4
X51.91 Y-100 I-2 J0 F150
X55.91 Y-100 I2 J0
X55.51 Y-99.6 I-0.4 J0
G1 X55.31
G18 G3 X54.91 Z-0.2 I0 K0.4
G1 Z5.5
Y-100.4
Z0.8
Z-0.8 F50
G2 X55.31 Z-1.2 I0.4 K0
G1 X55.51
G17 G3 X55.91 Y-100 I0 J0.4
X51.91 Y-100 I-2 J0 F150
X55.91 Y-100 I2 J0
X55.51 Y-99.6 I-0.4 J0
G1 X55.31
G18 G3 X54.91 Z-0.8 I0 K0.4
G1 Z5.5
Y-100.4
Z0.235
Z-1.365 F50
G2 X55.31 Z-1.765 I0.4 K0
G1 X55.51
G17 G3 X55.91 Y-100 I0 J0.4
X51.91 Y-100 I-2 J0 F150
X55.91 Y-100 I2 J0
X55.51 Y-99.6 I-0.4 J0
G1 X55.31
G18 G3 X54.91 Z-1.365 I0 K0.4
G1 Z5.5
Y-100.4
Z-0.33
Z-1.93 F50
G2 X55.31 Z-2.33 I0.4 K0
G1 X55.51
G17 G3 X55.91 Y-100 I0 J0.4
X51.91 Y-100 I-2 J0 F150
X55.91 Y-100 I2 J0
X55.51 Y-99.6 I-0.4 J0
G1 X55.31
G18 G3 X54.91 Z-1.93 I0 K0.4
G1 Z5.5
Y-140.4
Z1.4
Z-0.2 F50
G2 X55.31 Z-0.6 I0.4 K0
G1 X55.51
G17 G3 X55.91 Y-140 I0 J0.4
X51.91 Y-140 I-2 J0 F150
X55.91 Y-140 I2 J0
X55.51 Y-139.6 I-0.4 J0
G1 X55.31
G18 G3 X54.91 Z-0.2 I0 K0.4
G1 Z5.5
Y-140.4
Z0.8
Z-0.8 F50
G2 X55.31 Z-1.2 I0.4 K0
G1 X55.51
G17 G3 X55.91 Y-140 I0 J0.4
X51.91 Y-140 I-2 J0 F150
X55.91 Y-140 I2 J0
X55.51 Y-139.6 I-0.4 J0
G1 X55.31
G18 G3 X54.91 Z-0.8 I0 K0.4
G1 Z5.5
Y-140.4
Z0.235
Z-1.365 F50
G2 X55.31 Z-1.765 I0.4 K0
G1 X55.51
G17 G3 X55.91 Y-140 I0 J0.4
X51.91 Y-140 I-2 J0 F150
X55.91 Y-140 I2 J0
X55.51 Y-139.6 I-0.4 J0
G1 X55.31
G18 G3 X54.91 Z-1.365 I0 K0.4
G1 Z5.5
Y-140.4
Z-0.33
Z-1.93 F50
G2 X55.31 Z-2.33 I0.4 K0
G1 X55.51
G17 G3 X55.91 Y-140 I0 J0.4
X51.91 Y-140 I-2 J0 F150
X55.91 Y-140 I2 J0
X55.51 Y-139.6 I-0.4 J0
G1 X55.31
G18 G3 X54.91 Z-1.93 I0 K0.4
G1 Z5.5
X30.91 Y-140.4
Z1.4
Z-0.2 F50
G2 X31.31 Z-0.6 I0.4 K0
G1 X31.51
G17 G3 X31.91 Y-140 I0 J0.4
X27.91 Y-140 I-2 J0 F150
X31.91 Y-140 I2 J0
X31.51 Y-139.6 I-0.4 J0
G1 X31.31
G18 G3 X30.91 Z-0.2 I0 K0.4
G1 Z5.5
Y-140.4
Z0.8
Z-0.8 F50
G2 X31.31 Z-1.2 I0.4 K0
G1 X31.51
G17 G3 X31.91 Y-140 I0 J0.4
X27.91 Y-140 I-2 J0 F150
X31.91 Y-140 I2 J0
X31.51 Y-139.6 I-0.4 J0
G1 X31.31
G18 G3 X30.91 Z-0.8 I0 K0.4
G1 Z5.5
Y-140.4
Z0.235
Z-1.365 F50
G2 X31.31 Z-1.765 I0.4 K0
G1 X31.51
G17 G3 X31.91 Y-140 I0 J0.4
X27.91 Y-140 I-2 J0 F150
X31.91 Y-140 I2 J0
X31.51 Y-139.6 I-0.4 J0
G1 X31.31
G18 G3 X30.91 Z-1.365 I0 K0.4
G1 Z5.5
Y-140.4
Z-0.33
Z-1.93 F50
G2 X31.31 Z-2.33 I0.4 K0
G1 X31.51
G17 G3 X31.91 Y-140 I0 J0.4
X27.91 Y-140 I-2 J0 F150
X31.91 Y-140 I2 J0
X31.51 Y-139.6 I-0.4 J0
G1 X31.31
G18 G3 X30.91 Z-1.93 I0 K0.4
G1 Z5.5
X26.5 Y-194.4
Z1.4
Z-0.2 F50
G2 X26.9 Z-0.6 I0.4 K0
G1 X27.1
G17 G3 X27.5 Y-194 I0 J0.4
X22.5 Y-194 I-2.5 J0 F150
X27.5 Y-194 I2.5 J0
X27.1 Y-193.6 I-0.4 J0
G1 X26.9
G18 G3 X26.5 Z-0.2 I0 K0.4
G1 Z5.5
Y-194.4
Z0.8
Z-0.8 F50
G2 X26.9 Z-1.2 I0.4 K0
G1 X27.1
G17 G3 X27.5 Y-194 I0 J0.4
X22.5 Y-194 I-2.5 J0 F150
X27.5 Y-194 I2.5 J0
X27.1 Y-193.6 I-0.4 J0
G1 X26.9
G18 G3 X26.5 Z-0.8 I0 K0.4
G1 Z5.5
Y-194.4
Z0.235
Z-1.365 F50
G2 X26.9 Z-1.765 I0.4 K0
G1 X27.1
G17 G3 X27.5 Y-194 I0 J0.4
X22.5 Y-194 I-2.5 J0 F150
X27.5 Y-194 I2.5 J0
X27.1 Y-193.6 I-0.4 J0
G1 X26.9
G18 G3 X26.5 Z-1.365 I0 K0.4
G1 Z5.5
Y-194.4
Z-0.33
Z-1.93 F50
G2 X26.9 Z-2.33 I0.4 K0
G1 X27.1
G17 G3 X27.5 Y-194 I0 J0.4
X22.5 Y-194 I-2.5 J0 F150
X27.5 Y-194 I2.5 J0
X27.1 Y-193.6 I-0.4 J0
G1 X26.9
G18 G3 X26.5 Z-1.93 I0 K0.4
G1 Z5.5
Y-226.4
Z1.4
Z-0.2 F50
G2 X26.9 Z-0.6 I0.4 K0
G1 X27.1
G17 G3 X27.5 Y-226 I0 J0.4
X22.5 Y-226 I-2.5 J0 F150
X27.5 Y-226 I2.5 J0
X27.1 Y-225.6 I-0.4 J0
G1 X26.9
G18 G3 X26.5 Z-0.2 I0 K0.4
G1 Z5.5
Y-226.4
Z0.8
Z-0.8 F50
G2 X26.9 Z-1.2 I0.4 K0
G1 X27.1
G17 G3 X27.5 Y-226 I0 J0.4
X22.5 Y-226 I-2.5 J0 F150
X27.5 Y-226 I2.5 J0
X27.1 Y-225.6 I-0.4 J0
G1 X26.9
G18 G3 X26.5 Z-0.8 I0 K0.4
G1 Z5.5
Y-226.4
Z0.235
Z-1.365 F50
G2 X26.9 Z-1.765 I0.4 K0
G1 X27.1
G17 G3 X27.5 Y-226 I0 J0.4
X22.5 Y-226 I-2.5 J0 F150
X27.5 Y-226 I2.5 J0
X27.1 Y-225.6 I-0.4 J0
G1 X26.9
G18 G3 X26.5 Z-1.365 I0 K0.4
G1 Z5.5
Y-226.4
Z-0.33
Z-1.93 F50
G2 X26.9 Z-2.33 I0.4 K0
G1 X27.1
G17 G3 X27.5 Y-226 I0 J0.4
X22.5 Y-226 I-2.5 J0 F150
X27.5 Y-226 I2.5 J0
X27.1 Y-225.6 I-0.4 J0
G1 X26.9
G18 G3 X26.5 Z-1.93 I0 K0.4
G1 Z5.5
X62.5 Y-226.4
Z1.4
Z-0.2 F50
G2 X62.9 Z-0.6 I0.4 K0
G1 X63.1
G17 G3 X63.5 Y-226 I0 J0.4
X58.5 Y-226 I-2.5 J0 F150
X63.5 Y-226 I2.5 J0
X63.1 Y-225.6 I-0.4 J0
G1 X62.9
G18 G3 X62.5 Z-0.2 I0 K0.4
G1 Z5.5
Y-226.4
Z0.8
Z-0.8 F50
G2 X62.9 Z-1.2 I0.4 K0
G1 X63.1
G17 G3 X63.5 Y-226 I0 J0.4
X58.5 Y-226 I-2.5 J0 F150
X63.5 Y-226 I2.5 J0
X63.1 Y-225.6 I-0.4 J0
G1 X62.9
G18 G3 X62.5 Z-0.8 I0 K0.4
G1 Z5.5
Y-226.4
Z0.235
Z-1.365 F50
G2 X62.9 Z-1.765 I0.4 K0
G1 X63.1
G17 G3 X63.5 Y-226 I0 J0.4
X58.5 Y-226 I-2.5 J0 F150
X63.5 Y-226 I2.5 J0
X63.1 Y-225.6 I-0.4 J0
G1 X62.9
G18 G3 X62.5 Z-1.365 I0 K0.4
G1 Z5.5
Y-226.4
Z-0.33
Z-1.93 F50
G2 X62.9 Z-2.33 I0.4 K0
G1 X63.1
G17 G3 X63.5 Y-226 I0 J0.4
X58.5 Y-226 I-2.5 J0 F150
X63.5 Y-226 I2.5 J0
X63.1 Y-225.6 I-0.4 J0
G1 X62.9
G18 G3 X62.5 Z-1.93 I0 K0.4
G1 Z5.5
Y-194.4
Z1.4
Z-0.2 F50
G2 X62.9 Z-0.6 I0.4 K0
G1 X63.1
G17 G3 X63.5 Y-194 I0 J0.4
X58.5 Y-194 I-2.5 J0 F150
X63.5 Y-194 I2.5 J0
X63.1 Y-193.6 I-0.4 J0
G1 X62.9
G18 G3 X62.5 Z-0.2 I0 K0.4
G1 Z5.5
Y-194.4
Z0.8
Z-0.8 F50
G2 X62.9 Z-1.2 I0.4 K0
G1 X63.1
G17 G3 X63.5 Y-194 I0 J0.4
X58.5 Y-194 I-2.5 J0 F150
X63.5 Y-194 I2.5 J0
X63.1 Y-193.6 I-0.4 J0
G1 X62.9
G18 G3 X62.5 Z-0.8 I0 K0.4
G1 Z5.5
Y-194.4
Z0.235
Z-1.365 F50
G2 X62.9 Z-1.765 I0.4 K0
G1 X63.1
G17 G3 X63.5 Y-194 I0 J0.4
X58.5 Y-194 I-2.5 J0 F150
X63.5 Y-194 I2.5 J0
X63.1 Y-193.6 I-0.4 J0
G1 X62.9
G18 G3 X62.5 Z-1.365 I0 K0.4
G1 Z5.5
Y-194.4
Z-0.33
Z-1.93 F50
G2 X62.9 Z-2.33 I0.4 K0
G1 X63.1
G17 G3 X63.5 Y-194 I0 J0.4
X58.5 Y-194 I-2.5 J0 F150
X63.5 Y-194 I2.5 J0
X63.1 Y-193.6 I-0.4 J0
G1 X62.9
G18 G3 X62.5 Z-1.93 I0 K0.4
G1 Z15.5
G17
(When using Fusion for Personal Use, the feedrate of rapid)
(moves is reduced to match the feedrate of cutting moves,)
(which can increase machining time. Unrestricted rapid moves)
(are available with a Fusion Subscription.)

(Bore1)
G0 X77.935 Y-260.4
G1 Z15.5 F150
Z2
Z0.4 F50
G18 G2 X78.335 Z0 I0.4 K0
G1 X78.535
G17 G3 X78.935 Y-260 I0 J0.4
X76.885 Y-260 Z-0.106 I-1.025 J0 F150
X78.935 Y-260 Z-0.211 I1.025 J0
X76.885 Y-260 Z-0.317 I-1.025 J0
X78.935 Y-260 Z-0.423 I1.025 J0
X76.885 Y-260 Z-0.528 I-1.025 J0
X78.935 Y-260 Z-0.634 I1.025 J0
X76.885 Y-260 Z-0.739 I-1.025 J0
X78.935 Y-260 Z-0.845 I1.025 J0
X76.885 Y-260 Z-0.951 I-1.025 J0
X78.935 Y-260 Z-1.056 I1.025 J0
X76.885 Y-260 Z-1.162 I-1.025 J0
X78.935 Y-260 Z-1.268 I1.025 J0
X76.885 Y-260 Z-1.373 I-1.025 J0
X78.935 Y-260 Z-1.479 I1.025 J0
X76.885 Y-260 Z-1.585 I-1.025 J0
X78.935 Y-260 Z-1.69 I1.025 J0
X76.885 Y-260 Z-1.796 I-1.025 J0
X78.935 Y-260 Z-1.901 I1.025 J0
X76.885 Y-260 Z-2.007 I-1.025 J0
X78.935 Y-260 Z-2.113 I1.025 J0
X76.885 Y-260 Z-2.218 I-1.025 J0
X78.935 Y-260 Z-2.324 I1.025 J0
X76.885 Y-260 Z-2.43 I-1.025 J0
X78.935 Y-260 Z-2.535 I1.025 J0
X76.885 Y-260 Z-2.641 I-1.025 J0
X78.935 Y-260 Z-2.747 I1.025 J0
X76.885 Y-260 Z-2.852 I-1.025 J0
X78.935 Y-260 Z-2.958 I1.025 J0
X76.885 Y-260 Z-3.063 I-1.025 J0
X78.935 Y-260 Z-3.169 I1.025 J0
X76.885 Y-260 Z-3.275 I-1.025 J0
X78.935 Y-260 Z-3.38 I1.025 J0
X76.885 Y-260 Z-3.486 I-1.025 J0
X78.935 Y-260 Z-3.592 I1.025 J0
X76.885 Y-260 Z-3.697 I-1.025 J0
X78.935 Y-260 Z-3.803 I1.025 J0
X76.885 Y-260 Z-3.909 I-1.025 J0
X78.935 Y-260 Z-4.014 I1.025 J0
X76.885 Y-260 Z-4.12 I-1.025 J0
X78.935 Y-260 Z-4.225 I1.025 J0
X76.885 Y-260 Z-4.331 I-1.025 J0
X78.935 Y-260 Z-4.437 I1.025 J0
X76.885 Y-260 Z-4.542 I-1.025 J0
X78.935 Y-260 Z-4.648 I1.025 J0
X76.885 Y-260 Z-4.754 I-1.025 J0
X78.935 Y-260 Z-4.859 I1.025 J0
X76.885 Y-260 Z-4.965 I-1.025 J0
X78.935 Y-260 Z-5.07 I1.025 J0
X76.885 Y-260 Z-5.176 I-1.025 J0
X78.935 Y-260 Z-5.282 I1.025 J0
X76.885 Y-260 Z-5.387 I-1.025 J0
X78.935 Y-260 Z-5.493 I1.025 J0
X76.885 Y-260 Z-5.599 I-1.025 J0
X78.935 Y-260 Z-5.704 I1.025 J0
X76.885 Y-260 Z-5.81 I-1.025 J0
X78.935 Y-260 Z-5.916 I1.025 J0
X77.082 Y-259.395 Z-6 I-1.025 J0
X78.737 Y-260.605 I0.828 J-0.605
X77.082 Y-259.395 I-0.828 J0.605
X77.169 Y-259.954 I0.323 J-0.236
G1 X77.33 Y-260.072
X77.393 Y-260.118 Z-5.992
X77.454 Y-260.163 Z-5.97
X77.51 Y-260.203 Z-5.933
X77.559 Y-260.239 Z-5.883
X77.599 Y-260.268 Z-5.822
X77.629 Y-260.29 Z-5.753
X77.647 Y-260.304 Z-5.678
X77.653 Y-260.308 Z-5.6
Z5.5
X77.935 Y-240.4
Z2
Z0.4 F50
G18 G2 X78.335 Z0 I0.4 K0
G1 X78.535
G17 G3 X78.935 Y-240 I0 J0.4
X76.885 Y-240 Z-0.106 I-1.025 J0 F150
X78.935 Y-240 Z-0.211 I1.025 J0
X76.885 Y-240 Z-0.317 I-1.025 J0
X78.935 Y-240 Z-0.423 I1.025 J0
X76.885 Y-240 Z-0.528 I-1.025 J0
X78.935 Y-240 Z-0.634 I1.025 J0
X76.885 Y-240 Z-0.739 I-1.025 J0
X78.935 Y-240 Z-0.845 I1.025 J0
X76.885 Y-240 Z-0.951 I-1.025 J0
X78.935 Y-240 Z-1.056 I1.025 J0
X76.885 Y-240 Z-1.162 I-1.025 J0
X78.935 Y-240 Z-1.268 I1.025 J0
X76.885 Y-240 Z-1.373 I-1.025 J0
X78.935 Y-240 Z-1.479 I1.025 J0
X76.885 Y-240 Z-1.585 I-1.025 J0
X78.935 Y-240 Z-1.69 I1.025 J0
X76.885 Y-240 Z-1.796 I-1.025 J0
X78.935 Y-240 Z-1.901 I1.025 J0
X76.885 Y-240 Z-2.007 I-1.025 J0
X78.935 Y-240 Z-2.113 I1.025 J0
X76.885 Y-240 Z-2.218 I-1.025 J0
X78.935 Y-240 Z-2.324 I1.025 J0
X76.885 Y-240 Z-2.43 I-1.025 J0
X78.935 Y-240 Z-2.535 I1.025 J0
X76.885 Y-240 Z-2.641 I-1.025 J0
X78.935 Y-240 Z-2.747 I1.025 J0
X76.885 Y-240 Z-2.852 I-1.025 J0
X78.935 Y-240 Z-2.958 I1.025 J0
X76.885 Y-240 Z-3.063 I-1.025 J0
X78.935 Y-240 Z-3.169 I1.025 J0
X76.885 Y-240 Z-3.275 I-1.025 J0
X78.935 Y-240 Z-3.38 I1.025 J0
X76.885 Y-240 Z-3.486 I-1.025 J0
X78.935 Y-240 Z-3.592 I1.025 J0
X76.885 Y-240 Z-3.697 I-1.025 J0
X78.935 Y-240 Z-3.803 I1.025 J0
X76.885 Y-240 Z-3.909 I-1.025 J0
X78.935 Y-240 Z-4.014 I1.025 J0
X76.885 Y-240 Z-4.12 I-1.025 J0
X78.935 Y-240 Z-4.225 I1.025 J0
X76.885 Y-240 Z-4.331 I-1.025 J0
X78.935 Y-240 Z-4.437 I1.025 J0
X76.885 Y-240 Z-4.542 I-1.025 J0
X78.935 Y-240 Z-4.648 I1.025 J0
X76.885 Y-240 Z-4.754 I-1.025 J0
X78.935 Y-240 Z-4.859 I1.025 J0
X76.885 Y-240 Z-4.965 I-1.025 J0
X78.935 Y-240 Z-5.07 I1.025 J0
X76.885 Y-240 Z-5.176 I-1.025 J0
X78.935 Y-240 Z-5.282 I1.025 J0
X76.885 Y-240 Z-5.387 I-1.025 J0
X78.935 Y-240 Z-5.493 I1.025 J0
X76.885 Y-240 Z-5.599 I-1.025 J0
X78.935 Y-240 Z-5.704 I1.025 J0
X76.885 Y-240 Z-5.81 I-1.025 J0
X78.935 Y-240 Z-5.916 I1.025 J0
X77.082 Y-239.395 Z-6 I-1.025 J0
X78.737 Y-240.605 I0.828 J-0.605
X77.082 Y-239.395 I-0.828 J0.605
X77.169 Y-239.954 I0.323 J-0.236
G1 X77.33 Y-240.072
X77.393 Y-240.118 Z-5.992
X77.454 Y-240.163 Z-5.97
X77.51 Y-240.203 Z-5.933
X77.559 Y-240.239 Z-5.883
X77.599 Y-240.268 Z-5.822
X77.629 Y-240.29 Z-5.753
X77.647 Y-240.304 Z-5.678
X77.653 Y-240.308 Z-5.6
Z5.5
X77.935 Y-180.4
Z2
Z0.4 F50
G18 G2 X78.335 Z0 I0.4 K0
G1 X78.535
G17 G3 X78.935 Y-180 I0 J0.4
X76.885 Y-180 Z-0.106 I-1.025 J0 F150
X78.935 Y-180 Z-0.211 I1.025 J0
X76.885 Y-180 Z-0.317 I-1.025 J0
X78.935 Y-180 Z-0.423 I1.025 J0
X76.885 Y-180 Z-0.528 I-1.025 J0
X78.935 Y-180 Z-0.634 I1.025 J0
X76.885 Y-180 Z-0.739 I-1.025 J0
X78.935 Y-180 Z-0.845 I1.025 J0
X76.885 Y-180 Z-0.951 I-1.025 J0
X78.935 Y-180 Z-1.056 I1.025 J0
X76.885 Y-180 Z-1.162 I-1.025 J0
X78.935 Y-180 Z-1.268 I1.025 J0
X76.885 Y-180 Z-1.373 I-1.025 J0
X78.935 Y-180 Z-1.479 I1.025 J0
X76.885 Y-180 Z-1.585 I-1.025 J0
X78.935 Y-180 Z-1.69 I1.025 J0
X76.885 Y-180 Z-1.796 I-1.025 J0
X78.935 Y-180 Z-1.901 I1.025 J0
X76.885 Y-180 Z-2.007 I-1.025 J0
X78.935 Y-180 Z-2.113 I1.025 J0
X76.885 Y-180 Z-2.218 I-1.025 J0
X78.935 Y-180 Z-2.324 I1.025 J0
X76.885 Y-180 Z-2.43 I-1.025 J0
X78.935 Y-180 Z-2.535 I1.025 J0
X76.885 Y-180 Z-2.641 I-1.025 J0
X78.935 Y-180 Z-2.747 I1.025 J0
X76.885 Y-180 Z-2.852 I-1.025 J0
X78.935 Y-180 Z-2.958 I1.025 J0
X76.885 Y-180 Z-3.063 I-1.025 J0
X78.935 Y-180 Z-3.169 I1.025 J0
X76.885 Y-180 Z-3.275 I-1.025 J0
X78.935 Y-180 Z-3.38 I1.025 J0
X76.885 Y-180 Z-3.486 I-1.025 J0
X78.935 Y-180 Z-3.592 I1.025 J0
X76.885 Y-180 Z-3.697 I-1.025 J0
X78.935 Y-180 Z-3.803 I1.025 J0
X76.885 Y-180 Z-3.909 I-1.025 J0
X78.935 Y-180 Z-4.014 I1.025 J0
X76.885 Y-180 Z-4.12 I-1.025 J0
X78.935 Y-180 Z-4.225 I1.025 J0
X76.885 Y-180 Z-4.331 I-1.025 J0
X78.935 Y-180 Z-4.437 I1.025 J0
X76.885 Y-180 Z-4.542 I-1.025 J0
X78.935 Y-180 Z-4.648 I1.025 J0
X76.885 Y-180 Z-4.754 I-1.025 J0
X78.935 Y-180 Z-4.859 I1.025 J0
X76.885 Y-180 Z-4.965 I-1.025 J0
X78.935 Y-180 Z-5.07 I1.025 J0
X76.885 Y-180 Z-5.176 I-1.025 J0
X78.935 Y-180 Z-5.282 I1.025 J0
X76.885 Y-180 Z-5.387 I-1.025 J0
X78.935 Y-180 Z-5.493 I1.025 J0
X76.885 Y-180 Z-5.599 I-1.025 J0
X78.935 Y-180 Z-5.704 I1.025 J0
X76.885 Y-180 Z-5.81 I-1.025 J0
X78.935 Y-180 Z-5.916 I1.025 J0
X77.082 Y-179.395 Z-6 I-1.025 J0
X78.737 Y-180.605 I0.828 J-0.605
X77.082 Y-179.395 I-0.828 J0.605
X77.169 Y-179.954 I0.323 J-0.236
G1 X77.33 Y-180.072
X77.393 Y-180.118 Z-5.992
X77.454 Y-180.163 Z-5.97
X77.51 Y-180.203 Z-5.933
X77.559 Y-180.239 Z-5.883
X77.599 Y-180.268 Z-5.822
X77.629 Y-180.29 Z-5.753
X77.647 Y-180.304 Z-5.678
X77.653 Y-180.308 Z-5.6
Z5.5
X77.935 Y-160.4
Z2
Z0.4 F50
G18 G2 X78.335 Z0 I0.4 K0
G1 X78.535
G17 G3 X78.935 Y-160 I0 J0.4
X76.885 Y-160 Z-0.106 I-1.025 J0 F150
X78.935 Y-160 Z-0.211 I1.025 J0
X76.885 Y-160 Z-0.317 I-1.025 J0
X78.935 Y-160 Z-0.423 I1.025 J0
X76.885 Y-160 Z-0.528 I-1.025 J0
X78.935 Y-160 Z-0.634 I1.025 J0
X76.885 Y-160 Z-0.739 I-1.025 J0
X78.935 Y-160 Z-0.845 I1.025 J0
X76.885 Y-160 Z-0.951 I-1.025 J0
X78.935 Y-160 Z-1.056 I1.025 J0
X76.885 Y-160 Z-1.162 I-1.025 J0
X78.935 Y-160 Z-1.268 I1.025 J0
X76.885 Y-160 Z-1.373 I-1.025 J0
X78.935 Y-160 Z-1.479 I1.025 J0
X76.885 Y-160 Z-1.585 I-1.025 J0
X78.935 Y-160 Z-1.69 I1.025 J0
X76.885 Y-160 Z-1.796 I-1.025 J0
X78.935 Y-160 Z-1.901 I1.025 J0
X76.885 Y-160 Z-2.007 I-1.025 J0
X78.935 Y-160 Z-2.113 I1.025 J0
X76.885 Y-160 Z-2.218 I-1.025 J0
X78.935 Y-160 Z-2.324 I1.025 J0
X76.885 Y-160 Z-2.43 I-1.025 J0
X78.935 Y-160 Z-2.535 I1.025 J0
X76.885 Y-160 Z-2.641 I-1.025 J0
X78.935 Y-160 Z-2.747 I1.025 J0
X76.885 Y-160 Z-2.852 I-1.025 J0
X78.935 Y-160 Z-2.958 I1.025 J0
X76.885 Y-160 Z-3.063 I-1.025 J0
X78.935 Y-160 Z-3.169 I1.025 J0
X76.885 Y-160 Z-3.275 I-1.025 J0
X78.935 Y-160 Z-3.38 I1.025 J0
X76.885 Y-160 Z-3.486 I-1.025 J0
X78.935 Y-160 Z-3.592 I1.025 J0
X76.885 Y-160 Z-3.697 I-1.025 J0
X78.935 Y-160 Z-3.803 I1.025 J0
X76.885 Y-160 Z-3.909 I-1.025 J0
X78.935 Y-160 Z-4.014 I1.025 J0
X76.885 Y-160 Z-4.12 I-1.025 J0
X78.935 Y-160 Z-4.225 I1.025 J0
X76.885 Y-160 Z-4.331 I-1.025 J0
X78.935 Y-160 Z-4.437 I1.025 J0
X76.885 Y-160 Z-4.542 I-1.025 J0
X78.935 Y-160 Z-4.648 I1.025 J0
X76.885 Y-160 Z-4.754 I-1.025 J0
X78.935 Y-160 Z-4.859 I1.025 J0
X76.885 Y-160 Z-4.965 I-1.025 J0
X78.935 Y-160 Z-5.07 I1.025 J0
X76.885 Y-160 Z-5.176 I-1.025 J0
X78.935 Y-160 Z-5.282 I1.025 J0
X76.885 Y-160 Z-5.387 I-1.025 J0
X78.935 Y-160 Z-5.493 I1.025 J0
X76.885 Y-160 Z-5.599 I-1.025 J0
X78.935 Y-160 Z-5.704 I1.025 J0
X76.885 Y-160 Z-5.81 I-1.025 J0
X78.935 Y-160 Z-5.916 I1.025 J0
X77.082 Y-159.395 Z-6 I-1.025 J0
X78.737 Y-160.605 I0.828 J-0.605
X77.082 Y-159.395 I-0.828 J0.605
X77.169 Y-159.954 I0.323 J-0.236
G1 X77.33 Y-160.072
X77.393 Y-160.118 Z-5.992
X77.454 Y-160.163 Z-5.97
X77.51 Y-160.203 Z-5.933
X77.559 Y-160.239 Z-5.883
X77.599 Y-160.268 Z-5.822
X77.629 Y-160.29 Z-5.753
X77.647 Y-160.304 Z-5.678
X77.653 Y-160.308 Z-5.6
Z5.5
X77.935 Y-140.4
Z2
Z0.4 F50
G18 G2 X78.335 Z0 I0.4 K0
G1 X78.535
G17 G3 X78.935 Y-140 I0 J0.4
X76.885 Y-140 Z-0.106 I-1.025 J0 F150
X78.935 Y-140 Z-0.211 I1.025 J0
X76.885 Y-140 Z-0.317 I-1.025 J0
X78.935 Y-140 Z-0.423 I1.025 J0
X76.885 Y-140 Z-0.528 I-1.025 J0
X78.935 Y-140 Z-0.634 I1.025 J0
X76.885 Y-140 Z-0.739 I-1.025 J0
X78.935 Y-140 Z-0.845 I1.025 J0
X76.885 Y-140 Z-0.951 I-1.025 J0
X78.935 Y-140 Z-1.056 I1.025 J0
X76.885 Y-140 Z-1.162 I-1.025 J0
X78.935 Y-140 Z-1.268 I1.025 J0
X76.885 Y-140 Z-1.373 I-1.025 J0
X78.935 Y-140 Z-1.479 I1.025 J0
X76.885 Y-140 Z-1.585 I-1.025 J0
X78.935 Y-140 Z-1.69 I1.025 J0
X76.885 Y-140 Z-1.796 I-1.025 J0
X78.935 Y-140 Z-1.901 I1.025 J0
X76.885 Y-140 Z-2.007 I-1.025 J0
X78.935 Y-140 Z-2.113 I1.025 J0
X76.885 Y-140 Z-2.218 I-1.025 J0
X78.935 Y-140 Z-2.324 I1.025 J0
X76.885 Y-140 Z-2.43 I-1.025 J0
X78.935 Y-140 Z-2.535 I1.025 J0
X76.885 Y-140 Z-2.641 I-1.025 J0
X78.935 Y-140 Z-2.747 I1.025 J0
X76.885 Y-140 Z-2.852 I-1.025 J0
X78.935 Y-140 Z-2.958 I1.025 J0
X76.885 Y-140 Z-3.063 I-1.025 J0
X78.935 Y-140 Z-3.169 I1.025 J0
X76.885 Y-140 Z-3.275 I-1.025 J0
X78.935 Y-140 Z-3.38 I1.025 J0
X76.885 Y-140 Z-3.486 I-1.025 J0
X78.935 Y-140 Z-3.592 I1.025 J0
X76.885 Y-140 Z-3.697 I-1.025 J0
X78.935 Y-140 Z-3.803 I1.025 J0
X76.885 Y-140 Z-3.909 I-1.025 J0
X78.935 Y-140 Z-4.014 I1.025 J0
X76.885 Y-140 Z-4.12 I-1.025 J0
X78.935 Y-140 Z-4.225 I1.025 J0
X76.885 Y-140 Z-4.331 I-1.025 J0
X78.935 Y-140 Z-4.437 I1.025 J0
X76.885 Y-140 Z-4.542 I-1.025 J0
X78.935 Y-140 Z-4.648 I1.025 J0
X76.885 Y-140 Z-4.754 I-1.025 J0
X78.935 Y-140 Z-4.859 I1.025 J0
X76.885 Y-140 Z-4.965 I-1.025 J0
X78.935 Y-140 Z-5.07 I1.025 J0
X76.885 Y-140 Z-5.176 I-1.025 J0
X78.935 Y-140 Z-5.282 I1.025 J0
X76.885 Y-140 Z-5.387 I-1.025 J0
X78.935 Y-140 Z-5.493 I1.025 J0
X76.885 Y-140 Z-5.599 I-1.025 J0
X78.935 Y-140 Z-5.704 I1.025 J0
X76.885 Y-140 Z-5.81 I-1.025 J0
X78.935 Y-140 Z-5.916 I1.025 J0
X77.082 Y-139.395 Z-6 I-1.025 J0
X78.737 Y-140.605 I0.828 J-0.605
X77.082 Y-139.395 I-0.828 J0.605
X77.169 Y-139.954 I0.323 J-0.236
G1 X77.33 Y-140.072
X77.393 Y-140.118 Z-5.992
X77.454 Y-140.163 Z-5.97
X77.51 Y-140.203 Z-5.933
X77.559 Y-140.239 Z-5.883
X77.599 Y-140.268 Z-5.822
X77.629 Y-140.29 Z-5.753
X77.647 Y-140.304 Z-5.678
X77.653 Y-140.308 Z-5.6
Z5.5
X77.935 Y-120.4
Z2
Z0.4 F50
G18 G2 X78.335 Z0 I0.4 K0
G1 X78.535
G17 G3 X78.935 Y-120 I0 J0.4
X76.885 Y-120 Z-0.106 I-1.025 J0 F150
X78.935 Y-120 Z-0.211 I1.025 J0
X76.885 Y-120 Z-0.317 I-1.025 J0
X78.935 Y-120 Z-0.423 I1.025 J0
X76.885 Y-120 Z-0.528 I-1.025 J0
X78.935 Y-120 Z-0.634 I1.025 J0
X76.885 Y-120 Z-0.739 I-1.025 J0
X78.935 Y-120 Z-0.845 I1.025 J0
X76.885 Y-120 Z-0.951 I-1.025 J0
X78.935 Y-120 Z-1.056 I1.025 J0
X76.885 Y-120 Z-1.162 I-1.025 J0
X78.935 Y-120 Z-1.268 I1.025 J0
X76.885 Y-120 Z-1.373 I-1.025 J0
X78.935 Y-120 Z-1.479 I1.025 J0
X76.885 Y-120 Z-1.585 I-1.025 J0
X78.935 Y-120 Z-1.69 I1.025 J0
X76.885 Y-120 Z-1.796 I-1.025 J0
X78.935 Y-120 Z-1.901 I1.025 J0
X76.885 Y-120 Z-2.007 I-1.025 J0
X78.935 Y-120 Z-2.113 I1.025 J0
X76.885 Y-120 Z-2.218 I-1.025 J0
X78.935 Y-120 Z-2.324 I1.025 J0
X76.885 Y-120 Z-2.43 I-1.025 J0
X78.935 Y-120 Z-2.535 I1.025 J0
X76.885 Y-120 Z-2.641 I-1.025 J0
X78.935 Y-120 Z-2.747 I1.025 J0
X76.885 Y-120 Z-2.852 I-1.025 J0
X78.935 Y-120 Z-2.958 I1.025 J0
X76.885 Y-120 Z-3.063 I-1.025 J0
X78.935 Y-120 Z-3.169 I1.025 J0
X76.885 Y-120 Z-3.275 I-1.025 J0
X78.935 Y-120 Z-3.38 I1.025 J0
X76.885 Y-120 Z-3.486 I-1.025 J0
X78.935 Y-120 Z-3.592 I1.025 J0
X76.885 Y-120 Z-3.697 I-1.025 J0
X78.935 Y-120 Z-3.803 I1.025 J0
X76.885 Y-120 Z-3.909 I-1.025 J0
X78.935 Y-120 Z-4.014 I1.025 J0
X76.885 Y-120 Z-4.12 I-1.025 J0
X78.935 Y-120 Z-4.225 I1.025 J0
X76.885 Y-120 Z-4.331 I-1.025 J0
X78.935 Y-120 Z-4.437 I1.025 J0
X76.885 Y-120 Z-4.542 I-1.025 J0
X78.935 Y-120 Z-4.648 I1.025 J0
X76.885 Y-120 Z-4.754 I-1.025 J0
X78.935 Y-120 Z-4.859 I1.025 J0
X76.885 Y-120 Z-4.965 I-1.025 J0
X78.935 Y-120 Z-5.07 I1.025 J0
X76.885 Y-120 Z-5.176 I-1.025 J0
X78.935 Y-120 Z-5.282 I1.025 J0
X76.885 Y-120 Z-5.387 I-1.025 J0
X78.935 Y-120 Z-5.493 I1.025 J0
X76.885 Y-120 Z-5.599 I-1.025 J0
X78.935 Y-120 Z-5.704 I1.025 J0
X76.885 Y-120 Z-5.81 I-1.025 J0
X78.935 Y-120 Z-5.916 I1.025 J0
X77.082 Y-119.395 Z-6 I-1.025 J0
X78.737 Y-120.605 I0.828 J-0.605
X77.082 Y-119.395 I-0.828 J0.605
X77.169 Y-119.954 I0.323 J-0.236
G1 X77.33 Y-120.072
X77.393 Y-120.118 Z-5.992
X77.454 Y-120.163 Z-5.97
X77.51 Y-120.203 Z-5.933
X77.559 Y-120.239 Z-5.883
X77.599 Y-120.268 Z-5.822
X77.629 Y-120.29 Z-5.753
X77.647 Y-120.304 Z-5.678
X77.653 Y-120.308 Z-5.6
Z5.5
X77.935 Y-100.4
Z2
Z0.4 F50
G18 G2 X78.335 Z0 I0.4 K0
G1 X78.535
G17 G3 X78.935 Y-100 I0 J0.4
X76.885 Y-100 Z-0.106 I-1.025 J0 F150
X78.935 Y-100 Z-0.211 I1.025 J0
X76.885 Y-100 Z-0.317 I-1.025 J0
X78.935 Y-100 Z-0.423 I1.025 J0
X76.885 Y-100 Z-0.528 I-1.025 J0
X78.935 Y-100 Z-0.634 I1.025 J0
X76.885 Y-100 Z-0.739 I-1.025 J0
X78.935 Y-100 Z-0.845 I1.025 J0
X76.885 Y-100 Z-0.951 I-1.025 J0
X78.935 Y-100 Z-1.056 I1.025 J0
X76.885 Y-100 Z-1.162 I-1.025 J0
X78.935 Y-100 Z-1.268 I1.025 J0
X76.885 Y-100 Z-1.373 I-1.025 J0
X78.935 Y-100 Z-1.479 I1.025 J0
X76.885 Y-100 Z-1.585 I-1.025 J0
X78.935 Y-100 Z-1.69 I1.025 J0
X76.885 Y-100 Z-1.796 I-1.025 J0
X78.935 Y-100 Z-1.901 I1.025 J0
X76.885 Y-100 Z-2.007 I-1.025 J0
X78.935 Y-100 Z-2.113 I1.025 J0
X76.885 Y-100 Z-2.218 I-1.025 J0
X78.935 Y-100 Z-2.324 I1.025 J0
X76.885 Y-100 Z-2.43 I-1.025 J0
X78.935 Y-100 Z-2.535 I1.025 J0
X76.885 Y-100 Z-2.641 I-1.025 J0
X78.935 Y-100 Z-2.747 I1.025 J0
X76.885 Y-100 Z-2.852 I-1.025 J0
X78.935 Y-100 Z-2.958 I1.025 J0
X76.885 Y-100 Z-3.063 I-1.025 J0
X78.935 Y-100 Z-3.169 I1.025 J0
X76.885 Y-100 Z-3.275 I-1.025 J0
X78.935 Y-100 Z-3.38 I1.025 J0
X76.885 Y-100 Z-3.486 I-1.025 J0
X78.935 Y-100 Z-3.592 I1.025 J0
X76.885 Y-100 Z-3.697 I-1.025 J0
X78.935 Y-100 Z-3.803 I1.025 J0
X76.885 Y-100 Z-3.909 I-1.025 J0
X78.935 Y-100 Z-4.014 I1.025 J0
X76.885 Y-100 Z-4.12 I-1.025 J0
X78.935 Y-100 Z-4.225 I1.025 J0
X76.885 Y-100 Z-4.331 I-1.025 J0
X78.935 Y-100 Z-4.437 I1.025 J0
X76.885 Y-100 Z-4.542 I-1.025 J0
X78.935 Y-100 Z-4.648 I1.025 J0
X76.885 Y-100 Z-4.754 I-1.025 J0
X78.935 Y-100 Z-4.859 I1.025 J0
X76.885 Y-100 Z-4.965 I-1.025 J0
X78.935 Y-100 Z-5.07 I1.025 J0
X76.885 Y-100 Z-5.176 I-1.025 J0
X78.935 Y-100 Z-5.282 I1.025 J0
X76.885 Y-100 Z-5.387 I-1.025 J0
X78.935 Y-100 Z-5.493 I1.025 J0
X76.885 Y-100 Z-5.599 I-1.025 J0
X78.935 Y-100 Z-5.704 I1.025 J0
X76.885 Y-100 Z-5.81 I-1.025 J0
X78.935 Y-100 Z-5.916 I1.025 J0
X77.082 Y-99.395 Z-6 I-1.025 J0
X78.737 Y-100.605 I0.828 J-0.605
X77.082 Y-99.395 I-0.828 J0.605
X77.169 Y-99.954 I0.323 J-0.236
G1 X77.33 Y-100.072
X77.393 Y-100.118 Z-5.992
X77.454 Y-100.163 Z-5.97
X77.51 Y-100.203 Z-5.933
X77.559 Y-100.239 Z-5.883
X77.599 Y-100.268 Z-5.822
X77.629 Y-100.29 Z-5.753
X77.647 Y-100.304 Z-5.678
X77.653 Y-100.308 Z-5.6
Z5.5
X77.935 Y-80.4
Z2
Z0.4 F50
G18 G2 X78.335 Z0 I0.4 K0
G1 X78.535
G17 G3 X78.935 Y-80 I0 J0.4
X76.885 Y-80 Z-0.106 I-1.025 J0 F150
X78.935 Y-80 Z-0.211 I1.025 J0
X76.885 Y-80 Z-0.317 I-1.025 J0
X78.935 Y-80 Z-0.423 I1.025 J0
X76.885 Y-80 Z-0.528 I-1.025 J0
X78.935 Y-80 Z-0.634 I1.025 J0
X76.885 Y-80 Z-0.739 I-1.025 J0
X78.935 Y-80 Z-0.845 I1.025 J0
X76.885 Y-80 Z-0.951 I-1.025 J0
X78.935 Y-80 Z-1.056 I1.025 J0
X76.885 Y-80 Z-1.162 I-1.025 J0
X78.935 Y-80 Z-1.268 I1.025 J0
X76.885 Y-80 Z-1.373 I-1.025 J0
X78.935 Y-80 Z-1.479 I1.025 J0
X76.885 Y-80 Z-1.585 I-1.025 J0
X78.935 Y-80 Z-1.69 I1.025 J0
X76.885 Y-80 Z-1.796 I-1.025 J0
X78.935 Y-80 Z-1.901 I1.025 J0
X76.885 Y-80 Z-2.007 I-1.025 J0
X78.935 Y-80 Z-2.113 I1.025 J0
X76.885 Y-80 Z-2.218 I-1.025 J0
X78.935 Y-80 Z-2.324 I1.025 J0
X76.885 Y-80 Z-2.43 I-1.025 J0
X78.935 Y-80 Z-2.535 I1.025 J0
X76.885 Y-80 Z-2.641 I-1.025 J0
X78.935 Y-80 Z-2.747 I1.025 J0
X76.885 Y-80 Z-2.852 I-1.025 J0
X78.935 Y-80 Z-2.958 I1.025 J0
X76.885 Y-80 Z-3.063 I-1.025 J0
X78.935 Y-80 Z-3.169 I1.025 J0
X76.885 Y-80 Z-3.275 I-1.025 J0
X78.935 Y-80 Z-3.38 I1.025 J0
X76.885 Y-80 Z-3.486 I-1.025 J0
X78.935 Y-80 Z-3.592 I1.025 J0
X76.885 Y-80 Z-3.697 I-1.025 J0
X78.935 Y-80 Z-3.803 I1.025 J0
X76.885 Y-80 Z-3.909 I-1.025 J0
X78.935 Y-80 Z-4.014 I1.025 J0
X76.885 Y-80 Z-4.12 I-1.025 J0
X78.935 Y-80 Z-4.225 I1.025 J0
X76.885 Y-80 Z-4.331 I-1.025 J0
X78.935 Y-80 Z-4.437 I1.025 J0
X76.885 Y-80 Z-4.542 I-1.025 J0
X78.935 Y-80 Z-4.648 I1.025 J0
X76.885 Y-80 Z-4.754 I-1.025 J0
X78.935 Y-80 Z-4.859 I1.025 J0
X76.885 Y-80 Z-4.965 I-1.025 J0
X78.935 Y-80 Z-5.07 I1.025 J0
X76.885 Y-80 Z-5.176 I-1.025 J0
X78.935 Y-80 Z-5.282 I1.025 J0
X76.885 Y-80 Z-5.387 I-1.025 J0
X78.935 Y-80 Z-5.493 I1.025 J0
X76.885 Y-80 Z-5.599 I-1.025 J0
X78.935 Y-80 Z-5.704 I1.025 J0
X76.885 Y-80 Z-5.81 I-1.025 J0
X78.935 Y-80 Z-5.916 I1.025 J0
X77.082 Y-79.395 Z-6 I-1.025 J0
X78.737 Y-80.605 I0.828 J-0.605
X77.082 Y-79.395 I-0.828 J0.605
X77.169 Y-79.954 I0.323 J-0.236
G1 X77.33 Y-80.072
X77.393 Y-80.118 Z-5.992
X77.454 Y-80.163 Z-5.97
X77.51 Y-80.203 Z-5.933
X77.559 Y-80.239 Z-5.883
X77.599 Y-80.268 Z-5.822
X77.629 Y-80.29 Z-5.753
X77.647 Y-80.304 Z-5.678
X77.653 Y-80.308 Z-5.6
Z5.5
X77.935 Y-60.4
Z2
Z0.4 F50
G18 G2 X78.335 Z0 I0.4 K0
G1 X78.535
G17 G3 X78.935 Y-60 I0 J0.4
X76.885 Y-60 Z-0.106 I-1.025 J0 F150
X78.935 Y-60 Z-0.211 I1.025 J0
X76.885 Y-60 Z-0.317 I-1.025 J0
X78.935 Y-60 Z-0.423 I1.025 J0
X76.885 Y-60 Z-0.528 I-1.025 J0
X78.935 Y-60 Z-0.634 I1.025 J0
X76.885 Y-60 Z-0.739 I-1.025 J0
X78.935 Y-60 Z-0.845 I1.025 J0
X76.885 Y-60 Z-0.951 I-1.025 J0
X78.935 Y-60 Z-1.056 I1.025 J0
X76.885 Y-60 Z-1.162 I-1.025 J0
X78.935 Y-60 Z-1.268 I1.025 J0
X76.885 Y-60 Z-1.373 I-1.025 J0
X78.935 Y-60 Z-1.479 I1.025 J0
X76.885 Y-60 Z-1.585 I-1.025 J0
X78.935 Y-60 Z-1.69 I1.025 J0
X76.885 Y-60 Z-1.796 I-1.025 J0
X78.935 Y-60 Z-1.901 I1.025 J0
X76.885 Y-60 Z-2.007 I-1.025 J0
X78.935 Y-60 Z-2.113 I1.025 J0
X76.885 Y-60 Z-2.218 I-1.025 J0
X78.935 Y-60 Z-2.324 I1.025 J0
X76.885 Y-60 Z-2.43 I-1.025 J0
X78.935 Y-60 Z-2.535 I1.025 J0
X76.885 Y-60 Z-2.641 I-1.025 J0
X78.935 Y-60 Z-2.747 I1.025 J0
X76.885 Y-60 Z-2.852 I-1.025 J0
X78.935 Y-60 Z-2.958 I1.025 J0
X76.885 Y-60 Z-3.063 I-1.025 J0
X78.935 Y-60 Z-3.169 I1.025 J0
X76.885 Y-60 Z-3.275 I-1.025 J0
X78.935 Y-60 Z-3.38 I1.025 J0
X76.885 Y-60 Z-3.486 I-1.025 J0
X78.935 Y-60 Z-3.592 I1.025 J0
X76.885 Y-60 Z-3.697 I-1.025 J0
X78.935 Y-60 Z-3.803 I1.025 J0
X76.885 Y-60 Z-3.909 I-1.025 J0
X78.935 Y-60 Z-4.014 I1.025 J0
X76.885 Y-60 Z-4.12 I-1.025 J0
X78.935 Y-60 Z-4.225 I1.025 J0
X76.885 Y-60 Z-4.331 I-1.025 J0
X78.935 Y-60 Z-4.437 I1.025 J0
X76.885 Y-60 Z-4.542 I-1.025 J0
X78.935 Y-60 Z-4.648 I1.025 J0
X76.885 Y-60 Z-4.754 I-1.025 J0
X78.935 Y-60 Z-4.859 I1.025 J0
X76.885 Y-60 Z-4.965 I-1.025 J0
X78.935 Y-60 Z-5.07 I1.025 J0
X76.885 Y-60 Z-5.176 I-1.025 J0
X78.935 Y-60 Z-5.282 I1.025 J0
X76.885 Y-60 Z-5.387 I-1.025 J0
X78.935 Y-60 Z-5.493 I1.025 J0
X76.885 Y-60 Z-5.599 I-1.025 J0
X78.935 Y-60 Z-5.704 I1.025 J0
X76.885 Y-60 Z-5.81 I-1.025 J0
X78.935 Y-60 Z-5.916 I1.025 J0
X77.082 Y-59.395 Z-6 I-1.025 J0
X78.737 Y-60.605 I0.828 J-0.605
X77.082 Y-59.395 I-0.828 J0.605
X77.169 Y-59.954 I0.323 J-0.236
G1 X77.33 Y-60.072
X77.393 Y-60.118 Z-5.992
X77.454 Y-60.163 Z-5.97
X77.51 Y-60.203 Z-5.933
X77.559 Y-60.239 Z-5.883
X77.599 Y-60.268 Z-5.822
X77.629 Y-60.29 Z-5.753
X77.647 Y-60.304 Z-5.678
X77.653 Y-60.308 Z-5.6
Z5.5
X7.935 Y-60.4
Z2
Z0.4 F50
G18 G2 X8.335 Z0 I0.4 K0
G1 X8.535
G17 G3 X8.935 Y-60 I0 J0.4
X6.885 Y-60 Z-0.106 I-1.025 J0 F150
X8.935 Y-60 Z-0.211 I1.025 J0
X6.885 Y-60 Z-0.317 I-1.025 J0
X8.935 Y-60 Z-0.423 I1.025 J0
X6.885 Y-60 Z-0.528 I-1.025 J0
X8.935 Y-60 Z-0.634 I1.025 J0
X6.885 Y-60 Z-0.739 I-1.025 J0
X8.935 Y-60 Z-0.845 I1.025 J0
X6.885 Y-60 Z-0.951 I-1.025 J0
X8.935 Y-60 Z-1.056 I1.025 J0
X6.885 Y-60 Z-1.162 I-1.025 J0
X8.935 Y-60 Z-1.268 I1.025 J0
X6.885 Y-60 Z-1.373 I-1.025 J0
X8.935 Y-60 Z-1.479 I1.025 J0
X6.885 Y-60 Z-1.585 I-1.025 J0
X8.935 Y-60 Z-1.69 I1.025 J0
X6.885 Y-60 Z-1.796 I-1.025 J0
X8.935 Y-60 Z-1.901 I1.025 J0
X6.885 Y-60 Z-2.007 I-1.025 J0
X8.935 Y-60 Z-2.113 I1.025 J0
X6.885 Y-60 Z-2.218 I-1.025 J0
X8.935 Y-60 Z-2.324 I1.025 J0
X6.885 Y-60 Z-2.43 I-1.025 J0
X8.935 Y-60 Z-2.535 I1.025 J0
X6.885 Y-60 Z-2.641 I-1.025 J0
X8.935 Y-60 Z-2.747 I1.025 J0
X6.885 Y-60 Z-2.852 I-1.025 J0
X8.935 Y-60 Z-2.958 I1.025 J0
X6.885 Y-60 Z-3.063 I-1.025 J0
X8.935 Y-60 Z-3.169 I1.025 J0
X6.885 Y-60 Z-3.275 I-1.025 J0
X8.935 Y-60 Z-3.38 I1.025 J0
X6.885 Y-60 Z-3.486 I-1.025 J0
X8.935 Y-60 Z-3.592 I1.025 J0
X6.885 Y-60 Z-3.697 I-1.025 J0
X8.935 Y-60 Z-3.803 I1.025 J0
X6.885 Y-60 Z-3.909 I-1.025 J0
X8.935 Y-60 Z-4.014 I1.025 J0
X6.885 Y-60 Z-4.12 I-1.025 J0
X8.935 Y-60 Z-4.225 I1.025 J0
X6.885 Y-60 Z-4.331 I-1.025 J0
X8.935 Y-60 Z-4.437 I1.025 J0
X6.885 Y-60 Z-4.542 I-1.025 J0
X8.935 Y-60 Z-4.648 I1.025 J0
X6.885 Y-60 Z-4.754 I-1.025 J0
X8.935 Y-60 Z-4.859 I1.025 J0
X6.885 Y-60 Z-4.965 I-1.025 J0
X8.935 Y-60 Z-5.07 I1.025 J0
X6.885 Y-60 Z-5.176 I-1.025 J0
X8.935 Y-60 Z-5.282 I1.025 J0
X6.885 Y-60 Z-5.387 I-1.025 J0
X8.935 Y-60 Z-5.493 I1.025 J0
X6.885 Y-60 Z-5.599 I-1.025 J0
X8.935 Y-60 Z-5.704 I1.025 J0
X6.885 Y-60 Z-5.81 I-1.025 J0
X8.935 Y-60 Z-5.916 I1.025 J0
X7.082 Y-59.395 Z-6 I-1.025 J0
X8.737 Y-60.605 I0.828 J-0.605
X7.082 Y-59.395 I-0.828 J0.605
X7.169 Y-59.954 I0.323 J-0.236
G1 X7.33 Y-60.072
X7.393 Y-60.118 Z-5.992
X7.454 Y-60.163 Z-5.97
X7.51 Y-60.203 Z-5.933
X7.559 Y-60.239 Z-5.883
X7.599 Y-60.268 Z-5.822
X7.629 Y-60.29 Z-5.753
X7.647 Y-60.304 Z-5.678
X7.653 Y-60.308 Z-5.6
Z5.5
X7.935 Y-80.4
Z2
Z0.4 F50
G18 G2 X8.335 Z0 I0.4 K0
G1 X8.535
G17 G3 X8.935 Y-80 I0 J0.4
X6.885 Y-80 Z-0.106 I-1.025 J0 F150
X8.935 Y-80 Z-0.211 I1.025 J0
X6.885 Y-80 Z-0.317 I-1.025 J0
X8.935 Y-80 Z-0.423 I1.025 J0
X6.885 Y-80 Z-0.528 I-1.025 J0
X8.935 Y-80 Z-0.634 I1.025 J0
X6.885 Y-80 Z-0.739 I-1.025 J0
X8.935 Y-80 Z-0.845 I1.025 J0
X6.885 Y-80 Z-0.951 I-1.025 J0
X8.935 Y-80 Z-1.056 I1.025 J0
X6.885 Y-80 Z-1.162 I-1.025 J0
X8.935 Y-80 Z-1.268 I1.025 J0
X6.885 Y-80 Z-1.373 I-1.025 J0
X8.935 Y-80 Z-1.479 I1.025 J0
X6.885 Y-80 Z-1.585 I-1.025 J0
X8.935 Y-80 Z-1.69 I1.025 J0
X6.885 Y-80 Z-1.796 I-1.025 J0
X8.935 Y-80 Z-1.901 I1.025 J0
X6.885 Y-80 Z-2.007 I-1.025 J0
X8.935 Y-80 Z-2.113 I1.025 J0
X6.885 Y-80 Z-2.218 I-1.025 J0
X8.935 Y-80 Z-2.324 I1.025 J0
X6.885 Y-80 Z-2.43 I-1.025 J0
X8.935 Y-80 Z-2.535 I1.025 J0
X6.885 Y-80 Z-2.641 I-1.025 J0
X8.935 Y-80 Z-2.747 I1.025 J0
X6.885 Y-80 Z-2.852 I-1.025 J0
X8.935 Y-80 Z-2.958 I1.025 J0
X6.885 Y-80 Z-3.063 I-1.025 J0
X8.935 Y-80 Z-3.169 I1.025 J0
X6.885 Y-80 Z-3.275 I-1.025 J0
X8.935 Y-80 Z-3.38 I1.025 J0
X6.885 Y-80 Z-3.486 I-1.025 J0
X8.935 Y-80 Z-3.592 I1.025 J0
X6.885 Y-80 Z-3.697 I-1.025 J0
X8.935 Y-80 Z-3.803 I1.025 J0
X6.885 Y-80 Z-3.909 I-1.025 J0
X8.935 Y-80 Z-4.014 I1.025 J0
X6.885 Y-80 Z-4.12 I-1.025 J0
X8.935 Y-80 Z-4.225 I1.025 J0
X6.885 Y-80 Z-4.331 I-1.025 J0
X8.935 Y-80 Z-4.437 I1.025 J0
X6.885 Y-80 Z-4.542 I-1.025 J0
X8.935 Y-80 Z-4.648 I1.025 J0
X6.885 Y-80 Z-4.754 I-1.025 J0
X8.935 Y-80 Z-4.859 I1.025 J0
X6.885 Y-80 Z-4.965 I-1.025 J0
X8.935 Y-80 Z-5.07 I1.025 J0
X6.885 Y-80 Z-5.176 I-1.025 J0
X8.935 Y-80 Z-5.282 I1.025 J0
X6.885 Y-80 Z-5.387 I-1.025 J0
X8.935 Y-80 Z-5.493 I1.025 J0
X6.885 Y-80 Z-5.599 I-1.025 J0
X8.935 Y-80 Z-5.704 I1.025 J0
X6.885 Y-80 Z-5.81 I-1.025 J0
X8.935 Y-80 Z-5.916 I1.025 J0
X7.082 Y-79.395 Z-6 I-1.025 J0
X8.737 Y-80.605 I0.828 J-0.605
X7.082 Y-79.395 I-0.828 J0.605
X7.169 Y-79.954 I0.323 J-0.236
G1 X7.33 Y-80.072
X7.393 Y-80.118 Z-5.992
X7.454 Y-80.163 Z-5.97
X7.51 Y-80.203 Z-5.933
X7.559 Y-80.239 Z-5.883
X7.599 Y-80.268 Z-5.822
X7.629 Y-80.29 Z-5.753
X7.647 Y-80.304 Z-5.678
X7.653 Y-80.308 Z-5.6
Z5.5
X7.935 Y-100.4
Z2
Z0.4 F50
G18 G2 X8.335 Z0 I0.4 K0
G1 X8.535
G17 G3 X8.935 Y-100 I0 J0.4
X6.885 Y-100 Z-0.106 I-1.025 J0 F150
X8.935 Y-100 Z-0.211 I1.025 J0
X6.885 Y-100 Z-0.317 I-1.025 J0
X8.935 Y-100 Z-0.423 I1.025 J0
X6.885 Y-100 Z-0.528 I-1.025 J0
X8.935 Y-100 Z-0.634 I1.025 J0
X6.885 Y-100 Z-0.739 I-1.025 J0
X8.935 Y-100 Z-0.845 I1.025 J0
X6.885 Y-100 Z-0.951 I-1.025 J0
X8.935 Y-100 Z-1.056 I1.025 J0
X6.885 Y-100 Z-1.162 I-1.025 J0
X8.935 Y-100 Z-1.268 I1.025 J0
X6.885 Y-100 Z-1.373 I-1.025 J0
X8.935 Y-100 Z-1.479 I1.025 J0
X6.885 Y-100 Z-1.585 I-1.025 J0
X8.935 Y-100 Z-1.69 I1.025 J0
X6.885 Y-100 Z-1.796 I-1.025 J0
X8.935 Y-100 Z-1.901 I1.025 J0
X6.885 Y-100 Z-2.007 I-1.025 J0
X8.935 Y-100 Z-2.113 I1.025 J0
X6.885 Y-100 Z-2.218 I-1.025 J0
X8.935 Y-100 Z-2.324 I1.025 J0
X6.885 Y-100 Z-2.43 I-1.025 J0
X8.935 Y-100 Z-2.535 I1.025 J0
X6.885 Y-100 Z-2.641 I-1.025 J0
X8.935 Y-100 Z-2.747 I1.025 J0
X6.885 Y-100 Z-2.852 I-1.025 J0
X8.935 Y-100 Z-2.958 I1.025 J0
X6.885 Y-100 Z-3.063 I-1.025 J0
X8.935 Y-100 Z-3.169 I1.025 J0
X6.885 Y-100 Z-3.275 I-1.025 J0
X8.935 Y-100 Z-3.38 I1.025 J0
X6.885 Y-100 Z-3.486 I-1.025 J0
X8.935 Y-100 Z-3.592 I1.025 J0
X6.885 Y-100 Z-3.697 I-1.025 J0
X8.935 Y-100 Z-3.803 I1.025 J0
X6.885 Y-100 Z-3.909 I-1.025 J0
X8.935 Y-100 Z-4.014 I1.025 J0
X6.885 Y-100 Z-4.12 I-1.025 J0
X8.935 Y-100 Z-4.225 I1.025 J0
X6.885 Y-100 Z-4.331 I-1.025 J0
X8.935 Y-100 Z-4.437 I1.025 J0
X6.885 Y-100 Z-4.542 I-1.025 J0
X8.935 Y-100 Z-4.648 I1.025 J0
X6.885 Y-100 Z-4.754 I-1.025 J0
X8.935 Y-100 Z-4.859 I1.025 J0
X6.885 Y-100 Z-4.965 I-1.025 J0
X8.935 Y-100 Z-5.07 I1.025 J0
X6.885 Y-100 Z-5.176 I-1.025 J0
X8.935 Y-100 Z-5.282 I1.025 J0
X6.885 Y-100 Z-5.387 I-1.025 J0
X8.935 Y-100 Z-5.493 I1.025 J0
X6.885 Y-100 Z-5.599 I-1.025 J0
X8.935 Y-100 Z-5.704 I1.025 J0
X6.885 Y-100 Z-5.81 I-1.025 J0
X8.935 Y-100 Z-5.916 I1.025 J0
X7.082 Y-99.395 Z-6 I-1.025 J0
X8.737 Y-100.605 I0.828 J-0.605
X7.082 Y-99.395 I-0.828 J0.605
X7.169 Y-99.954 I0.323 J-0.236
G1 X7.33 Y-100.072
X7.393 Y-100.118 Z-5.992
X7.454 Y-100.163 Z-5.97
X7.51 Y-100.203 Z-5.933
X7.559 Y-100.239 Z-5.883
X7.599 Y-100.268 Z-5.822
X7.629 Y-100.29 Z-5.753
X7.647 Y-100.304 Z-5.678
X7.653 Y-100.308 Z-5.6
Z5.5
X7.935 Y-120.4
Z2
Z0.4 F50
G18 G2 X8.335 Z0 I0.4 K0
G1 X8.535
G17 G3 X8.935 Y-120 I0 J0.4
X6.885 Y-120 Z-0.106 I-1.025 J0 F150
X8.935 Y-120 Z-0.211 I1.025 J0
X6.885 Y-120 Z-0.317 I-1.025 J0
X8.935 Y-120 Z-0.423 I1.025 J0
X6.885 Y-120 Z-0.528 I-1.025 J0
X8.935 Y-120 Z-0.634 I1.025 J0
X6.885 Y-120 Z-0.739 I-1.025 J0
X8.935 Y-120 Z-0.845 I1.025 J0
X6.885 Y-120 Z-0.951 I-1.025 J0
X8.935 Y-120 Z-1.056 I1.025 J0
X6.885 Y-120 Z-1.162 I-1.025 J0
X8.935 Y-120 Z-1.268 I1.025 J0
X6.885 Y-120 Z-1.373 I-1.025 J0
X8.935 Y-120 Z-1.479 I1.025 J0
X6.885 Y-120 Z-1.585 I-1.025 J0
X8.935 Y-120 Z-1.69 I1.025 J0
X6.885 Y-120 Z-1.796 I-1.025 J0
X8.935 Y-120 Z-1.901 I1.025 J0
X6.885 Y-120 Z-2.007 I-1.025 J0
X8.935 Y-120 Z-2.113 I1.025 J0
X6.885 Y-120 Z-2.218 I-1.025 J0
X8.935 Y-120 Z-2.324 I1.025 J0
X6.885 Y-120 Z-2.43 I-1.025 J0
X8.935 Y-120 Z-2.535 I1.025 J0
X6.885 Y-120 Z-2.641 I-1.025 J0
X8.935 Y-120 Z-2.747 I1.025 J0
X6.885 Y-120 Z-2.852 I-1.025 J0
X8.935 Y-120 Z-2.958 I1.025 J0
X6.885 Y-120 Z-3.063 I-1.025 J0
X8.935 Y-120 Z-3.169 I1.025 J0
X6.885 Y-120 Z-3.275 I-1.025 J0
X8.935 Y-120 Z-3.38 I1.025 J0
X6.885 Y-120 Z-3.486 I-1.025 J0
X8.935 Y-120 Z-3.592 I1.025 J0
X6.885 Y-120 Z-3.697 I-1.025 J0
X8.935 Y-120 Z-3.803 I1.025 J0
X6.885 Y-120 Z-3.909 I-1.025 J0
X8.935 Y-120 Z-4.014 I1.025 J0
X6.885 Y-120 Z-4.12 I-1.025 J0
X8.935 Y-120 Z-4.225 I1.025 J0
X6.885 Y-120 Z-4.331 I-1.025 J0
X8.935 Y-120 Z-4.437 I1.025 J0
X6.885 Y-120 Z-4.542 I-1.025 J0
X8.935 Y-120 Z-4.648 I1.025 J0
X6.885 Y-120 Z-4.754 I-1.025 J0
X8.935 Y-120 Z-4.859 I1.025 J0
X6.885 Y-120 Z-4.965 I-1.025 J0
X8.935 Y-120 Z-5.07 I1.025 J0
X6.885 Y-120 Z-5.176 I-1.025 J0
X8.935 Y-120 Z-5.282 I1.025 J0
X6.885 Y-120 Z-5.387 I-1.025 J0
X8.935 Y-120 Z-5.493 I1.025 J0
X6.885 Y-120 Z-5.599 I-1.025 J0
X8.935 Y-120 Z-5.704 I1.025 J0
X6.885 Y-120 Z-5.81 I-1.025 J0
X8.935 Y-120 Z-5.916 I1.025 J0
X7.082 Y-119.395 Z-6 I-1.025 J0
X8.737 Y-120.605 I0.828 J-0.605
X7.082 Y-119.395 I-0.828 J0.605
X7.169 Y-119.954 I0.323 J-0.236
G1 X7.33 Y-120.072
X7.393 Y-120.118 Z-5.992
X7.454 Y-120.163 Z-5.97
X7.51 Y-120.203 Z-5.933
X7.559 Y-120.239 Z-5.883
X7.599 Y-120.268 Z-5.822
X7.629 Y-120.29 Z-5.753
X7.647 Y-120.304 Z-5.678
X7.653 Y-120.308 Z-5.6
Z5.5
X7.935 Y-140.4
Z2
Z0.4 F50
G18 G2 X8.335 Z0 I0.4 K0
G1 X8.535
G17 G3 X8.935 Y-140 I0 J0.4
X6.885 Y-140 Z-0.106 I-1.025 J0 F150
X8.935 Y-140 Z-0.211 I1.025 J0
X6.885 Y-140 Z-0.317 I-1.025 J0
X8.935 Y-140 Z-0.423 I1.025 J0
X6.885 Y-140 Z-0.528 I-1.025 J0
X8.935 Y-140 Z-0.634 I1.025 J0
X6.885 Y-140 Z-0.739 I-1.025 J0
X8.935 Y-140 Z-0.845 I1.025 J0
X6.885 Y-140 Z-0.951 I-1.025 J0
X8.935 Y-140 Z-1.056 I1.025 J0
X6.885 Y-140 Z-1.162 I-1.025 J0
X8.935 Y-140 Z-1.268 I1.025 J0
X6.885 Y-140 Z-1.373 I-1.025 J0
X8.935 Y-140 Z-1.479 I1.025 J0
X6.885 Y-140 Z-1.585 I-1.025 J0
X8.935 Y-140 Z-1.69 I1.025 J0
X6.885 Y-140 Z-1.796 I-1.025 J0
X8.935 Y-140 Z-1.901 I1.025 J0
X6.885 Y-140 Z-2.007 I-1.025 J0
X8.935 Y-140 Z-2.113 I1.025 J0
X6.885 Y-140 Z-2.218 I-1.025 J0
X8.935 Y-140 Z-2.324 I1.025 J0
X6.885 Y-140 Z-2.43 I-1.025 J0
X8.935 Y-140 Z-2.535 I1.025 J0
X6.885 Y-140 Z-2.641 I-1.025 J0
X8.935 Y-140 Z-2.747 I1.025 J0
X6.885 Y-140 Z-2.852 I-1.025 J0
X8.935 Y-140 Z-2.958 I1.025 J0
X6.885 Y-140 Z-3.063 I-1.025 J0
X8.935 Y-140 Z-3.169 I1.025 J0
X6.885 Y-140 Z-3.275 I-1.025 J0
X8.935 Y-140 Z-3.38 I1.025 J0
X6.885 Y-140 Z-3.486 I-1.025 J0
X8.935 Y-140 Z-3.592 I1.025 J0
X6.885 Y-140 Z-3.697 I-1.025 J0
X8.935 Y-140 Z-3.803 I1.025 J0
X6.885 Y-140 Z-3.909 I-1.025 J0
X8.935 Y-140 Z-4.014 I1.025 J0
X6.885 Y-140 Z-4.12 I-1.025 J0
X8.935 Y-140 Z-4.225 I1.025 J0
X6.885 Y-140 Z-4.331 I-1.025 J0
X8.935 Y-140 Z-4.437 I1.025 J0
X6.885 Y-140 Z-4.542 I-1.025 J0
X8.935 Y-140 Z-4.648 I1.025 J0
X6.885 Y-140 Z-4.754 I-1.025 J0
X8.935 Y-140 Z-4.859 I1.025 J0
X6.885 Y-140 Z-4.965 I-1.025 J0
X8.935 Y-140 Z-5.07 I1.025 J0
X6.885 Y-140 Z-5.176 I-1.025 J0
X8.935 Y-140 Z-5.282 I1.025 J0
X6.885 Y-140 Z-5.387 I-1.025 J0
X8.935 Y-140 Z-5.493 I1.025 J0
X6.885 Y-140 Z-5.599 I-1.025 J0
X8.935 Y-140 Z-5.704 I1.025 J0
X6.885 Y-140 Z-5.81 I-1.025 J0
X8.935 Y-140 Z-5.916 I1.025 J0
X7.082 Y-139.395 Z-6 I-1.025 J0
X8.737 Y-140.605 I0.828 J-0.605
X7.082 Y-139.395 I-0.828 J0.605
X7.169 Y-139.954 I0.323 J-0.236
G1 X7.33 Y-140.072
X7.393 Y-140.118 Z-5.992
X7.454 Y-140.163 Z-5.97
X7.51 Y-140.203 Z-5.933
X7.559 Y-140.239 Z-5.883
X7.599 Y-140.268 Z-5.822
X7.629 Y-140.29 Z-5.753
X7.647 Y-140.304 Z-5.678
X7.653 Y-140.308 Z-5.6
Z5.5
X7.935 Y-160.4
Z2
Z0.4 F50
G18 G2 X8.335 Z0 I0.4 K0
G1 X8.535
G17 G3 X8.935 Y-160 I0 J0.4
X6.885 Y-160 Z-0.106 I-1.025 J0 F150
X8.935 Y-160 Z-0.211 I1.025 J0
X6.885 Y-160 Z-0.317 I-1.025 J0
X8.935 Y-160 Z-0.423 I1.025 J0
X6.885 Y-160 Z-0.528 I-1.025 J0
X8.935 Y-160 Z-0.634 I1.025 J0
X6.885 Y-160 Z-0.739 I-1.025 J0
X8.935 Y-160 Z-0.845 I1.025 J0
X6.885 Y-160 Z-0.951 I-1.025 J0
X8.935 Y-160 Z-1.056 I1.025 J0
X6.885 Y-160 Z-1.162 I-1.025 J0
X8.935 Y-160 Z-1.268 I1.025 J0
X6.885 Y-160 Z-1.373 I-1.025 J0
X8.935 Y-160 Z-1.479 I1.025 J0
X6.885 Y-160 Z-1.585 I-1.025 J0
X8.935 Y-160 Z-1.69 I1.025 J0
X6.885 Y-160 Z-1.796 I-1.025 J0
X8.935 Y-160 Z-1.901 I1.025 J0
X6.885 Y-160 Z-2.007 I-1.025 J0
X8.935 Y-160 Z-2.113 I1.025 J0
X6.885 Y-160 Z-2.218 I-1.025 J0
X8.935 Y-160 Z-2.324 I1.025 J0
X6.885 Y-160 Z-2.43 I-1.025 J0
X8.935 Y-160 Z-2.535 I1.025 J0
X6.885 Y-160 Z-2.641 I-1.025 J0
X8.935 Y-160 Z-2.747 I1.025 J0
X6.885 Y-160 Z-2.852 I-1.025 J0
X8.935 Y-160 Z-2.958 I1.025 J0
X6.885 Y-160 Z-3.063 I-1.025 J0
X8.935 Y-160 Z-3.169 I1.025 J0
X6.885 Y-160 Z-3.275 I-1.025 J0
X8.935 Y-160 Z-3.38 I1.025 J0
X6.885 Y-160 Z-3.486 I-1.025 J0
X8.935 Y-160 Z-3.592 I1.025 J0
X6.885 Y-160 Z-3.697 I-1.025 J0
X8.935 Y-160 Z-3.803 I1.025 J0
X6.885 Y-160 Z-3.909 I-1.025 J0
X8.935 Y-160 Z-4.014 I1.025 J0
X6.885 Y-160 Z-4.12 I-1.025 J0
X8.935 Y-160 Z-4.225 I1.025 J0
X6.885 Y-160 Z-4.331 I-1.025 J0
X8.935 Y-160 Z-4.437 I1.025 J0
X6.885 Y-160 Z-4.542 I-1.025 J0
X8.935 Y-160 Z-4.648 I1.025 J0
X6.885 Y-160 Z-4.754 I-1.025 J0
X8.935 Y-160 Z-4.859 I1.025 J0
X6.885 Y-160 Z-4.965 I-1.025 J0
X8.935 Y-160 Z-5.07 I1.025 J0
X6.885 Y-160 Z-5.176 I-1.025 J0
X8.935 Y-160 Z-5.282 I1.025 J0
X6.885 Y-160 Z-5.387 I-1.025 J0
X8.935 Y-160 Z-5.493 I1.025 J0
X6.885 Y-160 Z-5.599 I-1.025 J0
X8.935 Y-160 Z-5.704 I1.025 J0
X6.885 Y-160 Z-5.81 I-1.025 J0
X8.935 Y-160 Z-5.916 I1.025 J0
X7.082 Y-159.395 Z-6 I-1.025 J0
X8.737 Y-160.605 I0.828 J-0.605
X7.082 Y-159.395 I-0.828 J0.605
X7.169 Y-159.954 I0.323 J-0.236
G1 X7.33 Y-160.072
X7.393 Y-160.118 Z-5.992
X7.454 Y-160.163 Z-5.97
X7.51 Y-160.203 Z-5.933
X7.559 Y-160.239 Z-5.883
X7.599 Y-160.268 Z-5.822
X7.629 Y-160.29 Z-5.753
X7.647 Y-160.304 Z-5.678
X7.653 Y-160.308 Z-5.6
Z5.5
X7.935 Y-180.4
Z2
Z0.4 F50
G18 G2 X8.335 Z0 I0.4 K0
G1 X8.535
G17 G3 X8.935 Y-180 I0 J0.4
X6.885 Y-180 Z-0.106 I-1.025 J0 F150
X8.935 Y-180 Z-0.211 I1.025 J0
X6.885 Y-180 Z-0.317 I-1.025 J0
X8.935 Y-180 Z-0.423 I1.025 J0
X6.885 Y-180 Z-0.528 I-1.025 J0
X8.935 Y-180 Z-0.634 I1.025 J0
X6.885 Y-180 Z-0.739 I-1.025 J0
X8.935 Y-180 Z-0.845 I1.025 J0
X6.885 Y-180 Z-0.951 I-1.025 J0
X8.935 Y-180 Z-1.056 I1.025 J0
X6.885 Y-180 Z-1.162 I-1.025 J0
X8.935 Y-180 Z-1.268 I1.025 J0
X6.885 Y-180 Z-1.373 I-1.025 J0
X8.935 Y-180 Z-1.479 I1.025 J0
X6.885 Y-180 Z-1.585 I-1.025 J0
X8.935 Y-180 Z-1.69 I1.025 J0
X6.885 Y-180 Z-1.796 I-1.025 J0
X8.935 Y-180 Z-1.901 I1.025 J0
X6.885 Y-180 Z-2.007 I-1.025 J0
X8.935 Y-180 Z-2.113 I1.025 J0
X6.885 Y-180 Z-2.218 I-1.025 J0
X8.935 Y-180 Z-2.324 I1.025 J0
X6.885 Y-180 Z-2.43 I-1.025 J0
X8.935 Y-180 Z-2.535 I1.025 J0
X6.885 Y-180 Z-2.641 I-1.025 J0
X8.935 Y-180 Z-2.747 I1.025 J0
X6.885 Y-180 Z-2.852 I-1.025 J0
X8.935 Y-180 Z-2.958 I1.025 J0
X6.885 Y-180 Z-3.063 I-1.025 J0
X8.935 Y-180 Z-3.169 I1.025 J0
X6.885 Y-180 Z-3.275 I-1.025 J0
X8.935 Y-180 Z-3.38 I1.025 J0
X6.885 Y-180 Z-3.486 I-1.025 J0
X8.935 Y-180 Z-3.592 I1.025 J0
X6.885 Y-180 Z-3.697 I-1.025 J0
X8.935 Y-180 Z-3.803 I1.025 J0
X6.885 Y-180 Z-3.909 I-1.025 J0
X8.935 Y-180 Z-4.014 I1.025 J0
X6.885 Y-180 Z-4.12 I-1.025 J0
X8.935 Y-180 Z-4.225 I1.025 J0
X6.885 Y-180 Z-4.331 I-1.025 J0
X8.935 Y-180 Z-4.437 I1.025 J0
X6.885 Y-180 Z-4.542 I-1.025 J0
X8.935 Y-180 Z-4.648 I1.025 J0
X6.885 Y-180 Z-4.754 I-1.025 J0
X8.935 Y-180 Z-4.859 I1.025 J0
X6.885 Y-180 Z-4.965 I-1.025 J0
X8.935 Y-180 Z-5.07 I1.025 J0
X6.885 Y-180 Z-5.176 I-1.025 J0
X8.935 Y-180 Z-5.282 I1.025 J0
X6.885 Y-180 Z-5.387 I-1.025 J0
X8.935 Y-180 Z-5.493 I1.025 J0
X6.885 Y-180 Z-5.599 I-1.025 J0
X8.935 Y-180 Z-5.704 I1.025 J0
X6.885 Y-180 Z-5.81 I-1.025 J0
X8.935 Y-180 Z-5.916 I1.025 J0
X7.082 Y-179.395 Z-6 I-1.025 J0
X8.737 Y-180.605 I0.828 J-0.605
X7.082 Y-179.395 I-0.828 J0.605
X7.169 Y-179.954 I0.323 J-0.236
G1 X7.33 Y-180.072
X7.393 Y-180.118 Z-5.992
X7.454 Y-180.163 Z-5.97
X7.51 Y-180.203 Z-5.933
X7.559 Y-180.239 Z-5.883
X7.599 Y-180.268 Z-5.822
X7.629 Y-180.29 Z-5.753
X7.647 Y-180.304 Z-5.678
X7.653 Y-180.308 Z-5.6
Z5.5
X7.935 Y-240.4
Z2
Z0.4 F50
G18 G2 X8.335 Z0 I0.4 K0
G1 X8.535
G17 G3 X8.935 Y-240 I0 J0.4
X6.885 Y-240 Z-0.106 I-1.025 J0 F150
X8.935 Y-240 Z-0.211 I1.025 J0
X6.885 Y-240 Z-0.317 I-1.025 J0
X8.935 Y-240 Z-0.423 I1.025 J0
X6.885 Y-240 Z-0.528 I-1.025 J0
X8.935 Y-240 Z-0.634 I1.025 J0
X6.885 Y-240 Z-0.739 I-1.025 J0
X8.935 Y-240 Z-0.845 I1.025 J0
X6.885 Y-240 Z-0.951 I-1.025 J0
X8.935 Y-240 Z-1.056 I1.025 J0
X6.885 Y-240 Z-1.162 I-1.025 J0
X8.935 Y-240 Z-1.268 I1.025 J0
X6.885 Y-240 Z-1.373 I-1.025 J0
X8.935 Y-240 Z-1.479 I1.025 J0
X6.885 Y-240 Z-1.585 I-1.025 J0
X8.935 Y-240 Z-1.69 I1.025 J0
X6.885 Y-240 Z-1.796 I-1.025 J0
X8.935 Y-240 Z-1.901 I1.025 J0
X6.885 Y-240 Z-2.007 I-1.025 J0
X8.935 Y-240 Z-2.113 I1.025 J0
X6.885 Y-240 Z-2.218 I-1.025 J0
X8.935 Y-240 Z-2.324 I1.025 J0
X6.885 Y-240 Z-2.43 I-1.025 J0
X8.935 Y-240 Z-2.535 I1.025 J0
X6.885 Y-240 Z-2.641 I-1.025 J0
X8.935 Y-240 Z-2.747 I1.025 J0
X6.885 Y-240 Z-2.852 I-1.025 J0
X8.935 Y-240 Z-2.958 I1.025 J0
X6.885 Y-240 Z-3.063 I-1.025 J0
X8.935 Y-240 Z-3.169 I1.025 J0
X6.885 Y-240 Z-3.275 I-1.025 J0
X8.935 Y-240 Z-3.38 I1.025 J0
X6.885 Y-240 Z-3.486 I-1.025 J0
X8.935 Y-240 Z-3.592 I1.025 J0
X6.885 Y-240 Z-3.697 I-1.025 J0
X8.935 Y-240 Z-3.803 I1.025 J0
X6.885 Y-240 Z-3.909 I-1.025 J0
X8.935 Y-240 Z-4.014 I1.025 J0
X6.885 Y-240 Z-4.12 I-1.025 J0
X8.935 Y-240 Z-4.225 I1.025 J0
X6.885 Y-240 Z-4.331 I-1.025 J0
X8.935 Y-240 Z-4.437 I1.025 J0
X6.885 Y-240 Z-4.542 I-1.025 J0
X8.935 Y-240 Z-4.648 I1.025 J0
X6.885 Y-240 Z-4.754 I-1.025 J0
X8.935 Y-240 Z-4.859 I1.025 J0
X6.885 Y-240 Z-4.965 I-1.025 J0
X8.935 Y-240 Z-5.07 I1.025 J0
X6.885 Y-240 Z-5.176 I-1.025 J0
X8.935 Y-240 Z-5.282 I1.025 J0
X6.885 Y-240 Z-5.387 I-1.025 J0
X8.935 Y-240 Z-5.493 I1.025 J0
X6.885 Y-240 Z-5.599 I-1.025 J0
X8.935 Y-240 Z-5.704 I1.025 J0
X6.885 Y-240 Z-5.81 I-1.025 J0
X8.935 Y-240 Z-5.916 I1.025 J0
X7.082 Y-239.395 Z-6 I-1.025 J0
X8.737 Y-240.605 I0.828 J-0.605
X7.082 Y-239.395 I-0.828 J0.605
X7.169 Y-239.954 I0.323 J-0.236
G1 X7.33 Y-240.072
X7.393 Y-240.118 Z-5.992
X7.454 Y-240.163 Z-5.97
X7.51 Y-240.203 Z-5.933
X7.559 Y-240.239 Z-5.883
X7.599 Y-240.268 Z-5.822
X7.629 Y-240.29 Z-5.753
X7.647 Y-240.304 Z-5.678
X7.653 Y-240.308 Z-5.6
Z5.5
X7.935 Y-260.4
Z2
Z0.4 F50
G18 G2 X8.335 Z0 I0.4 K0
G1 X8.535
G17 G3 X8.935 Y-260 I0 J0.4
X6.885 Y-260 Z-0.106 I-1.025 J0 F150
X8.935 Y-260 Z-0.211 I1.025 J0
X6.885 Y-260 Z-0.317 I-1.025 J0
X8.935 Y-260 Z-0.423 I1.025 J0
X6.885 Y-260 Z-0.528 I-1.025 J0
X8.935 Y-260 Z-0.634 I1.025 J0
X6.885 Y-260 Z-0.739 I-1.025 J0
X8.935 Y-260 Z-0.845 I1.025 J0
X6.885 Y-260 Z-0.951 I-1.025 J0
X8.935 Y-260 Z-1.056 I1.025 J0
X6.885 Y-260 Z-1.162 I-1.025 J0
X8.935 Y-260 Z-1.268 I1.025 J0
X6.885 Y-260 Z-1.373 I-1.025 J0
X8.935 Y-260 Z-1.479 I1.025 J0
X6.885 Y-260 Z-1.585 I-1.025 J0
X8.935 Y-260 Z-1.69 I1.025 J0
X6.885 Y-260 Z-1.796 I-1.025 J0
X8.935 Y-260 Z-1.901 I1.025 J0
X6.885 Y-260 Z-2.007 I-1.025 J0
X8.935 Y-260 Z-2.113 I1.025 J0
X6.885 Y-260 Z-2.218 I-1.025 J0
X8.935 Y-260 Z-2.324 I1.025 J0
X6.885 Y-260 Z-2.43 I-1.025 J0
X8.935 Y-260 Z-2.535 I1.025 J0
X6.885 Y-260 Z-2.641 I-1.025 J0
X8.935 Y-260 Z-2.747 I1.025 J0
X6.885 Y-260 Z-2.852 I-1.025 J0
X8.935 Y-260 Z-2.958 I1.025 J0
X6.885 Y-260 Z-3.063 I-1.025 J0
X8.935 Y-260 Z-3.169 I1.025 J0
X6.885 Y-260 Z-3.275 I-1.025 J0
X8.935 Y-260 Z-3.38 I1.025 J0
X6.885 Y-260 Z-3.486 I-1.025 J0
X8.935 Y-260 Z-3.592 I1.025 J0
X6.885 Y-260 Z-3.697 I-1.025 J0
X8.935 Y-260 Z-3.803 I1.025 J0
X6.885 Y-260 Z-3.909 I-1.025 J0
X8.935 Y-260 Z-4.014 I1.025 J0
X6.885 Y-260 Z-4.12 I-1.025 J0
X8.935 Y-260 Z-4.225 I1.025 J0
X6.885 Y-260 Z-4.331 I-1.025 J0
X8.935 Y-260 Z-4.437 I1.025 J0
X6.885 Y-260 Z-4.542 I-1.025 J0
X8.935 Y-260 Z-4.648 I1.025 J0
X6.885 Y-260 Z-4.754 I-1.025 J0
X8.935 Y-260 Z-4.859 I1.025 J0
X6.885 Y-260 Z-4.965 I-1.025 J0
X8.935 Y-260 Z-5.07 I1.025 J0
X6.885 Y-260 Z-5.176 I-1.025 J0
X8.935 Y-260 Z-5.282 I1.025 J0
X6.885 Y-260 Z-5.387 I-1.025 J0
X8.935 Y-260 Z-5.493 I1.025 J0
X6.885 Y-260 Z-5.599 I-1.025 J0
X8.935 Y-260 Z-5.704 I1.025 J0
X6.885 Y-260 Z-5.81 I-1.025 J0
X8.935 Y-260 Z-5.916 I1.025 J0
X7.082 Y-259.395 Z-6 I-1.025 J0
X8.737 Y-260.605 I0.828 J-0.605
X7.082 Y-259.395 I-0.828 J0.605
X7.169 Y-259.954 I0.323 J-0.236
G1 X7.33 Y-260.072
X7.393 Y-260.118 Z-5.992
X7.454 Y-260.163 Z-5.97
X7.51 Y-260.203 Z-5.933
X7.559 Y-260.239 Z-5.883
X7.599 Y-260.268 Z-5.822
X7.629 Y-260.29 Z-5.753
X7.647 Y-260.304 Z-5.678
X7.653 Y-260.308 Z-5.6
Z15.5

M9
M5
M30
