(spindle_mount)
(Machine)
(  vendor: Autodesk)
(  model: Generic 3-axis)
(  description: This machine has XYZ axis on the Head)
(T1 D=4.76 CR=0 - ZMIN=-8 - flat end mill)
G90 G94
G17
G21
(-Attention- Property Safe Retracts is set to Clearance Height.)
(Ensure the clearance height will clear the part and or fixtures.)
(Raise the Z-axis to a safe height before starting the program.)
(When using Fusion for Personal Use, the feedrate of rapid)
(moves is reduced to match the feedrate of cutting moves,)
(which can increase machining time. Unrestricted rapid moves)
(are available with a Fusion Subscription.)

(2D Contour1)
T1
S14000 M3
G17 G90 G94
G54
M8
G0 X126.87 Y12.5
Z15
G1 Z5 F150
Z0.952 F50
Z-0.4
G3 X126.13 Y12.5 I-0.37 J0 F150
X126.87 Y12.5 I0.37 J0
G1 Z-0.8 F50
G3 X126.13 Y12.5 I-0.37 J0 F150
X126.87 Y12.5 I0.37 J0
G1 Z-1.2 F50
G3 X126.13 Y12.5 I-0.37 J0 F150
X126.87 Y12.5 I0.37 J0
G1 Z-1.6 F50
G3 X126.13 Y12.5 I-0.37 J0 F150
X126.87 Y12.5 I0.37 J0
G1 Z-2 F50
G3 X126.13 Y12.5 I-0.37 J0 F150
X126.87 Y12.5 I0.37 J0
G1 Z-2.4 F50
G3 X126.13 Y12.5 I-0.37 J0 F150
X126.87 Y12.5 I0.37 J0
G1 Z-2.8 F50
G3 X126.13 Y12.5 I-0.37 J0 F150
X126.87 Y12.5 I0.37 J0
G1 Z-3.2 F50
G3 X126.13 Y12.5 I-0.37 J0 F150
X126.87 Y12.5 I0.37 J0
G1 Z-3.6 F50
G3 X126.13 Y12.5 I-0.37 J0 F150
X126.87 Y12.5 I0.37 J0
G1 Z-4 F50
G3 X126.13 Y12.5 I-0.37 J0 F150
X126.87 Y12.5 I0.37 J0
G1 Z-4.4 F50
G3 X126.13 Y12.5 I-0.37 J0 F150
X126.87 Y12.5 I0.37 J0
G1 Z-4.8 F50
G3 X126.13 Y12.5 I-0.37 J0 F150
X126.87 Y12.5 I0.37 J0
G1 Z-5.2 F50
G3 X126.13 Y12.5 I-0.37 J0 F150
X126.87 Y12.5 I0.37 J0
G1 Z-5.6 F50
G3 X126.13 Y12.5 I-0.37 J0 F150
X126.87 Y12.5 I0.37 J0
G1 Z-6 F50
G3 X126.13 Y12.5 I-0.37 J0 F150
X126.87 Y12.5 I0.37 J0
G1 Z-6.4 F50
G3 X126.13 Y12.5 I-0.37 J0 F150
X126.87 Y12.5 I0.37 J0
G1 Z-6.8 F50
G3 X126.13 Y12.5 I-0.37 J0 F150
X126.87 Y12.5 I0.37 J0
G1 Z-7.2 F50
G3 X126.13 Y12.5 I-0.37 J0 F150
X126.87 Y12.5 I0.37 J0
G1 Z-7.6 F50
G3 X126.13 Y12.5 I-0.37 J0 F150
X126.87 Y12.5 I0.37 J0
G1 Z-8 F50
G3 X126.13 Y12.5 I-0.37 J0 F150
X126.87 Y12.5 I0.37 J0
G1 Z5
X138.17 Y10
Z0.952 F50
Z-0.4
G3 X136.83 Y10 I-0.67 J0 F150
X138.17 Y10 I0.67 J0
G1 Z-0.8 F50
G3 X136.83 Y10 I-0.67 J0 F150
X138.17 Y10 I0.67 J0
G1 Z-1.2 F50
G3 X136.83 Y10 I-0.67 J0 F150
X138.17 Y10 I0.67 J0
G1 Z-1.6 F50
G3 X136.83 Y10 I-0.67 J0 F150
X138.17 Y10 I0.67 J0
G1 Z-2 F50
G3 X136.83 Y10 I-0.67 J0 F150
X138.17 Y10 I0.67 J0
G1 Z-2.4 F50
G3 X136.83 Y10 I-0.67 J0 F150
X138.17 Y10 I0.67 J0
G1 Z-2.8 F50
G3 X136.83 Y10 I-0.67 J0 F150
X138.17 Y10 I0.67 J0
G1 Z-3.2 F50
G3 X136.83 Y10 I-0.67 J0 F150
X138.17 Y10 I0.67 J0
G1 Z-3.6 F50
G3 X136.83 Y10 I-0.67 J0 F150
X138.17 Y10 I0.67 J0
G1 Z-4 F50
G3 X136.83 Y10 I-0.67 J0 F150
X138.17 Y10 I0.67 J0
G1 Z-4.4 F50
G3 X136.83 Y10 I-0.67 J0 F150
X138.17 Y10 I0.67 J0
G1 Z-4.8 F50
G3 X136.83 Y10 I-0.67 J0 F150
X138.17 Y10 I0.67 J0
G1 Z-5.2 F50
G3 X136.83 Y10 I-0.67 J0 F150
X138.17 Y10 I0.67 J0
G1 Z-5.6 F50
G3 X136.83 Y10 I-0.67 J0 F150
X138.17 Y10 I0.67 J0
G1 Z-6 F50
G3 X136.83 Y10 I-0.67 J0 F150
X138.17 Y10 I0.67 J0
G1 Z-6.4 F50
G3 X136.83 Y10 I-0.67 J0 F150
X138.17 Y10 I0.67 J0
G1 Z-6.8 F50
G3 X136.83 Y10 I-0.67 J0 F150
X138.17 Y10 I0.67 J0
G1 Z-7.2 F50
G3 X136.83 Y10 I-0.67 J0 F150
X138.17 Y10 I0.67 J0
G1 Z-7.6 F50
G3 X136.83 Y10 I-0.67 J0 F150
X138.17 Y10 I0.67 J0
G1 Z-8 F50
G3 X136.83 Y10 I-0.67 J0 F150
X138.17 Y10 I0.67 J0
G1 Z5
Y50
Z0.952 F50
Z-0.4
G3 X136.83 Y50 I-0.67 J0 F150
X138.17 Y50 I0.67 J0
G1 Z-0.8 F50
G3 X136.83 Y50 I-0.67 J0 F150
X138.17 Y50 I0.67 J0
G1 Z-1.2 F50
G3 X136.83 Y50 I-0.67 J0 F150
X138.17 Y50 I0.67 J0
G1 Z-1.6 F50
G3 X136.83 Y50 I-0.67 J0 F150
X138.17 Y50 I0.67 J0
G1 Z-2 F50
G3 X136.83 Y50 I-0.67 J0 F150
X138.17 Y50 I0.67 J0
G1 Z-2.4 F50
G3 X136.83 Y50 I-0.67 J0 F150
X138.17 Y50 I0.67 J0
G1 Z-2.8 F50
G3 X136.83 Y50 I-0.67 J0 F150
X138.17 Y50 I0.67 J0
G1 Z-3.2 F50
G3 X136.83 Y50 I-0.67 J0 F150
X138.17 Y50 I0.67 J0
G1 Z-3.6 F50
G3 X136.83 Y50 I-0.67 J0 F150
X138.17 Y50 I0.67 J0
G1 Z-4 F50
G3 X136.83 Y50 I-0.67 J0 F150
X138.17 Y50 I0.67 J0
G1 Z-4.4 F50
G3 X136.83 Y50 I-0.67 J0 F150
X138.17 Y50 I0.67 J0
G1 Z-4.8 F50
G3 X136.83 Y50 I-0.67 J0 F150
X138.17 Y50 I0.67 J0
G1 Z-5.2 F50
G3 X136.83 Y50 I-0.67 J0 F150
X138.17 Y50 I0.67 J0
G1 Z-5.6 F50
G3 X136.83 Y50 I-0.67 J0 F150
X138.17 Y50 I0.67 J0
G1 Z-6 F50
G3 X136.83 Y50 I-0.67 J0 F150
X138.17 Y50 I0.67 J0
G1 Z-6.4 F50
G3 X136.83 Y50 I-0.67 J0 F150
X138.17 Y50 I0.67 J0
G1 Z-6.8 F50
G3 X136.83 Y50 I-0.67 J0 F150
X138.17 Y50 I0.67 J0
G1 Z-7.2 F50
G3 X136.83 Y50 I-0.67 J0 F150
X138.17 Y50 I0.67 J0
G1 Z-7.6 F50
G3 X136.83 Y50 I-0.67 J0 F150
X138.17 Y50 I0.67 J0
G1 Z-8 F50
G3 X136.83 Y50 I-0.67 J0 F150
X138.17 Y50 I0.67 J0
G1 Z5
X126.685 Y52.82
Z0.952 F50
Z-0.4
G3 X126.315 Y52.18 I-0.185 J-0.32 F150
X126.685 Y52.82 I0.185 J0.32
G1 Z-0.8 F50
G3 X126.315 Y52.18 I-0.185 J-0.32 F150
X126.685 Y52.82 I0.185 J0.32
G1 Z-1.2 F50
G3 X126.315 Y52.18 I-0.185 J-0.32 F150
X126.685 Y52.82 I0.185 J0.32
G1 Z-1.6 F50
G3 X126.315 Y52.18 I-0.185 J-0.32 F150
X126.685 Y52.82 I0.185 J0.32
G1 Z-2 F50
G3 X126.315 Y52.18 I-0.185 J-0.32 F150
X126.685 Y52.82 I0.185 J0.32
G1 Z-2.4 F50
G3 X126.315 Y52.18 I-0.185 J-0.32 F150
X126.685 Y52.82 I0.185 J0.32
G1 Z-2.8 F50
G3 X126.315 Y52.18 I-0.185 J-0.32 F150
X126.685 Y52.82 I0.185 J0.32
G1 Z-3.2 F50
G3 X126.315 Y52.18 I-0.185 J-0.32 F150
X126.685 Y52.82 I0.185 J0.32
G1 Z-3.6 F50
G3 X126.315 Y52.18 I-0.185 J-0.32 F150
X126.685 Y52.82 I0.185 J0.32
G1 Z-4 F50
G3 X126.315 Y52.18 I-0.185 J-0.32 F150
X126.685 Y52.82 I0.185 J0.32
G1 Z-4.4 F50
G3 X126.315 Y52.18 I-0.185 J-0.32 F150
X126.685 Y52.82 I0.185 J0.32
G1 Z-4.8 F50
G3 X126.315 Y52.18 I-0.185 J-0.32 F150
X126.685 Y52.82 I0.185 J0.32
G1 Z-5.2 F50
G3 X126.315 Y52.18 I-0.185 J-0.32 F150
X126.685 Y52.82 I0.185 J0.32
G1 Z-5.6 F50
G3 X126.315 Y52.18 I-0.185 J-0.32 F150
X126.685 Y52.82 I0.185 J0.32
G1 Z-6 F50
G3 X126.315 Y52.18 I-0.185 J-0.32 F150
X126.685 Y52.82 I0.185 J0.32
G1 Z-6.4 F50
G3 X126.315 Y52.18 I-0.185 J-0.32 F150
X126.685 Y52.82 I0.185 J0.32
G1 Z-6.8 F50
G3 X126.315 Y52.18 I-0.185 J-0.32 F150
X126.685 Y52.82 I0.185 J0.32
G1 Z-7.2 F50
G3 X126.315 Y52.18 I-0.185 J-0.32 F150
X126.685 Y52.82 I0.185 J0.32
G1 Z-7.6 F50
G3 X126.315 Y52.18 I-0.185 J-0.32 F150
X126.685 Y52.82 I0.185 J0.32
G1 Z-8 F50
G3 X126.315 Y52.18 I-0.185 J-0.32 F150
X126.685 Y52.82 I0.185 J0.32
G1 Z5
X23.685
Z0.952 F50
Z-0.4
G3 X23.315 Y52.18 I-0.185 J-0.32 F150
X23.685 Y52.82 I0.185 J0.32
G1 Z-0.8 F50
G3 X23.315 Y52.18 I-0.185 J-0.32 F150
X23.685 Y52.82 I0.185 J0.32
G1 Z-1.2 F50
G3 X23.315 Y52.18 I-0.185 J-0.32 F150
X23.685 Y52.82 I0.185 J0.32
G1 Z-1.6 F50
G3 X23.315 Y52.18 I-0.185 J-0.32 F150
X23.685 Y52.82 I0.185 J0.32
G1 Z-2 F50
G3 X23.315 Y52.18 I-0.185 J-0.32 F150
X23.685 Y52.82 I0.185 J0.32
G1 Z-2.4 F50
G3 X23.315 Y52.18 I-0.185 J-0.32 F150
X23.685 Y52.82 I0.185 J0.32
G1 Z-2.8 F50
G3 X23.315 Y52.18 I-0.185 J-0.32 F150
X23.685 Y52.82 I0.185 J0.32
G1 Z-3.2 F50
G3 X23.315 Y52.18 I-0.185 J-0.32 F150
X23.685 Y52.82 I0.185 J0.32
G1 Z-3.6 F50
G3 X23.315 Y52.18 I-0.185 J-0.32 F150
X23.685 Y52.82 I0.185 J0.32
G1 Z-4 F50
G3 X23.315 Y52.18 I-0.185 J-0.32 F150
X23.685 Y52.82 I0.185 J0.32
G1 Z-4.4 F50
G3 X23.315 Y52.18 I-0.185 J-0.32 F150
X23.685 Y52.82 I0.185 J0.32
G1 Z-4.8 F50
G3 X23.315 Y52.18 I-0.185 J-0.32 F150
X23.685 Y52.82 I0.185 J0.32
G1 Z-5.2 F50
G3 X23.315 Y52.18 I-0.185 J-0.32 F150
X23.685 Y52.82 I0.185 J0.32
G1 Z-5.6 F50
G3 X23.315 Y52.18 I-0.185 J-0.32 F150
X23.685 Y52.82 I0.185 J0.32
G1 Z-6 F50
G3 X23.315 Y52.18 I-0.185 J-0.32 F150
X23.685 Y52.82 I0.185 J0.32
G1 Z-6.4 F50
G3 X23.315 Y52.18 I-0.185 J-0.32 F150
X23.685 Y52.82 I0.185 J0.32
G1 Z-6.8 F50
G3 X23.315 Y52.18 I-0.185 J-0.32 F150
X23.685 Y52.82 I0.185 J0.32
G1 Z-7.2 F50
G3 X23.315 Y52.18 I-0.185 J-0.32 F150
X23.685 Y52.82 I0.185 J0.32
G1 Z-7.6 F50
G3 X23.315 Y52.18 I-0.185 J-0.32 F150
X23.685 Y52.82 I0.185 J0.32
G1 Z-8 F50
G3 X23.315 Y52.18 I-0.185 J-0.32 F150
X23.685 Y52.82 I0.185 J0.32
G1 Z5
X13.17 Y50
Z0.952 F50
Z-0.4
G3 X11.83 Y50 I-0.67 J0 F150
X13.17 Y50 I0.67 J0
G1 Z-0.8 F50
G3 X11.83 Y50 I-0.67 J0 F150
X13.17 Y50 I0.67 J0
G1 Z-1.2 F50
G3 X11.83 Y50 I-0.67 J0 F150
X13.17 Y50 I0.67 J0
G1 Z-1.6 F50
G3 X11.83 Y50 I-0.67 J0 F150
X13.17 Y50 I0.67 J0
G1 Z-2 F50
G3 X11.83 Y50 I-0.67 J0 F150
X13.17 Y50 I0.67 J0
G1 Z-2.4 F50
G3 X11.83 Y50 I-0.67 J0 F150
X13.17 Y50 I0.67 J0
G1 Z-2.8 F50
G3 X11.83 Y50 I-0.67 J0 F150
X13.17 Y50 I0.67 J0
G1 Z-3.2 F50
G3 X11.83 Y50 I-0.67 J0 F150
X13.17 Y50 I0.67 J0
G1 Z-3.6 F50
G3 X11.83 Y50 I-0.67 J0 F150
X13.17 Y50 I0.67 J0
G1 Z-4 F50
G3 X11.83 Y50 I-0.67 J0 F150
X13.17 Y50 I0.67 J0
G1 Z-4.4 F50
G3 X11.83 Y50 I-0.67 J0 F150
X13.17 Y50 I0.67 J0
G1 Z-4.8 F50
G3 X11.83 Y50 I-0.67 J0 F150
X13.17 Y50 I0.67 J0
G1 Z-5.2 F50
G3 X11.83 Y50 I-0.67 J0 F150
X13.17 Y50 I0.67 J0
G1 Z-5.6 F50
G3 X11.83 Y50 I-0.67 J0 F150
X13.17 Y50 I0.67 J0
G1 Z-6 F50
G3 X11.83 Y50 I-0.67 J0 F150
X13.17 Y50 I0.67 J0
G1 Z-6.4 F50
G3 X11.83 Y50 I-0.67 J0 F150
X13.17 Y50 I0.67 J0
G1 Z-6.8 F50
G3 X11.83 Y50 I-0.67 J0 F150
X13.17 Y50 I0.67 J0
G1 Z-7.2 F50
G3 X11.83 Y50 I-0.67 J0 F150
X13.17 Y50 I0.67 J0
G1 Z-7.6 F50
G3 X11.83 Y50 I-0.67 J0 F150
X13.17 Y50 I0.67 J0
G1 Z-8 F50
G3 X11.83 Y50 I-0.67 J0 F150
X13.17 Y50 I0.67 J0
G1 Z5
X23.685 Y12.82
Z0.952 F50
Z-0.4
G3 X23.315 Y12.18 I-0.185 J-0.32 F150
X23.685 Y12.82 I0.185 J0.32
G1 Z-0.8 F50
G3 X23.315 Y12.18 I-0.185 J-0.32 F150
X23.685 Y12.82 I0.185 J0.32
G1 Z-1.2 F50
G3 X23.315 Y12.18 I-0.185 J-0.32 F150
X23.685 Y12.82 I0.185 J0.32
G1 Z-1.6 F50
G3 X23.315 Y12.18 I-0.185 J-0.32 F150
X23.685 Y12.82 I0.185 J0.32
G1 Z-2 F50
G3 X23.315 Y12.18 I-0.185 J-0.32 F150
X23.685 Y12.82 I0.185 J0.32
G1 Z-2.4 F50
G3 X23.315 Y12.18 I-0.185 J-0.32 F150
X23.685 Y12.82 I0.185 J0.32
G1 Z-2.8 F50
G3 X23.315 Y12.18 I-0.185 J-0.32 F150
X23.685 Y12.82 I0.185 J0.32
G1 Z-3.2 F50
G3 X23.315 Y12.18 I-0.185 J-0.32 F150
X23.685 Y12.82 I0.185 J0.32
G1 Z-3.6 F50
G3 X23.315 Y12.18 I-0.185 J-0.32 F150
X23.685 Y12.82 I0.185 J0.32
G1 Z-4 F50
G3 X23.315 Y12.18 I-0.185 J-0.32 F150
X23.685 Y12.82 I0.185 J0.32
G1 Z-4.4 F50
G3 X23.315 Y12.18 I-0.185 J-0.32 F150
X23.685 Y12.82 I0.185 J0.32
G1 Z-4.8 F50
G3 X23.315 Y12.18 I-0.185 J-0.32 F150
X23.685 Y12.82 I0.185 J0.32
G1 Z-5.2 F50
G3 X23.315 Y12.18 I-0.185 J-0.32 F150
X23.685 Y12.82 I0.185 J0.32
G1 Z-5.6 F50
G3 X23.315 Y12.18 I-0.185 J-0.32 F150
X23.685 Y12.82 I0.185 J0.32
G1 Z-6 F50
G3 X23.315 Y12.18 I-0.185 J-0.32 F150
X23.685 Y12.82 I0.185 J0.32
G1 Z-6.4 F50
G3 X23.315 Y12.18 I-0.185 J-0.32 F150
X23.685 Y12.82 I0.185 J0.32
G1 Z-6.8 F50
G3 X23.315 Y12.18 I-0.185 J-0.32 F150
X23.685 Y12.82 I0.185 J0.32
G1 Z-7.2 F50
G3 X23.315 Y12.18 I-0.185 J-0.32 F150
X23.685 Y12.82 I0.185 J0.32
G1 Z-7.6 F50
G3 X23.315 Y12.18 I-0.185 J-0.32 F150
X23.685 Y12.82 I0.185 J0.32
G1 Z-8 F50
G3 X23.315 Y12.18 I-0.185 J-0.32 F150
X23.685 Y12.82 I0.185 J0.32
G1 Z5
X13.042 Y10.394
Z0.952 F50
Z-0.4
G3 X11.958 Y9.606 I-0.542 J-0.394 F150
X13.042 Y10.394 I0.542 J0.394
G1 Z-0.8 F50
G3 X11.958 Y9.606 I-0.542 J-0.394 F150
X13.042 Y10.394 I0.542 J0.394
G1 Z-1.2 F50
G3 X11.958 Y9.606 I-0.542 J-0.394 F150
X13.042 Y10.394 I0.542 J0.394
G1 Z-1.6 F50
G3 X11.958 Y9.606 I-0.542 J-0.394 F150
X13.042 Y10.394 I0.542 J0.394
G1 Z-2 F50
G3 X11.958 Y9.606 I-0.542 J-0.394 F150
X13.042 Y10.394 I0.542 J0.394
G1 Z-2.4 F50
G3 X11.958 Y9.606 I-0.542 J-0.394 F150
X13.042 Y10.394 I0.542 J0.394
G1 Z-2.8 F50
G3 X11.958 Y9.606 I-0.542 J-0.394 F150
X13.042 Y10.394 I0.542 J0.394
G1 Z-3.2 F50
G3 X11.958 Y9.606 I-0.542 J-0.394 F150
X13.042 Y10.394 I0.542 J0.394
G1 Z-3.6 F50
G3 X11.958 Y9.606 I-0.542 J-0.394 F150
X13.042 Y10.394 I0.542 J0.394
G1 Z-4 F50
G3 X11.958 Y9.606 I-0.542 J-0.394 F150
X13.042 Y10.394 I0.542 J0.394
G1 Z-4.4 F50
G3 X11.958 Y9.606 I-0.542 J-0.394 F150
X13.042 Y10.394 I0.542 J0.394
G1 Z-4.8 F50
G3 X11.958 Y9.606 I-0.542 J-0.394 F150
X13.042 Y10.394 I0.542 J0.394
G1 Z-5.2 F50
G3 X11.958 Y9.606 I-0.542 J-0.394 F150
X13.042 Y10.394 I0.542 J0.394
G1 Z-5.6 F50
G3 X11.958 Y9.606 I-0.542 J-0.394 F150
X13.042 Y10.394 I0.542 J0.394
G1 Z-6 F50
G3 X11.958 Y9.606 I-0.542 J-0.394 F150
X13.042 Y10.394 I0.542 J0.394
G1 Z-6.4 F50
G3 X11.958 Y9.606 I-0.542 J-0.394 F150
X13.042 Y10.394 I0.542 J0.394
G1 Z-6.8 F50
G3 X11.958 Y9.606 I-0.542 J-0.394 F150
X13.042 Y10.394 I0.542 J0.394
G1 Z-7.2 F50
G3 X11.958 Y9.606 I-0.542 J-0.394 F150
X13.042 Y10.394 I0.542 J0.394
G1 Z-7.6 F50
G3 X11.958 Y9.606 I-0.542 J-0.394 F150
X13.042 Y10.394 I0.542 J0.394
G1 Z-8 F50
G3 X11.958 Y9.606 I-0.542 J-0.394 F150
X13.042 Y10.394 I0.542 J0.394
G1 Z15
(When using Fusion for Personal Use, the feedrate of rapid)
(moves is reduced to match the feedrate of cutting moves,)
(which can increase machining time. Unrestricted rapid moves)
(are available with a Fusion Subscription.)

(2D Pocket1)
G0 X24.944 Y53.234
G1 Z15 F150
Z5
Z2.976 F50
X24.928 Y53.265 Z2.797
X24.879 Y53.351 Z2.645
X24.795 Y53.474 Z2.541
X24.74 Y53.543 Z2.52
X24.681 Y53.609 Z2.5
G3 X22.319 Y51.391 Z2.322 I-1.181 J-1.109
X24.681 Y53.609 Z2.145 I1.181 J1.109
X22.319 Y51.391 Z1.967 I-1.181 J-1.109
X24.681 Y53.609 Z1.789 I1.181 J1.109
X22.319 Y51.391 Z1.611 I-1.181 J-1.109
X24.681 Y53.609 Z1.434 I1.181 J1.109
X22.319 Y51.391 Z1.256 I-1.181 J-1.109
X24.681 Y53.609 Z1.078 I1.181 J1.109
X22.319 Y51.391 Z0.9 I-1.181 J-1.109
X24.681 Y53.609 Z0.723 I1.181 J1.109
X22.319 Y51.391 Z0.545 I-1.181 J-1.109
X24.681 Y53.609 Z0.367 I1.181 J1.109
X22.319 Y51.391 Z0.19 I-1.181 J-1.109
X24.681 Y53.609 Z0.012 I1.181 J1.109
X22.319 Y51.391 Z-0.166 I-1.181 J-1.109
X24.681 Y53.609 Z-0.344 I1.181 J1.109
X22.319 Y51.391 Z-0.521 I-1.181 J-1.109
X24.681 Y53.609 Z-0.699 I1.181 J1.109
X22.319 Y51.391 Z-0.877 I-1.181 J-1.109
X24.681 Y53.609 Z-1.055 I1.181 J1.109
X22.319 Y51.391 Z-1.232 I-1.181 J-1.109
X24.681 Y53.609 Z-1.41 I1.181 J1.109
X22.319 Y51.391 Z-1.588 I-1.181 J-1.109
X24.681 Y53.609 Z-1.765 I1.181 J1.109
X22.319 Y51.391 Z-1.943 I-1.181 J-1.109
X24.681 Y53.609 Z-2.121 I1.181 J1.109
X22.319 Y51.391 Z-2.299 I-1.181 J-1.109
X24.681 Y53.609 Z-2.476 I1.181 J1.109
X22.319 Y51.391 Z-2.654 I-1.181 J-1.109
X24.681 Y53.609 Z-2.832 I1.181 J1.109
X22.319 Y51.391 Z-3.009 I-1.181 J-1.109
X24.681 Y53.609 Z-3.187 I1.181 J1.109
X22.319 Y51.391 Z-3.365 I-1.181 J-1.109
X25.12 Y52.5 Z-3.5 I1.181 J1.109
X21.88 Y52.5 I-1.62 J0 F150
X25.12 Y52.5 I1.62 J0
G1 X25.116 Y52.561 Z-3.488
X25.105 Y52.62 Z-3.476
X25.086 Y52.678 Z-3.464
X25.051 Y52.747 Z-3.412
X25.006 Y52.809 Z-3.361
X24.97 Y52.847 Z-3.283
X24.931 Y52.88 Z-3.206
X24.901 Y52.901 Z-3.024
Z15
X24.944 Y13.234
Z5
Z2.976 F50
X24.928 Y13.265 Z2.797
X24.879 Y13.351 Z2.645
X24.795 Y13.474 Z2.541
X24.74 Y13.543 Z2.52
X24.681 Y13.609 Z2.5
G3 X22.319 Y11.391 Z2.322 I-1.181 J-1.109
X24.681 Y13.609 Z2.145 I1.181 J1.109
X22.319 Y11.391 Z1.967 I-1.181 J-1.109
X24.681 Y13.609 Z1.789 I1.181 J1.109
X22.319 Y11.391 Z1.611 I-1.181 J-1.109
X24.681 Y13.609 Z1.434 I1.181 J1.109
X22.319 Y11.391 Z1.256 I-1.181 J-1.109
X24.681 Y13.609 Z1.078 I1.181 J1.109
X22.319 Y11.391 Z0.9 I-1.181 J-1.109
X24.681 Y13.609 Z0.723 I1.181 J1.109
X22.319 Y11.391 Z0.545 I-1.181 J-1.109
X24.681 Y13.609 Z0.367 I1.181 J1.109
X22.319 Y11.391 Z0.19 I-1.181 J-1.109
X24.681 Y13.609 Z0.012 I1.181 J1.109
X22.319 Y11.391 Z-0.166 I-1.181 J-1.109
X24.681 Y13.609 Z-0.344 I1.181 J1.109
X22.319 Y11.391 Z-0.521 I-1.181 J-1.109
X24.681 Y13.609 Z-0.699 I1.181 J1.109
X22.319 Y11.391 Z-0.877 I-1.181 J-1.109
X24.681 Y13.609 Z-1.055 I1.181 J1.109
X22.319 Y11.391 Z-1.232 I-1.181 J-1.109
X24.681 Y13.609 Z-1.41 I1.181 J1.109
X22.319 Y11.391 Z-1.588 I-1.181 J-1.109
X24.681 Y13.609 Z-1.765 I1.181 J1.109
X22.319 Y11.391 Z-1.943 I-1.181 J-1.109
X24.681 Y13.609 Z-2.121 I1.181 J1.109
X22.319 Y11.391 Z-2.299 I-1.181 J-1.109
X24.681 Y13.609 Z-2.476 I1.181 J1.109
X22.319 Y11.391 Z-2.654 I-1.181 J-1.109
X24.681 Y13.609 Z-2.832 I1.181 J1.109
X22.319 Y11.391 Z-3.009 I-1.181 J-1.109
X24.681 Y13.609 Z-3.187 I1.181 J1.109
X22.319 Y11.391 Z-3.365 I-1.181 J-1.109
X25.12 Y12.5 Z-3.5 I1.181 J1.109
X21.88 Y12.5 I-1.62 J0 F150
X25.12 Y12.5 I1.62 J0
G1 X25.116 Y12.561 Z-3.488
X25.105 Y12.62 Z-3.476
X25.086 Y12.678 Z-3.464
X25.051 Y12.747 Z-3.412
X25.006 Y12.809 Z-3.361
X24.97 Y12.847 Z-3.283
X24.931 Y12.88 Z-3.206
X24.901 Y12.901 Z-3.024
Z15
X127.944 Y13.234
Z5
Z2.976 F50
X127.928 Y13.265 Z2.797
X127.879 Y13.351 Z2.645
X127.795 Y13.474 Z2.541
X127.74 Y13.543 Z2.52
X127.681 Y13.609 Z2.5
G3 X125.319 Y11.391 Z2.322 I-1.181 J-1.109
X127.681 Y13.609 Z2.145 I1.181 J1.109
X125.319 Y11.391 Z1.967 I-1.181 J-1.109
X127.681 Y13.609 Z1.789 I1.181 J1.109
X125.319 Y11.391 Z1.611 I-1.181 J-1.109
X127.681 Y13.609 Z1.434 I1.181 J1.109
X125.319 Y11.391 Z1.256 I-1.181 J-1.109
X127.681 Y13.609 Z1.078 I1.181 J1.109
X125.319 Y11.391 Z0.9 I-1.181 J-1.109
X127.681 Y13.609 Z0.723 I1.181 J1.109
X125.319 Y11.391 Z0.545 I-1.181 J-1.109
X127.681 Y13.609 Z0.367 I1.181 J1.109
X125.319 Y11.391 Z0.19 I-1.181 J-1.109
X127.681 Y13.609 Z0.012 I1.181 J1.109
X125.319 Y11.391 Z-0.166 I-1.181 J-1.109
X127.681 Y13.609 Z-0.344 I1.181 J1.109
X125.319 Y11.391 Z-0.521 I-1.181 J-1.109
X127.681 Y13.609 Z-0.699 I1.181 J1.109
X125.319 Y11.391 Z-0.877 I-1.181 J-1.109
X127.681 Y13.609 Z-1.055 I1.181 J1.109
X125.319 Y11.391 Z-1.232 I-1.181 J-1.109
X127.681 Y13.609 Z-1.41 I1.181 J1.109
X125.319 Y11.391 Z-1.588 I-1.181 J-1.109
X127.681 Y13.609 Z-1.765 I1.181 J1.109
X125.319 Y11.391 Z-1.943 I-1.181 J-1.109
X127.681 Y13.609 Z-2.121 I1.181 J1.109
X125.319 Y11.391 Z-2.299 I-1.181 J-1.109
X127.681 Y13.609 Z-2.476 I1.181 J1.109
X125.319 Y11.391 Z-2.654 I-1.181 J-1.109
X127.681 Y13.609 Z-2.832 I1.181 J1.109
X125.319 Y11.391 Z-3.009 I-1.181 J-1.109
X127.681 Y13.609 Z-3.187 I1.181 J1.109
X125.319 Y11.391 Z-3.365 I-1.181 J-1.109
X128.12 Y12.5 Z-3.5 I1.181 J1.109
X124.88 Y12.5 I-1.62 J0 F150
X128.12 Y12.5 I1.62 J0
G1 X128.116 Y12.561 Z-3.488
X128.105 Y12.62 Z-3.476
X128.086 Y12.678 Z-3.464
X128.051 Y12.747 Z-3.412
X128.006 Y12.809 Z-3.361
X127.97 Y12.847 Z-3.283
X127.931 Y12.88 Z-3.206
X127.901 Y12.901 Z-3.024
Z15
X127.944 Y53.234
Z5
Z2.976 F50
X127.928 Y53.265 Z2.797
X127.879 Y53.351 Z2.645
X127.795 Y53.474 Z2.541
X127.74 Y53.543 Z2.52
X127.681 Y53.609 Z2.5
G3 X125.319 Y51.391 Z2.322 I-1.181 J-1.109
X127.681 Y53.609 Z2.145 I1.181 J1.109
X125.319 Y51.391 Z1.967 I-1.181 J-1.109
X127.681 Y53.609 Z1.789 I1.181 J1.109
X125.319 Y51.391 Z1.611 I-1.181 J-1.109
X127.681 Y53.609 Z1.434 I1.181 J1.109
X125.319 Y51.391 Z1.256 I-1.181 J-1.109
X127.681 Y53.609 Z1.078 I1.181 J1.109
X125.319 Y51.391 Z0.9 I-1.181 J-1.109
X127.681 Y53.609 Z0.723 I1.181 J1.109
X125.319 Y51.391 Z0.545 I-1.181 J-1.109
X127.681 Y53.609 Z0.367 I1.181 J1.109
X125.319 Y51.391 Z0.19 I-1.181 J-1.109
X127.681 Y53.609 Z0.012 I1.181 J1.109
X125.319 Y51.391 Z-0.166 I-1.181 J-1.109
X127.681 Y53.609 Z-0.344 I1.181 J1.109
X125.319 Y51.391 Z-0.521 I-1.181 J-1.109
X127.681 Y53.609 Z-0.699 I1.181 J1.109
X125.319 Y51.391 Z-0.877 I-1.181 J-1.109
X127.681 Y53.609 Z-1.055 I1.181 J1.109
X125.319 Y51.391 Z-1.232 I-1.181 J-1.109
X127.681 Y53.609 Z-1.41 I1.181 J1.109
X125.319 Y51.391 Z-1.588 I-1.181 J-1.109
X127.681 Y53.609 Z-1.765 I1.181 J1.109
X125.319 Y51.391 Z-1.943 I-1.181 J-1.109
X127.681 Y53.609 Z-2.121 I1.181 J1.109
X125.319 Y51.391 Z-2.299 I-1.181 J-1.109
X127.681 Y53.609 Z-2.476 I1.181 J1.109
X125.319 Y51.391 Z-2.654 I-1.181 J-1.109
X127.681 Y53.609 Z-2.832 I1.181 J1.109
X125.319 Y51.391 Z-3.009 I-1.181 J-1.109
X127.681 Y53.609 Z-3.187 I1.181 J1.109
X125.319 Y51.391 Z-3.365 I-1.181 J-1.109
X128.12 Y52.5 Z-3.5 I1.181 J1.109
X124.88 Y52.5 I-1.62 J0 F150
X128.12 Y52.5 I1.62 J0
G1 X128.116 Y52.561 Z-3.488
X128.105 Y52.62 Z-3.476
X128.086 Y52.678 Z-3.464
X128.051 Y52.747 Z-3.412
X128.006 Y52.809 Z-3.361
X127.97 Y52.847 Z-3.283
X127.931 Y52.88 Z-3.206
X127.901 Y52.901 Z-3.024
Z15
(When using Fusion for Personal Use, the feedrate of rapid)
(moves is reduced to match the feedrate of cutting moves,)
(which can increase machining time. Unrestricted rapid moves)
(are available with a Fusion Subscription.)

(2D Contour2)
G0 X-0.476 Y68.808
G1 Z15 F150
Z5
Z0.952 F50
Z0.076
G19 G2 Y68.332 Z-0.4 J-0.476 K0
G1 Y67.856
G17 G3 X0 Y67.38 I0.476 J0
G1 X150 F150
G2 X152.38 Y65 I0 J-2.38
G1 Y0
G2 X150 Y-2.38 I-2.38 J0
G1 X0
G2 X-2.38 Y0 I0 J2.38
G1 Y65
G2 X0 Y67.38 I2.38 J0
G3 X0.476 Y67.856 I0 J0.476
G1 Y68.332
G19 G3 Y68.808 Z0.076 J0 K0.476
G1 Z5
X-0.476
Z0.552 F50
Z-0.324
G2 Y68.332 Z-0.8 J-0.476 K0
G1 Y67.856
G17 G3 X0 Y67.38 I0.476 J0
G1 X150 F150
G2 X152.38 Y65 I0 J-2.38
G1 Y0
G2 X150 Y-2.38 I-2.38 J0
G1 X0
G2 X-2.38 Y0 I0 J2.38
G1 Y65
G2 X0 Y67.38 I2.38 J0
G3 X0.476 Y67.856 I0 J0.476
G1 Y68.332
G19 G3 Y68.808 Z-0.324 J0 K0.476
G1 Z5
X-0.476
Z0.152 F50
Z-0.724
G2 Y68.332 Z-1.2 J-0.476 K0
G1 Y67.856
G17 G3 X0 Y67.38 I0.476 J0
G1 X150 F150
G2 X152.38 Y65 I0 J-2.38
G1 Y0
G2 X150 Y-2.38 I-2.38 J0
G1 X0
G2 X-2.38 Y0 I0 J2.38
G1 Y65
G2 X0 Y67.38 I2.38 J0
G3 X0.476 Y67.856 I0 J0.476
G1 Y68.332
G19 G3 Y68.808 Z-0.724 J0 K0.476
G1 Z5
X-0.476
Z-0.248 F50
Z-1.124
G2 Y68.332 Z-1.6 J-0.476 K0
G1 Y67.856
G17 G3 X0 Y67.38 I0.476 J0
G1 X150 F150
G2 X152.38 Y65 I0 J-2.38
G1 Y0
G2 X150 Y-2.38 I-2.38 J0
G1 X0
G2 X-2.38 Y0 I0 J2.38
G1 Y65
G2 X0 Y67.38 I2.38 J0
G3 X0.476 Y67.856 I0 J0.476
G1 Y68.332
G19 G3 Y68.808 Z-1.124 J0 K0.476
G1 Z5
X-0.476
Z-0.648 F50
Z-1.524
G2 Y68.332 Z-2 J-0.476 K0
G1 Y67.856
G17 G3 X0 Y67.38 I0.476 J0
G1 X150 F150
G2 X152.38 Y65 I0 J-2.38
G1 Y0
G2 X150 Y-2.38 I-2.38 J0
G1 X0
G2 X-2.38 Y0 I0 J2.38
G1 Y65
G2 X0 Y67.38 I2.38 J0
G3 X0.476 Y67.856 I0 J0.476
G1 Y68.332
G19 G3 Y68.808 Z-1.524 J0 K0.476
G1 Z5
X-0.476
Z-1.048 F50
Z-1.924
G2 Y68.332 Z-2.4 J-0.476 K0
G1 Y67.856
G17 G3 X0 Y67.38 I0.476 J0
G1 X150 F150
G2 X152.38 Y65 I0 J-2.38
G1 Y0
G2 X150 Y-2.38 I-2.38 J0
G1 X0
G2 X-2.38 Y0 I0 J2.38
G1 Y65
G2 X0 Y67.38 I2.38 J0
G3 X0.476 Y67.856 I0 J0.476
G1 Y68.332
G19 G3 Y68.808 Z-1.924 J0 K0.476
G1 Z5
X-0.476
Z-1.448 F50
Z-2.324
G2 Y68.332 Z-2.8 J-0.476 K0
G1 Y67.856
G17 G3 X0 Y67.38 I0.476 J0
G1 X150 F150
G2 X152.38 Y65 I0 J-2.38
G1 Y0
G2 X150 Y-2.38 I-2.38 J0
G1 X0
G2 X-2.38 Y0 I0 J2.38
G1 Y65
G2 X0 Y67.38 I2.38 J0
G3 X0.476 Y67.856 I0 J0.476
G1 Y68.332
G19 G3 Y68.808 Z-2.324 J0 K0.476
G1 Z5
X-0.476
Z-1.848 F50
Z-2.724
G2 Y68.332 Z-3.2 J-0.476 K0
G1 Y67.856
G17 G3 X0 Y67.38 I0.476 J0
G1 X150 F150
G2 X152.38 Y65 I0 J-2.38
G1 Y0
G2 X150 Y-2.38 I-2.38 J0
G1 X0
G2 X-2.38 Y0 I0 J2.38
G1 Y65
G2 X0 Y67.38 I2.38 J0
G3 X0.476 Y67.856 I0 J0.476
G1 Y68.332
G19 G3 Y68.808 Z-2.724 J0 K0.476
G1 Z5
X-0.476
Z-2.248 F50
Z-3.124
G2 Y68.332 Z-3.6 J-0.476 K0
G1 Y67.856
G17 G3 X0 Y67.38 I0.476 J0
G1 X150 F150
G2 X152.38 Y65 I0 J-2.38
G1 Y0
G2 X150 Y-2.38 I-2.38 J0
G1 X0
G2 X-2.38 Y0 I0 J2.38
G1 Y65
G2 X0 Y67.38 I2.38 J0
G3 X0.476 Y67.856 I0 J0.476
G1 Y68.332
G19 G3 Y68.808 Z-3.124 J0 K0.476
G1 Z5
X-0.476
Z-2.648 F50
Z-3.524
G2 Y68.332 Z-4 J-0.476 K0
G1 Y67.856
G17 G3 X0 Y67.38 I0.476 J0
G1 X150 F150
G2 X152.38 Y65 I0 J-2.38
G1 Y0
G2 X150 Y-2.38 I-2.38 J0
G1 X0
G2 X-2.38 Y0 I0 J2.38
G1 Y65
G2 X0 Y67.38 I2.38 J0
G3 X0.476 Y67.856 I0 J0.476
G1 Y68.332
G19 G3 Y68.808 Z-3.524 J0 K0.476
G1 Z5
X-0.476
Z-3.048 F50
Z-3.924
G2 Y68.332 Z-4.4 J-0.476 K0
G1 Y67.856
G17 G3 X0 Y67.38 I0.476 J0
G1 X150 F150
G2 X152.38 Y65 I0 J-2.38
G1 Y0
G2 X150 Y-2.38 I-2.38 J0
G1 X0
G2 X-2.38 Y0 I0 J2.38
G1 Y65
G2 X0 Y67.38 I2.38 J0
G3 X0.476 Y67.856 I0 J0.476
G1 Y68.332
G19 G3 Y68.808 Z-3.924 J0 K0.476
G1 Z5
X-0.476
Z-3.448 F50
Z-4.324
G2 Y68.332 Z-4.8 J-0.476 K0
G1 Y67.856
G17 G3 X0 Y67.38 I0.476 J0
G1 X150 F150
G2 X152.38 Y65 I0 J-2.38
G1 Y0
G2 X150 Y-2.38 I-2.38 J0
G1 X0
G2 X-2.38 Y0 I0 J2.38
G1 Y65
G2 X0 Y67.38 I2.38 J0
G3 X0.476 Y67.856 I0 J0.476
G1 Y68.332
G19 G3 Y68.808 Z-4.324 J0 K0.476
G1 Z5
X-0.476
Z-3.848 F50
Z-4.724
G2 Y68.332 Z-5.2 J-0.476 K0
G1 Y67.856
G17 G3 X0 Y67.38 I0.476 J0
G1 X150 F150
G2 X152.38 Y65 I0 J-2.38
G1 Y0
G2 X150 Y-2.38 I-2.38 J0
G1 X0
G2 X-2.38 Y0 I0 J2.38
G1 Y65
G2 X0 Y67.38 I2.38 J0
G3 X0.476 Y67.856 I0 J0.476
G1 Y68.332
G19 G3 Y68.808 Z-4.724 J0 K0.476
G1 Z5
X-0.476
Z-4.248 F50
Z-5.124
G2 Y68.332 Z-5.6 J-0.476 K0
G1 Y67.856
G17 G3 X0 Y67.38 I0.476 J0
G1 X150 F150
G2 X152.38 Y65 I0 J-2.38
G1 Y0
G2 X150 Y-2.38 I-2.38 J0
G1 X0
G2 X-2.38 Y0 I0 J2.38
G1 Y65
G2 X0 Y67.38 I2.38 J0
G3 X0.476 Y67.856 I0 J0.476
G1 Y68.332
G19 G3 Y68.808 Z-5.124 J0 K0.476
G1 Z5
X-0.476
Z-4.648 F50
Z-5.524
G2 Y68.332 Z-6 J-0.476 K0
G1 Y67.856
G17 G3 X0 Y67.38 I0.476 J0
G1 X150 F150
G2 X152.38 Y65 I0 J-2.38
G1 Y0
G2 X150 Y-2.38 I-2.38 J0
G1 X0
G2 X-2.38 Y0 I0 J2.38
G1 Y65
G2 X0 Y67.38 I2.38 J0
G3 X0.476 Y67.856 I0 J0.476
G1 Y68.332
G19 G3 Y68.808 Z-5.524 J0 K0.476
G1 Z5
X-0.476
Z-5.048 F50
Z-5.924
G2 Y68.332 Z-6.4 J-0.476 K0
G1 Y67.856
G17 G3 X0 Y67.38 I0.476 J0
G1 X150 F150
G2 X152.38 Y65 I0 J-2.38
G1 Y0
G2 X150 Y-2.38 I-2.38 J0
G1 X0
G2 X-2.38 Y0 I0 J2.38
G1 Y65
G2 X0 Y67.38 I2.38 J0
G3 X0.476 Y67.856 I0 J0.476
G1 Y68.332
G19 G3 Y68.808 Z-5.924 J0 K0.476
G1 Z5
X-0.476
Z-5.448 F50
Z-6.324
G2 Y68.332 Z-6.8 J-0.476 K0
G1 Y67.856
G17 G3 X0 Y67.38 I0.476 J0
G1 X150 F150
G2 X152.38 Y65 I0 J-2.38
G1 Y0
G2 X150 Y-2.38 I-2.38 J0
G1 X0
G2 X-2.38 Y0 I0 J2.38
G1 Y65
G2 X0 Y67.38 I2.38 J0
G3 X0.476 Y67.856 I0 J0.476
G1 Y68.332
G19 G3 Y68.808 Z-6.324 J0 K0.476
G1 Z5
X-0.476
Z-5.848 F50
Z-6.724
G2 Y68.332 Z-7.2 J-0.476 K0
G1 Y67.856
G17 G3 X0 Y67.38 I0.476 J0
G1 X150 F150
G2 X152.38 Y65 I0 J-2.38
G1 Y0
G2 X150 Y-2.38 I-2.38 J0
G1 X0
G2 X-2.38 Y0 I0 J2.38
G1 Y65
G2 X0 Y67.38 I2.38 J0
G3 X0.476 Y67.856 I0 J0.476
G1 Y68.332
G19 G3 Y68.808 Z-6.724 J0 K0.476
G1 Z5
X-0.476
Z-6.248 F50
Z-7.124
G2 Y68.332 Z-7.6 J-0.476 K0
G1 Y67.856
G17 G3 X0 Y67.38 I0.476 J0
G1 X150 F150
G2 X152.38 Y65 I0 J-2.38
G1 Y0
G2 X150 Y-2.38 I-2.38 J0
G1 X0
G2 X-2.38 Y0 I0 J2.38
G1 Y65
G2 X0 Y67.38 I2.38 J0
G3 X0.476 Y67.856 I0 J0.476
G1 Y68.332
G19 G3 Y68.808 Z-7.124 J0 K0.476
G1 Z5
X-0.476
Z-6.648 F50
Z-7.524
G2 Y68.332 Z-8 J-0.476 K0
G1 Y67.856
G17 G3 X0 Y67.38 I0.476 J0
G1 X150 F150
G2 X152.38 Y65 I0 J-2.38
G1 Y0
G2 X150 Y-2.38 I-2.38 J0
G1 X0
G2 X-2.38 Y0 I0 J2.38
G1 Y65
G2 X0 Y67.38 I2.38 J0
G3 X0.476 Y67.856 I0 J0.476
G1 Y68.332
G19 G3 Y68.808 Z-7.524 J0 K0.476
G1 Z15
G17

M9
M5
M30
