(spindle_mount)
(Machine)
(  vendor: Autodesk)
(  model: Generic 3-axis)
(  description: This machine has XY axis on the Table and Z axis on the Head)
(T3 D=3.1 CR=0 - ZMIN=-6.2 - flat end mill)
G90 G94
G17
G21
(-Attention- Property Safe Retracts is set to Clearance Height.)
(Ensure the clearance height will clear the part and or fixtures.)
(Raise the Z-axis to a safe height before starting the program.)
(When using Fusion for Personal Use, the feedrate of rapid)
(moves is reduced to match the feedrate of cutting moves,)
(which can increase machining time. Unrestricted rapid moves)
(are available with a Fusion Subscription.)

(Bore1)
T3
S18000 M3
G17 G90 G94
G54
M8
G0 X125.7 Y7.293
Z15
G1 Z2 F300
Z0.31 F100
G18 G2 X126.01 Z0 I0.31 K0
G1 X126.165
G17 G3 X126.475 Y7.603 I0 J0.31
X123.525 Y7.603 Z-0.318 I-1.475 J0 F300
X126.475 Y7.603 Z-0.636 I1.475 J0
X123.525 Y7.603 Z-0.954 I-1.475 J0
X126.475 Y7.603 Z-1.272 I1.475 J0
X123.525 Y7.603 Z-1.59 I-1.475 J0
X126.475 Y7.603 Z-1.908 I1.475 J0
X123.525 Y7.603 Z-2.226 I-1.475 J0
X126.475 Y7.603 Z-2.544 I1.475 J0
X123.525 Y7.603 Z-2.861 I-1.475 J0
X126.475 Y7.603 Z-3.179 I1.475 J0
X123.525 Y7.603 Z-3.497 I-1.475 J0
X126.475 Y7.603 Z-3.815 I1.475 J0
X123.525 Y7.603 Z-4.133 I-1.475 J0
X126.475 Y7.603 Z-4.451 I1.475 J0
X123.525 Y7.603 Z-4.769 I-1.475 J0
X126.475 Y7.603 Z-5.087 I1.475 J0
X123.525 Y7.603 Z-5.405 I-1.475 J0
X126.475 Y7.603 Z-5.723 I1.475 J0
X123.525 Y7.603 Z-6.041 I-1.475 J0
X125.002 Y6.128 Z-6.2 I1.475 J0
X124.998 Y9.078 I-0.002 J1.475
X125.002 Y6.128 I0.002 J-1.475
X125.312 Y6.438 I-0.001 J0.31 F100
G1 Y6.593
Y6.662 Z-6.192
X125.311 Y6.728 Z-6.169
Y6.787 Z-6.132
Y6.836 Z-6.083
Y6.873 Z-6.025
Y6.896 Z-5.959
Y6.903 Z-5.89
Z5 F300
X138.2 Y14.69
Z2
Z0.31 F100
G18 G2 X138.51 Z0 I0.31 K0
G1 X138.665
G17 G3 X138.975 Y15 I0 J0.31
X136.025 Y15 Z-0.318 I-1.475 J0 F300
X138.975 Y15 Z-0.636 I1.475 J0
X136.025 Y15 Z-0.954 I-1.475 J0
X138.975 Y15 Z-1.272 I1.475 J0
X136.025 Y15 Z-1.59 I-1.475 J0
X138.975 Y15 Z-1.908 I1.475 J0
X136.025 Y15 Z-2.226 I-1.475 J0
X138.975 Y15 Z-2.544 I1.475 J0
X136.025 Y15 Z-2.861 I-1.475 J0
X138.975 Y15 Z-3.179 I1.475 J0
X136.025 Y15 Z-3.497 I-1.475 J0
X138.975 Y15 Z-3.815 I1.475 J0
X136.025 Y15 Z-4.133 I-1.475 J0
X138.975 Y15 Z-4.451 I1.475 J0
X136.025 Y15 Z-4.769 I-1.475 J0
X138.975 Y15 Z-5.087 I1.475 J0
X136.025 Y15 Z-5.405 I-1.475 J0
X138.975 Y15 Z-5.723 I1.475 J0
X136.025 Y15 Z-6.041 I-1.475 J0
X137.502 Y13.525 Z-6.2 I1.475 J0
X137.498 Y16.475 I-0.002 J1.475
X137.502 Y13.525 I0.002 J-1.475
X137.812 Y13.836 I-0.001 J0.31 F100
G1 Y13.991
Y14.059 Z-6.192
X137.811 Y14.125 Z-6.169
Y14.184 Z-6.132
Y14.233 Z-6.083
Y14.27 Z-6.025
Y14.293 Z-5.959
Y14.301 Z-5.89
Z5 F300
X138.2 Y54.69
Z2
Z0.31 F100
G18 G2 X138.51 Z0 I0.31 K0
G1 X138.665
G17 G3 X138.975 Y55 I0 J0.31
X136.025 Y55 Z-0.318 I-1.475 J0 F300
X138.975 Y55 Z-0.636 I1.475 J0
X136.025 Y55 Z-0.954 I-1.475 J0
X138.975 Y55 Z-1.272 I1.475 J0
X136.025 Y55 Z-1.59 I-1.475 J0
X138.975 Y55 Z-1.908 I1.475 J0
X136.025 Y55 Z-2.226 I-1.475 J0
X138.975 Y55 Z-2.544 I1.475 J0
X136.025 Y55 Z-2.861 I-1.475 J0
X138.975 Y55 Z-3.179 I1.475 J0
X136.025 Y55 Z-3.497 I-1.475 J0
X138.975 Y55 Z-3.815 I1.475 J0
X136.025 Y55 Z-4.133 I-1.475 J0
X138.975 Y55 Z-4.451 I1.475 J0
X136.025 Y55 Z-4.769 I-1.475 J0
X138.975 Y55 Z-5.087 I1.475 J0
X136.025 Y55 Z-5.405 I-1.475 J0
X138.975 Y55 Z-5.723 I1.475 J0
X136.025 Y55 Z-6.041 I-1.475 J0
X137.502 Y53.525 Z-6.2 I1.475 J0
X137.498 Y56.475 I-0.002 J1.475
X137.502 Y53.525 I0.002 J-1.475
X137.812 Y53.836 I-0.001 J0.31 F100
G1 Y53.991
Y54.059 Z-6.192
X137.811 Y54.125 Z-6.169
Y54.184 Z-6.132
Y54.233 Z-6.083
Y54.27 Z-6.025
Y54.293 Z-5.959
Y54.301 Z-5.89
Z5 F300
X125.7 Y57.293
Z2
Z0.31 F100
G18 G2 X126.01 Z0 I0.31 K0
G1 X126.165
G17 G3 X126.475 Y57.603 I0 J0.31
X123.525 Y57.603 Z-0.318 I-1.475 J0 F300
X126.475 Y57.603 Z-0.636 I1.475 J0
X123.525 Y57.603 Z-0.954 I-1.475 J0
X126.475 Y57.603 Z-1.272 I1.475 J0
X123.525 Y57.603 Z-1.59 I-1.475 J0
X126.475 Y57.603 Z-1.908 I1.475 J0
X123.525 Y57.603 Z-2.226 I-1.475 J0
X126.475 Y57.603 Z-2.544 I1.475 J0
X123.525 Y57.603 Z-2.861 I-1.475 J0
X126.475 Y57.603 Z-3.179 I1.475 J0
X123.525 Y57.603 Z-3.497 I-1.475 J0
X126.475 Y57.603 Z-3.815 I1.475 J0
X123.525 Y57.603 Z-4.133 I-1.475 J0
X126.475 Y57.603 Z-4.451 I1.475 J0
X123.525 Y57.603 Z-4.769 I-1.475 J0
X126.475 Y57.603 Z-5.087 I1.475 J0
X123.525 Y57.603 Z-5.405 I-1.475 J0
X126.475 Y57.603 Z-5.723 I1.475 J0
X123.525 Y57.603 Z-6.041 I-1.475 J0
X125.002 Y56.128 Z-6.2 I1.475 J0
X124.998 Y59.078 I-0.002 J1.475
X125.002 Y56.128 I0.002 J-1.475
X125.312 Y56.438 I-0.001 J0.31 F100
G1 Y56.593
Y56.662 Z-6.192
X125.311 Y56.728 Z-6.169
Y56.787 Z-6.132
Y56.836 Z-6.083
Y56.873 Z-6.025
Y56.896 Z-5.959
Y56.903 Z-5.89
Z5 F300
X25.7 Y57.293
Z2
Z0.31 F100
G18 G2 X26.01 Z0 I0.31 K0
G1 X26.165
G17 G3 X26.475 Y57.603 I0 J0.31
X23.525 Y57.603 Z-0.318 I-1.475 J0 F300
X26.475 Y57.603 Z-0.636 I1.475 J0
X23.525 Y57.603 Z-0.954 I-1.475 J0
X26.475 Y57.603 Z-1.272 I1.475 J0
X23.525 Y57.603 Z-1.59 I-1.475 J0
X26.475 Y57.603 Z-1.908 I1.475 J0
X23.525 Y57.603 Z-2.226 I-1.475 J0
X26.475 Y57.603 Z-2.544 I1.475 J0
X23.525 Y57.603 Z-2.861 I-1.475 J0
X26.475 Y57.603 Z-3.179 I1.475 J0
X23.525 Y57.603 Z-3.497 I-1.475 J0
X26.475 Y57.603 Z-3.815 I1.475 J0
X23.525 Y57.603 Z-4.133 I-1.475 J0
X26.475 Y57.603 Z-4.451 I1.475 J0
X23.525 Y57.603 Z-4.769 I-1.475 J0
X26.475 Y57.603 Z-5.087 I1.475 J0
X23.525 Y57.603 Z-5.405 I-1.475 J0
X26.475 Y57.603 Z-5.723 I1.475 J0
X23.525 Y57.603 Z-6.041 I-1.475 J0
X25.002 Y56.128 Z-6.2 I1.475 J0
X24.998 Y59.078 I-0.002 J1.475
X25.002 Y56.128 I0.002 J-1.475
X25.312 Y56.438 I-0.001 J0.31 F100
G1 Y56.593
Y56.662 Z-6.192
X25.311 Y56.728 Z-6.169
Y56.787 Z-6.132
Y56.836 Z-6.083
Y56.873 Z-6.025
Y56.896 Z-5.959
Y56.903 Z-5.89
Z5 F300
X13.2 Y54.69
Z2
Z0.31 F100
G18 G2 X13.51 Z0 I0.31 K0
G1 X13.665
G17 G3 X13.975 Y55 I0 J0.31
X11.025 Y55 Z-0.318 I-1.475 J0 F300
X13.975 Y55 Z-0.636 I1.475 J0
X11.025 Y55 Z-0.954 I-1.475 J0
X13.975 Y55 Z-1.272 I1.475 J0
X11.025 Y55 Z-1.59 I-1.475 J0
X13.975 Y55 Z-1.908 I1.475 J0
X11.025 Y55 Z-2.226 I-1.475 J0
X13.975 Y55 Z-2.544 I1.475 J0
X11.025 Y55 Z-2.861 I-1.475 J0
X13.975 Y55 Z-3.179 I1.475 J0
X11.025 Y55 Z-3.497 I-1.475 J0
X13.975 Y55 Z-3.815 I1.475 J0
X11.025 Y55 Z-4.133 I-1.475 J0
X13.975 Y55 Z-4.451 I1.475 J0
X11.025 Y55 Z-4.769 I-1.475 J0
X13.975 Y55 Z-5.087 I1.475 J0
X11.025 Y55 Z-5.405 I-1.475 J0
X13.975 Y55 Z-5.723 I1.475 J0
X11.025 Y55 Z-6.041 I-1.475 J0
X12.502 Y53.525 Z-6.2 I1.475 J0
X12.498 Y56.475 I-0.002 J1.475
X12.502 Y53.525 I0.002 J-1.475
X12.812 Y53.836 I-0.001 J0.31 F100
G1 Y53.991
Y54.059 Z-6.192
X12.811 Y54.125 Z-6.169
Y54.184 Z-6.132
Y54.233 Z-6.083
Y54.27 Z-6.025
Y54.293 Z-5.959
Y54.301 Z-5.89
Z5 F300
X13.2 Y14.69
Z2
Z0.31 F100
G18 G2 X13.51 Z0 I0.31 K0
G1 X13.665
G17 G3 X13.975 Y15 I0 J0.31
X11.025 Y15 Z-0.318 I-1.475 J0 F300
X13.975 Y15 Z-0.636 I1.475 J0
X11.025 Y15 Z-0.954 I-1.475 J0
X13.975 Y15 Z-1.272 I1.475 J0
X11.025 Y15 Z-1.59 I-1.475 J0
X13.975 Y15 Z-1.908 I1.475 J0
X11.025 Y15 Z-2.226 I-1.475 J0
X13.975 Y15 Z-2.544 I1.475 J0
X11.025 Y15 Z-2.861 I-1.475 J0
X13.975 Y15 Z-3.179 I1.475 J0
X11.025 Y15 Z-3.497 I-1.475 J0
X13.975 Y15 Z-3.815 I1.475 J0
X11.025 Y15 Z-4.133 I-1.475 J0
X13.975 Y15 Z-4.451 I1.475 J0
X11.025 Y15 Z-4.769 I-1.475 J0
X13.975 Y15 Z-5.087 I1.475 J0
X11.025 Y15 Z-5.405 I-1.475 J0
X13.975 Y15 Z-5.723 I1.475 J0
X11.025 Y15 Z-6.041 I-1.475 J0
X12.502 Y13.525 Z-6.2 I1.475 J0
X12.498 Y16.475 I-0.002 J1.475
X12.502 Y13.525 I0.002 J-1.475
X12.812 Y13.836 I-0.001 J0.31 F100
G1 Y13.991
Y14.059 Z-6.192
X12.811 Y14.125 Z-6.169
Y14.184 Z-6.132
Y14.233 Z-6.083
Y14.27 Z-6.025
Y14.293 Z-5.959
Y14.301 Z-5.89
Z5 F300
X25.7 Y7.293
Z2
Z0.31 F100
G18 G2 X26.01 Z0 I0.31 K0
G1 X26.165
G17 G3 X26.475 Y7.603 I0 J0.31
X23.525 Y7.603 Z-0.318 I-1.475 J0 F300
X26.475 Y7.603 Z-0.636 I1.475 J0
X23.525 Y7.603 Z-0.954 I-1.475 J0
X26.475 Y7.603 Z-1.272 I1.475 J0
X23.525 Y7.603 Z-1.59 I-1.475 J0
X26.475 Y7.603 Z-1.908 I1.475 J0
X23.525 Y7.603 Z-2.226 I-1.475 J0
X26.475 Y7.603 Z-2.544 I1.475 J0
X23.525 Y7.603 Z-2.861 I-1.475 J0
X26.475 Y7.603 Z-3.179 I1.475 J0
X23.525 Y7.603 Z-3.497 I-1.475 J0
X26.475 Y7.603 Z-3.815 I1.475 J0
X23.525 Y7.603 Z-4.133 I-1.475 J0
X26.475 Y7.603 Z-4.451 I1.475 J0
X23.525 Y7.603 Z-4.769 I-1.475 J0
X26.475 Y7.603 Z-5.087 I1.475 J0
X23.525 Y7.603 Z-5.405 I-1.475 J0
X26.475 Y7.603 Z-5.723 I1.475 J0
X23.525 Y7.603 Z-6.041 I-1.475 J0
X25.002 Y6.128 Z-6.2 I1.475 J0
X24.998 Y9.078 I-0.002 J1.475
X25.002 Y6.128 I0.002 J-1.475
X25.312 Y6.438 I-0.001 J0.31 F100
G1 Y6.593
Y6.662 Z-6.192
X25.311 Y6.728 Z-6.169
Y6.787 Z-6.132
Y6.836 Z-6.083
Y6.873 Z-6.025
Y6.896 Z-5.959
Y6.903 Z-5.89
Z15 F300
(When using Fusion for Personal Use, the feedrate of rapid)
(moves is reduced to match the feedrate of cutting moves,)
(which can increase machining time. Unrestricted rapid moves)
(are available with a Fusion Subscription.)

(Circular1)
G0 X27.675 Y57.293
G1 Z15 F300
Z1.7
Z0.01 F100
G18 G2 X27.985 Z-0.3 I0.31 K0
G1 X28.14
G17 G3 X28.45 Y57.603 I0 J0.31
X21.55 Y57.603 I-3.45 J0 F300
X28.45 Y57.603 I3.45 J0
X28.14 Y57.913 I-0.31 J0 F100
G1 X27.985
G18 G3 X27.675 Z0.01 I0 K0.31
G1 Z5 F300
Y57.293
Z1.4
Z-0.29 F100
G2 X27.985 Z-0.6 I0.31 K0
G1 X28.14
G17 G3 X28.45 Y57.603 I0 J0.31
X21.55 Y57.603 I-3.45 J0 F300
X28.45 Y57.603 I3.45 J0
X28.14 Y57.913 I-0.31 J0 F100
G1 X27.985
G18 G3 X27.675 Z-0.29 I0 K0.31
G1 Z5 F300
Y57.293
Z1.1
Z-0.59 F100
G2 X27.985 Z-0.9 I0.31 K0
G1 X28.14
G17 G3 X28.45 Y57.603 I0 J0.31
X21.55 Y57.603 I-3.45 J0 F300
X28.45 Y57.603 I3.45 J0
X28.14 Y57.913 I-0.31 J0 F100
G1 X27.985
G18 G3 X27.675 Z-0.59 I0 K0.31
G1 Z5 F300
Y57.293
Z0.8
Z-0.89 F100
G2 X27.985 Z-1.2 I0.31 K0
G1 X28.14
G17 G3 X28.45 Y57.603 I0 J0.31
X21.55 Y57.603 I-3.45 J0 F300
X28.45 Y57.603 I3.45 J0
X28.14 Y57.913 I-0.31 J0 F100
G1 X27.985
G18 G3 X27.675 Z-0.89 I0 K0.31
G1 Z5 F300
Y57.293
Z0.5
Z-1.19 F100
G2 X27.985 Z-1.5 I0.31 K0
G1 X28.14
G17 G3 X28.45 Y57.603 I0 J0.31
X21.55 Y57.603 I-3.45 J0 F300
X28.45 Y57.603 I3.45 J0
X28.14 Y57.913 I-0.31 J0 F100
G1 X27.985
G18 G3 X27.675 Z-1.19 I0 K0.31
G1 Z5 F300
Y57.293
Z0.25
Z-1.44 F100
G2 X27.985 Z-1.75 I0.31 K0
G1 X28.14
G17 G3 X28.45 Y57.603 I0 J0.31
X21.55 Y57.603 I-3.45 J0 F300
X28.45 Y57.603 I3.45 J0
X28.14 Y57.913 I-0.31 J0 F100
G1 X27.985
G18 G3 X27.675 Z-1.44 I0 K0.31
G1 Z5 F300
Y57.293
Z0
Z-1.69 F100
G2 X27.985 Z-2 I0.31 K0
G1 X28.14
G17 G3 X28.45 Y57.603 I0 J0.31
X21.55 Y57.603 I-3.45 J0 F300
X28.45 Y57.603 I3.45 J0
X28.14 Y57.913 I-0.31 J0 F100
G1 X27.985
G18 G3 X27.675 Z-1.69 I0 K0.31
G1 Z5 F300
X15.175 Y54.69
Z1.7
Z0.01 F100
G2 X15.485 Z-0.3 I0.31 K0
G1 X15.64
G17 G3 X15.95 Y55 I0 J0.31
X9.05 Y55 I-3.45 J0 F300
X15.95 Y55 I3.45 J0
X15.64 Y55.31 I-0.31 J0 F100
G1 X15.485
G18 G3 X15.175 Z0.01 I0 K0.31
G1 Z5 F300
Y54.69
Z1.4
Z-0.29 F100
G2 X15.485 Z-0.6 I0.31 K0
G1 X15.64
G17 G3 X15.95 Y55 I0 J0.31
X9.05 Y55 I-3.45 J0 F300
X15.95 Y55 I3.45 J0
X15.64 Y55.31 I-0.31 J0 F100
G1 X15.485
G18 G3 X15.175 Z-0.29 I0 K0.31
G1 Z5 F300
Y54.69
Z1.1
Z-0.59 F100
G2 X15.485 Z-0.9 I0.31 K0
G1 X15.64
G17 G3 X15.95 Y55 I0 J0.31
X9.05 Y55 I-3.45 J0 F300
X15.95 Y55 I3.45 J0
X15.64 Y55.31 I-0.31 J0 F100
G1 X15.485
G18 G3 X15.175 Z-0.59 I0 K0.31
G1 Z5 F300
Y54.69
Z0.8
Z-0.89 F100
G2 X15.485 Z-1.2 I0.31 K0
G1 X15.64
G17 G3 X15.95 Y55 I0 J0.31
X9.05 Y55 I-3.45 J0 F300
X15.95 Y55 I3.45 J0
X15.64 Y55.31 I-0.31 J0 F100
G1 X15.485
G18 G3 X15.175 Z-0.89 I0 K0.31
G1 Z5 F300
Y54.69
Z0.5
Z-1.19 F100
G2 X15.485 Z-1.5 I0.31 K0
G1 X15.64
G17 G3 X15.95 Y55 I0 J0.31
X9.05 Y55 I-3.45 J0 F300
X15.95 Y55 I3.45 J0
X15.64 Y55.31 I-0.31 J0 F100
G1 X15.485
G18 G3 X15.175 Z-1.19 I0 K0.31
G1 Z5 F300
Y54.69
Z0.25
Z-1.44 F100
G2 X15.485 Z-1.75 I0.31 K0
G1 X15.64
G17 G3 X15.95 Y55 I0 J0.31
X9.05 Y55 I-3.45 J0 F300
X15.95 Y55 I3.45 J0
X15.64 Y55.31 I-0.31 J0 F100
G1 X15.485
G18 G3 X15.175 Z-1.44 I0 K0.31
G1 Z5 F300
Y54.69
Z0
Z-1.69 F100
G2 X15.485 Z-2 I0.31 K0
G1 X15.64
G17 G3 X15.95 Y55 I0 J0.31
X9.05 Y55 I-3.45 J0 F300
X15.95 Y55 I3.45 J0
X15.64 Y55.31 I-0.31 J0 F100
G1 X15.485
G18 G3 X15.175 Z-1.69 I0 K0.31
G1 Z5 F300
Y14.69
Z1.7
Z0.01 F100
G2 X15.485 Z-0.3 I0.31 K0
G1 X15.64
G17 G3 X15.95 Y15 I0 J0.31
X9.05 Y15 I-3.45 J0 F300
X15.95 Y15 I3.45 J0
X15.64 Y15.31 I-0.31 J0 F100
G1 X15.485
G18 G3 X15.175 Z0.01 I0 K0.31
G1 Z5 F300
Y14.69
Z1.4
Z-0.29 F100
G2 X15.485 Z-0.6 I0.31 K0
G1 X15.64
G17 G3 X15.95 Y15 I0 J0.31
X9.05 Y15 I-3.45 J0 F300
X15.95 Y15 I3.45 J0
X15.64 Y15.31 I-0.31 J0 F100
G1 X15.485
G18 G3 X15.175 Z-0.29 I0 K0.31
G1 Z5 F300
Y14.69
Z1.1
Z-0.59 F100
G2 X15.485 Z-0.9 I0.31 K0
G1 X15.64
G17 G3 X15.95 Y15 I0 J0.31
X9.05 Y15 I-3.45 J0 F300
X15.95 Y15 I3.45 J0
X15.64 Y15.31 I-0.31 J0 F100
G1 X15.485
G18 G3 X15.175 Z-0.59 I0 K0.31
G1 Z5 F300
Y14.69
Z0.8
Z-0.89 F100
G2 X15.485 Z-1.2 I0.31 K0
G1 X15.64
G17 G3 X15.95 Y15 I0 J0.31
X9.05 Y15 I-3.45 J0 F300
X15.95 Y15 I3.45 J0
X15.64 Y15.31 I-0.31 J0 F100
G1 X15.485
G18 G3 X15.175 Z-0.89 I0 K0.31
G1 Z5 F300
Y14.69
Z0.5
Z-1.19 F100
G2 X15.485 Z-1.5 I0.31 K0
G1 X15.64
G17 G3 X15.95 Y15 I0 J0.31
X9.05 Y15 I-3.45 J0 F300
X15.95 Y15 I3.45 J0
X15.64 Y15.31 I-0.31 J0 F100
G1 X15.485
G18 G3 X15.175 Z-1.19 I0 K0.31
G1 Z5 F300
Y14.69
Z0.25
Z-1.44 F100
G2 X15.485 Z-1.75 I0.31 K0
G1 X15.64
G17 G3 X15.95 Y15 I0 J0.31
X9.05 Y15 I-3.45 J0 F300
X15.95 Y15 I3.45 J0
X15.64 Y15.31 I-0.31 J0 F100
G1 X15.485
G18 G3 X15.175 Z-1.44 I0 K0.31
G1 Z5 F300
Y14.69
Z0
Z-1.69 F100
G2 X15.485 Z-2 I0.31 K0
G1 X15.64
G17 G3 X15.95 Y15 I0 J0.31
X9.05 Y15 I-3.45 J0 F300
X15.95 Y15 I3.45 J0
X15.64 Y15.31 I-0.31 J0 F100
G1 X15.485
G18 G3 X15.175 Z-1.69 I0 K0.31
G1 Z5 F300
X27.675 Y7.293
Z1.7
Z0.01 F100
G2 X27.985 Z-0.3 I0.31 K0
G1 X28.14
G17 G3 X28.45 Y7.603 I0 J0.31
X21.55 Y7.603 I-3.45 J0 F300
X28.45 Y7.603 I3.45 J0
X28.14 Y7.913 I-0.31 J0 F100
G1 X27.985
G18 G3 X27.675 Z0.01 I0 K0.31
G1 Z5 F300
Y7.293
Z1.4
Z-0.29 F100
G2 X27.985 Z-0.6 I0.31 K0
G1 X28.14
G17 G3 X28.45 Y7.603 I0 J0.31
X21.55 Y7.603 I-3.45 J0 F300
X28.45 Y7.603 I3.45 J0
X28.14 Y7.913 I-0.31 J0 F100
G1 X27.985
G18 G3 X27.675 Z-0.29 I0 K0.31
G1 Z5 F300
Y7.293
Z1.1
Z-0.59 F100
G2 X27.985 Z-0.9 I0.31 K0
G1 X28.14
G17 G3 X28.45 Y7.603 I0 J0.31
X21.55 Y7.603 I-3.45 J0 F300
X28.45 Y7.603 I3.45 J0
X28.14 Y7.913 I-0.31 J0 F100
G1 X27.985
G18 G3 X27.675 Z-0.59 I0 K0.31
G1 Z5 F300
Y7.293
Z0.8
Z-0.89 F100
G2 X27.985 Z-1.2 I0.31 K0
G1 X28.14
G17 G3 X28.45 Y7.603 I0 J0.31
X21.55 Y7.603 I-3.45 J0 F300
X28.45 Y7.603 I3.45 J0
X28.14 Y7.913 I-0.31 J0 F100
G1 X27.985
G18 G3 X27.675 Z-0.89 I0 K0.31
G1 Z5 F300
Y7.293
Z0.5
Z-1.19 F100
G2 X27.985 Z-1.5 I0.31 K0
G1 X28.14
G17 G3 X28.45 Y7.603 I0 J0.31
X21.55 Y7.603 I-3.45 J0 F300
X28.45 Y7.603 I3.45 J0
X28.14 Y7.913 I-0.31 J0 F100
G1 X27.985
G18 G3 X27.675 Z-1.19 I0 K0.31
G1 Z5 F300
Y7.293
Z0.25
Z-1.44 F100
G2 X27.985 Z-1.75 I0.31 K0
G1 X28.14
G17 G3 X28.45 Y7.603 I0 J0.31
X21.55 Y7.603 I-3.45 J0 F300
X28.45 Y7.603 I3.45 J0
X28.14 Y7.913 I-0.31 J0 F100
G1 X27.985
G18 G3 X27.675 Z-1.44 I0 K0.31
G1 Z5 F300
Y7.293
Z0
Z-1.69 F100
G2 X27.985 Z-2 I0.31 K0
G1 X28.14
G17 G3 X28.45 Y7.603 I0 J0.31
X21.55 Y7.603 I-3.45 J0 F300
X28.45 Y7.603 I3.45 J0
X28.14 Y7.913 I-0.31 J0 F100
G1 X27.985
G18 G3 X27.675 Z-1.69 I0 K0.31
G1 Z5 F300
X127.675 Y7.293
Z1.7
Z0.01 F100
G2 X127.985 Z-0.3 I0.31 K0
G1 X128.14
G17 G3 X128.45 Y7.603 I0 J0.31
X121.55 Y7.603 I-3.45 J0 F300
X128.45 Y7.603 I3.45 J0
X128.14 Y7.913 I-0.31 J0 F100
G1 X127.985
G18 G3 X127.675 Z0.01 I0 K0.31
G1 Z5 F300
Y7.293
Z1.4
Z-0.29 F100
G2 X127.985 Z-0.6 I0.31 K0
G1 X128.14
G17 G3 X128.45 Y7.603 I0 J0.31
X121.55 Y7.603 I-3.45 J0 F300
X128.45 Y7.603 I3.45 J0
X128.14 Y7.913 I-0.31 J0 F100
G1 X127.985
G18 G3 X127.675 Z-0.29 I0 K0.31
G1 Z5 F300
Y7.293
Z1.1
Z-0.59 F100
G2 X127.985 Z-0.9 I0.31 K0
G1 X128.14
G17 G3 X128.45 Y7.603 I0 J0.31
X121.55 Y7.603 I-3.45 J0 F300
X128.45 Y7.603 I3.45 J0
X128.14 Y7.913 I-0.31 J0 F100
G1 X127.985
G18 G3 X127.675 Z-0.59 I0 K0.31
G1 Z5 F300
Y7.293
Z0.8
Z-0.89 F100
G2 X127.985 Z-1.2 I0.31 K0
G1 X128.14
G17 G3 X128.45 Y7.603 I0 J0.31
X121.55 Y7.603 I-3.45 J0 F300
X128.45 Y7.603 I3.45 J0
X128.14 Y7.913 I-0.31 J0 F100
G1 X127.985
G18 G3 X127.675 Z-0.89 I0 K0.31
G1 Z5 F300
Y7.293
Z0.5
Z-1.19 F100
G2 X127.985 Z-1.5 I0.31 K0
G1 X128.14
G17 G3 X128.45 Y7.603 I0 J0.31
X121.55 Y7.603 I-3.45 J0 F300
X128.45 Y7.603 I3.45 J0
X128.14 Y7.913 I-0.31 J0 F100
G1 X127.985
G18 G3 X127.675 Z-1.19 I0 K0.31
G1 Z5 F300
Y7.293
Z0.25
Z-1.44 F100
G2 X127.985 Z-1.75 I0.31 K0
G1 X128.14
G17 G3 X128.45 Y7.603 I0 J0.31
X121.55 Y7.603 I-3.45 J0 F300
X128.45 Y7.603 I3.45 J0
X128.14 Y7.913 I-0.31 J0 F100
G1 X127.985
G18 G3 X127.675 Z-1.44 I0 K0.31
G1 Z5 F300
Y7.293
Z0
Z-1.69 F100
G2 X127.985 Z-2 I0.31 K0
G1 X128.14
G17 G3 X128.45 Y7.603 I0 J0.31
X121.55 Y7.603 I-3.45 J0 F300
X128.45 Y7.603 I3.45 J0
X128.14 Y7.913 I-0.31 J0 F100
G1 X127.985
G18 G3 X127.675 Z-1.69 I0 K0.31
G1 Z5 F300
X140.175 Y14.69
Z1.7
Z0.01 F100
G2 X140.485 Z-0.3 I0.31 K0
G1 X140.64
G17 G3 X140.95 Y15 I0 J0.31
X134.05 Y15 I-3.45 J0 F300
X140.95 Y15 I3.45 J0
X140.64 Y15.31 I-0.31 J0 F100
G1 X140.485
G18 G3 X140.175 Z0.01 I0 K0.31
G1 Z5 F300
Y14.69
Z1.4
Z-0.29 F100
G2 X140.485 Z-0.6 I0.31 K0
G1 X140.64
G17 G3 X140.95 Y15 I0 J0.31
X134.05 Y15 I-3.45 J0 F300
X140.95 Y15 I3.45 J0
X140.64 Y15.31 I-0.31 J0 F100
G1 X140.485
G18 G3 X140.175 Z-0.29 I0 K0.31
G1 Z5 F300
Y14.69
Z1.1
Z-0.59 F100
G2 X140.485 Z-0.9 I0.31 K0
G1 X140.64
G17 G3 X140.95 Y15 I0 J0.31
X134.05 Y15 I-3.45 J0 F300
X140.95 Y15 I3.45 J0
X140.64 Y15.31 I-0.31 J0 F100
G1 X140.485
G18 G3 X140.175 Z-0.59 I0 K0.31
G1 Z5 F300
Y14.69
Z0.8
Z-0.89 F100
G2 X140.485 Z-1.2 I0.31 K0
G1 X140.64
G17 G3 X140.95 Y15 I0 J0.31
X134.05 Y15 I-3.45 J0 F300
X140.95 Y15 I3.45 J0
X140.64 Y15.31 I-0.31 J0 F100
G1 X140.485
G18 G3 X140.175 Z-0.89 I0 K0.31
G1 Z5 F300
Y14.69
Z0.5
Z-1.19 F100
G2 X140.485 Z-1.5 I0.31 K0
G1 X140.64
G17 G3 X140.95 Y15 I0 J0.31
X134.05 Y15 I-3.45 J0 F300
X140.95 Y15 I3.45 J0
X140.64 Y15.31 I-0.31 J0 F100
G1 X140.485
G18 G3 X140.175 Z-1.19 I0 K0.31
G1 Z5 F300
Y14.69
Z0.25
Z-1.44 F100
G2 X140.485 Z-1.75 I0.31 K0
G1 X140.64
G17 G3 X140.95 Y15 I0 J0.31
X134.05 Y15 I-3.45 J0 F300
X140.95 Y15 I3.45 J0
X140.64 Y15.31 I-0.31 J0 F100
G1 X140.485
G18 G3 X140.175 Z-1.44 I0 K0.31
G1 Z5 F300
Y14.69
Z0
Z-1.69 F100
G2 X140.485 Z-2 I0.31 K0
G1 X140.64
G17 G3 X140.95 Y15 I0 J0.31
X134.05 Y15 I-3.45 J0 F300
X140.95 Y15 I3.45 J0
X140.64 Y15.31 I-0.31 J0 F100
G1 X140.485
G18 G3 X140.175 Z-1.69 I0 K0.31
G1 Z5 F300
Y54.69
Z1.7
Z0.01 F100
G2 X140.485 Z-0.3 I0.31 K0
G1 X140.64
G17 G3 X140.95 Y55 I0 J0.31
X134.05 Y55 I-3.45 J0 F300
X140.95 Y55 I3.45 J0
X140.64 Y55.31 I-0.31 J0 F100
G1 X140.485
G18 G3 X140.175 Z0.01 I0 K0.31
G1 Z5 F300
Y54.69
Z1.4
Z-0.29 F100
G2 X140.485 Z-0.6 I0.31 K0
G1 X140.64
G17 G3 X140.95 Y55 I0 J0.31
X134.05 Y55 I-3.45 J0 F300
X140.95 Y55 I3.45 J0
X140.64 Y55.31 I-0.31 J0 F100
G1 X140.485
G18 G3 X140.175 Z-0.29 I0 K0.31
G1 Z5 F300
Y54.69
Z1.1
Z-0.59 F100
G2 X140.485 Z-0.9 I0.31 K0
G1 X140.64
G17 G3 X140.95 Y55 I0 J0.31
X134.05 Y55 I-3.45 J0 F300
X140.95 Y55 I3.45 J0
X140.64 Y55.31 I-0.31 J0 F100
G1 X140.485
G18 G3 X140.175 Z-0.59 I0 K0.31
G1 Z5 F300
Y54.69
Z0.8
Z-0.89 F100
G2 X140.485 Z-1.2 I0.31 K0
G1 X140.64
G17 G3 X140.95 Y55 I0 J0.31
X134.05 Y55 I-3.45 J0 F300
X140.95 Y55 I3.45 J0
X140.64 Y55.31 I-0.31 J0 F100
G1 X140.485
G18 G3 X140.175 Z-0.89 I0 K0.31
G1 Z5 F300
Y54.69
Z0.5
Z-1.19 F100
G2 X140.485 Z-1.5 I0.31 K0
G1 X140.64
G17 G3 X140.95 Y55 I0 J0.31
X134.05 Y55 I-3.45 J0 F300
X140.95 Y55 I3.45 J0
X140.64 Y55.31 I-0.31 J0 F100
G1 X140.485
G18 G3 X140.175 Z-1.19 I0 K0.31
G1 Z5 F300
Y54.69
Z0.25
Z-1.44 F100
G2 X140.485 Z-1.75 I0.31 K0
G1 X140.64
G17 G3 X140.95 Y55 I0 J0.31
X134.05 Y55 I-3.45 J0 F300
X140.95 Y55 I3.45 J0
X140.64 Y55.31 I-0.31 J0 F100
G1 X140.485
G18 G3 X140.175 Z-1.44 I0 K0.31
G1 Z5 F300
Y54.69
Z0
Z-1.69 F100
G2 X140.485 Z-2 I0.31 K0
G1 X140.64
G17 G3 X140.95 Y55 I0 J0.31
X134.05 Y55 I-3.45 J0 F300
X140.95 Y55 I3.45 J0
X140.64 Y55.31 I-0.31 J0 F100
G1 X140.485
G18 G3 X140.175 Z-1.69 I0 K0.31
G1 Z5 F300
X127.675 Y57.293
Z1.7
Z0.01 F100
G2 X127.985 Z-0.3 I0.31 K0
G1 X128.14
G17 G3 X128.45 Y57.603 I0 J0.31
X121.55 Y57.603 I-3.45 J0 F300
X128.45 Y57.603 I3.45 J0
X128.14 Y57.913 I-0.31 J0 F100
G1 X127.985
G18 G3 X127.675 Z0.01 I0 K0.31
G1 Z5 F300
Y57.293
Z1.4
Z-0.29 F100
G2 X127.985 Z-0.6 I0.31 K0
G1 X128.14
G17 G3 X128.45 Y57.603 I0 J0.31
X121.55 Y57.603 I-3.45 J0 F300
X128.45 Y57.603 I3.45 J0
X128.14 Y57.913 I-0.31 J0 F100
G1 X127.985
G18 G3 X127.675 Z-0.29 I0 K0.31
G1 Z5 F300
Y57.293
Z1.1
Z-0.59 F100
G2 X127.985 Z-0.9 I0.31 K0
G1 X128.14
G17 G3 X128.45 Y57.603 I0 J0.31
X121.55 Y57.603 I-3.45 J0 F300
X128.45 Y57.603 I3.45 J0
X128.14 Y57.913 I-0.31 J0 F100
G1 X127.985
G18 G3 X127.675 Z-0.59 I0 K0.31
G1 Z5 F300
Y57.293
Z0.8
Z-0.89 F100
G2 X127.985 Z-1.2 I0.31 K0
G1 X128.14
G17 G3 X128.45 Y57.603 I0 J0.31
X121.55 Y57.603 I-3.45 J0 F300
X128.45 Y57.603 I3.45 J0
X128.14 Y57.913 I-0.31 J0 F100
G1 X127.985
G18 G3 X127.675 Z-0.89 I0 K0.31
G1 Z5 F300
Y57.293
Z0.5
Z-1.19 F100
G2 X127.985 Z-1.5 I0.31 K0
G1 X128.14
G17 G3 X128.45 Y57.603 I0 J0.31
X121.55 Y57.603 I-3.45 J0 F300
X128.45 Y57.603 I3.45 J0
X128.14 Y57.913 I-0.31 J0 F100
G1 X127.985
G18 G3 X127.675 Z-1.19 I0 K0.31
G1 Z5 F300
Y57.293
Z0.25
Z-1.44 F100
G2 X127.985 Z-1.75 I0.31 K0
G1 X128.14
G17 G3 X128.45 Y57.603 I0 J0.31
X121.55 Y57.603 I-3.45 J0 F300
X128.45 Y57.603 I3.45 J0
X128.14 Y57.913 I-0.31 J0 F100
G1 X127.985
G18 G3 X127.675 Z-1.44 I0 K0.31
G1 Z5 F300
Y57.293
Z0
Z-1.69 F100
G2 X127.985 Z-2 I0.31 K0
G1 X128.14
G17 G3 X128.45 Y57.603 I0 J0.31
X121.55 Y57.603 I-3.45 J0 F300
X128.45 Y57.603 I3.45 J0
X128.14 Y57.913 I-0.31 J0 F100
G1 X127.985
G18 G3 X127.675 Z-1.69 I0 K0.31
G1 Z15 F300
G17
(When using Fusion for Personal Use, the feedrate of rapid)
(moves is reduced to match the feedrate of cutting moves,)
(which can increase machining time. Unrestricted rapid moves)
(are available with a Fusion Subscription.)

(2D Contour2)
G0 X-1.853 Y68.274
G1 Z6 F300
Z0.62
Z-1.19 F100
X-1.847 Y68.269 Z-1.259
X-1.831 Y68.253 Z-1.325
X-1.805 Y68.226 Z-1.383
X-1.77 Y68.192 Z-1.432
X-1.729 Y68.15 Z-1.469
X-1.682 Y68.104 Z-1.492
X-1.633 Y68.055 Z-1.5
X-0.219 Y66.641
X-0.172 Y66.602
X-0.119 Y66.574
X-0.06 Y66.556
X0 Y66.55
X150 F300
G2 X151.55 Y65 I0 J-1.55
G1 Y0
G2 X150 Y-1.55 I-1.55 J0
G1 X0
G2 X-1.55 Y0 I0 J1.55
G1 Y65
G2 X0 Y66.55 I1.55 J0
G1 X0.06 Y66.556 F100
X0.119 Y66.574
X0.172 Y66.602
X0.219 Y66.641
X1.633 Y68.055
X1.682 Y68.104 Z-1.492
X1.729 Y68.15 Z-1.469
X1.77 Y68.192 Z-1.432
X1.805 Y68.226 Z-1.383
X1.831 Y68.253 Z-1.325
X1.847 Y68.269 Z-1.259
X1.853 Y68.274 Z-1.19
Z1 F300
X-1.853
Z0.33
Z-0.88 F100
Z-2.69
X-1.847 Y68.269 Z-2.759
X-1.831 Y68.253 Z-2.825
X-1.805 Y68.226 Z-2.883
X-1.77 Y68.192 Z-2.932
X-1.729 Y68.15 Z-2.969
X-1.682 Y68.104 Z-2.992
X-1.633 Y68.055 Z-3
X-0.219 Y66.641
X-0.172 Y66.602
X-0.119 Y66.574
X-0.06 Y66.556
X0 Y66.55
X150 F300
G2 X151.55 Y65 I0 J-1.55
G1 Y0
G2 X150 Y-1.55 I-1.55 J0
G1 X0
G2 X-1.55 Y0 I0 J1.55
G1 Y65
G2 X0 Y66.55 I1.55 J0
G1 X0.06 Y66.556 F100
X0.119 Y66.574
X0.172 Y66.602
X0.219 Y66.641
X1.633 Y68.055
X1.682 Y68.104 Z-2.992
X1.729 Y68.15 Z-2.969
X1.77 Y68.192 Z-2.932
X1.805 Y68.226 Z-2.883
X1.831 Y68.253 Z-2.825
X1.847 Y68.269 Z-2.759
X1.853 Y68.274 Z-2.69
Z1 F300
X-1.853
Z0.33
Z-2.38 F100
Z-4.19
X-1.847 Y68.269 Z-4.259
X-1.831 Y68.253 Z-4.325
X-1.805 Y68.226 Z-4.383
X-1.77 Y68.192 Z-4.432
X-1.729 Y68.15 Z-4.469
X-1.682 Y68.104 Z-4.492
X-1.633 Y68.055 Z-4.5
X-0.219 Y66.641
X-0.172 Y66.602
X-0.119 Y66.574
X-0.06 Y66.556
X0 Y66.55
X150 F300
G2 X151.55 Y65 I0 J-1.55
G1 Y0
G2 X150 Y-1.55 I-1.55 J0
G1 X0
G2 X-1.55 Y0 I0 J1.55
G1 Y65
G2 X0 Y66.55 I1.55 J0
G1 X0.06 Y66.556 F100
X0.119 Y66.574
X0.172 Y66.602
X0.219 Y66.641
X1.633 Y68.055
X1.682 Y68.104 Z-4.492
X1.729 Y68.15 Z-4.469
X1.77 Y68.192 Z-4.432
X1.805 Y68.226 Z-4.383
X1.831 Y68.253 Z-4.325
X1.847 Y68.269 Z-4.259
X1.853 Y68.274 Z-4.19
Z1 F300
X-1.853
Z0.33
Z-3.88 F100
Z-5.04
X-1.847 Y68.269 Z-5.109
X-1.831 Y68.253 Z-5.175
X-1.805 Y68.226 Z-5.233
X-1.77 Y68.192 Z-5.282
X-1.729 Y68.15 Z-5.319
X-1.682 Y68.104 Z-5.342
X-1.633 Y68.055 Z-5.35
X-0.219 Y66.641
X-0.172 Y66.602
X-0.119 Y66.574
X-0.06 Y66.556
X0 Y66.55
X150 F300
G2 X151.55 Y65 I0 J-1.55
G1 Y0
G2 X150 Y-1.55 I-1.55 J0
G1 X0
G2 X-1.55 Y0 I0 J1.55
G1 Y65
G2 X0 Y66.55 I1.55 J0
G1 X0.06 Y66.556 F100
X0.119 Y66.574
X0.172 Y66.602
X0.219 Y66.641
X1.633 Y68.055
X1.682 Y68.104 Z-5.342
X1.729 Y68.15 Z-5.319
X1.77 Y68.192 Z-5.282
X1.805 Y68.226 Z-5.233
X1.831 Y68.253 Z-5.175
X1.847 Y68.269 Z-5.109
X1.853 Y68.274 Z-5.04
Z1 F300
X-1.853
Z0.33
Z-4.73 F100
Z-5.89
X-1.847 Y68.269 Z-5.959
X-1.831 Y68.253 Z-6.025
X-1.805 Y68.226 Z-6.083
X-1.77 Y68.192 Z-6.132
X-1.729 Y68.15 Z-6.169
X-1.682 Y68.104 Z-6.192
X-1.633 Y68.055 Z-6.2
X-0.219 Y66.641
X-0.172 Y66.602
X-0.119 Y66.574
X-0.06 Y66.556
X0 Y66.55
X150 F300
G2 X151.55 Y65 I0 J-1.55
G1 Y0
G2 X150 Y-1.55 I-1.55 J0
G1 X0
G2 X-1.55 Y0 I0 J1.55
G1 Y65
G2 X0 Y66.55 I1.55 J0
G1 X0.06 Y66.556 F100
X0.119 Y66.574
X0.172 Y66.602
X0.219 Y66.641
X1.633 Y68.055
X1.682 Y68.104 Z-6.192
X1.729 Y68.15 Z-6.169
X1.77 Y68.192 Z-6.132
X1.805 Y68.226 Z-6.083
X1.831 Y68.253 Z-6.025
X1.847 Y68.269 Z-5.959
X1.853 Y68.274 Z-5.89
Z6 F300

M9
M5
M30
