(spindle_mount)
(Machine)
(  vendor: Autodesk)
(  model: Generic 3-axis)
(  description: This machine has XY axis on the Table and Z axis on the Head)
(T1 D=4 CR=0 - ZMIN=-6.5 - flat end mill)
G90 G94
G17
G21
(-Attention- Property Safe Retracts is set to Clearance Height.)
(Ensure the clearance height will clear the part and or fixtures.)
(Raise the Z-axis to a safe height before starting the program.)
(When using Fusion for Personal Use, the feedrate of rapid)
(moves is reduced to match the feedrate of cutting moves,)
(which can increase machining time. Unrestricted rapid moves)
(are available with a Fusion Subscription.)

(Bore1)
T1
S16000 M3
G17 G90 G94
G54
M8
G0 X125.025 Y7.203
Z15
G1 Z2 F150
Z0.4 F50
G18 G2 X125.425 Z0 I0.4 K0
G1 X125.625
G17 G3 X126.025 Y7.603 I0 J0.4
X123.975 Y7.603 Z-0.212 I-1.025 J0 F150
X126.025 Y7.603 Z-0.423 I1.025 J0
X123.975 Y7.603 Z-0.635 I-1.025 J0
X126.025 Y7.603 Z-0.846 I1.025 J0
X123.975 Y7.603 Z-1.058 I-1.025 J0
X126.025 Y7.603 Z-1.269 I1.025 J0
X123.975 Y7.603 Z-1.481 I-1.025 J0
X126.025 Y7.603 Z-1.692 I1.025 J0
X123.975 Y7.603 Z-1.904 I-1.025 J0
X126.025 Y7.603 Z-2.115 I1.025 J0
X123.975 Y7.603 Z-2.327 I-1.025 J0
X126.025 Y7.603 Z-2.538 I1.025 J0
X123.975 Y7.603 Z-2.75 I-1.025 J0
X126.025 Y7.603 Z-2.961 I1.025 J0
X123.975 Y7.603 Z-3.173 I-1.025 J0
X126.025 Y7.603 Z-3.384 I1.025 J0
X123.975 Y7.603 Z-3.596 I-1.025 J0
X126.025 Y7.603 Z-3.808 I1.025 J0
X123.975 Y7.603 Z-4.019 I-1.025 J0
X126.025 Y7.603 Z-4.231 I1.025 J0
X123.975 Y7.603 Z-4.442 I-1.025 J0
X126.025 Y7.603 Z-4.654 I1.025 J0
X123.975 Y7.603 Z-4.865 I-1.025 J0
X126.025 Y7.603 Z-5.077 I1.025 J0
X123.975 Y7.603 Z-5.288 I-1.025 J0
X126.025 Y7.603 Z-5.5 I1.025 J0
X123.975 Y7.603 Z-5.711 I-1.025 J0
X126.025 Y7.603 Z-5.923 I1.025 J0
X123.975 Y7.603 Z-6.134 I-1.025 J0
X126.025 Y7.603 Z-6.346 I1.025 J0
X124.325 Y8.375 Z-6.5 I-1.025 J0
X125.675 Y6.831 I0.675 J-0.772
X124.325 Y8.375 I-0.675 J0.772
X124.287 Y7.81 I0.263 J-0.301
G1 X124.419 Y7.66
X124.47 Y7.601 Z-6.492
X124.52 Y7.544 Z-6.47
X124.565 Y7.492 Z-6.433
X124.605 Y7.447 Z-6.383
X124.638 Y7.409 Z-6.322
X124.662 Y7.381 Z-6.253
X124.677 Y7.364 Z-6.178
X124.682 Y7.358 Z-6.1
Z5
X137.525 Y14.6
Z2
Z0.4 F50
G18 G2 X137.925 Z0 I0.4 K0
G1 X138.125
G17 G3 X138.525 Y15 I0 J0.4
X136.475 Y15 Z-0.212 I-1.025 J0 F150
X138.525 Y15 Z-0.423 I1.025 J0
X136.475 Y15 Z-0.635 I-1.025 J0
X138.525 Y15 Z-0.846 I1.025 J0
X136.475 Y15 Z-1.058 I-1.025 J0
X138.525 Y15 Z-1.269 I1.025 J0
X136.475 Y15 Z-1.481 I-1.025 J0
X138.525 Y15 Z-1.692 I1.025 J0
X136.475 Y15 Z-1.904 I-1.025 J0
X138.525 Y15 Z-2.115 I1.025 J0
X136.475 Y15 Z-2.327 I-1.025 J0
X138.525 Y15 Z-2.538 I1.025 J0
X136.475 Y15 Z-2.75 I-1.025 J0
X138.525 Y15 Z-2.961 I1.025 J0
X136.475 Y15 Z-3.173 I-1.025 J0
X138.525 Y15 Z-3.384 I1.025 J0
X136.475 Y15 Z-3.596 I-1.025 J0
X138.525 Y15 Z-3.808 I1.025 J0
X136.475 Y15 Z-4.019 I-1.025 J0
X138.525 Y15 Z-4.231 I1.025 J0
X136.475 Y15 Z-4.442 I-1.025 J0
X138.525 Y15 Z-4.654 I1.025 J0
X136.475 Y15 Z-4.865 I-1.025 J0
X138.525 Y15 Z-5.077 I1.025 J0
X136.475 Y15 Z-5.288 I-1.025 J0
X138.525 Y15 Z-5.5 I1.025 J0
X136.475 Y15 Z-5.711 I-1.025 J0
X138.525 Y15 Z-5.923 I1.025 J0
X136.475 Y15 Z-6.134 I-1.025 J0
X138.525 Y15 Z-6.346 I1.025 J0
X136.825 Y15.772 Z-6.5 I-1.025 J0
X138.175 Y14.228 I0.675 J-0.772
X136.825 Y15.772 I-0.675 J0.772
X136.787 Y15.207 I0.263 J-0.301
G1 X136.919 Y15.057
X136.97 Y14.998 Z-6.492
X137.02 Y14.941 Z-6.47
X137.065 Y14.889 Z-6.433
X137.105 Y14.844 Z-6.383
X137.138 Y14.806 Z-6.322
X137.162 Y14.778 Z-6.253
X137.177 Y14.761 Z-6.178
X137.182 Y14.756 Z-6.1
Z5
X137.525 Y54.6
Z2
Z0.4 F50
G18 G2 X137.925 Z0 I0.4 K0
G1 X138.125
G17 G3 X138.525 Y55 I0 J0.4
X136.475 Y55 Z-0.212 I-1.025 J0 F150
X138.525 Y55 Z-0.423 I1.025 J0
X136.475 Y55 Z-0.635 I-1.025 J0
X138.525 Y55 Z-0.846 I1.025 J0
X136.475 Y55 Z-1.058 I-1.025 J0
X138.525 Y55 Z-1.269 I1.025 J0
X136.475 Y55 Z-1.481 I-1.025 J0
X138.525 Y55 Z-1.692 I1.025 J0
X136.475 Y55 Z-1.904 I-1.025 J0
X138.525 Y55 Z-2.115 I1.025 J0
X136.475 Y55 Z-2.327 I-1.025 J0
X138.525 Y55 Z-2.538 I1.025 J0
X136.475 Y55 Z-2.75 I-1.025 J0
X138.525 Y55 Z-2.961 I1.025 J0
X136.475 Y55 Z-3.173 I-1.025 J0
X138.525 Y55 Z-3.384 I1.025 J0
X136.475 Y55 Z-3.596 I-1.025 J0
X138.525 Y55 Z-3.808 I1.025 J0
X136.475 Y55 Z-4.019 I-1.025 J0
X138.525 Y55 Z-4.231 I1.025 J0
X136.475 Y55 Z-4.442 I-1.025 J0
X138.525 Y55 Z-4.654 I1.025 J0
X136.475 Y55 Z-4.865 I-1.025 J0
X138.525 Y55 Z-5.077 I1.025 J0
X136.475 Y55 Z-5.288 I-1.025 J0
X138.525 Y55 Z-5.5 I1.025 J0
X136.475 Y55 Z-5.711 I-1.025 J0
X138.525 Y55 Z-5.923 I1.025 J0
X136.475 Y55 Z-6.134 I-1.025 J0
X138.525 Y55 Z-6.346 I1.025 J0
X136.825 Y55.772 Z-6.5 I-1.025 J0
X138.175 Y54.228 I0.675 J-0.772
X136.825 Y55.772 I-0.675 J0.772
X136.787 Y55.207 I0.263 J-0.301
G1 X136.919 Y55.057
X136.97 Y54.998 Z-6.492
X137.02 Y54.941 Z-6.47
X137.065 Y54.889 Z-6.433
X137.105 Y54.844 Z-6.383
X137.138 Y54.806 Z-6.322
X137.162 Y54.778 Z-6.253
X137.177 Y54.761 Z-6.178
X137.182 Y54.756 Z-6.1
Z5
X125.025 Y57.203
Z2
Z0.4 F50
G18 G2 X125.425 Z0 I0.4 K0
G1 X125.625
G17 G3 X126.025 Y57.603 I0 J0.4
X123.975 Y57.603 Z-0.212 I-1.025 J0 F150
X126.025 Y57.603 Z-0.423 I1.025 J0
X123.975 Y57.603 Z-0.635 I-1.025 J0
X126.025 Y57.603 Z-0.846 I1.025 J0
X123.975 Y57.603 Z-1.058 I-1.025 J0
X126.025 Y57.603 Z-1.269 I1.025 J0
X123.975 Y57.603 Z-1.481 I-1.025 J0
X126.025 Y57.603 Z-1.692 I1.025 J0
X123.975 Y57.603 Z-1.904 I-1.025 J0
X126.025 Y57.603 Z-2.115 I1.025 J0
X123.975 Y57.603 Z-2.327 I-1.025 J0
X126.025 Y57.603 Z-2.538 I1.025 J0
X123.975 Y57.603 Z-2.75 I-1.025 J0
X126.025 Y57.603 Z-2.961 I1.025 J0
X123.975 Y57.603 Z-3.173 I-1.025 J0
X126.025 Y57.603 Z-3.384 I1.025 J0
X123.975 Y57.603 Z-3.596 I-1.025 J0
X126.025 Y57.603 Z-3.808 I1.025 J0
X123.975 Y57.603 Z-4.019 I-1.025 J0
X126.025 Y57.603 Z-4.231 I1.025 J0
X123.975 Y57.603 Z-4.442 I-1.025 J0
X126.025 Y57.603 Z-4.654 I1.025 J0
X123.975 Y57.603 Z-4.865 I-1.025 J0
X126.025 Y57.603 Z-5.077 I1.025 J0
X123.975 Y57.603 Z-5.288 I-1.025 J0
X126.025 Y57.603 Z-5.5 I1.025 J0
X123.975 Y57.603 Z-5.711 I-1.025 J0
X126.025 Y57.603 Z-5.923 I1.025 J0
X123.975 Y57.603 Z-6.134 I-1.025 J0
X126.025 Y57.603 Z-6.346 I1.025 J0
X124.325 Y58.375 Z-6.5 I-1.025 J0
X125.675 Y56.831 I0.675 J-0.772
X124.325 Y58.375 I-0.675 J0.772
X124.287 Y57.81 I0.263 J-0.301
G1 X124.419 Y57.66
X124.47 Y57.601 Z-6.492
X124.52 Y57.544 Z-6.47
X124.565 Y57.492 Z-6.433
X124.605 Y57.447 Z-6.383
X124.638 Y57.409 Z-6.322
X124.662 Y57.381 Z-6.253
X124.677 Y57.364 Z-6.178
X124.682 Y57.358 Z-6.1
Z5
X25.025 Y57.203
Z2
Z0.4 F50
G18 G2 X25.425 Z0 I0.4 K0
G1 X25.625
G17 G3 X26.025 Y57.603 I0 J0.4
X23.975 Y57.603 Z-0.212 I-1.025 J0 F150
X26.025 Y57.603 Z-0.423 I1.025 J0
X23.975 Y57.603 Z-0.635 I-1.025 J0
X26.025 Y57.603 Z-0.846 I1.025 J0
X23.975 Y57.603 Z-1.058 I-1.025 J0
X26.025 Y57.603 Z-1.269 I1.025 J0
X23.975 Y57.603 Z-1.481 I-1.025 J0
X26.025 Y57.603 Z-1.692 I1.025 J0
X23.975 Y57.603 Z-1.904 I-1.025 J0
X26.025 Y57.603 Z-2.115 I1.025 J0
X23.975 Y57.603 Z-2.327 I-1.025 J0
X26.025 Y57.603 Z-2.538 I1.025 J0
X23.975 Y57.603 Z-2.75 I-1.025 J0
X26.025 Y57.603 Z-2.961 I1.025 J0
X23.975 Y57.603 Z-3.173 I-1.025 J0
X26.025 Y57.603 Z-3.384 I1.025 J0
X23.975 Y57.603 Z-3.596 I-1.025 J0
X26.025 Y57.603 Z-3.808 I1.025 J0
X23.975 Y57.603 Z-4.019 I-1.025 J0
X26.025 Y57.603 Z-4.231 I1.025 J0
X23.975 Y57.603 Z-4.442 I-1.025 J0
X26.025 Y57.603 Z-4.654 I1.025 J0
X23.975 Y57.603 Z-4.865 I-1.025 J0
X26.025 Y57.603 Z-5.077 I1.025 J0
X23.975 Y57.603 Z-5.288 I-1.025 J0
X26.025 Y57.603 Z-5.5 I1.025 J0
X23.975 Y57.603 Z-5.711 I-1.025 J0
X26.025 Y57.603 Z-5.923 I1.025 J0
X23.975 Y57.603 Z-6.134 I-1.025 J0
X26.025 Y57.603 Z-6.346 I1.025 J0
X24.325 Y58.375 Z-6.5 I-1.025 J0
X25.675 Y56.831 I0.675 J-0.772
X24.325 Y58.375 I-0.675 J0.772
X24.287 Y57.81 I0.263 J-0.301
G1 X24.419 Y57.66
X24.47 Y57.601 Z-6.492
X24.52 Y57.544 Z-6.47
X24.565 Y57.492 Z-6.433
X24.605 Y57.447 Z-6.383
X24.638 Y57.409 Z-6.322
X24.662 Y57.381 Z-6.253
X24.677 Y57.364 Z-6.178
X24.682 Y57.358 Z-6.1
Z5
X12.525 Y54.6
Z2
Z0.4 F50
G18 G2 X12.925 Z0 I0.4 K0
G1 X13.125
G17 G3 X13.525 Y55 I0 J0.4
X11.475 Y55 Z-0.212 I-1.025 J0 F150
X13.525 Y55 Z-0.423 I1.025 J0
X11.475 Y55 Z-0.635 I-1.025 J0
X13.525 Y55 Z-0.846 I1.025 J0
X11.475 Y55 Z-1.058 I-1.025 J0
X13.525 Y55 Z-1.269 I1.025 J0
X11.475 Y55 Z-1.481 I-1.025 J0
X13.525 Y55 Z-1.692 I1.025 J0
X11.475 Y55 Z-1.904 I-1.025 J0
X13.525 Y55 Z-2.115 I1.025 J0
X11.475 Y55 Z-2.327 I-1.025 J0
X13.525 Y55 Z-2.538 I1.025 J0
X11.475 Y55 Z-2.75 I-1.025 J0
X13.525 Y55 Z-2.961 I1.025 J0
X11.475 Y55 Z-3.173 I-1.025 J0
X13.525 Y55 Z-3.384 I1.025 J0
X11.475 Y55 Z-3.596 I-1.025 J0
X13.525 Y55 Z-3.808 I1.025 J0
X11.475 Y55 Z-4.019 I-1.025 J0
X13.525 Y55 Z-4.231 I1.025 J0
X11.475 Y55 Z-4.442 I-1.025 J0
X13.525 Y55 Z-4.654 I1.025 J0
X11.475 Y55 Z-4.865 I-1.025 J0
X13.525 Y55 Z-5.077 I1.025 J0
X11.475 Y55 Z-5.288 I-1.025 J0
X13.525 Y55 Z-5.5 I1.025 J0
X11.475 Y55 Z-5.711 I-1.025 J0
X13.525 Y55 Z-5.923 I1.025 J0
X11.475 Y55 Z-6.134 I-1.025 J0
X13.525 Y55 Z-6.346 I1.025 J0
X11.825 Y55.772 Z-6.5 I-1.025 J0
X13.175 Y54.228 I0.675 J-0.772
X11.825 Y55.772 I-0.675 J0.772
X11.787 Y55.207 I0.263 J-0.301
G1 X11.919 Y55.057
X11.97 Y54.998 Z-6.492
X12.02 Y54.941 Z-6.47
X12.065 Y54.889 Z-6.433
X12.105 Y54.844 Z-6.383
X12.138 Y54.806 Z-6.322
X12.162 Y54.778 Z-6.253
X12.177 Y54.761 Z-6.178
X12.182 Y54.756 Z-6.1
Z5
X12.525 Y14.6
Z2
Z0.4 F50
G18 G2 X12.925 Z0 I0.4 K0
G1 X13.125
G17 G3 X13.525 Y15 I0 J0.4
X11.475 Y15 Z-0.212 I-1.025 J0 F150
X13.525 Y15 Z-0.423 I1.025 J0
X11.475 Y15 Z-0.635 I-1.025 J0
X13.525 Y15 Z-0.846 I1.025 J0
X11.475 Y15 Z-1.058 I-1.025 J0
X13.525 Y15 Z-1.269 I1.025 J0
X11.475 Y15 Z-1.481 I-1.025 J0
X13.525 Y15 Z-1.692 I1.025 J0
X11.475 Y15 Z-1.904 I-1.025 J0
X13.525 Y15 Z-2.115 I1.025 J0
X11.475 Y15 Z-2.327 I-1.025 J0
X13.525 Y15 Z-2.538 I1.025 J0
X11.475 Y15 Z-2.75 I-1.025 J0
X13.525 Y15 Z-2.961 I1.025 J0
X11.475 Y15 Z-3.173 I-1.025 J0
X13.525 Y15 Z-3.384 I1.025 J0
X11.475 Y15 Z-3.596 I-1.025 J0
X13.525 Y15 Z-3.808 I1.025 J0
X11.475 Y15 Z-4.019 I-1.025 J0
X13.525 Y15 Z-4.231 I1.025 J0
X11.475 Y15 Z-4.442 I-1.025 J0
X13.525 Y15 Z-4.654 I1.025 J0
X11.475 Y15 Z-4.865 I-1.025 J0
X13.525 Y15 Z-5.077 I1.025 J0
X11.475 Y15 Z-5.288 I-1.025 J0
X13.525 Y15 Z-5.5 I1.025 J0
X11.475 Y15 Z-5.711 I-1.025 J0
X13.525 Y15 Z-5.923 I1.025 J0
X11.475 Y15 Z-6.134 I-1.025 J0
X13.525 Y15 Z-6.346 I1.025 J0
X11.825 Y15.772 Z-6.5 I-1.025 J0
X13.175 Y14.228 I0.675 J-0.772
X11.825 Y15.772 I-0.675 J0.772
X11.787 Y15.207 I0.263 J-0.301
G1 X11.919 Y15.057
X11.97 Y14.998 Z-6.492
X12.02 Y14.941 Z-6.47
X12.065 Y14.889 Z-6.433
X12.105 Y14.844 Z-6.383
X12.138 Y14.806 Z-6.322
X12.162 Y14.778 Z-6.253
X12.177 Y14.761 Z-6.178
X12.182 Y14.756 Z-6.1
Z5
X25.025 Y7.203
Z2
Z0.4 F50
G18 G2 X25.425 Z0 I0.4 K0
G1 X25.625
G17 G3 X26.025 Y7.603 I0 J0.4
X23.975 Y7.603 Z-0.212 I-1.025 J0 F150
X26.025 Y7.603 Z-0.423 I1.025 J0
X23.975 Y7.603 Z-0.635 I-1.025 J0
X26.025 Y7.603 Z-0.846 I1.025 J0
X23.975 Y7.603 Z-1.058 I-1.025 J0
X26.025 Y7.603 Z-1.269 I1.025 J0
X23.975 Y7.603 Z-1.481 I-1.025 J0
X26.025 Y7.603 Z-1.692 I1.025 J0
X23.975 Y7.603 Z-1.904 I-1.025 J0
X26.025 Y7.603 Z-2.115 I1.025 J0
X23.975 Y7.603 Z-2.327 I-1.025 J0
X26.025 Y7.603 Z-2.538 I1.025 J0
X23.975 Y7.603 Z-2.75 I-1.025 J0
X26.025 Y7.603 Z-2.961 I1.025 J0
X23.975 Y7.603 Z-3.173 I-1.025 J0
X26.025 Y7.603 Z-3.384 I1.025 J0
X23.975 Y7.603 Z-3.596 I-1.025 J0
X26.025 Y7.603 Z-3.808 I1.025 J0
X23.975 Y7.603 Z-4.019 I-1.025 J0
X26.025 Y7.603 Z-4.231 I1.025 J0
X23.975 Y7.603 Z-4.442 I-1.025 J0
X26.025 Y7.603 Z-4.654 I1.025 J0
X23.975 Y7.603 Z-4.865 I-1.025 J0
X26.025 Y7.603 Z-5.077 I1.025 J0
X23.975 Y7.603 Z-5.288 I-1.025 J0
X26.025 Y7.603 Z-5.5 I1.025 J0
X23.975 Y7.603 Z-5.711 I-1.025 J0
X26.025 Y7.603 Z-5.923 I1.025 J0
X23.975 Y7.603 Z-6.134 I-1.025 J0
X26.025 Y7.603 Z-6.346 I1.025 J0
X24.325 Y8.375 Z-6.5 I-1.025 J0
X25.675 Y6.831 I0.675 J-0.772
X24.325 Y8.375 I-0.675 J0.772
X24.287 Y7.81 I0.263 J-0.301
G1 X24.419 Y7.66
X24.47 Y7.601 Z-6.492
X24.52 Y7.544 Z-6.47
X24.565 Y7.492 Z-6.433
X24.605 Y7.447 Z-6.383
X24.638 Y7.409 Z-6.322
X24.662 Y7.381 Z-6.253
X24.677 Y7.364 Z-6.178
X24.682 Y7.358 Z-6.1
Z15
(When using Fusion for Personal Use, the feedrate of rapid)
(moves is reduced to match the feedrate of cutting moves,)
(which can increase machining time. Unrestricted rapid moves)
(are available with a Fusion Subscription.)

(Circular1)
G0 X27 Y57.203
G1 Z15 F150
Z0.9
Z-0.7 F50
G18 G2 X27.4 Z-1.1 I0.4 K0
G1 X27.6
G17 G3 X28 Y57.603 I0 J0.4
X22 Y57.603 I-3 J0 F150
X28 Y57.603 I3 J0
X27.6 Y58.003 I-0.4 J0
G1 X27.4
G18 G3 X27 Z-0.7 I0 K0.4
G1 Z5
Y57.203
Z0.3
Z-1.3 F50
G2 X27.4 Z-1.7 I0.4 K0
G1 X27.6
G17 G3 X28 Y57.603 I0 J0.4
X22 Y57.603 I-3 J0 F150
X28 Y57.603 I3 J0
X27.6 Y58.003 I-0.4 J0
G1 X27.4
G18 G3 X27 Z-1.3 I0 K0.4
G1 Z5
Y57.203
Z-0.1
Z-1.7 F50
G2 X27.4 Z-2.1 I0.4 K0
G1 X27.6
G17 G3 X28 Y57.603 I0 J0.4
X22 Y57.603 I-3 J0 F150
X28 Y57.603 I3 J0
X27.6 Y58.003 I-0.4 J0
G1 X27.4
G18 G3 X27 Z-1.7 I0 K0.4
G1 Z5
Y57.203
Z-0.5
Z-2.1 F50
G2 X27.4 Z-2.5 I0.4 K0
G1 X27.6
G17 G3 X28 Y57.603 I0 J0.4
X22 Y57.603 I-3 J0 F150
X28 Y57.603 I3 J0
X27.6 Y58.003 I-0.4 J0
G1 X27.4
G18 G3 X27 Z-2.1 I0 K0.4
G1 Z5
X14.5 Y54.6
Z0.9
Z-0.7 F50
G2 X14.9 Z-1.1 I0.4 K0
G1 X15.1
G17 G3 X15.5 Y55 I0 J0.4
X9.5 Y55 I-3 J0 F150
X15.5 Y55 I3 J0
X15.1 Y55.4 I-0.4 J0
G1 X14.9
G18 G3 X14.5 Z-0.7 I0 K0.4
G1 Z5
Y54.6
Z0.3
Z-1.3 F50
G2 X14.9 Z-1.7 I0.4 K0
G1 X15.1
G17 G3 X15.5 Y55 I0 J0.4
X9.5 Y55 I-3 J0 F150
X15.5 Y55 I3 J0
X15.1 Y55.4 I-0.4 J0
G1 X14.9
G18 G3 X14.5 Z-1.3 I0 K0.4
G1 Z5
Y54.6
Z-0.1
Z-1.7 F50
G2 X14.9 Z-2.1 I0.4 K0
G1 X15.1
G17 G3 X15.5 Y55 I0 J0.4
X9.5 Y55 I-3 J0 F150
X15.5 Y55 I3 J0
X15.1 Y55.4 I-0.4 J0
G1 X14.9
G18 G3 X14.5 Z-1.7 I0 K0.4
G1 Z5
Y54.6
Z-0.5
Z-2.1 F50
G2 X14.9 Z-2.5 I0.4 K0
G1 X15.1
G17 G3 X15.5 Y55 I0 J0.4
X9.5 Y55 I-3 J0 F150
X15.5 Y55 I3 J0
X15.1 Y55.4 I-0.4 J0
G1 X14.9
G18 G3 X14.5 Z-2.1 I0 K0.4
G1 Z5
Y14.6
Z0.9
Z-0.7 F50
G2 X14.9 Z-1.1 I0.4 K0
G1 X15.1
G17 G3 X15.5 Y15 I0 J0.4
X9.5 Y15 I-3 J0 F150
X15.5 Y15 I3 J0
X15.1 Y15.4 I-0.4 J0
G1 X14.9
G18 G3 X14.5 Z-0.7 I0 K0.4
G1 Z5
Y14.6
Z0.3
Z-1.3 F50
G2 X14.9 Z-1.7 I0.4 K0
G1 X15.1
G17 G3 X15.5 Y15 I0 J0.4
X9.5 Y15 I-3 J0 F150
X15.5 Y15 I3 J0
X15.1 Y15.4 I-0.4 J0
G1 X14.9
G18 G3 X14.5 Z-1.3 I0 K0.4
G1 Z5
Y14.6
Z-0.1
Z-1.7 F50
G2 X14.9 Z-2.1 I0.4 K0
G1 X15.1
G17 G3 X15.5 Y15 I0 J0.4
X9.5 Y15 I-3 J0 F150
X15.5 Y15 I3 J0
X15.1 Y15.4 I-0.4 J0
G1 X14.9
G18 G3 X14.5 Z-1.7 I0 K0.4
G1 Z5
Y14.6
Z-0.5
Z-2.1 F50
G2 X14.9 Z-2.5 I0.4 K0
G1 X15.1
G17 G3 X15.5 Y15 I0 J0.4
X9.5 Y15 I-3 J0 F150
X15.5 Y15 I3 J0
X15.1 Y15.4 I-0.4 J0
G1 X14.9
G18 G3 X14.5 Z-2.1 I0 K0.4
G1 Z5
X27 Y7.203
Z0.9
Z-0.7 F50
G2 X27.4 Z-1.1 I0.4 K0
G1 X27.6
G17 G3 X28 Y7.603 I0 J0.4
X22 Y7.603 I-3 J0 F150
X28 Y7.603 I3 J0
X27.6 Y8.003 I-0.4 J0
G1 X27.4
G18 G3 X27 Z-0.7 I0 K0.4
G1 Z5
Y7.203
Z0.3
Z-1.3 F50
G2 X27.4 Z-1.7 I0.4 K0
G1 X27.6
G17 G3 X28 Y7.603 I0 J0.4
X22 Y7.603 I-3 J0 F150
X28 Y7.603 I3 J0
X27.6 Y8.003 I-0.4 J0
G1 X27.4
G18 G3 X27 Z-1.3 I0 K0.4
G1 Z5
Y7.203
Z-0.1
Z-1.7 F50
G2 X27.4 Z-2.1 I0.4 K0
G1 X27.6
G17 G3 X28 Y7.603 I0 J0.4
X22 Y7.603 I-3 J0 F150
X28 Y7.603 I3 J0
X27.6 Y8.003 I-0.4 J0
G1 X27.4
G18 G3 X27 Z-1.7 I0 K0.4
G1 Z5
Y7.203
Z-0.5
Z-2.1 F50
G2 X27.4 Z-2.5 I0.4 K0
G1 X27.6
G17 G3 X28 Y7.603 I0 J0.4
X22 Y7.603 I-3 J0 F150
X28 Y7.603 I3 J0
X27.6 Y8.003 I-0.4 J0
G1 X27.4
G18 G3 X27 Z-2.1 I0 K0.4
G1 Z5
X127 Y7.203
Z0.9
Z-0.7 F50
G2 X127.4 Z-1.1 I0.4 K0
G1 X127.6
G17 G3 X128 Y7.603 I0 J0.4
X122 Y7.603 I-3 J0 F150
X128 Y7.603 I3 J0
X127.6 Y8.003 I-0.4 J0
G1 X127.4
G18 G3 X127 Z-0.7 I0 K0.4
G1 Z5
Y7.203
Z0.3
Z-1.3 F50
G2 X127.4 Z-1.7 I0.4 K0
G1 X127.6
G17 G3 X128 Y7.603 I0 J0.4
X122 Y7.603 I-3 J0 F150
X128 Y7.603 I3 J0
X127.6 Y8.003 I-0.4 J0
G1 X127.4
G18 G3 X127 Z-1.3 I0 K0.4
G1 Z5
Y7.203
Z-0.1
Z-1.7 F50
G2 X127.4 Z-2.1 I0.4 K0
G1 X127.6
G17 G3 X128 Y7.603 I0 J0.4
X122 Y7.603 I-3 J0 F150
X128 Y7.603 I3 J0
X127.6 Y8.003 I-0.4 J0
G1 X127.4
G18 G3 X127 Z-1.7 I0 K0.4
G1 Z5
Y7.203
Z-0.5
Z-2.1 F50
G2 X127.4 Z-2.5 I0.4 K0
G1 X127.6
G17 G3 X128 Y7.603 I0 J0.4
X122 Y7.603 I-3 J0 F150
X128 Y7.603 I3 J0
X127.6 Y8.003 I-0.4 J0
G1 X127.4
G18 G3 X127 Z-2.1 I0 K0.4
G1 Z5
X139.5 Y14.6
Z0.9
Z-0.7 F50
G2 X139.9 Z-1.1 I0.4 K0
G1 X140.1
G17 G3 X140.5 Y15 I0 J0.4
X134.5 Y15 I-3 J0 F150
X140.5 Y15 I3 J0
X140.1 Y15.4 I-0.4 J0
G1 X139.9
G18 G3 X139.5 Z-0.7 I0 K0.4
G1 Z5
Y14.6
Z0.3
Z-1.3 F50
G2 X139.9 Z-1.7 I0.4 K0
G1 X140.1
G17 G3 X140.5 Y15 I0 J0.4
X134.5 Y15 I-3 J0 F150
X140.5 Y15 I3 J0
X140.1 Y15.4 I-0.4 J0
G1 X139.9
G18 G3 X139.5 Z-1.3 I0 K0.4
G1 Z5
Y14.6
Z-0.1
Z-1.7 F50
G2 X139.9 Z-2.1 I0.4 K0
G1 X140.1
G17 G3 X140.5 Y15 I0 J0.4
X134.5 Y15 I-3 J0 F150
X140.5 Y15 I3 J0
X140.1 Y15.4 I-0.4 J0
G1 X139.9
G18 G3 X139.5 Z-1.7 I0 K0.4
G1 Z5
Y14.6
Z-0.5
Z-2.1 F50
G2 X139.9 Z-2.5 I0.4 K0
G1 X140.1
G17 G3 X140.5 Y15 I0 J0.4
X134.5 Y15 I-3 J0 F150
X140.5 Y15 I3 J0
X140.1 Y15.4 I-0.4 J0
G1 X139.9
G18 G3 X139.5 Z-2.1 I0 K0.4
G1 Z5
Y54.6
Z0.9
Z-0.7 F50
G2 X139.9 Z-1.1 I0.4 K0
G1 X140.1
G17 G3 X140.5 Y55 I0 J0.4
X134.5 Y55 I-3 J0 F150
X140.5 Y55 I3 J0
X140.1 Y55.4 I-0.4 J0
G1 X139.9
G18 G3 X139.5 Z-0.7 I0 K0.4
G1 Z5
Y54.6
Z0.3
Z-1.3 F50
G2 X139.9 Z-1.7 I0.4 K0
G1 X140.1
G17 G3 X140.5 Y55 I0 J0.4
X134.5 Y55 I-3 J0 F150
X140.5 Y55 I3 J0
X140.1 Y55.4 I-0.4 J0
G1 X139.9
G18 G3 X139.5 Z-1.3 I0 K0.4
G1 Z5
Y54.6
Z-0.1
Z-1.7 F50
G2 X139.9 Z-2.1 I0.4 K0
G1 X140.1
G17 G3 X140.5 Y55 I0 J0.4
X134.5 Y55 I-3 J0 F150
X140.5 Y55 I3 J0
X140.1 Y55.4 I-0.4 J0
G1 X139.9
G18 G3 X139.5 Z-1.7 I0 K0.4
G1 Z5
Y54.6
Z-0.5
Z-2.1 F50
G2 X139.9 Z-2.5 I0.4 K0
G1 X140.1
G17 G3 X140.5 Y55 I0 J0.4
X134.5 Y55 I-3 J0 F150
X140.5 Y55 I3 J0
X140.1 Y55.4 I-0.4 J0
G1 X139.9
G18 G3 X139.5 Z-2.1 I0 K0.4
G1 Z5
X127 Y57.203
Z0.9
Z-0.7 F50
G2 X127.4 Z-1.1 I0.4 K0
G1 X127.6
G17 G3 X128 Y57.603 I0 J0.4
X122 Y57.603 I-3 J0 F150
X128 Y57.603 I3 J0
X127.6 Y58.003 I-0.4 J0
G1 X127.4
G18 G3 X127 Z-0.7 I0 K0.4
G1 Z5
Y57.203
Z0.3
Z-1.3 F50
G2 X127.4 Z-1.7 I0.4 K0
G1 X127.6
G17 G3 X128 Y57.603 I0 J0.4
X122 Y57.603 I-3 J0 F150
X128 Y57.603 I3 J0
X127.6 Y58.003 I-0.4 J0
G1 X127.4
G18 G3 X127 Z-1.3 I0 K0.4
G1 Z5
Y57.203
Z-0.1
Z-1.7 F50
G2 X127.4 Z-2.1 I0.4 K0
G1 X127.6
G17 G3 X128 Y57.603 I0 J0.4
X122 Y57.603 I-3 J0 F150
X128 Y57.603 I3 J0
X127.6 Y58.003 I-0.4 J0
G1 X127.4
G18 G3 X127 Z-1.7 I0 K0.4
G1 Z5
Y57.203
Z-0.5
Z-2.1 F50
G2 X127.4 Z-2.5 I0.4 K0
G1 X127.6
G17 G3 X128 Y57.603 I0 J0.4
X122 Y57.603 I-3 J0 F150
X128 Y57.603 I3 J0
X127.6 Y58.003 I-0.4 J0
G1 X127.4
G18 G3 X127 Z-2.1 I0 K0.4
G1 Z15
G17
(When using Fusion for Personal Use, the feedrate of rapid)
(moves is reduced to match the feedrate of cutting moves,)
(which can increase machining time. Unrestricted rapid moves)
(are available with a Fusion Subscription.)

(2D Contour2)
G0 X-1.98 Y68.814
G1 Z6 F150
Z0.8
Z-1.1 F50
X-1.974 Y68.809 Z-1.178
X-1.958 Y68.793 Z-1.253
X-1.932 Y68.767 Z-1.322
X-1.897 Y68.731 Z-1.383
X-1.854 Y68.689 Z-1.433
X-1.805 Y68.64 Z-1.47
X-1.752 Y68.587 Z-1.492
X-1.697 Y68.531 Z-1.5
X-0.283 Y67.117
G3 X0 Y67 I0.283 J0.283
G1 X150 F150
G2 X152 Y65 I0 J-2
G1 Y0
G2 X150 Y-2 I-2 J0
G1 X0
G2 X-2 Y0 I0 J2
G1 Y65
G2 X0 Y67 I2 J0
G3 X0.283 Y67.117 I0 J0.4
G1 X1.697 Y68.531
X1.752 Y68.587 Z-1.492
X1.805 Y68.64 Z-1.47
X1.854 Y68.689 Z-1.433
X1.897 Y68.731 Z-1.383
X1.932 Y68.767 Z-1.322
X1.958 Y68.793 Z-1.253
X1.974 Y68.809 Z-1.178
X1.98 Y68.814 Z-1.1
Z1
X-1.98
Z0.33
Z-0.7 F50
Z-2.6
X-1.974 Y68.809 Z-2.678
X-1.958 Y68.793 Z-2.753
X-1.932 Y68.767 Z-2.822
X-1.897 Y68.731 Z-2.883
X-1.854 Y68.689 Z-2.933
X-1.805 Y68.64 Z-2.97
X-1.752 Y68.587 Z-2.992
X-1.697 Y68.531 Z-3
X-0.283 Y67.117
G3 X0 Y67 I0.283 J0.283
G1 X150 F150
G2 X152 Y65 I0 J-2
G1 Y0
G2 X150 Y-2 I-2 J0
G1 X0
G2 X-2 Y0 I0 J2
G1 Y65
G2 X0 Y67 I2 J0
G3 X0.283 Y67.117 I0 J0.4
G1 X1.697 Y68.531
X1.752 Y68.587 Z-2.992
X1.805 Y68.64 Z-2.97
X1.854 Y68.689 Z-2.933
X1.897 Y68.731 Z-2.883
X1.932 Y68.767 Z-2.822
X1.958 Y68.793 Z-2.753
X1.974 Y68.809 Z-2.678
X1.98 Y68.814 Z-2.6
Z1
X-1.98
Z0.33
Z-2.2 F50
Z-4.1
X-1.974 Y68.809 Z-4.178
X-1.958 Y68.793 Z-4.253
X-1.932 Y68.767 Z-4.322
X-1.897 Y68.731 Z-4.383
X-1.854 Y68.689 Z-4.433
X-1.805 Y68.64 Z-4.47
X-1.752 Y68.587 Z-4.492
X-1.697 Y68.531 Z-4.5
X-0.283 Y67.117
G3 X0 Y67 I0.283 J0.283
G1 X150 F150
G2 X152 Y65 I0 J-2
G1 Y0
G2 X150 Y-2 I-2 J0
G1 X0
G2 X-2 Y0 I0 J2
G1 Y65
G2 X0 Y67 I2 J0
G3 X0.283 Y67.117 I0 J0.4
G1 X1.697 Y68.531
X1.752 Y68.587 Z-4.492
X1.805 Y68.64 Z-4.47
X1.854 Y68.689 Z-4.433
X1.897 Y68.731 Z-4.383
X1.932 Y68.767 Z-4.322
X1.958 Y68.793 Z-4.253
X1.974 Y68.809 Z-4.178
X1.98 Y68.814 Z-4.1
Z1
X-1.98
Z0.33
Z-3.7 F50
Z-5.6
X-1.974 Y68.809 Z-5.678
X-1.958 Y68.793 Z-5.753
X-1.932 Y68.767 Z-5.822
X-1.897 Y68.731 Z-5.883
X-1.854 Y68.689 Z-5.933
X-1.805 Y68.64 Z-5.97
X-1.752 Y68.587 Z-5.992
X-1.697 Y68.531 Z-6
X-0.283 Y67.117
G3 X0 Y67 I0.283 J0.283
G1 X150 F150
G2 X152 Y65 I0 J-2
G1 Y0
G2 X150 Y-2 I-2 J0
G1 X0
G2 X-2 Y0 I0 J2
G1 Y65
G2 X0 Y67 I2 J0
G3 X0.283 Y67.117 I0 J0.4
G1 X1.697 Y68.531
X1.752 Y68.587 Z-5.992
X1.805 Y68.64 Z-5.97
X1.854 Y68.689 Z-5.933
X1.897 Y68.731 Z-5.883
X1.932 Y68.767 Z-5.822
X1.958 Y68.793 Z-5.753
X1.974 Y68.809 Z-5.678
X1.98 Y68.814 Z-5.6
Z1
X-1.98
Z0.33
Z-5.2 F50
Z-6.1
X-1.974 Y68.809 Z-6.178
X-1.958 Y68.793 Z-6.253
X-1.932 Y68.767 Z-6.322
X-1.897 Y68.731 Z-6.383
X-1.854 Y68.689 Z-6.433
X-1.805 Y68.64 Z-6.47
X-1.752 Y68.587 Z-6.492
X-1.697 Y68.531 Z-6.5
X-0.283 Y67.117
G3 X0 Y67 I0.283 J0.283
G1 X150 F150
G2 X152 Y65 I0 J-2
G1 Y0
G2 X150 Y-2 I-2 J0
G1 X0
G2 X-2 Y0 I0 J2
G1 Y65
G2 X0 Y67 I2 J0
G3 X0.283 Y67.117 I0 J0.4
G1 X1.697 Y68.531
X1.752 Y68.587 Z-6.492
X1.805 Y68.64 Z-6.47
X1.854 Y68.689 Z-6.433
X1.897 Y68.731 Z-6.383
X1.932 Y68.767 Z-6.322
X1.958 Y68.793 Z-6.253
X1.974 Y68.809 Z-6.178
X1.98 Y68.814 Z-6.1
Z6

M9
M5
M30
