(spindle_mount)
(Machine)
(  vendor: Autodesk)
(  model: Generic 3-axis)
(  description: This machine has XY axis on the Table and Z axis on the Head)
(T1 D=4 CR=0 - ZMIN=-6.5 - flat end mill)
G90 G94
G17
G21
(-Attention- Property Safe Retracts is set to Clearance Height.)
(Ensure the clearance height will clear the part and or fixtures.)
(Raise the Z-axis to a safe height before starting the program.)
(When using Fusion for Personal Use, the feedrate of rapid)
(moves is reduced to match the feedrate of cutting moves,)
(which can increase machining time. Unrestricted rapid moves)
(are available with a Fusion Subscription.)

(2D Contour2)
T1
S16000 M3
G17 G90 G94
G54
M8
G0 X-1.98 Y68.814
Z6
G1 Z0.8 F150
Z-1.1 F50
X-1.974 Y68.809 Z-1.178
X-1.958 Y68.793 Z-1.253
X-1.932 Y68.767 Z-1.322
X-1.897 Y68.731 Z-1.383
X-1.854 Y68.689 Z-1.433
X-1.805 Y68.64 Z-1.47
X-1.752 Y68.587 Z-1.492
X-1.697 Y68.531 Z-1.5
X-0.283 Y67.117
G3 X0 Y67 I0.283 J0.283
G1 X150 F150
G2 X152 Y65 I0 J-2
G1 Y0
G2 X150 Y-2 I-2 J0
G1 X0
G2 X-2 Y0 I0 J2
G1 Y65
G2 X0 Y67 I2 J0
G3 X0.283 Y67.117 I0 J0.4
G1 X1.697 Y68.531
X1.752 Y68.587 Z-1.492
X1.805 Y68.64 Z-1.47
X1.854 Y68.689 Z-1.433
X1.897 Y68.731 Z-1.383
X1.932 Y68.767 Z-1.322
X1.958 Y68.793 Z-1.253
X1.974 Y68.809 Z-1.178
X1.98 Y68.814 Z-1.1
Z1
X-1.98
Z0.33
Z-0.7 F50
Z-2.6
X-1.974 Y68.809 Z-2.678
X-1.958 Y68.793 Z-2.753
X-1.932 Y68.767 Z-2.822
X-1.897 Y68.731 Z-2.883
X-1.854 Y68.689 Z-2.933
X-1.805 Y68.64 Z-2.97
X-1.752 Y68.587 Z-2.992
X-1.697 Y68.531 Z-3
X-0.283 Y67.117
G3 X0 Y67 I0.283 J0.283
G1 X150 F150
G2 X152 Y65 I0 J-2
G1 Y0
G2 X150 Y-2 I-2 J0
G1 X0
G2 X-2 Y0 I0 J2
G1 Y65
G2 X0 Y67 I2 J0
G3 X0.283 Y67.117 I0 J0.4
G1 X1.697 Y68.531
X1.752 Y68.587 Z-2.992
X1.805 Y68.64 Z-2.97
X1.854 Y68.689 Z-2.933
X1.897 Y68.731 Z-2.883
X1.932 Y68.767 Z-2.822
X1.958 Y68.793 Z-2.753
X1.974 Y68.809 Z-2.678
X1.98 Y68.814 Z-2.6
Z1
X-1.98
Z0.33
Z-2.2 F50
Z-4.1
X-1.974 Y68.809 Z-4.178
X-1.958 Y68.793 Z-4.253
X-1.932 Y68.767 Z-4.322
X-1.897 Y68.731 Z-4.383
X-1.854 Y68.689 Z-4.433
X-1.805 Y68.64 Z-4.47
X-1.752 Y68.587 Z-4.492
X-1.697 Y68.531 Z-4.5
X-0.283 Y67.117
G3 X0 Y67 I0.283 J0.283
G1 X150 F150
G2 X152 Y65 I0 J-2
G1 Y0
G2 X150 Y-2 I-2 J0
G1 X0
G2 X-2 Y0 I0 J2
G1 Y65
G2 X0 Y67 I2 J0
G3 X0.283 Y67.117 I0 J0.4
G1 X1.697 Y68.531
X1.752 Y68.587 Z-4.492
X1.805 Y68.64 Z-4.47
X1.854 Y68.689 Z-4.433
X1.897 Y68.731 Z-4.383
X1.932 Y68.767 Z-4.322
X1.958 Y68.793 Z-4.253
X1.974 Y68.809 Z-4.178
X1.98 Y68.814 Z-4.1
Z1
X-1.98
Z0.33
Z-3.7 F50
Z-5.6
X-1.974 Y68.809 Z-5.678
X-1.958 Y68.793 Z-5.753
X-1.932 Y68.767 Z-5.822
X-1.897 Y68.731 Z-5.883
X-1.854 Y68.689 Z-5.933
X-1.805 Y68.64 Z-5.97
X-1.752 Y68.587 Z-5.992
X-1.697 Y68.531 Z-6
X-0.283 Y67.117
G3 X0 Y67 I0.283 J0.283
G1 X150 F150
G2 X152 Y65 I0 J-2
G1 Y0
G2 X150 Y-2 I-2 J0
G1 X0
G2 X-2 Y0 I0 J2
G1 Y65
G2 X0 Y67 I2 J0
G3 X0.283 Y67.117 I0 J0.4
G1 X1.697 Y68.531
X1.752 Y68.587 Z-5.992
X1.805 Y68.64 Z-5.97
X1.854 Y68.689 Z-5.933
X1.897 Y68.731 Z-5.883
X1.932 Y68.767 Z-5.822
X1.958 Y68.793 Z-5.753
X1.974 Y68.809 Z-5.678
X1.98 Y68.814 Z-5.6
Z1
X-1.98
Z0.33
Z-5.2 F50
Z-6.1
X-1.974 Y68.809 Z-6.178
X-1.958 Y68.793 Z-6.253
X-1.932 Y68.767 Z-6.322
X-1.897 Y68.731 Z-6.383
X-1.854 Y68.689 Z-6.433
X-1.805 Y68.64 Z-6.47
X-1.752 Y68.587 Z-6.492
X-1.697 Y68.531 Z-6.5
X-0.283 Y67.117
G3 X0 Y67 I0.283 J0.283
G1 X150 F150
G2 X152 Y65 I0 J-2
G1 Y0
G2 X150 Y-2 I-2 J0
G1 X0
G2 X-2 Y0 I0 J2
G1 Y65
G2 X0 Y67 I2 J0
G3 X0.283 Y67.117 I0 J0.4
G1 X1.697 Y68.531
X1.752 Y68.587 Z-6.492
X1.805 Y68.64 Z-6.47
X1.854 Y68.689 Z-6.433
X1.897 Y68.731 Z-6.383
X1.932 Y68.767 Z-6.322
X1.958 Y68.793 Z-6.253
X1.974 Y68.809 Z-6.178
X1.98 Y68.814 Z-6.1
Z6

M9
M5
M30
