(z_axis_mount)
(Machine)
(  vendor: Autodesk)
(  model: Generic 3-axis)
(  description: This machine has XYZ axis on the Head)
(T3 D=3.1 CR=0 - ZMIN=-6 - flat end mill)
G90 G94
G17
G21
(-Attention- Property Safe Retracts is set to Clearance Height.)
(Ensure the clearance height will clear the part and or fixtures.)
(Raise the Z-axis to a safe height before starting the program.)
(When using Fusion for Personal Use, the feedrate of rapid)
(moves is reduced to match the feedrate of cutting moves,)
(which can increase machining time. Unrestricted rapid moves)
(are available with a Fusion Subscription.)

(Bore2)
T3
S18000 M3
G17 G90 G94
G54
M8
G0 X194.31 Y25.575
Z15.5
G1 Z2.5 F200
Z0.81 F50
G19 G3 Y25.885 Z0.5 J0.31 K0
G1 Y26.04
G17 G3 X194 Y26.35 I-0.31 J0
X194 Y23.65 Z0.297 I0 J-1.35 F200
X194 Y26.35 Z0.094 I0 J1.35
X194 Y23.65 Z-0.108 I0 J-1.35
X194 Y26.35 Z-0.311 I0 J1.35
X194 Y23.65 Z-0.514 I0 J-1.35
X194 Y26.35 Z-0.717 I0 J1.35
X194 Y23.65 Z-0.92 I0 J-1.35
X194 Y26.35 Z-1.122 I0 J1.35
X194 Y23.65 Z-1.325 I0 J-1.35
X194 Y26.35 Z-1.528 I0 J1.35
X194 Y23.65 Z-1.731 I0 J-1.35
X194 Y26.35 Z-1.933 I0 J1.35
X194 Y23.65 Z-2.136 I0 J-1.35
X194 Y26.35 Z-2.339 I0 J1.35
X194 Y23.65 Z-2.542 I0 J-1.35
X194 Y26.35 Z-2.745 I0 J1.35
X194 Y23.65 Z-2.947 I0 J-1.35
X194 Y26.35 Z-3.15 I0 J1.35
X194 Y23.65 Z-3.353 I0 J-1.35
X194 Y26.35 Z-3.556 I0 J1.35
X194 Y23.65 Z-3.759 I0 J-1.35
X194 Y26.35 Z-3.961 I0 J1.35
X194 Y23.65 Z-4.164 I0 J-1.35
X194 Y26.35 Z-4.367 I0 J1.35
X194 Y23.65 Z-4.57 I0 J-1.35
X194 Y26.35 Z-4.772 I0 J1.35
X194 Y23.65 Z-4.975 I0 J-1.35
X194 Y26.35 Z-5.178 I0 J1.35
X194 Y23.65 Z-5.381 I0 J-1.35
X194 Y26.35 Z-5.584 I0 J1.35
X194 Y23.65 Z-5.786 I0 J-1.35
X195.345 Y25.113 Z-5.893 I0 J1.35
X193.775 Y26.331 Z-6 I-1.345 J-0.113
X194.225 Y23.669 I0.225 J-1.331
X193.775 Y26.331 I-0.225 J1.331
X193.521 Y25.974 I0.052 J-0.306 F50
G1 X193.547 Y25.821
X193.559 Y25.753 Z-5.992
X193.569 Y25.688 Z-5.969
X193.579 Y25.63 Z-5.932
X193.587 Y25.582 Z-5.883
X193.594 Y25.546 Z-5.825
X193.597 Y25.523 Z-5.759
X193.599 Y25.515 Z-5.69
Z5.5 F200
X226.31 Y25.575
Z2.5
Z0.81 F50
G19 G3 Y25.885 Z0.5 J0.31 K0
G1 Y26.04
G17 G3 X226 Y26.35 I-0.31 J0
X226 Y23.65 Z0.297 I0 J-1.35 F200
X226 Y26.35 Z0.094 I0 J1.35
X226 Y23.65 Z-0.108 I0 J-1.35
X226 Y26.35 Z-0.311 I0 J1.35
X226 Y23.65 Z-0.514 I0 J-1.35
X226 Y26.35 Z-0.717 I0 J1.35
X226 Y23.65 Z-0.92 I0 J-1.35
X226 Y26.35 Z-1.122 I0 J1.35
X226 Y23.65 Z-1.325 I0 J-1.35
X226 Y26.35 Z-1.528 I0 J1.35
X226 Y23.65 Z-1.731 I0 J-1.35
X226 Y26.35 Z-1.933 I0 J1.35
X226 Y23.65 Z-2.136 I0 J-1.35
X226 Y26.35 Z-2.339 I0 J1.35
X226 Y23.65 Z-2.542 I0 J-1.35
X226 Y26.35 Z-2.745 I0 J1.35
X226 Y23.65 Z-2.947 I0 J-1.35
X226 Y26.35 Z-3.15 I0 J1.35
X226 Y23.65 Z-3.353 I0 J-1.35
X226 Y26.35 Z-3.556 I0 J1.35
X226 Y23.65 Z-3.759 I0 J-1.35
X226 Y26.35 Z-3.961 I0 J1.35
X226 Y23.65 Z-4.164 I0 J-1.35
X226 Y26.35 Z-4.367 I0 J1.35
X226 Y23.65 Z-4.57 I0 J-1.35
X226 Y26.35 Z-4.772 I0 J1.35
X226 Y23.65 Z-4.975 I0 J-1.35
X226 Y26.35 Z-5.178 I0 J1.35
X226 Y23.65 Z-5.381 I0 J-1.35
X226 Y26.35 Z-5.584 I0 J1.35
X226 Y23.65 Z-5.786 I0 J-1.35
X227.345 Y25.113 Z-5.893 I0 J1.35
X225.775 Y26.331 Z-6 I-1.345 J-0.113
X226.225 Y23.669 I0.225 J-1.331
X225.775 Y26.331 I-0.225 J1.331
X225.521 Y25.974 I0.052 J-0.306 F50
G1 X225.547 Y25.821
X225.559 Y25.753 Z-5.992
X225.569 Y25.688 Z-5.969
X225.579 Y25.63 Z-5.932
X225.587 Y25.582 Z-5.883
X225.594 Y25.546 Z-5.825
X225.597 Y25.523 Z-5.759
X225.599 Y25.515 Z-5.69
Z5.5 F200
X226.31 Y61.575
Z2.5
Z0.81 F50
G19 G3 Y61.885 Z0.5 J0.31 K0
G1 Y62.04
G17 G3 X226 Y62.35 I-0.31 J0
X226 Y59.65 Z0.297 I0 J-1.35 F200
X226 Y62.35 Z0.094 I0 J1.35
X226 Y59.65 Z-0.108 I0 J-1.35
X226 Y62.35 Z-0.311 I0 J1.35
X226 Y59.65 Z-0.514 I0 J-1.35
X226 Y62.35 Z-0.717 I0 J1.35
X226 Y59.65 Z-0.92 I0 J-1.35
X226 Y62.35 Z-1.122 I0 J1.35
X226 Y59.65 Z-1.325 I0 J-1.35
X226 Y62.35 Z-1.528 I0 J1.35
X226 Y59.65 Z-1.731 I0 J-1.35
X226 Y62.35 Z-1.933 I0 J1.35
X226 Y59.65 Z-2.136 I0 J-1.35
X226 Y62.35 Z-2.339 I0 J1.35
X226 Y59.65 Z-2.542 I0 J-1.35
X226 Y62.35 Z-2.745 I0 J1.35
X226 Y59.65 Z-2.947 I0 J-1.35
X226 Y62.35 Z-3.15 I0 J1.35
X226 Y59.65 Z-3.353 I0 J-1.35
X226 Y62.35 Z-3.556 I0 J1.35
X226 Y59.65 Z-3.759 I0 J-1.35
X226 Y62.35 Z-3.961 I0 J1.35
X226 Y59.65 Z-4.164 I0 J-1.35
X226 Y62.35 Z-4.367 I0 J1.35
X226 Y59.65 Z-4.57 I0 J-1.35
X226 Y62.35 Z-4.772 I0 J1.35
X226 Y59.65 Z-4.975 I0 J-1.35
X226 Y62.35 Z-5.178 I0 J1.35
X226 Y59.65 Z-5.381 I0 J-1.35
X226 Y62.35 Z-5.584 I0 J1.35
X226 Y59.65 Z-5.786 I0 J-1.35
X227.345 Y61.113 Z-5.893 I0 J1.35
X225.775 Y62.331 Z-6 I-1.345 J-0.113
X226.225 Y59.669 I0.225 J-1.331
X225.775 Y62.331 I-0.225 J1.331
X225.521 Y61.974 I0.052 J-0.306 F50
G1 X225.547 Y61.821
X225.559 Y61.753 Z-5.992
X225.569 Y61.688 Z-5.969
X225.579 Y61.63 Z-5.932
X225.587 Y61.582 Z-5.883
X225.594 Y61.546 Z-5.825
X225.597 Y61.523 Z-5.759
X225.599 Y61.515 Z-5.69
Z5.5 F200
X194.31 Y61.575
Z2.5
Z0.81 F50
G19 G3 Y61.885 Z0.5 J0.31 K0
G1 Y62.04
G17 G3 X194 Y62.35 I-0.31 J0
X194 Y59.65 Z0.297 I0 J-1.35 F200
X194 Y62.35 Z0.094 I0 J1.35
X194 Y59.65 Z-0.108 I0 J-1.35
X194 Y62.35 Z-0.311 I0 J1.35
X194 Y59.65 Z-0.514 I0 J-1.35
X194 Y62.35 Z-0.717 I0 J1.35
X194 Y59.65 Z-0.92 I0 J-1.35
X194 Y62.35 Z-1.122 I0 J1.35
X194 Y59.65 Z-1.325 I0 J-1.35
X194 Y62.35 Z-1.528 I0 J1.35
X194 Y59.65 Z-1.731 I0 J-1.35
X194 Y62.35 Z-1.933 I0 J1.35
X194 Y59.65 Z-2.136 I0 J-1.35
X194 Y62.35 Z-2.339 I0 J1.35
X194 Y59.65 Z-2.542 I0 J-1.35
X194 Y62.35 Z-2.745 I0 J1.35
X194 Y59.65 Z-2.947 I0 J-1.35
X194 Y62.35 Z-3.15 I0 J1.35
X194 Y59.65 Z-3.353 I0 J-1.35
X194 Y62.35 Z-3.556 I0 J1.35
X194 Y59.65 Z-3.759 I0 J-1.35
X194 Y62.35 Z-3.961 I0 J1.35
X194 Y59.65 Z-4.164 I0 J-1.35
X194 Y62.35 Z-4.367 I0 J1.35
X194 Y59.65 Z-4.57 I0 J-1.35
X194 Y62.35 Z-4.772 I0 J1.35
X194 Y59.65 Z-4.975 I0 J-1.35
X194 Y62.35 Z-5.178 I0 J1.35
X194 Y59.65 Z-5.381 I0 J-1.35
X194 Y62.35 Z-5.584 I0 J1.35
X194 Y59.65 Z-5.786 I0 J-1.35
X195.345 Y61.113 Z-5.893 I0 J1.35
X193.775 Y62.331 Z-6 I-1.345 J-0.113
X194.225 Y59.669 I0.225 J-1.331
X193.775 Y62.331 I-0.225 J1.331
X193.521 Y61.974 I0.052 J-0.306 F50
G1 X193.547 Y61.821
X193.559 Y61.753 Z-5.992
X193.569 Y61.688 Z-5.969
X193.579 Y61.63 Z-5.932
X193.587 Y61.582 Z-5.883
X193.594 Y61.546 Z-5.825
X193.597 Y61.523 Z-5.759
X193.599 Y61.515 Z-5.69
Z5.5 F200
X140.265 Y53.706
Z2.5
Z0.81 F50
X140.266 Y53.714 Z0.741
X140.267 Y53.737 Z0.675
X140.269 Y53.774 Z0.617
X140.271 Y53.823 Z0.568
X140.274 Y53.881 Z0.531
X140.277 Y53.947 Z0.508
X140.281 Y54.016 Z0.5
X140.288 Y54.171
G3 X140.027 Y54.459 I-0.275 J0.014
X139.973 Y53.36 Z0.353 I-0.027 J-0.549 F200
X140.027 Y54.459 Z0.206 I0.027 J0.549
X139.973 Y53.36 Z0.059 I-0.027 J-0.549
X140.027 Y54.459 Z-0.087 I0.027 J0.549
X139.973 Y53.36 Z-0.234 I-0.027 J-0.549
X140.027 Y54.459 Z-0.381 I0.027 J0.549
X139.973 Y53.36 Z-0.528 I-0.027 J-0.549
X140.027 Y54.459 Z-0.675 I0.027 J0.549
X139.973 Y53.36 Z-0.822 I-0.027 J-0.549
X140.027 Y54.459 Z-0.968 I0.027 J0.549
X139.973 Y53.36 Z-1.115 I-0.027 J-0.549
X140.027 Y54.459 Z-1.262 I0.027 J0.549
X139.973 Y53.36 Z-1.409 I-0.027 J-0.549
X140.027 Y54.459 Z-1.556 I0.027 J0.549
X139.973 Y53.36 Z-1.703 I-0.027 J-0.549
X140.027 Y54.459 Z-1.85 I0.027 J0.549
X139.973 Y53.36 Z-1.996 I-0.027 J-0.549
X140.027 Y54.459 Z-2.143 I0.027 J0.549
X139.973 Y53.36 Z-2.29 I-0.027 J-0.549
X140.027 Y54.459 Z-2.437 I0.027 J0.549
X139.973 Y53.36 Z-2.584 I-0.027 J-0.549
X140.027 Y54.459 Z-2.731 I0.027 J0.549
X139.973 Y53.36 Z-2.877 I-0.027 J-0.549
X140.027 Y54.459 Z-3.024 I0.027 J0.549
X139.973 Y53.36 Z-3.171 I-0.027 J-0.549
X140.027 Y54.459 Z-3.318 I0.027 J0.549
X139.973 Y53.36 Z-3.465 I-0.027 J-0.549
X140.027 Y54.459 Z-3.612 I0.027 J0.549
X139.973 Y53.36 Z-3.759 I-0.027 J-0.549
X140.027 Y54.459 Z-3.905 I0.027 J0.549
X139.973 Y53.36 Z-4.052 I-0.027 J-0.549
X140.027 Y54.459 Z-4.199 I0.027 J0.549
X139.973 Y53.36 Z-4.346 I-0.027 J-0.549
X140.027 Y54.459 Z-4.493 I0.027 J0.549
X139.973 Y53.36 Z-4.64 I-0.027 J-0.549
X140.027 Y54.459 Z-4.786 I0.027 J0.549
X139.973 Y53.36 Z-4.933 I-0.027 J-0.549
X140.027 Y54.459 Z-5.08 I0.027 J0.549
X139.973 Y53.36 Z-5.227 I-0.027 J-0.549
X140.027 Y54.459 Z-5.374 I0.027 J0.549
X139.973 Y53.36 Z-5.521 I-0.027 J-0.549
X140.027 Y54.459 Z-5.668 I0.027 J0.549
X139.973 Y53.36 Z-5.814 I-0.027 J-0.549
X140.027 Y54.459 Z-5.961 I0.027 J0.549
X139.613 Y54.301 Z-6 I-0.027 J-0.549
X140.387 Y53.518 I0.387 J-0.391
X139.613 Y54.301 I-0.387 J0.391
X139.611 Y53.912 I0.193 J-0.196 F50
G1 X139.72 Y53.802
X139.769 Y53.753 Z-5.992
X139.815 Y53.706 Z-5.969
X139.856 Y53.664 Z-5.932
X139.89 Y53.629 Z-5.883
X139.916 Y53.603 Z-5.825
X139.932 Y53.587 Z-5.759
X139.938 Y53.581 Z-5.69
Z5.5 F200
X140.454 Y53.727
Z2.5
Z0.81 F50
Y53.735 Z0.741
X140.453 Y53.758 Z0.675
X140.452 Y53.795 Z0.617
X140.451 Y53.844 Z0.568
X140.449 Y53.903 Z0.531
X140.447 Y53.968 Z0.508
X140.444 Y54.037 Z0.5
X140.439 Y54.192
G3 X140.155 Y54.458 I-0.275 J-0.009
X140.191 Y53.358 Z0.353 I0.018 J-0.55 F200
X140.155 Y54.458 Z0.206 I-0.018 J0.55
X140.191 Y53.358 Z0.059 I0.018 J-0.55
X140.155 Y54.458 Z-0.087 I-0.018 J0.55
X140.191 Y53.358 Z-0.234 I0.018 J-0.55
X140.155 Y54.458 Z-0.381 I-0.018 J0.55
X140.191 Y53.358 Z-0.528 I0.018 J-0.55
X140.155 Y54.458 Z-0.675 I-0.018 J0.55
X140.191 Y53.358 Z-0.822 I0.018 J-0.55
X140.155 Y54.458 Z-0.968 I-0.018 J0.55
X140.191 Y53.358 Z-1.115 I0.018 J-0.55
X140.155 Y54.458 Z-1.262 I-0.018 J0.55
X140.191 Y53.358 Z-1.409 I0.018 J-0.55
X140.155 Y54.458 Z-1.556 I-0.018 J0.55
X140.191 Y53.358 Z-1.703 I0.018 J-0.55
X140.155 Y54.458 Z-1.85 I-0.018 J0.55
X140.191 Y53.358 Z-1.996 I0.018 J-0.55
X140.155 Y54.458 Z-2.143 I-0.018 J0.55
X140.191 Y53.358 Z-2.29 I0.018 J-0.55
X140.155 Y54.458 Z-2.437 I-0.018 J0.55
X140.191 Y53.358 Z-2.584 I0.018 J-0.55
X140.155 Y54.458 Z-2.731 I-0.018 J0.55
X140.191 Y53.358 Z-2.877 I0.018 J-0.55
X140.155 Y54.458 Z-3.024 I-0.018 J0.55
X140.191 Y53.358 Z-3.171 I0.018 J-0.55
X140.155 Y54.458 Z-3.318 I-0.018 J0.55
X140.191 Y53.358 Z-3.465 I0.018 J-0.55
X140.155 Y54.458 Z-3.612 I-0.018 J0.55
X140.191 Y53.358 Z-3.759 I0.018 J-0.55
X140.155 Y54.458 Z-3.905 I-0.018 J0.55
X140.191 Y53.358 Z-4.052 I0.018 J-0.55
X140.155 Y54.458 Z-4.199 I-0.018 J0.55
X140.191 Y53.358 Z-4.346 I0.018 J-0.55
X140.155 Y54.458 Z-4.493 I-0.018 J0.55
X140.191 Y53.358 Z-4.64 I0.018 J-0.55
X140.155 Y54.458 Z-4.786 I-0.018 J0.55
X140.191 Y53.358 Z-4.933 I0.018 J-0.55
X140.155 Y54.458 Z-5.08 I-0.018 J0.55
X140.191 Y53.358 Z-5.227 I0.018 J-0.55
X140.155 Y54.458 Z-5.374 I-0.018 J0.55
X140.191 Y53.358 Z-5.521 I0.018 J-0.55
X140.155 Y54.458 Z-5.668 I-0.018 J0.55
X140.191 Y53.358 Z-5.814 I0.018 J-0.55
X140.155 Y54.458 Z-5.961 I-0.018 J0.55
X139.756 Y54.266 Z-6 I0.018 J-0.55
X140.591 Y53.55 I0.417 J-0.358
X139.756 Y54.266 I-0.417 J0.358
X139.786 Y53.878 I0.209 J-0.179 F50
G1 X139.903 Y53.777
X139.956 Y53.733 Z-5.992
X140.005 Y53.69 Z-5.969
X140.05 Y53.652 Z-5.932
X140.087 Y53.62 Z-5.883
X140.115 Y53.596 Z-5.825
X140.133 Y53.581 Z-5.759
X140.139 Y53.576 Z-5.69
Z5.5 F200
X140.265 Y29.706
Z2.5
Z0.81 F50
X140.266 Y29.714 Z0.741
X140.267 Y29.737 Z0.675
X140.269 Y29.774 Z0.617
X140.271 Y29.823 Z0.568
X140.274 Y29.881 Z0.531
X140.277 Y29.947 Z0.508
X140.281 Y30.016 Z0.5
X140.288 Y30.171
G3 X140.027 Y30.459 I-0.275 J0.014
X139.973 Y29.36 Z0.353 I-0.027 J-0.549 F200
X140.027 Y30.459 Z0.206 I0.027 J0.549
X139.973 Y29.36 Z0.059 I-0.027 J-0.549
X140.027 Y30.459 Z-0.087 I0.027 J0.549
X139.973 Y29.36 Z-0.234 I-0.027 J-0.549
X140.027 Y30.459 Z-0.381 I0.027 J0.549
X139.973 Y29.36 Z-0.528 I-0.027 J-0.549
X140.027 Y30.459 Z-0.675 I0.027 J0.549
X139.973 Y29.36 Z-0.822 I-0.027 J-0.549
X140.027 Y30.459 Z-0.968 I0.027 J0.549
X139.973 Y29.36 Z-1.115 I-0.027 J-0.549
X140.027 Y30.459 Z-1.262 I0.027 J0.549
X139.973 Y29.36 Z-1.409 I-0.027 J-0.549
X140.027 Y30.459 Z-1.556 I0.027 J0.549
X139.973 Y29.36 Z-1.703 I-0.027 J-0.549
X140.027 Y30.459 Z-1.85 I0.027 J0.549
X139.973 Y29.36 Z-1.996 I-0.027 J-0.549
X140.027 Y30.459 Z-2.143 I0.027 J0.549
X139.973 Y29.36 Z-2.29 I-0.027 J-0.549
X140.027 Y30.459 Z-2.437 I0.027 J0.549
X139.973 Y29.36 Z-2.584 I-0.027 J-0.549
X140.027 Y30.459 Z-2.731 I0.027 J0.549
X139.973 Y29.36 Z-2.877 I-0.027 J-0.549
X140.027 Y30.459 Z-3.024 I0.027 J0.549
X139.973 Y29.36 Z-3.171 I-0.027 J-0.549
X140.027 Y30.459 Z-3.318 I0.027 J0.549
X139.973 Y29.36 Z-3.465 I-0.027 J-0.549
X140.027 Y30.459 Z-3.612 I0.027 J0.549
X139.973 Y29.36 Z-3.759 I-0.027 J-0.549
X140.027 Y30.459 Z-3.905 I0.027 J0.549
X139.973 Y29.36 Z-4.052 I-0.027 J-0.549
X140.027 Y30.459 Z-4.199 I0.027 J0.549
X139.973 Y29.36 Z-4.346 I-0.027 J-0.549
X140.027 Y30.459 Z-4.493 I0.027 J0.549
X139.973 Y29.36 Z-4.64 I-0.027 J-0.549
X140.027 Y30.459 Z-4.786 I0.027 J0.549
X139.973 Y29.36 Z-4.933 I-0.027 J-0.549
X140.027 Y30.459 Z-5.08 I0.027 J0.549
X139.973 Y29.36 Z-5.227 I-0.027 J-0.549
X140.027 Y30.459 Z-5.374 I0.027 J0.549
X139.973 Y29.36 Z-5.521 I-0.027 J-0.549
X140.027 Y30.459 Z-5.668 I0.027 J0.549
X139.973 Y29.36 Z-5.814 I-0.027 J-0.549
X140.027 Y30.459 Z-5.961 I0.027 J0.549
X139.613 Y30.301 Z-6 I-0.027 J-0.549
X140.387 Y29.518 I0.387 J-0.391
X139.613 Y30.301 I-0.387 J0.391
X139.611 Y29.912 I0.193 J-0.196 F50
G1 X139.72 Y29.802
X139.769 Y29.753 Z-5.992
X139.815 Y29.706 Z-5.969
X139.856 Y29.664 Z-5.932
X139.89 Y29.629 Z-5.883
X139.916 Y29.603 Z-5.825
X139.932 Y29.587 Z-5.759
X139.938 Y29.581 Z-5.69
Z5.5 F200
X139.908 Y30.112
Z2.5
Z0.81 F50
Y30.104 Z0.741
X139.907 Y30.081 Z0.675
X139.905 Y30.044 Z0.617
X139.902 Y29.995 Z0.568
X139.899 Y29.936 Z0.531
X139.896 Y29.871 Z0.508
X139.893 Y29.802 Z0.5
X139.885 Y29.647
G3 X140.146 Y29.359 I0.275 J-0.014
X140.201 Y30.457 Z0.353 I0.027 J0.549 F200
X140.146 Y29.359 Z0.206 I-0.027 J-0.549
X140.201 Y30.457 Z0.059 I0.027 J0.549
X140.146 Y29.359 Z-0.087 I-0.027 J-0.549
X140.201 Y30.457 Z-0.234 I0.027 J0.549
X140.146 Y29.359 Z-0.381 I-0.027 J-0.549
X140.201 Y30.457 Z-0.528 I0.027 J0.549
X140.146 Y29.359 Z-0.675 I-0.027 J-0.549
X140.201 Y30.457 Z-0.822 I0.027 J0.549
X140.146 Y29.359 Z-0.968 I-0.027 J-0.549
X140.201 Y30.457 Z-1.115 I0.027 J0.549
X140.146 Y29.359 Z-1.262 I-0.027 J-0.549
X140.201 Y30.457 Z-1.409 I0.027 J0.549
X140.146 Y29.359 Z-1.556 I-0.027 J-0.549
X140.201 Y30.457 Z-1.703 I0.027 J0.549
X140.146 Y29.359 Z-1.85 I-0.027 J-0.549
X140.201 Y30.457 Z-1.996 I0.027 J0.549
X140.146 Y29.359 Z-2.143 I-0.027 J-0.549
X140.201 Y30.457 Z-2.29 I0.027 J0.549
X140.146 Y29.359 Z-2.437 I-0.027 J-0.549
X140.201 Y30.457 Z-2.584 I0.027 J0.549
X140.146 Y29.359 Z-2.731 I-0.027 J-0.549
X140.201 Y30.457 Z-2.877 I0.027 J0.549
X140.146 Y29.359 Z-3.024 I-0.027 J-0.549
X140.201 Y30.457 Z-3.171 I0.027 J0.549
X140.146 Y29.359 Z-3.318 I-0.027 J-0.549
X140.201 Y30.457 Z-3.465 I0.027 J0.549
X140.146 Y29.359 Z-3.612 I-0.027 J-0.549
X140.201 Y30.457 Z-3.759 I0.027 J0.549
X140.146 Y29.359 Z-3.905 I-0.027 J-0.549
X140.201 Y30.457 Z-4.052 I0.027 J0.549
X140.146 Y29.359 Z-4.199 I-0.027 J-0.549
X140.201 Y30.457 Z-4.346 I0.027 J0.549
X140.146 Y29.359 Z-4.493 I-0.027 J-0.549
X140.201 Y30.457 Z-4.64 I0.027 J0.549
X140.146 Y29.359 Z-4.786 I-0.027 J-0.549
X140.201 Y30.457 Z-4.933 I0.027 J0.549
X140.146 Y29.359 Z-5.08 I-0.027 J-0.549
X140.201 Y30.457 Z-5.227 I0.027 J0.549
X140.146 Y29.359 Z-5.374 I-0.027 J-0.549
X140.201 Y30.457 Z-5.521 I0.027 J0.549
X140.146 Y29.359 Z-5.668 I-0.027 J-0.549
X140.201 Y30.457 Z-5.814 I0.027 J0.549
X140.146 Y29.359 Z-5.961 I-0.027 J-0.549
X140.56 Y29.517 Z-6 I0.027 J0.549
X139.787 Y30.299 I-0.387 J0.391
X140.56 Y29.517 I0.387 J-0.391
X140.562 Y29.906 I-0.193 J0.196 F50
G1 X140.453 Y30.016
X140.405 Y30.065 Z-5.992
X140.359 Y30.112 Z-5.969
X140.318 Y30.153 Z-5.932
X140.283 Y30.188 Z-5.883
X140.257 Y30.215 Z-5.825
X140.241 Y30.231 Z-5.759
X140.235 Y30.237 Z-5.69
Z5.5 F200
X99.908 Y30.112
Z2.5
Z0.81 F50
Y30.104 Z0.741
X99.907 Y30.081 Z0.675
X99.905 Y30.044 Z0.617
X99.902 Y29.995 Z0.568
X99.899 Y29.936 Z0.531
X99.896 Y29.871 Z0.508
X99.893 Y29.802 Z0.5
X99.885 Y29.647
G3 X100.146 Y29.359 I0.275 J-0.014
X100.201 Y30.457 Z0.353 I0.027 J0.549 F200
X100.146 Y29.359 Z0.206 I-0.027 J-0.549
X100.201 Y30.457 Z0.059 I0.027 J0.549
X100.146 Y29.359 Z-0.087 I-0.027 J-0.549
X100.201 Y30.457 Z-0.234 I0.027 J0.549
X100.146 Y29.359 Z-0.381 I-0.027 J-0.549
X100.201 Y30.457 Z-0.528 I0.027 J0.549
X100.146 Y29.359 Z-0.675 I-0.027 J-0.549
X100.201 Y30.457 Z-0.822 I0.027 J0.549
X100.146 Y29.359 Z-0.968 I-0.027 J-0.549
X100.201 Y30.457 Z-1.115 I0.027 J0.549
X100.146 Y29.359 Z-1.262 I-0.027 J-0.549
X100.201 Y30.457 Z-1.409 I0.027 J0.549
X100.146 Y29.359 Z-1.556 I-0.027 J-0.549
X100.201 Y30.457 Z-1.703 I0.027 J0.549
X100.146 Y29.359 Z-1.85 I-0.027 J-0.549
X100.201 Y30.457 Z-1.996 I0.027 J0.549
X100.146 Y29.359 Z-2.143 I-0.027 J-0.549
X100.201 Y30.457 Z-2.29 I0.027 J0.549
X100.146 Y29.359 Z-2.437 I-0.027 J-0.549
X100.201 Y30.457 Z-2.584 I0.027 J0.549
X100.146 Y29.359 Z-2.731 I-0.027 J-0.549
X100.201 Y30.457 Z-2.877 I0.027 J0.549
X100.146 Y29.359 Z-3.024 I-0.027 J-0.549
X100.201 Y30.457 Z-3.171 I0.027 J0.549
X100.146 Y29.359 Z-3.318 I-0.027 J-0.549
X100.201 Y30.457 Z-3.465 I0.027 J0.549
X100.146 Y29.359 Z-3.612 I-0.027 J-0.549
X100.201 Y30.457 Z-3.759 I0.027 J0.549
X100.146 Y29.359 Z-3.905 I-0.027 J-0.549
X100.201 Y30.457 Z-4.052 I0.027 J0.549
X100.146 Y29.359 Z-4.199 I-0.027 J-0.549
X100.201 Y30.457 Z-4.346 I0.027 J0.549
X100.146 Y29.359 Z-4.493 I-0.027 J-0.549
X100.201 Y30.457 Z-4.64 I0.027 J0.549
X100.146 Y29.359 Z-4.786 I-0.027 J-0.549
X100.201 Y30.457 Z-4.933 I0.027 J0.549
X100.146 Y29.359 Z-5.08 I-0.027 J-0.549
X100.201 Y30.457 Z-5.227 I0.027 J0.549
X100.146 Y29.359 Z-5.374 I-0.027 J-0.549
X100.201 Y30.457 Z-5.521 I0.027 J0.549
X100.146 Y29.359 Z-5.668 I-0.027 J-0.549
X100.201 Y30.457 Z-5.814 I0.027 J0.549
X100.146 Y29.359 Z-5.961 I-0.027 J-0.549
X100.56 Y29.517 Z-6 I0.027 J0.549
X99.787 Y30.299 I-0.387 J0.391
X100.56 Y29.517 I0.387 J-0.391
X100.562 Y29.906 I-0.193 J0.196 F50
G1 X100.453 Y30.016
X100.405 Y30.065 Z-5.992
X100.359 Y30.112 Z-5.969
X100.318 Y30.153 Z-5.932
X100.283 Y30.188 Z-5.883
X100.257 Y30.215 Z-5.825
X100.241 Y30.231 Z-5.759
X100.235 Y30.237 Z-5.69
Z5.5 F200
X100.265 Y29.706
Z2.5
Z0.81 F50
X100.266 Y29.714 Z0.741
X100.267 Y29.737 Z0.675
X100.269 Y29.774 Z0.617
X100.271 Y29.823 Z0.568
X100.274 Y29.881 Z0.531
X100.277 Y29.947 Z0.508
X100.281 Y30.016 Z0.5
X100.288 Y30.171
G3 X100.027 Y30.459 I-0.275 J0.014
X99.973 Y29.36 Z0.353 I-0.027 J-0.549 F200
X100.027 Y30.459 Z0.206 I0.027 J0.549
X99.973 Y29.36 Z0.059 I-0.027 J-0.549
X100.027 Y30.459 Z-0.087 I0.027 J0.549
X99.973 Y29.36 Z-0.234 I-0.027 J-0.549
X100.027 Y30.459 Z-0.381 I0.027 J0.549
X99.973 Y29.36 Z-0.528 I-0.027 J-0.549
X100.027 Y30.459 Z-0.675 I0.027 J0.549
X99.973 Y29.36 Z-0.822 I-0.027 J-0.549
X100.027 Y30.459 Z-0.968 I0.027 J0.549
X99.973 Y29.36 Z-1.115 I-0.027 J-0.549
X100.027 Y30.459 Z-1.262 I0.027 J0.549
X99.973 Y29.36 Z-1.409 I-0.027 J-0.549
X100.027 Y30.459 Z-1.556 I0.027 J0.549
X99.973 Y29.36 Z-1.703 I-0.027 J-0.549
X100.027 Y30.459 Z-1.85 I0.027 J0.549
X99.973 Y29.36 Z-1.996 I-0.027 J-0.549
X100.027 Y30.459 Z-2.143 I0.027 J0.549
X99.973 Y29.36 Z-2.29 I-0.027 J-0.549
X100.027 Y30.459 Z-2.437 I0.027 J0.549
X99.973 Y29.36 Z-2.584 I-0.027 J-0.549
X100.027 Y30.459 Z-2.731 I0.027 J0.549
X99.973 Y29.36 Z-2.877 I-0.027 J-0.549
X100.027 Y30.459 Z-3.024 I0.027 J0.549
X99.973 Y29.36 Z-3.171 I-0.027 J-0.549
X100.027 Y30.459 Z-3.318 I0.027 J0.549
X99.973 Y29.36 Z-3.465 I-0.027 J-0.549
X100.027 Y30.459 Z-3.612 I0.027 J0.549
X99.973 Y29.36 Z-3.759 I-0.027 J-0.549
X100.027 Y30.459 Z-3.905 I0.027 J0.549
X99.973 Y29.36 Z-4.052 I-0.027 J-0.549
X100.027 Y30.459 Z-4.199 I0.027 J0.549
X99.973 Y29.36 Z-4.346 I-0.027 J-0.549
X100.027 Y30.459 Z-4.493 I0.027 J0.549
X99.973 Y29.36 Z-4.64 I-0.027 J-0.549
X100.027 Y30.459 Z-4.786 I0.027 J0.549
X99.973 Y29.36 Z-4.933 I-0.027 J-0.549
X100.027 Y30.459 Z-5.08 I0.027 J0.549
X99.973 Y29.36 Z-5.227 I-0.027 J-0.549
X100.027 Y30.459 Z-5.374 I0.027 J0.549
X99.973 Y29.36 Z-5.521 I-0.027 J-0.549
X100.027 Y30.459 Z-5.668 I0.027 J0.549
X99.973 Y29.36 Z-5.814 I-0.027 J-0.549
X100.027 Y30.459 Z-5.961 I0.027 J0.549
X99.613 Y30.301 Z-6 I-0.027 J-0.549
X100.387 Y29.518 I0.387 J-0.391
X99.613 Y30.301 I-0.387 J0.391
X99.611 Y29.912 I0.193 J-0.196 F50
G1 X99.72 Y29.802
X99.769 Y29.753 Z-5.992
X99.815 Y29.706 Z-5.969
X99.856 Y29.664 Z-5.932
X99.89 Y29.629 Z-5.883
X99.916 Y29.603 Z-5.825
X99.932 Y29.587 Z-5.759
X99.938 Y29.581 Z-5.69
Z5.5 F200
X100.448 Y53.718
Z2.5
Z0.81 F50
G19 G3 Y54.028 Z0.5 J0.31 K0
G1 Y54.183
G17 G3 X100.173 Y54.458 I-0.275 J0
X100.173 Y53.358 Z0.353 I0 J-0.55 F200
X100.173 Y54.458 Z0.206 I0 J0.55
X100.173 Y53.358 Z0.059 I0 J-0.55
X100.173 Y54.458 Z-0.087 I0 J0.55
X100.173 Y53.358 Z-0.234 I0 J-0.55
X100.173 Y54.458 Z-0.381 I0 J0.55
X100.173 Y53.358 Z-0.528 I0 J-0.55
X100.173 Y54.458 Z-0.675 I0 J0.55
X100.173 Y53.358 Z-0.822 I0 J-0.55
X100.173 Y54.458 Z-0.968 I0 J0.55
X100.173 Y53.358 Z-1.115 I0 J-0.55
X100.173 Y54.458 Z-1.262 I0 J0.55
X100.173 Y53.358 Z-1.409 I0 J-0.55
X100.173 Y54.458 Z-1.556 I0 J0.55
X100.173 Y53.358 Z-1.703 I0 J-0.55
X100.173 Y54.458 Z-1.85 I0 J0.55
X100.173 Y53.358 Z-1.996 I0 J-0.55
X100.173 Y54.458 Z-2.143 I0 J0.55
X100.173 Y53.358 Z-2.29 I0 J-0.55
X100.173 Y54.458 Z-2.437 I0 J0.55
X100.173 Y53.358 Z-2.584 I0 J-0.55
X100.173 Y54.458 Z-2.731 I0 J0.55
X100.173 Y53.358 Z-2.877 I0 J-0.55
X100.173 Y54.458 Z-3.024 I0 J0.55
X100.173 Y53.358 Z-3.171 I0 J-0.55
X100.173 Y54.458 Z-3.318 I0 J0.55
X100.173 Y53.358 Z-3.465 I0 J-0.55
X100.173 Y54.458 Z-3.612 I0 J0.55
X100.173 Y53.358 Z-3.759 I0 J-0.55
X100.173 Y54.458 Z-3.905 I0 J0.55
X100.173 Y53.358 Z-4.052 I0 J-0.55
X100.173 Y54.458 Z-4.199 I0 J0.55
X100.173 Y53.358 Z-4.346 I0 J-0.55
X100.173 Y54.458 Z-4.493 I0 J0.55
X100.173 Y53.358 Z-4.64 I0 J-0.55
X100.173 Y54.458 Z-4.786 I0 J0.55
X100.173 Y53.358 Z-4.933 I0 J-0.55
X100.173 Y54.458 Z-5.08 I0 J0.55
X100.173 Y53.358 Z-5.227 I0 J-0.55
X100.173 Y54.458 Z-5.374 I0 J0.55
X100.173 Y53.358 Z-5.521 I0 J-0.55
X100.173 Y54.458 Z-5.668 I0 J0.55
X100.173 Y53.358 Z-5.814 I0 J-0.55
X100.173 Y54.458 Z-5.961 I0 J0.55
X99.768 Y54.28 Z-6 I0 J-0.55
X100.579 Y53.537 I0.406 J-0.371
X99.768 Y54.28 I-0.406 J0.371
X99.785 Y53.891 I0.203 J-0.186 F50
G1 X99.899 Y53.786
X99.95 Y53.74 Z-5.992
X99.998 Y53.695 Z-5.969
X100.042 Y53.656 Z-5.932
X100.078 Y53.623 Z-5.883
X100.105 Y53.598 Z-5.825
X100.122 Y53.582 Z-5.759
X100.128 Y53.577 Z-5.69
Z5.5 F200
X100.265 Y53.706
Z2.5
Z0.81 F50
X100.266 Y53.714 Z0.741
X100.267 Y53.737 Z0.675
X100.269 Y53.774 Z0.617
X100.271 Y53.823 Z0.568
X100.274 Y53.881 Z0.531
X100.277 Y53.947 Z0.508
X100.281 Y54.016 Z0.5
X100.288 Y54.171
G3 X100.027 Y54.459 I-0.275 J0.014
X99.973 Y53.36 Z0.353 I-0.027 J-0.549 F200
X100.027 Y54.459 Z0.206 I0.027 J0.549
X99.973 Y53.36 Z0.059 I-0.027 J-0.549
X100.027 Y54.459 Z-0.087 I0.027 J0.549
X99.973 Y53.36 Z-0.234 I-0.027 J-0.549
X100.027 Y54.459 Z-0.381 I0.027 J0.549
X99.973 Y53.36 Z-0.528 I-0.027 J-0.549
X100.027 Y54.459 Z-0.675 I0.027 J0.549
X99.973 Y53.36 Z-0.822 I-0.027 J-0.549
X100.027 Y54.459 Z-0.968 I0.027 J0.549
X99.973 Y53.36 Z-1.115 I-0.027 J-0.549
X100.027 Y54.459 Z-1.262 I0.027 J0.549
X99.973 Y53.36 Z-1.409 I-0.027 J-0.549
X100.027 Y54.459 Z-1.556 I0.027 J0.549
X99.973 Y53.36 Z-1.703 I-0.027 J-0.549
X100.027 Y54.459 Z-1.85 I0.027 J0.549
X99.973 Y53.36 Z-1.996 I-0.027 J-0.549
X100.027 Y54.459 Z-2.143 I0.027 J0.549
X99.973 Y53.36 Z-2.29 I-0.027 J-0.549
X100.027 Y54.459 Z-2.437 I0.027 J0.549
X99.973 Y53.36 Z-2.584 I-0.027 J-0.549
X100.027 Y54.459 Z-2.731 I0.027 J0.549
X99.973 Y53.36 Z-2.877 I-0.027 J-0.549
X100.027 Y54.459 Z-3.024 I0.027 J0.549
X99.973 Y53.36 Z-3.171 I-0.027 J-0.549
X100.027 Y54.459 Z-3.318 I0.027 J0.549
X99.973 Y53.36 Z-3.465 I-0.027 J-0.549
X100.027 Y54.459 Z-3.612 I0.027 J0.549
X99.973 Y53.36 Z-3.759 I-0.027 J-0.549
X100.027 Y54.459 Z-3.905 I0.027 J0.549
X99.973 Y53.36 Z-4.052 I-0.027 J-0.549
X100.027 Y54.459 Z-4.199 I0.027 J0.549
X99.973 Y53.36 Z-4.346 I-0.027 J-0.549
X100.027 Y54.459 Z-4.493 I0.027 J0.549
X99.973 Y53.36 Z-4.64 I-0.027 J-0.549
X100.027 Y54.459 Z-4.786 I0.027 J0.549
X99.973 Y53.36 Z-4.933 I-0.027 J-0.549
X100.027 Y54.459 Z-5.08 I0.027 J0.549
X99.973 Y53.36 Z-5.227 I-0.027 J-0.549
X100.027 Y54.459 Z-5.374 I0.027 J0.549
X99.973 Y53.36 Z-5.521 I-0.027 J-0.549
X100.027 Y54.459 Z-5.668 I0.027 J0.549
X99.973 Y53.36 Z-5.814 I-0.027 J-0.549
X100.027 Y54.459 Z-5.961 I0.027 J0.549
X99.613 Y54.301 Z-6 I-0.027 J-0.549
X100.387 Y53.518 I0.387 J-0.391
X99.613 Y54.301 I-0.387 J0.391
X99.611 Y53.912 I0.193 J-0.196 F50
G1 X99.72 Y53.802
X99.769 Y53.753 Z-5.992
X99.815 Y53.706 Z-5.969
X99.856 Y53.664 Z-5.932
X99.89 Y53.629 Z-5.883
X99.916 Y53.603 Z-5.825
X99.932 Y53.587 Z-5.759
X99.938 Y53.581 Z-5.69
Z5.5 F200
X46.31 Y61.575
Z2.5
Z0.81 F50
G19 G3 Y61.885 Z0.5 J0.31 K0
G1 Y62.04
G17 G3 X46 Y62.35 I-0.31 J0
X46 Y59.65 Z0.297 I0 J-1.35 F200
X46 Y62.35 Z0.094 I0 J1.35
X46 Y59.65 Z-0.108 I0 J-1.35
X46 Y62.35 Z-0.311 I0 J1.35
X46 Y59.65 Z-0.514 I0 J-1.35
X46 Y62.35 Z-0.717 I0 J1.35
X46 Y59.65 Z-0.92 I0 J-1.35
X46 Y62.35 Z-1.122 I0 J1.35
X46 Y59.65 Z-1.325 I0 J-1.35
X46 Y62.35 Z-1.528 I0 J1.35
X46 Y59.65 Z-1.731 I0 J-1.35
X46 Y62.35 Z-1.933 I0 J1.35
X46 Y59.65 Z-2.136 I0 J-1.35
X46 Y62.35 Z-2.339 I0 J1.35
X46 Y59.65 Z-2.542 I0 J-1.35
X46 Y62.35 Z-2.745 I0 J1.35
X46 Y59.65 Z-2.947 I0 J-1.35
X46 Y62.35 Z-3.15 I0 J1.35
X46 Y59.65 Z-3.353 I0 J-1.35
X46 Y62.35 Z-3.556 I0 J1.35
X46 Y59.65 Z-3.759 I0 J-1.35
X46 Y62.35 Z-3.961 I0 J1.35
X46 Y59.65 Z-4.164 I0 J-1.35
X46 Y62.35 Z-4.367 I0 J1.35
X46 Y59.65 Z-4.57 I0 J-1.35
X46 Y62.35 Z-4.772 I0 J1.35
X46 Y59.65 Z-4.975 I0 J-1.35
X46 Y62.35 Z-5.178 I0 J1.35
X46 Y59.65 Z-5.381 I0 J-1.35
X46 Y62.35 Z-5.584 I0 J1.35
X46 Y59.65 Z-5.786 I0 J-1.35
X47.345 Y61.113 Z-5.893 I0 J1.35
X45.775 Y62.331 Z-6 I-1.345 J-0.113
X46.225 Y59.669 I0.225 J-1.331
X45.775 Y62.331 I-0.225 J1.331
X45.521 Y61.974 I0.052 J-0.306 F50
G1 X45.547 Y61.821
X45.559 Y61.753 Z-5.992
X45.569 Y61.688 Z-5.969
X45.579 Y61.63 Z-5.932
X45.587 Y61.582 Z-5.883
X45.594 Y61.546 Z-5.825
X45.597 Y61.523 Z-5.759
X45.599 Y61.515 Z-5.69
Z5.5 F200
X14.31 Y61.575
Z2.5
Z0.81 F50
G19 G3 Y61.885 Z0.5 J0.31 K0
G1 Y62.04
G17 G3 X14 Y62.35 I-0.31 J0
X14 Y59.65 Z0.297 I0 J-1.35 F200
X14 Y62.35 Z0.094 I0 J1.35
X14 Y59.65 Z-0.108 I0 J-1.35
X14 Y62.35 Z-0.311 I0 J1.35
X14 Y59.65 Z-0.514 I0 J-1.35
X14 Y62.35 Z-0.717 I0 J1.35
X14 Y59.65 Z-0.92 I0 J-1.35
X14 Y62.35 Z-1.122 I0 J1.35
X14 Y59.65 Z-1.325 I0 J-1.35
X14 Y62.35 Z-1.528 I0 J1.35
X14 Y59.65 Z-1.731 I0 J-1.35
X14 Y62.35 Z-1.933 I0 J1.35
X14 Y59.65 Z-2.136 I0 J-1.35
X14 Y62.35 Z-2.339 I0 J1.35
X14 Y59.65 Z-2.542 I0 J-1.35
X14 Y62.35 Z-2.745 I0 J1.35
X14 Y59.65 Z-2.947 I0 J-1.35
X14 Y62.35 Z-3.15 I0 J1.35
X14 Y59.65 Z-3.353 I0 J-1.35
X14 Y62.35 Z-3.556 I0 J1.35
X14 Y59.65 Z-3.759 I0 J-1.35
X14 Y62.35 Z-3.961 I0 J1.35
X14 Y59.65 Z-4.164 I0 J-1.35
X14 Y62.35 Z-4.367 I0 J1.35
X14 Y59.65 Z-4.57 I0 J-1.35
X14 Y62.35 Z-4.772 I0 J1.35
X14 Y59.65 Z-4.975 I0 J-1.35
X14 Y62.35 Z-5.178 I0 J1.35
X14 Y59.65 Z-5.381 I0 J-1.35
X14 Y62.35 Z-5.584 I0 J1.35
X14 Y59.65 Z-5.786 I0 J-1.35
X15.345 Y61.113 Z-5.893 I0 J1.35
X13.775 Y62.331 Z-6 I-1.345 J-0.113
X14.225 Y59.669 I0.225 J-1.331
X13.775 Y62.331 I-0.225 J1.331
X13.521 Y61.974 I0.052 J-0.306 F50
G1 X13.547 Y61.821
X13.559 Y61.753 Z-5.992
X13.569 Y61.688 Z-5.969
X13.579 Y61.63 Z-5.932
X13.587 Y61.582 Z-5.883
X13.594 Y61.546 Z-5.825
X13.597 Y61.523 Z-5.759
X13.599 Y61.515 Z-5.69
Z5.5 F200
X14.31 Y25.575
Z2.5
Z0.81 F50
G19 G3 Y25.885 Z0.5 J0.31 K0
G1 Y26.04
G17 G3 X14 Y26.35 I-0.31 J0
X14 Y23.65 Z0.297 I0 J-1.35 F200
X14 Y26.35 Z0.094 I0 J1.35
X14 Y23.65 Z-0.108 I0 J-1.35
X14 Y26.35 Z-0.311 I0 J1.35
X14 Y23.65 Z-0.514 I0 J-1.35
X14 Y26.35 Z-0.717 I0 J1.35
X14 Y23.65 Z-0.92 I0 J-1.35
X14 Y26.35 Z-1.122 I0 J1.35
X14 Y23.65 Z-1.325 I0 J-1.35
X14 Y26.35 Z-1.528 I0 J1.35
X14 Y23.65 Z-1.731 I0 J-1.35
X14 Y26.35 Z-1.933 I0 J1.35
X14 Y23.65 Z-2.136 I0 J-1.35
X14 Y26.35 Z-2.339 I0 J1.35
X14 Y23.65 Z-2.542 I0 J-1.35
X14 Y26.35 Z-2.745 I0 J1.35
X14 Y23.65 Z-2.947 I0 J-1.35
X14 Y26.35 Z-3.15 I0 J1.35
X14 Y23.65 Z-3.353 I0 J-1.35
X14 Y26.35 Z-3.556 I0 J1.35
X14 Y23.65 Z-3.759 I0 J-1.35
X14 Y26.35 Z-3.961 I0 J1.35
X14 Y23.65 Z-4.164 I0 J-1.35
X14 Y26.35 Z-4.367 I0 J1.35
X14 Y23.65 Z-4.57 I0 J-1.35
X14 Y26.35 Z-4.772 I0 J1.35
X14 Y23.65 Z-4.975 I0 J-1.35
X14 Y26.35 Z-5.178 I0 J1.35
X14 Y23.65 Z-5.381 I0 J-1.35
X14 Y26.35 Z-5.584 I0 J1.35
X14 Y23.65 Z-5.786 I0 J-1.35
X15.345 Y25.113 Z-5.893 I0 J1.35
X13.775 Y26.331 Z-6 I-1.345 J-0.113
X14.225 Y23.669 I0.225 J-1.331
X13.775 Y26.331 I-0.225 J1.331
X13.521 Y25.974 I0.052 J-0.306 F50
G1 X13.547 Y25.821
X13.559 Y25.753 Z-5.992
X13.569 Y25.688 Z-5.969
X13.579 Y25.63 Z-5.932
X13.587 Y25.582 Z-5.883
X13.594 Y25.546 Z-5.825
X13.597 Y25.523 Z-5.759
X13.599 Y25.515 Z-5.69
Z5.5 F200
X46.31 Y25.575
Z2.5
Z0.81 F50
G19 G3 Y25.885 Z0.5 J0.31 K0
G1 Y26.04
G17 G3 X46 Y26.35 I-0.31 J0
X46 Y23.65 Z0.297 I0 J-1.35 F200
X46 Y26.35 Z0.094 I0 J1.35
X46 Y23.65 Z-0.108 I0 J-1.35
X46 Y26.35 Z-0.311 I0 J1.35
X46 Y23.65 Z-0.514 I0 J-1.35
X46 Y26.35 Z-0.717 I0 J1.35
X46 Y23.65 Z-0.92 I0 J-1.35
X46 Y26.35 Z-1.122 I0 J1.35
X46 Y23.65 Z-1.325 I0 J-1.35
X46 Y26.35 Z-1.528 I0 J1.35
X46 Y23.65 Z-1.731 I0 J-1.35
X46 Y26.35 Z-1.933 I0 J1.35
X46 Y23.65 Z-2.136 I0 J-1.35
X46 Y26.35 Z-2.339 I0 J1.35
X46 Y23.65 Z-2.542 I0 J-1.35
X46 Y26.35 Z-2.745 I0 J1.35
X46 Y23.65 Z-2.947 I0 J-1.35
X46 Y26.35 Z-3.15 I0 J1.35
X46 Y23.65 Z-3.353 I0 J-1.35
X46 Y26.35 Z-3.556 I0 J1.35
X46 Y23.65 Z-3.759 I0 J-1.35
X46 Y26.35 Z-3.961 I0 J1.35
X46 Y23.65 Z-4.164 I0 J-1.35
X46 Y26.35 Z-4.367 I0 J1.35
X46 Y23.65 Z-4.57 I0 J-1.35
X46 Y26.35 Z-4.772 I0 J1.35
X46 Y23.65 Z-4.975 I0 J-1.35
X46 Y26.35 Z-5.178 I0 J1.35
X46 Y23.65 Z-5.381 I0 J-1.35
X46 Y26.35 Z-5.584 I0 J1.35
X46 Y23.65 Z-5.786 I0 J-1.35
X47.345 Y25.113 Z-5.893 I0 J1.35
X45.775 Y26.331 Z-6 I-1.345 J-0.113
X46.225 Y23.669 I0.225 J-1.331
X45.775 Y26.331 I-0.225 J1.331
X45.521 Y25.974 I0.052 J-0.306 F50
G1 X45.547 Y25.821
X45.559 Y25.753 Z-5.992
X45.569 Y25.688 Z-5.969
X45.579 Y25.63 Z-5.932
X45.587 Y25.582 Z-5.883
X45.594 Y25.546 Z-5.825
X45.597 Y25.523 Z-5.759
X45.599 Y25.515 Z-5.69
Z15.5 F200
(When using Fusion for Personal Use, the feedrate of rapid)
(moves is reduced to match the feedrate of cutting moves,)
(which can increase machining time. Unrestricted rapid moves)
(are available with a Fusion Subscription.)

(Circular1)
G0 X14.31 Y63.175
G1 Z15.5 F200
Z1.7
Z0.01 F50
G19 G3 Y63.485 Z-0.3 J0.31 K0
G1 Y63.64
G17 G3 X14 Y63.95 I-0.31 J0
X14 Y58.05 I0 J-2.95 F200
X14 Y63.95 I0 J2.95
X13.69 Y63.64 I0 J-0.31 F50
G1 Y63.485
G19 G2 Y63.175 Z0.01 J0 K0.31
G1 Z5.5 F200
X14.31
Z1.4
Z-0.29 F50
G3 Y63.485 Z-0.6 J0.31 K0
G1 Y63.64
G17 G3 X14 Y63.95 I-0.31 J0
X14 Y58.05 I0 J-2.95 F200
X14 Y63.95 I0 J2.95
X13.69 Y63.64 I0 J-0.31 F50
G1 Y63.485
G19 G2 Y63.175 Z-0.29 J0 K0.31
G1 Z5.5 F200
X14.31
Z1.1
Z-0.59 F50
G3 Y63.485 Z-0.9 J0.31 K0
G1 Y63.64
G17 G3 X14 Y63.95 I-0.31 J0
X14 Y58.05 I0 J-2.95 F200
X14 Y63.95 I0 J2.95
X13.69 Y63.64 I0 J-0.31 F50
G1 Y63.485
G19 G2 Y63.175 Z-0.59 J0 K0.31
G1 Z5.5 F200
X14.31
Z0.8
Z-0.89 F50
G3 Y63.485 Z-1.2 J0.31 K0
G1 Y63.64
G17 G3 X14 Y63.95 I-0.31 J0
X14 Y58.05 I0 J-2.95 F200
X14 Y63.95 I0 J2.95
X13.69 Y63.64 I0 J-0.31 F50
G1 Y63.485
G19 G2 Y63.175 Z-0.89 J0 K0.31
G1 Z5.5 F200
X14.31
Z0.5
Z-1.19 F50
G3 Y63.485 Z-1.5 J0.31 K0
G1 Y63.64
G17 G3 X14 Y63.95 I-0.31 J0
X14 Y58.05 I0 J-2.95 F200
X14 Y63.95 I0 J2.95
X13.69 Y63.64 I0 J-0.31 F50
G1 Y63.485
G19 G2 Y63.175 Z-1.19 J0 K0.31
G1 Z5.5 F200
X14.31
Z0.2
Z-1.49 F50
G3 Y63.485 Z-1.8 J0.31 K0
G1 Y63.64
G17 G3 X14 Y63.95 I-0.31 J0
X14 Y58.05 I0 J-2.95 F200
X14 Y63.95 I0 J2.95
X13.69 Y63.64 I0 J-0.31 F50
G1 Y63.485
G19 G2 Y63.175 Z-1.49 J0 K0.31
G1 Z5.5 F200
X14.31
Z-0.065
Z-1.755 F50
G3 Y63.485 Z-2.065 J0.31 K0
G1 Y63.64
G17 G3 X14 Y63.95 I-0.31 J0
X14 Y58.05 I0 J-2.95 F200
X14 Y63.95 I0 J2.95
X13.69 Y63.64 I0 J-0.31 F50
G1 Y63.485
G19 G2 Y63.175 Z-1.755 J0 K0.31
G1 Z5.5 F200
X14.31
Z-0.33
Z-2.02 F50
G3 Y63.485 Z-2.33 J0.31 K0
G1 Y63.64
G17 G3 X14 Y63.95 I-0.31 J0
X14 Y58.05 I0 J-2.95 F200
X14 Y63.95 I0 J2.95
X13.69 Y63.64 I0 J-0.31 F50
G1 Y63.485
G19 G2 Y63.175 Z-2.02 J0 K0.31
G1 Z5.5 F200
X46.31
Z1.7
Z0.01 F50
G3 Y63.485 Z-0.3 J0.31 K0
G1 Y63.64
G17 G3 X46 Y63.95 I-0.31 J0
X46 Y58.05 I0 J-2.95 F200
X46 Y63.95 I0 J2.95
X45.69 Y63.64 I0 J-0.31 F50
G1 Y63.485
G19 G2 Y63.175 Z0.01 J0 K0.31
G1 Z5.5 F200
X46.31
Z1.4
Z-0.29 F50
G3 Y63.485 Z-0.6 J0.31 K0
G1 Y63.64
G17 G3 X46 Y63.95 I-0.31 J0
X46 Y58.05 I0 J-2.95 F200
X46 Y63.95 I0 J2.95
X45.69 Y63.64 I0 J-0.31 F50
G1 Y63.485
G19 G2 Y63.175 Z-0.29 J0 K0.31
G1 Z5.5 F200
X46.31
Z1.1
Z-0.59 F50
G3 Y63.485 Z-0.9 J0.31 K0
G1 Y63.64
G17 G3 X46 Y63.95 I-0.31 J0
X46 Y58.05 I0 J-2.95 F200
X46 Y63.95 I0 J2.95
X45.69 Y63.64 I0 J-0.31 F50
G1 Y63.485
G19 G2 Y63.175 Z-0.59 J0 K0.31
G1 Z5.5 F200
X46.31
Z0.8
Z-0.89 F50
G3 Y63.485 Z-1.2 J0.31 K0
G1 Y63.64
G17 G3 X46 Y63.95 I-0.31 J0
X46 Y58.05 I0 J-2.95 F200
X46 Y63.95 I0 J2.95
X45.69 Y63.64 I0 J-0.31 F50
G1 Y63.485
G19 G2 Y63.175 Z-0.89 J0 K0.31
G1 Z5.5 F200
X46.31
Z0.5
Z-1.19 F50
G3 Y63.485 Z-1.5 J0.31 K0
G1 Y63.64
G17 G3 X46 Y63.95 I-0.31 J0
X46 Y58.05 I0 J-2.95 F200
X46 Y63.95 I0 J2.95
X45.69 Y63.64 I0 J-0.31 F50
G1 Y63.485
G19 G2 Y63.175 Z-1.19 J0 K0.31
G1 Z5.5 F200
X46.31
Z0.2
Z-1.49 F50
G3 Y63.485 Z-1.8 J0.31 K0
G1 Y63.64
G17 G3 X46 Y63.95 I-0.31 J0
X46 Y58.05 I0 J-2.95 F200
X46 Y63.95 I0 J2.95
X45.69 Y63.64 I0 J-0.31 F50
G1 Y63.485
G19 G2 Y63.175 Z-1.49 J0 K0.31
G1 Z5.5 F200
X46.31
Z-0.065
Z-1.755 F50
G3 Y63.485 Z-2.065 J0.31 K0
G1 Y63.64
G17 G3 X46 Y63.95 I-0.31 J0
X46 Y58.05 I0 J-2.95 F200
X46 Y63.95 I0 J2.95
X45.69 Y63.64 I0 J-0.31 F50
G1 Y63.485
G19 G2 Y63.175 Z-1.755 J0 K0.31
G1 Z5.5 F200
X46.31
Z-0.33
Z-2.02 F50
G3 Y63.485 Z-2.33 J0.31 K0
G1 Y63.64
G17 G3 X46 Y63.95 I-0.31 J0
X46 Y58.05 I0 J-2.95 F200
X46 Y63.95 I0 J2.95
X45.69 Y63.64 I0 J-0.31 F50
G1 Y63.485
G19 G2 Y63.175 Z-2.02 J0 K0.31
G1 Z5.5 F200
X46.31 Y27.175
Z1.7
Z0.01 F50
G3 Y27.485 Z-0.3 J0.31 K0
G1 Y27.64
G17 G3 X46 Y27.95 I-0.31 J0
X46 Y22.05 I0 J-2.95 F200
X46 Y27.95 I0 J2.95
X45.69 Y27.64 I0 J-0.31 F50
G1 Y27.485
G19 G2 Y27.175 Z0.01 J0 K0.31
G1 Z5.5 F200
X46.31
Z1.4
Z-0.29 F50
G3 Y27.485 Z-0.6 J0.31 K0
G1 Y27.64
G17 G3 X46 Y27.95 I-0.31 J0
X46 Y22.05 I0 J-2.95 F200
X46 Y27.95 I0 J2.95
X45.69 Y27.64 I0 J-0.31 F50
G1 Y27.485
G19 G2 Y27.175 Z-0.29 J0 K0.31
G1 Z5.5 F200
X46.31
Z1.1
Z-0.59 F50
G3 Y27.485 Z-0.9 J0.31 K0
G1 Y27.64
G17 G3 X46 Y27.95 I-0.31 J0
X46 Y22.05 I0 J-2.95 F200
X46 Y27.95 I0 J2.95
X45.69 Y27.64 I0 J-0.31 F50
G1 Y27.485
G19 G2 Y27.175 Z-0.59 J0 K0.31
G1 Z5.5 F200
X46.31
Z0.8
Z-0.89 F50
G3 Y27.485 Z-1.2 J0.31 K0
G1 Y27.64
G17 G3 X46 Y27.95 I-0.31 J0
X46 Y22.05 I0 J-2.95 F200
X46 Y27.95 I0 J2.95
X45.69 Y27.64 I0 J-0.31 F50
G1 Y27.485
G19 G2 Y27.175 Z-0.89 J0 K0.31
G1 Z5.5 F200
X46.31
Z0.5
Z-1.19 F50
G3 Y27.485 Z-1.5 J0.31 K0
G1 Y27.64
G17 G3 X46 Y27.95 I-0.31 J0
X46 Y22.05 I0 J-2.95 F200
X46 Y27.95 I0 J2.95
X45.69 Y27.64 I0 J-0.31 F50
G1 Y27.485
G19 G2 Y27.175 Z-1.19 J0 K0.31
G1 Z5.5 F200
X46.31
Z0.2
Z-1.49 F50
G3 Y27.485 Z-1.8 J0.31 K0
G1 Y27.64
G17 G3 X46 Y27.95 I-0.31 J0
X46 Y22.05 I0 J-2.95 F200
X46 Y27.95 I0 J2.95
X45.69 Y27.64 I0 J-0.31 F50
G1 Y27.485
G19 G2 Y27.175 Z-1.49 J0 K0.31
G1 Z5.5 F200
X46.31
Z-0.065
Z-1.755 F50
G3 Y27.485 Z-2.065 J0.31 K0
G1 Y27.64
G17 G3 X46 Y27.95 I-0.31 J0
X46 Y22.05 I0 J-2.95 F200
X46 Y27.95 I0 J2.95
X45.69 Y27.64 I0 J-0.31 F50
G1 Y27.485
G19 G2 Y27.175 Z-1.755 J0 K0.31
G1 Z5.5 F200
X46.31
Z-0.33
Z-2.02 F50
G3 Y27.485 Z-2.33 J0.31 K0
G1 Y27.64
G17 G3 X46 Y27.95 I-0.31 J0
X46 Y22.05 I0 J-2.95 F200
X46 Y27.95 I0 J2.95
X45.69 Y27.64 I0 J-0.31 F50
G1 Y27.485
G19 G2 Y27.175 Z-2.02 J0 K0.31
G1 Z5.5 F200
X14.31
Z1.7
Z0.01 F50
G3 Y27.485 Z-0.3 J0.31 K0
G1 Y27.64
G17 G3 X14 Y27.95 I-0.31 J0
X14 Y22.05 I0 J-2.95 F200
X14 Y27.95 I0 J2.95
X13.69 Y27.64 I0 J-0.31 F50
G1 Y27.485
G19 G2 Y27.175 Z0.01 J0 K0.31
G1 Z5.5 F200
X14.31
Z1.4
Z-0.29 F50
G3 Y27.485 Z-0.6 J0.31 K0
G1 Y27.64
G17 G3 X14 Y27.95 I-0.31 J0
X14 Y22.05 I0 J-2.95 F200
X14 Y27.95 I0 J2.95
X13.69 Y27.64 I0 J-0.31 F50
G1 Y27.485
G19 G2 Y27.175 Z-0.29 J0 K0.31
G1 Z5.5 F200
X14.31
Z1.1
Z-0.59 F50
G3 Y27.485 Z-0.9 J0.31 K0
G1 Y27.64
G17 G3 X14 Y27.95 I-0.31 J0
X14 Y22.05 I0 J-2.95 F200
X14 Y27.95 I0 J2.95
X13.69 Y27.64 I0 J-0.31 F50
G1 Y27.485
G19 G2 Y27.175 Z-0.59 J0 K0.31
G1 Z5.5 F200
X14.31
Z0.8
Z-0.89 F50
G3 Y27.485 Z-1.2 J0.31 K0
G1 Y27.64
G17 G3 X14 Y27.95 I-0.31 J0
X14 Y22.05 I0 J-2.95 F200
X14 Y27.95 I0 J2.95
X13.69 Y27.64 I0 J-0.31 F50
G1 Y27.485
G19 G2 Y27.175 Z-0.89 J0 K0.31
G1 Z5.5 F200
X14.31
Z0.5
Z-1.19 F50
G3 Y27.485 Z-1.5 J0.31 K0
G1 Y27.64
G17 G3 X14 Y27.95 I-0.31 J0
X14 Y22.05 I0 J-2.95 F200
X14 Y27.95 I0 J2.95
X13.69 Y27.64 I0 J-0.31 F50
G1 Y27.485
G19 G2 Y27.175 Z-1.19 J0 K0.31
G1 Z5.5 F200
X14.31
Z0.2
Z-1.49 F50
G3 Y27.485 Z-1.8 J0.31 K0
G1 Y27.64
G17 G3 X14 Y27.95 I-0.31 J0
X14 Y22.05 I0 J-2.95 F200
X14 Y27.95 I0 J2.95
X13.69 Y27.64 I0 J-0.31 F50
G1 Y27.485
G19 G2 Y27.175 Z-1.49 J0 K0.31
G1 Z5.5 F200
X14.31
Z-0.065
Z-1.755 F50
G3 Y27.485 Z-2.065 J0.31 K0
G1 Y27.64
G17 G3 X14 Y27.95 I-0.31 J0
X14 Y22.05 I0 J-2.95 F200
X14 Y27.95 I0 J2.95
X13.69 Y27.64 I0 J-0.31 F50
G1 Y27.485
G19 G2 Y27.175 Z-1.755 J0 K0.31
G1 Z5.5 F200
X14.31
Z-0.33
Z-2.02 F50
G3 Y27.485 Z-2.33 J0.31 K0
G1 Y27.64
G17 G3 X14 Y27.95 I-0.31 J0
X14 Y22.05 I0 J-2.95 F200
X14 Y27.95 I0 J2.95
X13.69 Y27.64 I0 J-0.31 F50
G1 Y27.485
G19 G2 Y27.175 Z-2.02 J0 K0.31
G1 Z5.5 F200
X100.31 Y31.585
Z1.7
Z0.01 F50
G3 Y31.895 Z-0.3 J0.31 K0
G1 Y32.05
G17 G3 X100 Y32.36 I-0.31 J0
X100 Y27.46 I0 J-2.45 F200
X100 Y32.36 I0 J2.45
X99.69 Y32.05 I0 J-0.31 F50
G1 Y31.895
G19 G2 Y31.585 Z0.01 J0 K0.31
G1 Z5.5 F200
X100.31
Z1.4
Z-0.29 F50
G3 Y31.895 Z-0.6 J0.31 K0
G1 Y32.05
G17 G3 X100 Y32.36 I-0.31 J0
X100 Y27.46 I0 J-2.45 F200
X100 Y32.36 I0 J2.45
X99.69 Y32.05 I0 J-0.31 F50
G1 Y31.895
G19 G2 Y31.585 Z-0.29 J0 K0.31
G1 Z5.5 F200
X100.31
Z1.1
Z-0.59 F50
G3 Y31.895 Z-0.9 J0.31 K0
G1 Y32.05
G17 G3 X100 Y32.36 I-0.31 J0
X100 Y27.46 I0 J-2.45 F200
X100 Y32.36 I0 J2.45
X99.69 Y32.05 I0 J-0.31 F50
G1 Y31.895
G19 G2 Y31.585 Z-0.59 J0 K0.31
G1 Z5.5 F200
X100.31
Z0.8
Z-0.89 F50
G3 Y31.895 Z-1.2 J0.31 K0
G1 Y32.05
G17 G3 X100 Y32.36 I-0.31 J0
X100 Y27.46 I0 J-2.45 F200
X100 Y32.36 I0 J2.45
X99.69 Y32.05 I0 J-0.31 F50
G1 Y31.895
G19 G2 Y31.585 Z-0.89 J0 K0.31
G1 Z5.5 F200
X100.31
Z0.5
Z-1.19 F50
G3 Y31.895 Z-1.5 J0.31 K0
G1 Y32.05
G17 G3 X100 Y32.36 I-0.31 J0
X100 Y27.46 I0 J-2.45 F200
X100 Y32.36 I0 J2.45
X99.69 Y32.05 I0 J-0.31 F50
G1 Y31.895
G19 G2 Y31.585 Z-1.19 J0 K0.31
G1 Z5.5 F200
X100.31
Z0.2
Z-1.49 F50
G3 Y31.895 Z-1.8 J0.31 K0
G1 Y32.05
G17 G3 X100 Y32.36 I-0.31 J0
X100 Y27.46 I0 J-2.45 F200
X100 Y32.36 I0 J2.45
X99.69 Y32.05 I0 J-0.31 F50
G1 Y31.895
G19 G2 Y31.585 Z-1.49 J0 K0.31
G1 Z5.5 F200
X100.31
Z-0.065
Z-1.755 F50
G3 Y31.895 Z-2.065 J0.31 K0
G1 Y32.05
G17 G3 X100 Y32.36 I-0.31 J0
X100 Y27.46 I0 J-2.45 F200
X100 Y32.36 I0 J2.45
X99.69 Y32.05 I0 J-0.31 F50
G1 Y31.895
G19 G2 Y31.585 Z-1.755 J0 K0.31
G1 Z5.5 F200
X100.31
Z-0.33
Z-2.02 F50
G3 Y31.895 Z-2.33 J0.31 K0
G1 Y32.05
G17 G3 X100 Y32.36 I-0.31 J0
X100 Y27.46 I0 J-2.45 F200
X100 Y32.36 I0 J2.45
X99.69 Y32.05 I0 J-0.31 F50
G1 Y31.895
G19 G2 Y31.585 Z-2.02 J0 K0.31
G1 Z5.5 F200
X100.31 Y55.585
Z1.7
Z0.01 F50
G3 Y55.895 Z-0.3 J0.31 K0
G1 Y56.05
G17 G3 X100 Y56.36 I-0.31 J0
X100 Y51.46 I0 J-2.45 F200
X100 Y56.36 I0 J2.45
X99.69 Y56.05 I0 J-0.31 F50
G1 Y55.895
G19 G2 Y55.585 Z0.01 J0 K0.31
G1 Z5.5 F200
X100.31
Z1.4
Z-0.29 F50
G3 Y55.895 Z-0.6 J0.31 K0
G1 Y56.05
G17 G3 X100 Y56.36 I-0.31 J0
X100 Y51.46 I0 J-2.45 F200
X100 Y56.36 I0 J2.45
X99.69 Y56.05 I0 J-0.31 F50
G1 Y55.895
G19 G2 Y55.585 Z-0.29 J0 K0.31
G1 Z5.5 F200
X100.31
Z1.1
Z-0.59 F50
G3 Y55.895 Z-0.9 J0.31 K0
G1 Y56.05
G17 G3 X100 Y56.36 I-0.31 J0
X100 Y51.46 I0 J-2.45 F200
X100 Y56.36 I0 J2.45
X99.69 Y56.05 I0 J-0.31 F50
G1 Y55.895
G19 G2 Y55.585 Z-0.59 J0 K0.31
G1 Z5.5 F200
X100.31
Z0.8
Z-0.89 F50
G3 Y55.895 Z-1.2 J0.31 K0
G1 Y56.05
G17 G3 X100 Y56.36 I-0.31 J0
X100 Y51.46 I0 J-2.45 F200
X100 Y56.36 I0 J2.45
X99.69 Y56.05 I0 J-0.31 F50
G1 Y55.895
G19 G2 Y55.585 Z-0.89 J0 K0.31
G1 Z5.5 F200
X100.31
Z0.5
Z-1.19 F50
G3 Y55.895 Z-1.5 J0.31 K0
G1 Y56.05
G17 G3 X100 Y56.36 I-0.31 J0
X100 Y51.46 I0 J-2.45 F200
X100 Y56.36 I0 J2.45
X99.69 Y56.05 I0 J-0.31 F50
G1 Y55.895
G19 G2 Y55.585 Z-1.19 J0 K0.31
G1 Z5.5 F200
X100.31
Z0.2
Z-1.49 F50
G3 Y55.895 Z-1.8 J0.31 K0
G1 Y56.05
G17 G3 X100 Y56.36 I-0.31 J0
X100 Y51.46 I0 J-2.45 F200
X100 Y56.36 I0 J2.45
X99.69 Y56.05 I0 J-0.31 F50
G1 Y55.895
G19 G2 Y55.585 Z-1.49 J0 K0.31
G1 Z5.5 F200
X100.31
Z-0.065
Z-1.755 F50
G3 Y55.895 Z-2.065 J0.31 K0
G1 Y56.05
G17 G3 X100 Y56.36 I-0.31 J0
X100 Y51.46 I0 J-2.45 F200
X100 Y56.36 I0 J2.45
X99.69 Y56.05 I0 J-0.31 F50
G1 Y55.895
G19 G2 Y55.585 Z-1.755 J0 K0.31
G1 Z5.5 F200
X100.31
Z-0.33
Z-2.02 F50
G3 Y55.895 Z-2.33 J0.31 K0
G1 Y56.05
G17 G3 X100 Y56.36 I-0.31 J0
X100 Y51.46 I0 J-2.45 F200
X100 Y56.36 I0 J2.45
X99.69 Y56.05 I0 J-0.31 F50
G1 Y55.895
G19 G2 Y55.585 Z-2.02 J0 K0.31
G1 Z5.5 F200
X140.31
Z1.7
Z0.01 F50
G3 Y55.895 Z-0.3 J0.31 K0
G1 Y56.05
G17 G3 X140 Y56.36 I-0.31 J0
X140 Y51.46 I0 J-2.45 F200
X140 Y56.36 I0 J2.45
X139.69 Y56.05 I0 J-0.31 F50
G1 Y55.895
G19 G2 Y55.585 Z0.01 J0 K0.31
G1 Z5.5 F200
X140.31
Z1.4
Z-0.29 F50
G3 Y55.895 Z-0.6 J0.31 K0
G1 Y56.05
G17 G3 X140 Y56.36 I-0.31 J0
X140 Y51.46 I0 J-2.45 F200
X140 Y56.36 I0 J2.45
X139.69 Y56.05 I0 J-0.31 F50
G1 Y55.895
G19 G2 Y55.585 Z-0.29 J0 K0.31
G1 Z5.5 F200
X140.31
Z1.1
Z-0.59 F50
G3 Y55.895 Z-0.9 J0.31 K0
G1 Y56.05
G17 G3 X140 Y56.36 I-0.31 J0
X140 Y51.46 I0 J-2.45 F200
X140 Y56.36 I0 J2.45
X139.69 Y56.05 I0 J-0.31 F50
G1 Y55.895
G19 G2 Y55.585 Z-0.59 J0 K0.31
G1 Z5.5 F200
X140.31
Z0.8
Z-0.89 F50
G3 Y55.895 Z-1.2 J0.31 K0
G1 Y56.05
G17 G3 X140 Y56.36 I-0.31 J0
X140 Y51.46 I0 J-2.45 F200
X140 Y56.36 I0 J2.45
X139.69 Y56.05 I0 J-0.31 F50
G1 Y55.895
G19 G2 Y55.585 Z-0.89 J0 K0.31
G1 Z5.5 F200
X140.31
Z0.5
Z-1.19 F50
G3 Y55.895 Z-1.5 J0.31 K0
G1 Y56.05
G17 G3 X140 Y56.36 I-0.31 J0
X140 Y51.46 I0 J-2.45 F200
X140 Y56.36 I0 J2.45
X139.69 Y56.05 I0 J-0.31 F50
G1 Y55.895
G19 G2 Y55.585 Z-1.19 J0 K0.31
G1 Z5.5 F200
X140.31
Z0.2
Z-1.49 F50
G3 Y55.895 Z-1.8 J0.31 K0
G1 Y56.05
G17 G3 X140 Y56.36 I-0.31 J0
X140 Y51.46 I0 J-2.45 F200
X140 Y56.36 I0 J2.45
X139.69 Y56.05 I0 J-0.31 F50
G1 Y55.895
G19 G2 Y55.585 Z-1.49 J0 K0.31
G1 Z5.5 F200
X140.31
Z-0.065
Z-1.755 F50
G3 Y55.895 Z-2.065 J0.31 K0
G1 Y56.05
G17 G3 X140 Y56.36 I-0.31 J0
X140 Y51.46 I0 J-2.45 F200
X140 Y56.36 I0 J2.45
X139.69 Y56.05 I0 J-0.31 F50
G1 Y55.895
G19 G2 Y55.585 Z-1.755 J0 K0.31
G1 Z5.5 F200
X140.31
Z-0.33
Z-2.02 F50
G3 Y55.895 Z-2.33 J0.31 K0
G1 Y56.05
G17 G3 X140 Y56.36 I-0.31 J0
X140 Y51.46 I0 J-2.45 F200
X140 Y56.36 I0 J2.45
X139.69 Y56.05 I0 J-0.31 F50
G1 Y55.895
G19 G2 Y55.585 Z-2.02 J0 K0.31
G1 Z5.5 F200
X140.31 Y31.585
Z1.7
Z0.01 F50
G3 Y31.895 Z-0.3 J0.31 K0
G1 Y32.05
G17 G3 X140 Y32.36 I-0.31 J0
X140 Y27.46 I0 J-2.45 F200
X140 Y32.36 I0 J2.45
X139.69 Y32.05 I0 J-0.31 F50
G1 Y31.895
G19 G2 Y31.585 Z0.01 J0 K0.31
G1 Z5.5 F200
X140.31
Z1.4
Z-0.29 F50
G3 Y31.895 Z-0.6 J0.31 K0
G1 Y32.05
G17 G3 X140 Y32.36 I-0.31 J0
X140 Y27.46 I0 J-2.45 F200
X140 Y32.36 I0 J2.45
X139.69 Y32.05 I0 J-0.31 F50
G1 Y31.895
G19 G2 Y31.585 Z-0.29 J0 K0.31
G1 Z5.5 F200
X140.31
Z1.1
Z-0.59 F50
G3 Y31.895 Z-0.9 J0.31 K0
G1 Y32.05
G17 G3 X140 Y32.36 I-0.31 J0
X140 Y27.46 I0 J-2.45 F200
X140 Y32.36 I0 J2.45
X139.69 Y32.05 I0 J-0.31 F50
G1 Y31.895
G19 G2 Y31.585 Z-0.59 J0 K0.31
G1 Z5.5 F200
X140.31
Z0.8
Z-0.89 F50
G3 Y31.895 Z-1.2 J0.31 K0
G1 Y32.05
G17 G3 X140 Y32.36 I-0.31 J0
X140 Y27.46 I0 J-2.45 F200
X140 Y32.36 I0 J2.45
X139.69 Y32.05 I0 J-0.31 F50
G1 Y31.895
G19 G2 Y31.585 Z-0.89 J0 K0.31
G1 Z5.5 F200
X140.31
Z0.5
Z-1.19 F50
G3 Y31.895 Z-1.5 J0.31 K0
G1 Y32.05
G17 G3 X140 Y32.36 I-0.31 J0
X140 Y27.46 I0 J-2.45 F200
X140 Y32.36 I0 J2.45
X139.69 Y32.05 I0 J-0.31 F50
G1 Y31.895
G19 G2 Y31.585 Z-1.19 J0 K0.31
G1 Z5.5 F200
X140.31
Z0.2
Z-1.49 F50
G3 Y31.895 Z-1.8 J0.31 K0
G1 Y32.05
G17 G3 X140 Y32.36 I-0.31 J0
X140 Y27.46 I0 J-2.45 F200
X140 Y32.36 I0 J2.45
X139.69 Y32.05 I0 J-0.31 F50
G1 Y31.895
G19 G2 Y31.585 Z-1.49 J0 K0.31
G1 Z5.5 F200
X140.31
Z-0.065
Z-1.755 F50
G3 Y31.895 Z-2.065 J0.31 K0
G1 Y32.05
G17 G3 X140 Y32.36 I-0.31 J0
X140 Y27.46 I0 J-2.45 F200
X140 Y32.36 I0 J2.45
X139.69 Y32.05 I0 J-0.31 F50
G1 Y31.895
G19 G2 Y31.585 Z-1.755 J0 K0.31
G1 Z5.5 F200
X140.31
Z-0.33
Z-2.02 F50
G3 Y31.895 Z-2.33 J0.31 K0
G1 Y32.05
G17 G3 X140 Y32.36 I-0.31 J0
X140 Y27.46 I0 J-2.45 F200
X140 Y32.36 I0 J2.45
X139.69 Y32.05 I0 J-0.31 F50
G1 Y31.895
G19 G2 Y31.585 Z-2.02 J0 K0.31
G1 Z5.5 F200
X194.31 Y27.175
Z1.7
Z0.01 F50
G3 Y27.485 Z-0.3 J0.31 K0
G1 Y27.64
G17 G3 X194 Y27.95 I-0.31 J0
X194 Y22.05 I0 J-2.95 F200
X194 Y27.95 I0 J2.95
X193.69 Y27.64 I0 J-0.31 F50
G1 Y27.485
G19 G2 Y27.175 Z0.01 J0 K0.31
G1 Z5.5 F200
X194.31
Z1.4
Z-0.29 F50
G3 Y27.485 Z-0.6 J0.31 K0
G1 Y27.64
G17 G3 X194 Y27.95 I-0.31 J0
X194 Y22.05 I0 J-2.95 F200
X194 Y27.95 I0 J2.95
X193.69 Y27.64 I0 J-0.31 F50
G1 Y27.485
G19 G2 Y27.175 Z-0.29 J0 K0.31
G1 Z5.5 F200
X194.31
Z1.1
Z-0.59 F50
G3 Y27.485 Z-0.9 J0.31 K0
G1 Y27.64
G17 G3 X194 Y27.95 I-0.31 J0
X194 Y22.05 I0 J-2.95 F200
X194 Y27.95 I0 J2.95
X193.69 Y27.64 I0 J-0.31 F50
G1 Y27.485
G19 G2 Y27.175 Z-0.59 J0 K0.31
G1 Z5.5 F200
X194.31
Z0.8
Z-0.89 F50
G3 Y27.485 Z-1.2 J0.31 K0
G1 Y27.64
G17 G3 X194 Y27.95 I-0.31 J0
X194 Y22.05 I0 J-2.95 F200
X194 Y27.95 I0 J2.95
X193.69 Y27.64 I0 J-0.31 F50
G1 Y27.485
G19 G2 Y27.175 Z-0.89 J0 K0.31
G1 Z5.5 F200
X194.31
Z0.5
Z-1.19 F50
G3 Y27.485 Z-1.5 J0.31 K0
G1 Y27.64
G17 G3 X194 Y27.95 I-0.31 J0
X194 Y22.05 I0 J-2.95 F200
X194 Y27.95 I0 J2.95
X193.69 Y27.64 I0 J-0.31 F50
G1 Y27.485
G19 G2 Y27.175 Z-1.19 J0 K0.31
G1 Z5.5 F200
X194.31
Z0.2
Z-1.49 F50
G3 Y27.485 Z-1.8 J0.31 K0
G1 Y27.64
G17 G3 X194 Y27.95 I-0.31 J0
X194 Y22.05 I0 J-2.95 F200
X194 Y27.95 I0 J2.95
X193.69 Y27.64 I0 J-0.31 F50
G1 Y27.485
G19 G2 Y27.175 Z-1.49 J0 K0.31
G1 Z5.5 F200
X194.31
Z-0.065
Z-1.755 F50
G3 Y27.485 Z-2.065 J0.31 K0
G1 Y27.64
G17 G3 X194 Y27.95 I-0.31 J0
X194 Y22.05 I0 J-2.95 F200
X194 Y27.95 I0 J2.95
X193.69 Y27.64 I0 J-0.31 F50
G1 Y27.485
G19 G2 Y27.175 Z-1.755 J0 K0.31
G1 Z5.5 F200
X194.31
Z-0.33
Z-2.02 F50
G3 Y27.485 Z-2.33 J0.31 K0
G1 Y27.64
G17 G3 X194 Y27.95 I-0.31 J0
X194 Y22.05 I0 J-2.95 F200
X194 Y27.95 I0 J2.95
X193.69 Y27.64 I0 J-0.31 F50
G1 Y27.485
G19 G2 Y27.175 Z-2.02 J0 K0.31
G1 Z5.5 F200
X226.31
Z1.7
Z0.01 F50
G3 Y27.485 Z-0.3 J0.31 K0
G1 Y27.64
G17 G3 X226 Y27.95 I-0.31 J0
X226 Y22.05 I0 J-2.95 F200
X226 Y27.95 I0 J2.95
X225.69 Y27.64 I0 J-0.31 F50
G1 Y27.485
G19 G2 Y27.175 Z0.01 J0 K0.31
G1 Z5.5 F200
X226.31
Z1.4
Z-0.29 F50
G3 Y27.485 Z-0.6 J0.31 K0
G1 Y27.64
G17 G3 X226 Y27.95 I-0.31 J0
X226 Y22.05 I0 J-2.95 F200
X226 Y27.95 I0 J2.95
X225.69 Y27.64 I0 J-0.31 F50
G1 Y27.485
G19 G2 Y27.175 Z-0.29 J0 K0.31
G1 Z5.5 F200
X226.31
Z1.1
Z-0.59 F50
G3 Y27.485 Z-0.9 J0.31 K0
G1 Y27.64
G17 G3 X226 Y27.95 I-0.31 J0
X226 Y22.05 I0 J-2.95 F200
X226 Y27.95 I0 J2.95
X225.69 Y27.64 I0 J-0.31 F50
G1 Y27.485
G19 G2 Y27.175 Z-0.59 J0 K0.31
G1 Z5.5 F200
X226.31
Z0.8
Z-0.89 F50
G3 Y27.485 Z-1.2 J0.31 K0
G1 Y27.64
G17 G3 X226 Y27.95 I-0.31 J0
X226 Y22.05 I0 J-2.95 F200
X226 Y27.95 I0 J2.95
X225.69 Y27.64 I0 J-0.31 F50
G1 Y27.485
G19 G2 Y27.175 Z-0.89 J0 K0.31
G1 Z5.5 F200
X226.31
Z0.5
Z-1.19 F50
G3 Y27.485 Z-1.5 J0.31 K0
G1 Y27.64
G17 G3 X226 Y27.95 I-0.31 J0
X226 Y22.05 I0 J-2.95 F200
X226 Y27.95 I0 J2.95
X225.69 Y27.64 I0 J-0.31 F50
G1 Y27.485
G19 G2 Y27.175 Z-1.19 J0 K0.31
G1 Z5.5 F200
X226.31
Z0.2
Z-1.49 F50
G3 Y27.485 Z-1.8 J0.31 K0
G1 Y27.64
G17 G3 X226 Y27.95 I-0.31 J0
X226 Y22.05 I0 J-2.95 F200
X226 Y27.95 I0 J2.95
X225.69 Y27.64 I0 J-0.31 F50
G1 Y27.485
G19 G2 Y27.175 Z-1.49 J0 K0.31
G1 Z5.5 F200
X226.31
Z-0.065
Z-1.755 F50
G3 Y27.485 Z-2.065 J0.31 K0
G1 Y27.64
G17 G3 X226 Y27.95 I-0.31 J0
X226 Y22.05 I0 J-2.95 F200
X226 Y27.95 I0 J2.95
X225.69 Y27.64 I0 J-0.31 F50
G1 Y27.485
G19 G2 Y27.175 Z-1.755 J0 K0.31
G1 Z5.5 F200
X226.31
Z-0.33
Z-2.02 F50
G3 Y27.485 Z-2.33 J0.31 K0
G1 Y27.64
G17 G3 X226 Y27.95 I-0.31 J0
X226 Y22.05 I0 J-2.95 F200
X226 Y27.95 I0 J2.95
X225.69 Y27.64 I0 J-0.31 F50
G1 Y27.485
G19 G2 Y27.175 Z-2.02 J0 K0.31
G1 Z5.5 F200
X226.31 Y63.175
Z1.7
Z0.01 F50
G3 Y63.485 Z-0.3 J0.31 K0
G1 Y63.64
G17 G3 X226 Y63.95 I-0.31 J0
X226 Y58.05 I0 J-2.95 F200
X226 Y63.95 I0 J2.95
X225.69 Y63.64 I0 J-0.31 F50
G1 Y63.485
G19 G2 Y63.175 Z0.01 J0 K0.31
G1 Z5.5 F200
X226.31
Z1.4
Z-0.29 F50
G3 Y63.485 Z-0.6 J0.31 K0
G1 Y63.64
G17 G3 X226 Y63.95 I-0.31 J0
X226 Y58.05 I0 J-2.95 F200
X226 Y63.95 I0 J2.95
X225.69 Y63.64 I0 J-0.31 F50
G1 Y63.485
G19 G2 Y63.175 Z-0.29 J0 K0.31
G1 Z5.5 F200
X226.31
Z1.1
Z-0.59 F50
G3 Y63.485 Z-0.9 J0.31 K0
G1 Y63.64
G17 G3 X226 Y63.95 I-0.31 J0
X226 Y58.05 I0 J-2.95 F200
X226 Y63.95 I0 J2.95
X225.69 Y63.64 I0 J-0.31 F50
G1 Y63.485
G19 G2 Y63.175 Z-0.59 J0 K0.31
G1 Z5.5 F200
X226.31
Z0.8
Z-0.89 F50
G3 Y63.485 Z-1.2 J0.31 K0
G1 Y63.64
G17 G3 X226 Y63.95 I-0.31 J0
X226 Y58.05 I0 J-2.95 F200
X226 Y63.95 I0 J2.95
X225.69 Y63.64 I0 J-0.31 F50
G1 Y63.485
G19 G2 Y63.175 Z-0.89 J0 K0.31
G1 Z5.5 F200
X226.31
Z0.5
Z-1.19 F50
G3 Y63.485 Z-1.5 J0.31 K0
G1 Y63.64
G17 G3 X226 Y63.95 I-0.31 J0
X226 Y58.05 I0 J-2.95 F200
X226 Y63.95 I0 J2.95
X225.69 Y63.64 I0 J-0.31 F50
G1 Y63.485
G19 G2 Y63.175 Z-1.19 J0 K0.31
G1 Z5.5 F200
X226.31
Z0.2
Z-1.49 F50
G3 Y63.485 Z-1.8 J0.31 K0
G1 Y63.64
G17 G3 X226 Y63.95 I-0.31 J0
X226 Y58.05 I0 J-2.95 F200
X226 Y63.95 I0 J2.95
X225.69 Y63.64 I0 J-0.31 F50
G1 Y63.485
G19 G2 Y63.175 Z-1.49 J0 K0.31
G1 Z5.5 F200
X226.31
Z-0.065
Z-1.755 F50
G3 Y63.485 Z-2.065 J0.31 K0
G1 Y63.64
G17 G3 X226 Y63.95 I-0.31 J0
X226 Y58.05 I0 J-2.95 F200
X226 Y63.95 I0 J2.95
X225.69 Y63.64 I0 J-0.31 F50
G1 Y63.485
G19 G2 Y63.175 Z-1.755 J0 K0.31
G1 Z5.5 F200
X226.31
Z-0.33
Z-2.02 F50
G3 Y63.485 Z-2.33 J0.31 K0
G1 Y63.64
G17 G3 X226 Y63.95 I-0.31 J0
X226 Y58.05 I0 J-2.95 F200
X226 Y63.95 I0 J2.95
X225.69 Y63.64 I0 J-0.31 F50
G1 Y63.485
G19 G2 Y63.175 Z-2.02 J0 K0.31
G1 Z5.5 F200
X194.31
Z1.7
Z0.01 F50
G3 Y63.485 Z-0.3 J0.31 K0
G1 Y63.64
G17 G3 X194 Y63.95 I-0.31 J0
X194 Y58.05 I0 J-2.95 F200
X194 Y63.95 I0 J2.95
X193.69 Y63.64 I0 J-0.31 F50
G1 Y63.485
G19 G2 Y63.175 Z0.01 J0 K0.31
G1 Z5.5 F200
X194.31
Z1.4
Z-0.29 F50
G3 Y63.485 Z-0.6 J0.31 K0
G1 Y63.64
G17 G3 X194 Y63.95 I-0.31 J0
X194 Y58.05 I0 J-2.95 F200
X194 Y63.95 I0 J2.95
X193.69 Y63.64 I0 J-0.31 F50
G1 Y63.485
G19 G2 Y63.175 Z-0.29 J0 K0.31
G1 Z5.5 F200
X194.31
Z1.1
Z-0.59 F50
G3 Y63.485 Z-0.9 J0.31 K0
G1 Y63.64
G17 G3 X194 Y63.95 I-0.31 J0
X194 Y58.05 I0 J-2.95 F200
X194 Y63.95 I0 J2.95
X193.69 Y63.64 I0 J-0.31 F50
G1 Y63.485
G19 G2 Y63.175 Z-0.59 J0 K0.31
G1 Z5.5 F200
X194.31
Z0.8
Z-0.89 F50
G3 Y63.485 Z-1.2 J0.31 K0
G1 Y63.64
G17 G3 X194 Y63.95 I-0.31 J0
X194 Y58.05 I0 J-2.95 F200
X194 Y63.95 I0 J2.95
X193.69 Y63.64 I0 J-0.31 F50
G1 Y63.485
G19 G2 Y63.175 Z-0.89 J0 K0.31
G1 Z5.5 F200
X194.31
Z0.5
Z-1.19 F50
G3 Y63.485 Z-1.5 J0.31 K0
G1 Y63.64
G17 G3 X194 Y63.95 I-0.31 J0
X194 Y58.05 I0 J-2.95 F200
X194 Y63.95 I0 J2.95
X193.69 Y63.64 I0 J-0.31 F50
G1 Y63.485
G19 G2 Y63.175 Z-1.19 J0 K0.31
G1 Z5.5 F200
X194.31
Z0.2
Z-1.49 F50
G3 Y63.485 Z-1.8 J0.31 K0
G1 Y63.64
G17 G3 X194 Y63.95 I-0.31 J0
X194 Y58.05 I0 J-2.95 F200
X194 Y63.95 I0 J2.95
X193.69 Y63.64 I0 J-0.31 F50
G1 Y63.485
G19 G2 Y63.175 Z-1.49 J0 K0.31
G1 Z5.5 F200
X194.31
Z-0.065
Z-1.755 F50
G3 Y63.485 Z-2.065 J0.31 K0
G1 Y63.64
G17 G3 X194 Y63.95 I-0.31 J0
X194 Y58.05 I0 J-2.95 F200
X194 Y63.95 I0 J2.95
X193.69 Y63.64 I0 J-0.31 F50
G1 Y63.485
G19 G2 Y63.175 Z-1.755 J0 K0.31
G1 Z5.5 F200
X194.31
Z-0.33
Z-2.02 F50
G3 Y63.485 Z-2.33 J0.31 K0
G1 Y63.64
G17 G3 X194 Y63.95 I-0.31 J0
X194 Y58.05 I0 J-2.95 F200
X194 Y63.95 I0 J2.95
X193.69 Y63.64 I0 J-0.31 F50
G1 Y63.485
G19 G2 Y63.175 Z-2.02 J0 K0.31
G1 Z15.5 F200
G17
(When using Fusion for Personal Use, the feedrate of rapid)
(moves is reduced to match the feedrate of cutting moves,)
(which can increase machining time. Unrestricted rapid moves)
(are available with a Fusion Subscription.)

(Bore1)
G0 X260.31 Y78.61
G1 Z15.5 F200
Z2
Z0.31 F50
G19 G3 Y78.92 Z0 J0.31 K0
G1 Y79.075
G17 G3 X260 Y79.385 I-0.31 J0
X260 Y76.435 Z-0.212 I0 J-1.475 F200
X260 Y79.385 Z-0.423 I0 J1.475
X260 Y76.435 Z-0.635 I0 J-1.475
X260 Y79.385 Z-0.846 I0 J1.475
X260 Y76.435 Z-1.058 I0 J-1.475
X260 Y79.385 Z-1.269 I0 J1.475
X260 Y76.435 Z-1.481 I0 J-1.475
X260 Y79.385 Z-1.692 I0 J1.475
X260 Y76.435 Z-1.904 I0 J-1.475
X260 Y79.385 Z-2.115 I0 J1.475
X260 Y76.435 Z-2.327 I0 J-1.475
X260 Y79.385 Z-2.538 I0 J1.475
X260 Y76.435 Z-2.75 I0 J-1.475
X260 Y79.385 Z-2.961 I0 J1.475
X260 Y76.435 Z-3.173 I0 J-1.475
X260 Y79.385 Z-3.384 I0 J1.475
X260 Y76.435 Z-3.596 I0 J-1.475
X260 Y79.385 Z-3.808 I0 J1.475
X260 Y76.435 Z-4.019 I0 J-1.475
X260 Y79.385 Z-4.231 I0 J1.475
X260 Y76.435 Z-4.442 I0 J-1.475
X260 Y79.385 Z-4.654 I0 J1.475
X260 Y76.435 Z-4.865 I0 J-1.475
X260 Y79.385 Z-5.077 I0 J1.475
X260 Y76.435 Z-5.288 I0 J-1.475
X260 Y79.385 Z-5.5 I0 J1.475
X260 Y76.435 Z-5.711 I0 J-1.475
X260 Y79.385 Z-5.923 I0 J1.475
X258.656 Y78.517 Z-6 I0 J-1.475
X261.344 Y77.302 I1.344 J-0.607
X258.656 Y78.517 I-1.344 J0.607
X258.811 Y78.107 I0.283 J-0.128 F50
G1 X258.952 Y78.043
X259.015 Y78.014 Z-5.992
X259.075 Y77.987 Z-5.969
X259.128 Y77.963 Z-5.932
X259.173 Y77.943 Z-5.883
X259.206 Y77.928 Z-5.824
X259.227 Y77.918 Z-5.759
X259.234 Y77.915 Z-5.69
Z5.5 F200
X240.31 Y78.61
Z2
Z0.31 F50
G19 G3 Y78.92 Z0 J0.31 K0
G1 Y79.075
G17 G3 X240 Y79.385 I-0.31 J0
X240 Y76.435 Z-0.212 I0 J-1.475 F200
X240 Y79.385 Z-0.423 I0 J1.475
X240 Y76.435 Z-0.635 I0 J-1.475
X240 Y79.385 Z-0.846 I0 J1.475
X240 Y76.435 Z-1.058 I0 J-1.475
X240 Y79.385 Z-1.269 I0 J1.475
X240 Y76.435 Z-1.481 I0 J-1.475
X240 Y79.385 Z-1.692 I0 J1.475
X240 Y76.435 Z-1.904 I0 J-1.475
X240 Y79.385 Z-2.115 I0 J1.475
X240 Y76.435 Z-2.327 I0 J-1.475
X240 Y79.385 Z-2.538 I0 J1.475
X240 Y76.435 Z-2.75 I0 J-1.475
X240 Y79.385 Z-2.961 I0 J1.475
X240 Y76.435 Z-3.173 I0 J-1.475
X240 Y79.385 Z-3.384 I0 J1.475
X240 Y76.435 Z-3.596 I0 J-1.475
X240 Y79.385 Z-3.808 I0 J1.475
X240 Y76.435 Z-4.019 I0 J-1.475
X240 Y79.385 Z-4.231 I0 J1.475
X240 Y76.435 Z-4.442 I0 J-1.475
X240 Y79.385 Z-4.654 I0 J1.475
X240 Y76.435 Z-4.865 I0 J-1.475
X240 Y79.385 Z-5.077 I0 J1.475
X240 Y76.435 Z-5.288 I0 J-1.475
X240 Y79.385 Z-5.5 I0 J1.475
X240 Y76.435 Z-5.711 I0 J-1.475
X240 Y79.385 Z-5.923 I0 J1.475
X238.656 Y78.517 Z-6 I0 J-1.475
X241.344 Y77.302 I1.344 J-0.607
X238.656 Y78.517 I-1.344 J0.607
X238.811 Y78.107 I0.283 J-0.128 F50
G1 X238.952 Y78.043
X239.015 Y78.014 Z-5.992
X239.075 Y77.987 Z-5.969
X239.128 Y77.963 Z-5.932
X239.173 Y77.943 Z-5.883
X239.206 Y77.928 Z-5.825
X239.227 Y77.918 Z-5.759
X239.234 Y77.915 Z-5.69
Z5.5 F200
X180.31 Y78.61
Z2
Z0.31 F50
G19 G3 Y78.92 Z0 J0.31 K0
G1 Y79.075
G17 G3 X180 Y79.385 I-0.31 J0
X180 Y76.435 Z-0.212 I0 J-1.475 F200
X180 Y79.385 Z-0.423 I0 J1.475
X180 Y76.435 Z-0.635 I0 J-1.475
X180 Y79.385 Z-0.846 I0 J1.475
X180 Y76.435 Z-1.058 I0 J-1.475
X180 Y79.385 Z-1.269 I0 J1.475
X180 Y76.435 Z-1.481 I0 J-1.475
X180 Y79.385 Z-1.692 I0 J1.475
X180 Y76.435 Z-1.904 I0 J-1.475
X180 Y79.385 Z-2.115 I0 J1.475
X180 Y76.435 Z-2.327 I0 J-1.475
X180 Y79.385 Z-2.538 I0 J1.475
X180 Y76.435 Z-2.75 I0 J-1.475
X180 Y79.385 Z-2.961 I0 J1.475
X180 Y76.435 Z-3.173 I0 J-1.475
X180 Y79.385 Z-3.384 I0 J1.475
X180 Y76.435 Z-3.596 I0 J-1.475
X180 Y79.385 Z-3.808 I0 J1.475
X180 Y76.435 Z-4.019 I0 J-1.475
X180 Y79.385 Z-4.231 I0 J1.475
X180 Y76.435 Z-4.442 I0 J-1.475
X180 Y79.385 Z-4.654 I0 J1.475
X180 Y76.435 Z-4.865 I0 J-1.475
X180 Y79.385 Z-5.077 I0 J1.475
X180 Y76.435 Z-5.288 I0 J-1.475
X180 Y79.385 Z-5.5 I0 J1.475
X180 Y76.435 Z-5.711 I0 J-1.475
X180 Y79.385 Z-5.923 I0 J1.475
X178.656 Y78.517 Z-6 I0 J-1.475
X181.344 Y77.302 I1.344 J-0.607
X178.656 Y78.517 I-1.344 J0.607
X178.811 Y78.107 I0.283 J-0.128 F50
G1 X178.952 Y78.043
X179.015 Y78.014 Z-5.992
X179.075 Y77.987 Z-5.969
X179.128 Y77.963 Z-5.932
X179.173 Y77.943 Z-5.883
X179.206 Y77.928 Z-5.825
X179.227 Y77.918 Z-5.759
X179.234 Y77.915 Z-5.69
Z5.5 F200
X160.31 Y78.61
Z2
Z0.31 F50
G19 G3 Y78.92 Z0 J0.31 K0
G1 Y79.075
G17 G3 X160 Y79.385 I-0.31 J0
X160 Y76.435 Z-0.212 I0 J-1.475 F200
X160 Y79.385 Z-0.423 I0 J1.475
X160 Y76.435 Z-0.635 I0 J-1.475
X160 Y79.385 Z-0.846 I0 J1.475
X160 Y76.435 Z-1.058 I0 J-1.475
X160 Y79.385 Z-1.269 I0 J1.475
X160 Y76.435 Z-1.481 I0 J-1.475
X160 Y79.385 Z-1.692 I0 J1.475
X160 Y76.435 Z-1.904 I0 J-1.475
X160 Y79.385 Z-2.115 I0 J1.475
X160 Y76.435 Z-2.327 I0 J-1.475
X160 Y79.385 Z-2.538 I0 J1.475
X160 Y76.435 Z-2.75 I0 J-1.475
X160 Y79.385 Z-2.961 I0 J1.475
X160 Y76.435 Z-3.173 I0 J-1.475
X160 Y79.385 Z-3.384 I0 J1.475
X160 Y76.435 Z-3.596 I0 J-1.475
X160 Y79.385 Z-3.808 I0 J1.475
X160 Y76.435 Z-4.019 I0 J-1.475
X160 Y79.385 Z-4.231 I0 J1.475
X160 Y76.435 Z-4.442 I0 J-1.475
X160 Y79.385 Z-4.654 I0 J1.475
X160 Y76.435 Z-4.865 I0 J-1.475
X160 Y79.385 Z-5.077 I0 J1.475
X160 Y76.435 Z-5.288 I0 J-1.475
X160 Y79.385 Z-5.5 I0 J1.475
X160 Y76.435 Z-5.711 I0 J-1.475
X160 Y79.385 Z-5.923 I0 J1.475
X158.656 Y78.517 Z-6 I0 J-1.475
X161.344 Y77.302 I1.344 J-0.607
X158.656 Y78.517 I-1.344 J0.607
X158.811 Y78.107 I0.283 J-0.128 F50
G1 X158.952 Y78.043
X159.015 Y78.014 Z-5.992
X159.075 Y77.987 Z-5.969
X159.128 Y77.963 Z-5.932
X159.173 Y77.943 Z-5.883
X159.206 Y77.928 Z-5.825
X159.227 Y77.918 Z-5.759
X159.234 Y77.915 Z-5.69
Z5.5 F200
X140.31 Y78.61
Z2
Z0.31 F50
G19 G3 Y78.92 Z0 J0.31 K0
G1 Y79.075
G17 G3 X140 Y79.385 I-0.31 J0
X140 Y76.435 Z-0.212 I0 J-1.475 F200
X140 Y79.385 Z-0.423 I0 J1.475
X140 Y76.435 Z-0.635 I0 J-1.475
X140 Y79.385 Z-0.846 I0 J1.475
X140 Y76.435 Z-1.058 I0 J-1.475
X140 Y79.385 Z-1.269 I0 J1.475
X140 Y76.435 Z-1.481 I0 J-1.475
X140 Y79.385 Z-1.692 I0 J1.475
X140 Y76.435 Z-1.904 I0 J-1.475
X140 Y79.385 Z-2.115 I0 J1.475
X140 Y76.435 Z-2.327 I0 J-1.475
X140 Y79.385 Z-2.538 I0 J1.475
X140 Y76.435 Z-2.75 I0 J-1.475
X140 Y79.385 Z-2.961 I0 J1.475
X140 Y76.435 Z-3.173 I0 J-1.475
X140 Y79.385 Z-3.384 I0 J1.475
X140 Y76.435 Z-3.596 I0 J-1.475
X140 Y79.385 Z-3.808 I0 J1.475
X140 Y76.435 Z-4.019 I0 J-1.475
X140 Y79.385 Z-4.231 I0 J1.475
X140 Y76.435 Z-4.442 I0 J-1.475
X140 Y79.385 Z-4.654 I0 J1.475
X140 Y76.435 Z-4.865 I0 J-1.475
X140 Y79.385 Z-5.077 I0 J1.475
X140 Y76.435 Z-5.288 I0 J-1.475
X140 Y79.385 Z-5.5 I0 J1.475
X140 Y76.435 Z-5.711 I0 J-1.475
X140 Y79.385 Z-5.923 I0 J1.475
X138.656 Y78.517 Z-6 I0 J-1.475
X141.344 Y77.302 I1.344 J-0.607
X138.656 Y78.517 I-1.344 J0.607
X138.811 Y78.107 I0.283 J-0.128 F50
G1 X138.952 Y78.043
X139.015 Y78.014 Z-5.992
X139.075 Y77.987 Z-5.969
X139.128 Y77.963 Z-5.932
X139.173 Y77.943 Z-5.883
X139.206 Y77.928 Z-5.825
X139.227 Y77.918 Z-5.759
X139.234 Y77.915 Z-5.69
Z5.5 F200
X120.31 Y78.61
Z2
Z0.31 F50
G19 G3 Y78.92 Z0 J0.31 K0
G1 Y79.075
G17 G3 X120 Y79.385 I-0.31 J0
X120 Y76.435 Z-0.212 I0 J-1.475 F200
X120 Y79.385 Z-0.423 I0 J1.475
X120 Y76.435 Z-0.635 I0 J-1.475
X120 Y79.385 Z-0.846 I0 J1.475
X120 Y76.435 Z-1.058 I0 J-1.475
X120 Y79.385 Z-1.269 I0 J1.475
X120 Y76.435 Z-1.481 I0 J-1.475
X120 Y79.385 Z-1.692 I0 J1.475
X120 Y76.435 Z-1.904 I0 J-1.475
X120 Y79.385 Z-2.115 I0 J1.475
X120 Y76.435 Z-2.327 I0 J-1.475
X120 Y79.385 Z-2.538 I0 J1.475
X120 Y76.435 Z-2.75 I0 J-1.475
X120 Y79.385 Z-2.961 I0 J1.475
X120 Y76.435 Z-3.173 I0 J-1.475
X120 Y79.385 Z-3.384 I0 J1.475
X120 Y76.435 Z-3.596 I0 J-1.475
X120 Y79.385 Z-3.808 I0 J1.475
X120 Y76.435 Z-4.019 I0 J-1.475
X120 Y79.385 Z-4.231 I0 J1.475
X120 Y76.435 Z-4.442 I0 J-1.475
X120 Y79.385 Z-4.654 I0 J1.475
X120 Y76.435 Z-4.865 I0 J-1.475
X120 Y79.385 Z-5.077 I0 J1.475
X120 Y76.435 Z-5.288 I0 J-1.475
X120 Y79.385 Z-5.5 I0 J1.475
X120 Y76.435 Z-5.711 I0 J-1.475
X120 Y79.385 Z-5.923 I0 J1.475
X118.656 Y78.517 Z-6 I0 J-1.475
X121.344 Y77.302 I1.344 J-0.607
X118.656 Y78.517 I-1.344 J0.607
X118.811 Y78.107 I0.283 J-0.128 F50
G1 X118.952 Y78.043
X119.015 Y78.014 Z-5.992
X119.075 Y77.987 Z-5.969
X119.128 Y77.963 Z-5.932
X119.173 Y77.943 Z-5.883
X119.206 Y77.928 Z-5.825
X119.227 Y77.918 Z-5.759
X119.234 Y77.915 Z-5.69
Z5.5 F200
X100.31 Y78.61
Z2
Z0.31 F50
G19 G3 Y78.92 Z0 J0.31 K0
G1 Y79.075
G17 G3 X100 Y79.385 I-0.31 J0
X100 Y76.435 Z-0.212 I0 J-1.475 F200
X100 Y79.385 Z-0.423 I0 J1.475
X100 Y76.435 Z-0.635 I0 J-1.475
X100 Y79.385 Z-0.846 I0 J1.475
X100 Y76.435 Z-1.058 I0 J-1.475
X100 Y79.385 Z-1.269 I0 J1.475
X100 Y76.435 Z-1.481 I0 J-1.475
X100 Y79.385 Z-1.692 I0 J1.475
X100 Y76.435 Z-1.904 I0 J-1.475
X100 Y79.385 Z-2.115 I0 J1.475
X100 Y76.435 Z-2.327 I0 J-1.475
X100 Y79.385 Z-2.538 I0 J1.475
X100 Y76.435 Z-2.75 I0 J-1.475
X100 Y79.385 Z-2.961 I0 J1.475
X100 Y76.435 Z-3.173 I0 J-1.475
X100 Y79.385 Z-3.384 I0 J1.475
X100 Y76.435 Z-3.596 I0 J-1.475
X100 Y79.385 Z-3.808 I0 J1.475
X100 Y76.435 Z-4.019 I0 J-1.475
X100 Y79.385 Z-4.231 I0 J1.475
X100 Y76.435 Z-4.442 I0 J-1.475
X100 Y79.385 Z-4.654 I0 J1.475
X100 Y76.435 Z-4.865 I0 J-1.475
X100 Y79.385 Z-5.077 I0 J1.475
X100 Y76.435 Z-5.288 I0 J-1.475
X100 Y79.385 Z-5.5 I0 J1.475
X100 Y76.435 Z-5.711 I0 J-1.475
X100 Y79.385 Z-5.923 I0 J1.475
X98.656 Y78.517 Z-6 I0 J-1.475
X101.344 Y77.302 I1.344 J-0.607
X98.656 Y78.517 I-1.344 J0.607
X98.811 Y78.107 I0.283 J-0.128 F50
G1 X98.952 Y78.043
X99.015 Y78.014 Z-5.992
X99.075 Y77.987 Z-5.969
X99.128 Y77.963 Z-5.932
X99.173 Y77.943 Z-5.883
X99.206 Y77.928 Z-5.825
X99.227 Y77.918 Z-5.759
X99.234 Y77.915 Z-5.69
Z5.5 F200
X80.31 Y78.61
Z2
Z0.31 F50
G19 G3 Y78.92 Z0 J0.31 K0
G1 Y79.075
G17 G3 X80 Y79.385 I-0.31 J0
X80 Y76.435 Z-0.212 I0 J-1.475 F200
X80 Y79.385 Z-0.423 I0 J1.475
X80 Y76.435 Z-0.635 I0 J-1.475
X80 Y79.385 Z-0.846 I0 J1.475
X80 Y76.435 Z-1.058 I0 J-1.475
X80 Y79.385 Z-1.269 I0 J1.475
X80 Y76.435 Z-1.481 I0 J-1.475
X80 Y79.385 Z-1.692 I0 J1.475
X80 Y76.435 Z-1.904 I0 J-1.475
X80 Y79.385 Z-2.115 I0 J1.475
X80 Y76.435 Z-2.327 I0 J-1.475
X80 Y79.385 Z-2.538 I0 J1.475
X80 Y76.435 Z-2.75 I0 J-1.475
X80 Y79.385 Z-2.961 I0 J1.475
X80 Y76.435 Z-3.173 I0 J-1.475
X80 Y79.385 Z-3.384 I0 J1.475
X80 Y76.435 Z-3.596 I0 J-1.475
X80 Y79.385 Z-3.808 I0 J1.475
X80 Y76.435 Z-4.019 I0 J-1.475
X80 Y79.385 Z-4.231 I0 J1.475
X80 Y76.435 Z-4.442 I0 J-1.475
X80 Y79.385 Z-4.654 I0 J1.475
X80 Y76.435 Z-4.865 I0 J-1.475
X80 Y79.385 Z-5.077 I0 J1.475
X80 Y76.435 Z-5.288 I0 J-1.475
X80 Y79.385 Z-5.5 I0 J1.475
X80 Y76.435 Z-5.711 I0 J-1.475
X80 Y79.385 Z-5.923 I0 J1.475
X78.656 Y78.517 Z-6 I0 J-1.475
X81.344 Y77.302 I1.344 J-0.607
X78.656 Y78.517 I-1.344 J0.607
X78.811 Y78.107 I0.283 J-0.128 F50
G1 X78.952 Y78.043
X79.015 Y78.014 Z-5.992
X79.075 Y77.987 Z-5.969
X79.128 Y77.963 Z-5.932
X79.173 Y77.943 Z-5.883
X79.206 Y77.928 Z-5.825
X79.227 Y77.918 Z-5.759
X79.234 Y77.915 Z-5.69
Z5.5 F200
X60.31 Y78.61
Z2
Z0.31 F50
G19 G3 Y78.92 Z0 J0.31 K0
G1 Y79.075
G17 G3 X60 Y79.385 I-0.31 J0
X60 Y76.435 Z-0.212 I0 J-1.475 F200
X60 Y79.385 Z-0.423 I0 J1.475
X60 Y76.435 Z-0.635 I0 J-1.475
X60 Y79.385 Z-0.846 I0 J1.475
X60 Y76.435 Z-1.058 I0 J-1.475
X60 Y79.385 Z-1.269 I0 J1.475
X60 Y76.435 Z-1.481 I0 J-1.475
X60 Y79.385 Z-1.692 I0 J1.475
X60 Y76.435 Z-1.904 I0 J-1.475
X60 Y79.385 Z-2.115 I0 J1.475
X60 Y76.435 Z-2.327 I0 J-1.475
X60 Y79.385 Z-2.538 I0 J1.475
X60 Y76.435 Z-2.75 I0 J-1.475
X60 Y79.385 Z-2.961 I0 J1.475
X60 Y76.435 Z-3.173 I0 J-1.475
X60 Y79.385 Z-3.384 I0 J1.475
X60 Y76.435 Z-3.596 I0 J-1.475
X60 Y79.385 Z-3.808 I0 J1.475
X60 Y76.435 Z-4.019 I0 J-1.475
X60 Y79.385 Z-4.231 I0 J1.475
X60 Y76.435 Z-4.442 I0 J-1.475
X60 Y79.385 Z-4.654 I0 J1.475
X60 Y76.435 Z-4.865 I0 J-1.475
X60 Y79.385 Z-5.077 I0 J1.475
X60 Y76.435 Z-5.288 I0 J-1.475
X60 Y79.385 Z-5.5 I0 J1.475
X60 Y76.435 Z-5.711 I0 J-1.475
X60 Y79.385 Z-5.923 I0 J1.475
X58.656 Y78.517 Z-6 I0 J-1.475
X61.344 Y77.302 I1.344 J-0.607
X58.656 Y78.517 I-1.344 J0.607
X58.811 Y78.107 I0.283 J-0.128 F50
G1 X58.952 Y78.043
X59.015 Y78.014 Z-5.992
X59.075 Y77.987 Z-5.969
X59.128 Y77.963 Z-5.932
X59.173 Y77.943 Z-5.883
X59.206 Y77.928 Z-5.825
X59.227 Y77.918 Z-5.759
X59.234 Y77.915 Z-5.69
Z5.5 F200
X60.31 Y8.61
Z2
Z0.31 F50
G19 G3 Y8.92 Z0 J0.31 K0
G1 Y9.075
G17 G3 X60 Y9.385 I-0.31 J0
X60 Y6.435 Z-0.212 I0 J-1.475 F200
X60 Y9.385 Z-0.423 I0 J1.475
X60 Y6.435 Z-0.635 I0 J-1.475
X60 Y9.385 Z-0.846 I0 J1.475
X60 Y6.435 Z-1.058 I0 J-1.475
X60 Y9.385 Z-1.269 I0 J1.475
X60 Y6.435 Z-1.481 I0 J-1.475
X60 Y9.385 Z-1.692 I0 J1.475
X60 Y6.435 Z-1.904 I0 J-1.475
X60 Y9.385 Z-2.115 I0 J1.475
X60 Y6.435 Z-2.327 I0 J-1.475
X60 Y9.385 Z-2.538 I0 J1.475
X60 Y6.435 Z-2.75 I0 J-1.475
X60 Y9.385 Z-2.961 I0 J1.475
X60 Y6.435 Z-3.173 I0 J-1.475
X60 Y9.385 Z-3.384 I0 J1.475
X60 Y6.435 Z-3.596 I0 J-1.475
X60 Y9.385 Z-3.808 I0 J1.475
X60 Y6.435 Z-4.019 I0 J-1.475
X60 Y9.385 Z-4.231 I0 J1.475
X60 Y6.435 Z-4.442 I0 J-1.475
X60 Y9.385 Z-4.654 I0 J1.475
X60 Y6.435 Z-4.865 I0 J-1.475
X60 Y9.385 Z-5.077 I0 J1.475
X60 Y6.435 Z-5.288 I0 J-1.475
X60 Y9.385 Z-5.5 I0 J1.475
X60 Y6.435 Z-5.711 I0 J-1.475
X60 Y9.385 Z-5.923 I0 J1.475
X58.656 Y8.517 Z-6 I0 J-1.475
X61.344 Y7.302 I1.344 J-0.607
X58.656 Y8.517 I-1.344 J0.607
X58.811 Y8.107 I0.283 J-0.128 F50
G1 X58.952 Y8.043
X59.015 Y8.014 Z-5.992
X59.075 Y7.987 Z-5.969
X59.128 Y7.963 Z-5.932
X59.173 Y7.943 Z-5.883
X59.206 Y7.928 Z-5.825
X59.227 Y7.918 Z-5.759
X59.234 Y7.915 Z-5.69
Z5.5 F200
X80.31 Y8.61
Z2
Z0.31 F50
G19 G3 Y8.92 Z0 J0.31 K0
G1 Y9.075
G17 G3 X80 Y9.385 I-0.31 J0
X80 Y6.435 Z-0.212 I0 J-1.475 F200
X80 Y9.385 Z-0.423 I0 J1.475
X80 Y6.435 Z-0.635 I0 J-1.475
X80 Y9.385 Z-0.846 I0 J1.475
X80 Y6.435 Z-1.058 I0 J-1.475
X80 Y9.385 Z-1.269 I0 J1.475
X80 Y6.435 Z-1.481 I0 J-1.475
X80 Y9.385 Z-1.692 I0 J1.475
X80 Y6.435 Z-1.904 I0 J-1.475
X80 Y9.385 Z-2.115 I0 J1.475
X80 Y6.435 Z-2.327 I0 J-1.475
X80 Y9.385 Z-2.538 I0 J1.475
X80 Y6.435 Z-2.75 I0 J-1.475
X80 Y9.385 Z-2.961 I0 J1.475
X80 Y6.435 Z-3.173 I0 J-1.475
X80 Y9.385 Z-3.384 I0 J1.475
X80 Y6.435 Z-3.596 I0 J-1.475
X80 Y9.385 Z-3.808 I0 J1.475
X80 Y6.435 Z-4.019 I0 J-1.475
X80 Y9.385 Z-4.231 I0 J1.475
X80 Y6.435 Z-4.442 I0 J-1.475
X80 Y9.385 Z-4.654 I0 J1.475
X80 Y6.435 Z-4.865 I0 J-1.475
X80 Y9.385 Z-5.077 I0 J1.475
X80 Y6.435 Z-5.288 I0 J-1.475
X80 Y9.385 Z-5.5 I0 J1.475
X80 Y6.435 Z-5.711 I0 J-1.475
X80 Y9.385 Z-5.923 I0 J1.475
X78.656 Y8.517 Z-6 I0 J-1.475
X81.344 Y7.302 I1.344 J-0.607
X78.656 Y8.517 I-1.344 J0.607
X78.811 Y8.107 I0.283 J-0.128 F50
G1 X78.952 Y8.043
X79.015 Y8.014 Z-5.992
X79.075 Y7.987 Z-5.969
X79.128 Y7.963 Z-5.932
X79.173 Y7.943 Z-5.883
X79.206 Y7.928 Z-5.825
X79.227 Y7.918 Z-5.759
X79.234 Y7.915 Z-5.69
Z5.5 F200
X100.31 Y8.61
Z2
Z0.31 F50
G19 G3 Y8.92 Z0 J0.31 K0
G1 Y9.075
G17 G3 X100 Y9.385 I-0.31 J0
X100 Y6.435 Z-0.212 I0 J-1.475 F200
X100 Y9.385 Z-0.423 I0 J1.475
X100 Y6.435 Z-0.635 I0 J-1.475
X100 Y9.385 Z-0.846 I0 J1.475
X100 Y6.435 Z-1.058 I0 J-1.475
X100 Y9.385 Z-1.269 I0 J1.475
X100 Y6.435 Z-1.481 I0 J-1.475
X100 Y9.385 Z-1.692 I0 J1.475
X100 Y6.435 Z-1.904 I0 J-1.475
X100 Y9.385 Z-2.115 I0 J1.475
X100 Y6.435 Z-2.327 I0 J-1.475
X100 Y9.385 Z-2.538 I0 J1.475
X100 Y6.435 Z-2.75 I0 J-1.475
X100 Y9.385 Z-2.961 I0 J1.475
X100 Y6.435 Z-3.173 I0 J-1.475
X100 Y9.385 Z-3.384 I0 J1.475
X100 Y6.435 Z-3.596 I0 J-1.475
X100 Y9.385 Z-3.808 I0 J1.475
X100 Y6.435 Z-4.019 I0 J-1.475
X100 Y9.385 Z-4.231 I0 J1.475
X100 Y6.435 Z-4.442 I0 J-1.475
X100 Y9.385 Z-4.654 I0 J1.475
X100 Y6.435 Z-4.865 I0 J-1.475
X100 Y9.385 Z-5.077 I0 J1.475
X100 Y6.435 Z-5.288 I0 J-1.475
X100 Y9.385 Z-5.5 I0 J1.475
X100 Y6.435 Z-5.711 I0 J-1.475
X100 Y9.385 Z-5.923 I0 J1.475
X98.656 Y8.517 Z-6 I0 J-1.475
X101.344 Y7.302 I1.344 J-0.607
X98.656 Y8.517 I-1.344 J0.607
X98.811 Y8.107 I0.283 J-0.128 F50
G1 X98.952 Y8.043
X99.015 Y8.014 Z-5.992
X99.075 Y7.987 Z-5.969
X99.128 Y7.963 Z-5.932
X99.173 Y7.943 Z-5.883
X99.206 Y7.928 Z-5.825
X99.227 Y7.918 Z-5.759
X99.234 Y7.915 Z-5.69
Z5.5 F200
X120.31 Y8.61
Z2
Z0.31 F50
G19 G3 Y8.92 Z0 J0.31 K0
G1 Y9.075
G17 G3 X120 Y9.385 I-0.31 J0
X120 Y6.435 Z-0.212 I0 J-1.475 F200
X120 Y9.385 Z-0.423 I0 J1.475
X120 Y6.435 Z-0.635 I0 J-1.475
X120 Y9.385 Z-0.846 I0 J1.475
X120 Y6.435 Z-1.058 I0 J-1.475
X120 Y9.385 Z-1.269 I0 J1.475
X120 Y6.435 Z-1.481 I0 J-1.475
X120 Y9.385 Z-1.692 I0 J1.475
X120 Y6.435 Z-1.904 I0 J-1.475
X120 Y9.385 Z-2.115 I0 J1.475
X120 Y6.435 Z-2.327 I0 J-1.475
X120 Y9.385 Z-2.538 I0 J1.475
X120 Y6.435 Z-2.75 I0 J-1.475
X120 Y9.385 Z-2.961 I0 J1.475
X120 Y6.435 Z-3.173 I0 J-1.475
X120 Y9.385 Z-3.384 I0 J1.475
X120 Y6.435 Z-3.596 I0 J-1.475
X120 Y9.385 Z-3.808 I0 J1.475
X120 Y6.435 Z-4.019 I0 J-1.475
X120 Y9.385 Z-4.231 I0 J1.475
X120 Y6.435 Z-4.442 I0 J-1.475
X120 Y9.385 Z-4.654 I0 J1.475
X120 Y6.435 Z-4.865 I0 J-1.475
X120 Y9.385 Z-5.077 I0 J1.475
X120 Y6.435 Z-5.288 I0 J-1.475
X120 Y9.385 Z-5.5 I0 J1.475
X120 Y6.435 Z-5.711 I0 J-1.475
X120 Y9.385 Z-5.923 I0 J1.475
X118.656 Y8.517 Z-6 I0 J-1.475
X121.344 Y7.302 I1.344 J-0.607
X118.656 Y8.517 I-1.344 J0.607
X118.811 Y8.107 I0.283 J-0.128 F50
G1 X118.952 Y8.043
X119.015 Y8.014 Z-5.992
X119.075 Y7.987 Z-5.969
X119.128 Y7.963 Z-5.932
X119.173 Y7.943 Z-5.883
X119.206 Y7.928 Z-5.825
X119.227 Y7.918 Z-5.759
X119.234 Y7.915 Z-5.69
Z5.5 F200
X140.31 Y8.61
Z2
Z0.31 F50
G19 G3 Y8.92 Z0 J0.31 K0
G1 Y9.075
G17 G3 X140 Y9.385 I-0.31 J0
X140 Y6.435 Z-0.212 I0 J-1.475 F200
X140 Y9.385 Z-0.423 I0 J1.475
X140 Y6.435 Z-0.635 I0 J-1.475
X140 Y9.385 Z-0.846 I0 J1.475
X140 Y6.435 Z-1.058 I0 J-1.475
X140 Y9.385 Z-1.269 I0 J1.475
X140 Y6.435 Z-1.481 I0 J-1.475
X140 Y9.385 Z-1.692 I0 J1.475
X140 Y6.435 Z-1.904 I0 J-1.475
X140 Y9.385 Z-2.115 I0 J1.475
X140 Y6.435 Z-2.327 I0 J-1.475
X140 Y9.385 Z-2.538 I0 J1.475
X140 Y6.435 Z-2.75 I0 J-1.475
X140 Y9.385 Z-2.961 I0 J1.475
X140 Y6.435 Z-3.173 I0 J-1.475
X140 Y9.385 Z-3.384 I0 J1.475
X140 Y6.435 Z-3.596 I0 J-1.475
X140 Y9.385 Z-3.808 I0 J1.475
X140 Y6.435 Z-4.019 I0 J-1.475
X140 Y9.385 Z-4.231 I0 J1.475
X140 Y6.435 Z-4.442 I0 J-1.475
X140 Y9.385 Z-4.654 I0 J1.475
X140 Y6.435 Z-4.865 I0 J-1.475
X140 Y9.385 Z-5.077 I0 J1.475
X140 Y6.435 Z-5.288 I0 J-1.475
X140 Y9.385 Z-5.5 I0 J1.475
X140 Y6.435 Z-5.711 I0 J-1.475
X140 Y9.385 Z-5.923 I0 J1.475
X138.656 Y8.517 Z-6 I0 J-1.475
X141.344 Y7.302 I1.344 J-0.607
X138.656 Y8.517 I-1.344 J0.607
X138.811 Y8.107 I0.283 J-0.128 F50
G1 X138.952 Y8.043
X139.015 Y8.014 Z-5.992
X139.075 Y7.987 Z-5.969
X139.128 Y7.963 Z-5.932
X139.173 Y7.943 Z-5.883
X139.206 Y7.928 Z-5.825
X139.227 Y7.918 Z-5.759
X139.234 Y7.915 Z-5.69
Z5.5 F200
X160.31 Y8.61
Z2
Z0.31 F50
G19 G3 Y8.92 Z0 J0.31 K0
G1 Y9.075
G17 G3 X160 Y9.385 I-0.31 J0
X160 Y6.435 Z-0.212 I0 J-1.475 F200
X160 Y9.385 Z-0.423 I0 J1.475
X160 Y6.435 Z-0.635 I0 J-1.475
X160 Y9.385 Z-0.846 I0 J1.475
X160 Y6.435 Z-1.058 I0 J-1.475
X160 Y9.385 Z-1.269 I0 J1.475
X160 Y6.435 Z-1.481 I0 J-1.475
X160 Y9.385 Z-1.692 I0 J1.475
X160 Y6.435 Z-1.904 I0 J-1.475
X160 Y9.385 Z-2.115 I0 J1.475
X160 Y6.435 Z-2.327 I0 J-1.475
X160 Y9.385 Z-2.538 I0 J1.475
X160 Y6.435 Z-2.75 I0 J-1.475
X160 Y9.385 Z-2.961 I0 J1.475
X160 Y6.435 Z-3.173 I0 J-1.475
X160 Y9.385 Z-3.384 I0 J1.475
X160 Y6.435 Z-3.596 I0 J-1.475
X160 Y9.385 Z-3.808 I0 J1.475
X160 Y6.435 Z-4.019 I0 J-1.475
X160 Y9.385 Z-4.231 I0 J1.475
X160 Y6.435 Z-4.442 I0 J-1.475
X160 Y9.385 Z-4.654 I0 J1.475
X160 Y6.435 Z-4.865 I0 J-1.475
X160 Y9.385 Z-5.077 I0 J1.475
X160 Y6.435 Z-5.288 I0 J-1.475
X160 Y9.385 Z-5.5 I0 J1.475
X160 Y6.435 Z-5.711 I0 J-1.475
X160 Y9.385 Z-5.923 I0 J1.475
X158.656 Y8.517 Z-6 I0 J-1.475
X161.344 Y7.302 I1.344 J-0.607
X158.656 Y8.517 I-1.344 J0.607
X158.811 Y8.107 I0.283 J-0.128 F50
G1 X158.952 Y8.043
X159.015 Y8.014 Z-5.992
X159.075 Y7.987 Z-5.969
X159.128 Y7.963 Z-5.932
X159.173 Y7.943 Z-5.883
X159.206 Y7.928 Z-5.825
X159.227 Y7.918 Z-5.759
X159.234 Y7.915 Z-5.69
Z5.5 F200
X180.31 Y8.61
Z2
Z0.31 F50
G19 G3 Y8.92 Z0 J0.31 K0
G1 Y9.075
G17 G3 X180 Y9.385 I-0.31 J0
X180 Y6.435 Z-0.212 I0 J-1.475 F200
X180 Y9.385 Z-0.423 I0 J1.475
X180 Y6.435 Z-0.635 I0 J-1.475
X180 Y9.385 Z-0.846 I0 J1.475
X180 Y6.435 Z-1.058 I0 J-1.475
X180 Y9.385 Z-1.269 I0 J1.475
X180 Y6.435 Z-1.481 I0 J-1.475
X180 Y9.385 Z-1.692 I0 J1.475
X180 Y6.435 Z-1.904 I0 J-1.475
X180 Y9.385 Z-2.115 I0 J1.475
X180 Y6.435 Z-2.327 I0 J-1.475
X180 Y9.385 Z-2.538 I0 J1.475
X180 Y6.435 Z-2.75 I0 J-1.475
X180 Y9.385 Z-2.961 I0 J1.475
X180 Y6.435 Z-3.173 I0 J-1.475
X180 Y9.385 Z-3.384 I0 J1.475
X180 Y6.435 Z-3.596 I0 J-1.475
X180 Y9.385 Z-3.808 I0 J1.475
X180 Y6.435 Z-4.019 I0 J-1.475
X180 Y9.385 Z-4.231 I0 J1.475
X180 Y6.435 Z-4.442 I0 J-1.475
X180 Y9.385 Z-4.654 I0 J1.475
X180 Y6.435 Z-4.865 I0 J-1.475
X180 Y9.385 Z-5.077 I0 J1.475
X180 Y6.435 Z-5.288 I0 J-1.475
X180 Y9.385 Z-5.5 I0 J1.475
X180 Y6.435 Z-5.711 I0 J-1.475
X180 Y9.385 Z-5.923 I0 J1.475
X178.656 Y8.517 Z-6 I0 J-1.475
X181.344 Y7.302 I1.344 J-0.607
X178.656 Y8.517 I-1.344 J0.607
X178.811 Y8.107 I0.283 J-0.128 F50
G1 X178.952 Y8.043
X179.015 Y8.014 Z-5.992
X179.075 Y7.987 Z-5.969
X179.128 Y7.963 Z-5.932
X179.173 Y7.943 Z-5.883
X179.206 Y7.928 Z-5.825
X179.227 Y7.918 Z-5.759
X179.234 Y7.915 Z-5.69
Z5.5 F200
X240.31 Y8.61
Z2
Z0.31 F50
G19 G3 Y8.92 Z0 J0.31 K0
G1 Y9.075
G17 G3 X240 Y9.385 I-0.31 J0
X240 Y6.435 Z-0.212 I0 J-1.475 F200
X240 Y9.385 Z-0.423 I0 J1.475
X240 Y6.435 Z-0.635 I0 J-1.475
X240 Y9.385 Z-0.846 I0 J1.475
X240 Y6.435 Z-1.058 I0 J-1.475
X240 Y9.385 Z-1.269 I0 J1.475
X240 Y6.435 Z-1.481 I0 J-1.475
X240 Y9.385 Z-1.692 I0 J1.475
X240 Y6.435 Z-1.904 I0 J-1.475
X240 Y9.385 Z-2.115 I0 J1.475
X240 Y6.435 Z-2.327 I0 J-1.475
X240 Y9.385 Z-2.538 I0 J1.475
X240 Y6.435 Z-2.75 I0 J-1.475
X240 Y9.385 Z-2.961 I0 J1.475
X240 Y6.435 Z-3.173 I0 J-1.475
X240 Y9.385 Z-3.384 I0 J1.475
X240 Y6.435 Z-3.596 I0 J-1.475
X240 Y9.385 Z-3.808 I0 J1.475
X240 Y6.435 Z-4.019 I0 J-1.475
X240 Y9.385 Z-4.231 I0 J1.475
X240 Y6.435 Z-4.442 I0 J-1.475
X240 Y9.385 Z-4.654 I0 J1.475
X240 Y6.435 Z-4.865 I0 J-1.475
X240 Y9.385 Z-5.077 I0 J1.475
X240 Y6.435 Z-5.288 I0 J-1.475
X240 Y9.385 Z-5.5 I0 J1.475
X240 Y6.435 Z-5.711 I0 J-1.475
X240 Y9.385 Z-5.923 I0 J1.475
X238.656 Y8.517 Z-6 I0 J-1.475
X241.344 Y7.302 I1.344 J-0.607
X238.656 Y8.517 I-1.344 J0.607
X238.811 Y8.107 I0.283 J-0.128 F50
G1 X238.952 Y8.043
X239.015 Y8.014 Z-5.992
X239.075 Y7.987 Z-5.969
X239.128 Y7.963 Z-5.932
X239.173 Y7.943 Z-5.883
X239.206 Y7.928 Z-5.825
X239.227 Y7.918 Z-5.759
X239.234 Y7.915 Z-5.69
Z5.5 F200
X260.31 Y8.61
Z2
Z0.31 F50
G19 G3 Y8.92 Z0 J0.31 K0
G1 Y9.075
G17 G3 X260 Y9.385 I-0.31 J0
X260 Y6.435 Z-0.212 I0 J-1.475 F200
X260 Y9.385 Z-0.423 I0 J1.475
X260 Y6.435 Z-0.635 I0 J-1.475
X260 Y9.385 Z-0.846 I0 J1.475
X260 Y6.435 Z-1.058 I0 J-1.475
X260 Y9.385 Z-1.269 I0 J1.475
X260 Y6.435 Z-1.481 I0 J-1.475
X260 Y9.385 Z-1.692 I0 J1.475
X260 Y6.435 Z-1.904 I0 J-1.475
X260 Y9.385 Z-2.115 I0 J1.475
X260 Y6.435 Z-2.327 I0 J-1.475
X260 Y9.385 Z-2.538 I0 J1.475
X260 Y6.435 Z-2.75 I0 J-1.475
X260 Y9.385 Z-2.961 I0 J1.475
X260 Y6.435 Z-3.173 I0 J-1.475
X260 Y9.385 Z-3.384 I0 J1.475
X260 Y6.435 Z-3.596 I0 J-1.475
X260 Y9.385 Z-3.808 I0 J1.475
X260 Y6.435 Z-4.019 I0 J-1.475
X260 Y9.385 Z-4.231 I0 J1.475
X260 Y6.435 Z-4.442 I0 J-1.475
X260 Y9.385 Z-4.654 I0 J1.475
X260 Y6.435 Z-4.865 I0 J-1.475
X260 Y9.385 Z-5.077 I0 J1.475
X260 Y6.435 Z-5.288 I0 J-1.475
X260 Y9.385 Z-5.5 I0 J1.475
X260 Y6.435 Z-5.711 I0 J-1.475
X260 Y9.385 Z-5.923 I0 J1.475
X258.656 Y8.517 Z-6 I0 J-1.475
X261.344 Y7.302 I1.344 J-0.607
X258.656 Y8.517 I-1.344 J0.607
X258.811 Y8.107 I0.283 J-0.128 F50
G1 X258.952 Y8.043
X259.015 Y8.014 Z-5.992
X259.075 Y7.987 Z-5.969
X259.128 Y7.963 Z-5.932
X259.173 Y7.943 Z-5.883
X259.206 Y7.928 Z-5.824
X259.227 Y7.918 Z-5.759
X259.234 Y7.915 Z-5.69
Z15.5 F200
(When using Fusion for Personal Use, the feedrate of rapid)
(moves is reduced to match the feedrate of cutting moves,)
(which can increase machining time. Unrestricted rapid moves)
(are available with a Fusion Subscription.)

(2D Contour9)
G0 X-1.853 Y89.274
G1 Z6.5 F200
Z1.12
Z-0.69 F50
X-1.847 Y89.269 Z-0.759
X-1.831 Y89.253 Z-0.825
X-1.805 Y89.226 Z-0.883
X-1.77 Y89.192 Z-0.932
X-1.729 Y89.15 Z-0.969
X-1.682 Y89.104 Z-0.992
X-1.633 Y89.055 Z-1
X-0.219 Y87.641
X-0.172 Y87.602
X-0.119 Y87.574
X-0.06 Y87.556
X0 Y87.55
X270 F200
G2 X271.55 Y86 I0 J-1.55
G1 Y0
G2 X270 Y-1.55 I-1.55 J0
G1 X0
G2 X-1.55 Y0 I0 J1.55
G1 Y86
G2 X0 Y87.55 I1.55 J0
G1 X0.06 Y87.556 F50
X0.119 Y87.574
X0.172 Y87.602
X0.219 Y87.641
X1.633 Y89.055
X1.682 Y89.104 Z-0.992
X1.729 Y89.15 Z-0.969
X1.77 Y89.192 Z-0.932
X1.805 Y89.226 Z-0.883
X1.831 Y89.253 Z-0.825
X1.847 Y89.269 Z-0.759
X1.853 Y89.274 Z-0.69
Z1.5 F200
X-1.853
Z0.83
Z-0.38 F50
Z-2.19
X-1.847 Y89.269 Z-2.259
X-1.831 Y89.253 Z-2.325
X-1.805 Y89.226 Z-2.383
X-1.77 Y89.192 Z-2.432
X-1.729 Y89.15 Z-2.469
X-1.682 Y89.104 Z-2.492
X-1.633 Y89.055 Z-2.5
X-0.219 Y87.641
X-0.172 Y87.602
X-0.119 Y87.574
X-0.06 Y87.556
X0 Y87.55
X270 F200
G2 X271.55 Y86 I0 J-1.55
G1 Y0
G2 X270 Y-1.55 I-1.55 J0
G1 X0
G2 X-1.55 Y0 I0 J1.55
G1 Y86
G2 X0 Y87.55 I1.55 J0
G1 X0.06 Y87.556 F50
X0.119 Y87.574
X0.172 Y87.602
X0.219 Y87.641
X1.633 Y89.055
X1.682 Y89.104 Z-2.492
X1.729 Y89.15 Z-2.469
X1.77 Y89.192 Z-2.432
X1.805 Y89.226 Z-2.383
X1.831 Y89.253 Z-2.325
X1.847 Y89.269 Z-2.259
X1.853 Y89.274 Z-2.19
Z1.5 F200
X-1.853
Z0.83
Z-1.88 F50
Z-3.69
X-1.847 Y89.269 Z-3.759
X-1.831 Y89.253 Z-3.825
X-1.805 Y89.226 Z-3.883
X-1.77 Y89.192 Z-3.932
X-1.729 Y89.15 Z-3.969
X-1.682 Y89.104 Z-3.992
X-1.633 Y89.055 Z-4
X-0.219 Y87.641
X-0.172 Y87.602
X-0.119 Y87.574
X-0.06 Y87.556
X0 Y87.55
X270 F200
G2 X271.55 Y86 I0 J-1.55
G1 Y0
G2 X270 Y-1.55 I-1.55 J0
G1 X0
G2 X-1.55 Y0 I0 J1.55
G1 Y86
G2 X0 Y87.55 I1.55 J0
G1 X0.06 Y87.556 F50
X0.119 Y87.574
X0.172 Y87.602
X0.219 Y87.641
X1.633 Y89.055
X1.682 Y89.104 Z-3.992
X1.729 Y89.15 Z-3.969
X1.77 Y89.192 Z-3.932
X1.805 Y89.226 Z-3.883
X1.831 Y89.253 Z-3.825
X1.847 Y89.269 Z-3.759
X1.853 Y89.274 Z-3.69
Z1.5 F200
X-1.853
Z0.83
Z-3.38 F50
Z-5.19
X-1.847 Y89.269 Z-5.259
X-1.831 Y89.253 Z-5.325
X-1.805 Y89.226 Z-5.383
X-1.77 Y89.192 Z-5.432
X-1.729 Y89.15 Z-5.469
X-1.682 Y89.104 Z-5.492
X-1.633 Y89.055 Z-5.5
X-0.219 Y87.641
X-0.172 Y87.602
X-0.119 Y87.574
X-0.06 Y87.556
X0 Y87.55
X270 F200
G2 X271.55 Y86 I0 J-1.55
G1 Y0
G2 X270 Y-1.55 I-1.55 J0
G1 X0
G2 X-1.55 Y0 I0 J1.55
G1 Y86
G2 X0 Y87.55 I1.55 J0
G1 X0.06 Y87.556 F50
X0.119 Y87.574
X0.172 Y87.602
X0.219 Y87.641
X1.633 Y89.055
X1.682 Y89.104 Z-5.492
X1.729 Y89.15 Z-5.469
X1.77 Y89.192 Z-5.432
X1.805 Y89.226 Z-5.383
X1.831 Y89.253 Z-5.325
X1.847 Y89.269 Z-5.259
X1.853 Y89.274 Z-5.19
Z1.5 F200
X-1.853
Z0.83
Z-4.88 F50
Z-5.69
X-1.847 Y89.269 Z-5.759
X-1.831 Y89.253 Z-5.825
X-1.805 Y89.226 Z-5.883
X-1.77 Y89.192 Z-5.932
X-1.729 Y89.15 Z-5.969
X-1.682 Y89.104 Z-5.992
X-1.633 Y89.055 Z-6
X-0.219 Y87.641
X-0.172 Y87.602
X-0.119 Y87.574
X-0.06 Y87.556
X0 Y87.55
X270 F200
G2 X271.55 Y86 I0 J-1.55
G1 Y0
G2 X270 Y-1.55 I-1.55 J0
G1 X0
G2 X-1.55 Y0 I0 J1.55
G1 Y86
G2 X0 Y87.55 I1.55 J0
G1 X0.06 Y87.556 F50
X0.119 Y87.574
X0.172 Y87.602
X0.219 Y87.641
X1.633 Y89.055
X1.682 Y89.104 Z-5.992
X1.729 Y89.15 Z-5.969
X1.77 Y89.192 Z-5.932
X1.805 Y89.226 Z-5.883
X1.831 Y89.253 Z-5.825
X1.847 Y89.269 Z-5.759
X1.853 Y89.274 Z-5.69
Z6.5 F200

M9
M5
M30
