(z_axis_mount_rehole)
(Machine)
(  vendor: Autodesk)
(  model: Generic 3-axis)
(  description: This machine has XYZ axis on the Head)
(T3 D=3.1 CR=0 - ZMIN=-6 - flat end mill)
G90 G94
G17
G21
(-Attention- Property Safe Retracts is set to Clearance Height.)
(Ensure the clearance height will clear the part and or fixtures.)
(Raise the Z-axis to a safe height before starting the program.)
(When using Fusion for Personal Use, the feedrate of rapid)
(moves is reduced to match the feedrate of cutting moves,)
(which can increase machining time. Unrestricted rapid moves)
(are available with a Fusion Subscription.)

(Circular1)
T3
S18000 M3
G17 G90 G94
G54
M8
G0 X46.31 Y64.175
Z15.5
G1 Z1.7 F200
Z0.01 F50
G19 G3 Y64.485 Z-0.3 J0.31 K0
G1 Y64.64
G17 G3 X46 Y64.95 I-0.31 J0
X46 Y57.05 I0 J-3.95 F200
X46 Y64.95 I0 J3.95
X45.69 Y64.64 I0 J-0.31 F50
G1 Y64.485
G19 G2 Y64.175 Z0.01 J0 K0.31
G1 Z5.5 F200
X46.31
Z1.4
Z-0.29 F50
G3 Y64.485 Z-0.6 J0.31 K0
G1 Y64.64
G17 G3 X46 Y64.95 I-0.31 J0
X46 Y57.05 I0 J-3.95 F200
X46 Y64.95 I0 J3.95
X45.69 Y64.64 I0 J-0.31 F50
G1 Y64.485
G19 G2 Y64.175 Z-0.29 J0 K0.31
G1 Z5.5 F200
X46.31
Z1.1
Z-0.59 F50
G3 Y64.485 Z-0.9 J0.31 K0
G1 Y64.64
G17 G3 X46 Y64.95 I-0.31 J0
X46 Y57.05 I0 J-3.95 F200
X46 Y64.95 I0 J3.95
X45.69 Y64.64 I0 J-0.31 F50
G1 Y64.485
G19 G2 Y64.175 Z-0.59 J0 K0.31
G1 Z5.5 F200
X46.31
Z0.8
Z-0.89 F50
G3 Y64.485 Z-1.2 J0.31 K0
G1 Y64.64
G17 G3 X46 Y64.95 I-0.31 J0
X46 Y57.05 I0 J-3.95 F200
X46 Y64.95 I0 J3.95
X45.69 Y64.64 I0 J-0.31 F50
G1 Y64.485
G19 G2 Y64.175 Z-0.89 J0 K0.31
G1 Z5.5 F200
X46.31
Z0.5
Z-1.19 F50
G3 Y64.485 Z-1.5 J0.31 K0
G1 Y64.64
G17 G3 X46 Y64.95 I-0.31 J0
X46 Y57.05 I0 J-3.95 F200
X46 Y64.95 I0 J3.95
X45.69 Y64.64 I0 J-0.31 F50
G1 Y64.485
G19 G2 Y64.175 Z-1.19 J0 K0.31
G1 Z5.5 F200
X46.31
Z0.2
Z-1.49 F50
G3 Y64.485 Z-1.8 J0.31 K0
G1 Y64.64
G17 G3 X46 Y64.95 I-0.31 J0
X46 Y57.05 I0 J-3.95 F200
X46 Y64.95 I0 J3.95
X45.69 Y64.64 I0 J-0.31 F50
G1 Y64.485
G19 G2 Y64.175 Z-1.49 J0 K0.31
G1 Z5.5 F200
X46.31
Z-0.065
Z-1.755 F50
G3 Y64.485 Z-2.065 J0.31 K0
G1 Y64.64
G17 G3 X46 Y64.95 I-0.31 J0
X46 Y57.05 I0 J-3.95 F200
X46 Y64.95 I0 J3.95
X45.69 Y64.64 I0 J-0.31 F50
G1 Y64.485
G19 G2 Y64.175 Z-1.755 J0 K0.31
G1 Z5.5 F200
X46.31
Z-0.33
Z-2.02 F50
G3 Y64.485 Z-2.33 J0.31 K0
G1 Y64.64
G17 G3 X46 Y64.95 I-0.31 J0
X46 Y57.05 I0 J-3.95 F200
X46 Y64.95 I0 J3.95
X45.69 Y64.64 I0 J-0.31 F50
G1 Y64.485
G19 G2 Y64.175 Z-2.02 J0 K0.31
G1 Z5.5 F200
X14.31
Z1.7
Z0.01 F50
G3 Y64.485 Z-0.3 J0.31 K0
G1 Y64.64
G17 G3 X14 Y64.95 I-0.31 J0
X14 Y57.05 I0 J-3.95 F200
X14 Y64.95 I0 J3.95
X13.69 Y64.64 I0 J-0.31 F50
G1 Y64.485
G19 G2 Y64.175 Z0.01 J0 K0.31
G1 Z5.5 F200
X14.31
Z1.4
Z-0.29 F50
G3 Y64.485 Z-0.6 J0.31 K0
G1 Y64.64
G17 G3 X14 Y64.95 I-0.31 J0
X14 Y57.05 I0 J-3.95 F200
X14 Y64.95 I0 J3.95
X13.69 Y64.64 I0 J-0.31 F50
G1 Y64.485
G19 G2 Y64.175 Z-0.29 J0 K0.31
G1 Z5.5 F200
X14.31
Z1.1
Z-0.59 F50
G3 Y64.485 Z-0.9 J0.31 K0
G1 Y64.64
G17 G3 X14 Y64.95 I-0.31 J0
X14 Y57.05 I0 J-3.95 F200
X14 Y64.95 I0 J3.95
X13.69 Y64.64 I0 J-0.31 F50
G1 Y64.485
G19 G2 Y64.175 Z-0.59 J0 K0.31
G1 Z5.5 F200
X14.31
Z0.8
Z-0.89 F50
G3 Y64.485 Z-1.2 J0.31 K0
G1 Y64.64
G17 G3 X14 Y64.95 I-0.31 J0
X14 Y57.05 I0 J-3.95 F200
X14 Y64.95 I0 J3.95
X13.69 Y64.64 I0 J-0.31 F50
G1 Y64.485
G19 G2 Y64.175 Z-0.89 J0 K0.31
G1 Z5.5 F200
X14.31
Z0.5
Z-1.19 F50
G3 Y64.485 Z-1.5 J0.31 K0
G1 Y64.64
G17 G3 X14 Y64.95 I-0.31 J0
X14 Y57.05 I0 J-3.95 F200
X14 Y64.95 I0 J3.95
X13.69 Y64.64 I0 J-0.31 F50
G1 Y64.485
G19 G2 Y64.175 Z-1.19 J0 K0.31
G1 Z5.5 F200
X14.31
Z0.2
Z-1.49 F50
G3 Y64.485 Z-1.8 J0.31 K0
G1 Y64.64
G17 G3 X14 Y64.95 I-0.31 J0
X14 Y57.05 I0 J-3.95 F200
X14 Y64.95 I0 J3.95
X13.69 Y64.64 I0 J-0.31 F50
G1 Y64.485
G19 G2 Y64.175 Z-1.49 J0 K0.31
G1 Z5.5 F200
X14.31
Z-0.065
Z-1.755 F50
G3 Y64.485 Z-2.065 J0.31 K0
G1 Y64.64
G17 G3 X14 Y64.95 I-0.31 J0
X14 Y57.05 I0 J-3.95 F200
X14 Y64.95 I0 J3.95
X13.69 Y64.64 I0 J-0.31 F50
G1 Y64.485
G19 G2 Y64.175 Z-1.755 J0 K0.31
G1 Z5.5 F200
X14.31
Z-0.33
Z-2.02 F50
G3 Y64.485 Z-2.33 J0.31 K0
G1 Y64.64
G17 G3 X14 Y64.95 I-0.31 J0
X14 Y57.05 I0 J-3.95 F200
X14 Y64.95 I0 J3.95
X13.69 Y64.64 I0 J-0.31 F50
G1 Y64.485
G19 G2 Y64.175 Z-2.02 J0 K0.31
G1 Z5.5 F200
X14.31 Y28.175
Z1.7
Z0.01 F50
G3 Y28.485 Z-0.3 J0.31 K0
G1 Y28.64
G17 G3 X14 Y28.95 I-0.31 J0
X14 Y21.05 I0 J-3.95 F200
X14 Y28.95 I0 J3.95
X13.69 Y28.64 I0 J-0.31 F50
G1 Y28.485
G19 G2 Y28.175 Z0.01 J0 K0.31
G1 Z5.5 F200
X14.31
Z1.4
Z-0.29 F50
G3 Y28.485 Z-0.6 J0.31 K0
G1 Y28.64
G17 G3 X14 Y28.95 I-0.31 J0
X14 Y21.05 I0 J-3.95 F200
X14 Y28.95 I0 J3.95
X13.69 Y28.64 I0 J-0.31 F50
G1 Y28.485
G19 G2 Y28.175 Z-0.29 J0 K0.31
G1 Z5.5 F200
X14.31
Z1.1
Z-0.59 F50
G3 Y28.485 Z-0.9 J0.31 K0
G1 Y28.64
G17 G3 X14 Y28.95 I-0.31 J0
X14 Y21.05 I0 J-3.95 F200
X14 Y28.95 I0 J3.95
X13.69 Y28.64 I0 J-0.31 F50
G1 Y28.485
G19 G2 Y28.175 Z-0.59 J0 K0.31
G1 Z5.5 F200
X14.31
Z0.8
Z-0.89 F50
G3 Y28.485 Z-1.2 J0.31 K0
G1 Y28.64
G17 G3 X14 Y28.95 I-0.31 J0
X14 Y21.05 I0 J-3.95 F200
X14 Y28.95 I0 J3.95
X13.69 Y28.64 I0 J-0.31 F50
G1 Y28.485
G19 G2 Y28.175 Z-0.89 J0 K0.31
G1 Z5.5 F200
X14.31
Z0.5
Z-1.19 F50
G3 Y28.485 Z-1.5 J0.31 K0
G1 Y28.64
G17 G3 X14 Y28.95 I-0.31 J0
X14 Y21.05 I0 J-3.95 F200
X14 Y28.95 I0 J3.95
X13.69 Y28.64 I0 J-0.31 F50
G1 Y28.485
G19 G2 Y28.175 Z-1.19 J0 K0.31
G1 Z5.5 F200
X14.31
Z0.2
Z-1.49 F50
G3 Y28.485 Z-1.8 J0.31 K0
G1 Y28.64
G17 G3 X14 Y28.95 I-0.31 J0
X14 Y21.05 I0 J-3.95 F200
X14 Y28.95 I0 J3.95
X13.69 Y28.64 I0 J-0.31 F50
G1 Y28.485
G19 G2 Y28.175 Z-1.49 J0 K0.31
G1 Z5.5 F200
X14.31
Z-0.065
Z-1.755 F50
G3 Y28.485 Z-2.065 J0.31 K0
G1 Y28.64
G17 G3 X14 Y28.95 I-0.31 J0
X14 Y21.05 I0 J-3.95 F200
X14 Y28.95 I0 J3.95
X13.69 Y28.64 I0 J-0.31 F50
G1 Y28.485
G19 G2 Y28.175 Z-1.755 J0 K0.31
G1 Z5.5 F200
X14.31
Z-0.33
Z-2.02 F50
G3 Y28.485 Z-2.33 J0.31 K0
G1 Y28.64
G17 G3 X14 Y28.95 I-0.31 J0
X14 Y21.05 I0 J-3.95 F200
X14 Y28.95 I0 J3.95
X13.69 Y28.64 I0 J-0.31 F50
G1 Y28.485
G19 G2 Y28.175 Z-2.02 J0 K0.31
G1 Z5.5 F200
X46.31
Z1.7
Z0.01 F50
G3 Y28.485 Z-0.3 J0.31 K0
G1 Y28.64
G17 G3 X46 Y28.95 I-0.31 J0
X46 Y21.05 I0 J-3.95 F200
X46 Y28.95 I0 J3.95
X45.69 Y28.64 I0 J-0.31 F50
G1 Y28.485
G19 G2 Y28.175 Z0.01 J0 K0.31
G1 Z5.5 F200
X46.31
Z1.4
Z-0.29 F50
G3 Y28.485 Z-0.6 J0.31 K0
G1 Y28.64
G17 G3 X46 Y28.95 I-0.31 J0
X46 Y21.05 I0 J-3.95 F200
X46 Y28.95 I0 J3.95
X45.69 Y28.64 I0 J-0.31 F50
G1 Y28.485
G19 G2 Y28.175 Z-0.29 J0 K0.31
G1 Z5.5 F200
X46.31
Z1.1
Z-0.59 F50
G3 Y28.485 Z-0.9 J0.31 K0
G1 Y28.64
G17 G3 X46 Y28.95 I-0.31 J0
X46 Y21.05 I0 J-3.95 F200
X46 Y28.95 I0 J3.95
X45.69 Y28.64 I0 J-0.31 F50
G1 Y28.485
G19 G2 Y28.175 Z-0.59 J0 K0.31
G1 Z5.5 F200
X46.31
Z0.8
Z-0.89 F50
G3 Y28.485 Z-1.2 J0.31 K0
G1 Y28.64
G17 G3 X46 Y28.95 I-0.31 J0
X46 Y21.05 I0 J-3.95 F200
X46 Y28.95 I0 J3.95
X45.69 Y28.64 I0 J-0.31 F50
G1 Y28.485
G19 G2 Y28.175 Z-0.89 J0 K0.31
G1 Z5.5 F200
X46.31
Z0.5
Z-1.19 F50
G3 Y28.485 Z-1.5 J0.31 K0
G1 Y28.64
G17 G3 X46 Y28.95 I-0.31 J0
X46 Y21.05 I0 J-3.95 F200
X46 Y28.95 I0 J3.95
X45.69 Y28.64 I0 J-0.31 F50
G1 Y28.485
G19 G2 Y28.175 Z-1.19 J0 K0.31
G1 Z5.5 F200
X46.31
Z0.2
Z-1.49 F50
G3 Y28.485 Z-1.8 J0.31 K0
G1 Y28.64
G17 G3 X46 Y28.95 I-0.31 J0
X46 Y21.05 I0 J-3.95 F200
X46 Y28.95 I0 J3.95
X45.69 Y28.64 I0 J-0.31 F50
G1 Y28.485
G19 G2 Y28.175 Z-1.49 J0 K0.31
G1 Z5.5 F200
X46.31
Z-0.065
Z-1.755 F50
G3 Y28.485 Z-2.065 J0.31 K0
G1 Y28.64
G17 G3 X46 Y28.95 I-0.31 J0
X46 Y21.05 I0 J-3.95 F200
X46 Y28.95 I0 J3.95
X45.69 Y28.64 I0 J-0.31 F50
G1 Y28.485
G19 G2 Y28.175 Z-1.755 J0 K0.31
G1 Z5.5 F200
X46.31
Z-0.33
Z-2.02 F50
G3 Y28.485 Z-2.33 J0.31 K0
G1 Y28.64
G17 G3 X46 Y28.95 I-0.31 J0
X46 Y21.05 I0 J-3.95 F200
X46 Y28.95 I0 J3.95
X45.69 Y28.64 I0 J-0.31 F50
G1 Y28.485
G19 G2 Y28.175 Z-2.02 J0 K0.31
G1 Z5.5 F200
X100.31 Y31.585
Z1.7
Z0.01 F50
G3 Y31.895 Z-0.3 J0.31 K0
G1 Y32.05
G17 G3 X100 Y32.36 I-0.31 J0
X100 Y27.46 I0 J-2.45 F200
X100 Y32.36 I0 J2.45
X99.69 Y32.05 I0 J-0.31 F50
G1 Y31.895
G19 G2 Y31.585 Z0.01 J0 K0.31
G1 Z5.5 F200
X100.31
Z1.4
Z-0.29 F50
G3 Y31.895 Z-0.6 J0.31 K0
G1 Y32.05
G17 G3 X100 Y32.36 I-0.31 J0
X100 Y27.46 I0 J-2.45 F200
X100 Y32.36 I0 J2.45
X99.69 Y32.05 I0 J-0.31 F50
G1 Y31.895
G19 G2 Y31.585 Z-0.29 J0 K0.31
G1 Z5.5 F200
X100.31
Z1.1
Z-0.59 F50
G3 Y31.895 Z-0.9 J0.31 K0
G1 Y32.05
G17 G3 X100 Y32.36 I-0.31 J0
X100 Y27.46 I0 J-2.45 F200
X100 Y32.36 I0 J2.45
X99.69 Y32.05 I0 J-0.31 F50
G1 Y31.895
G19 G2 Y31.585 Z-0.59 J0 K0.31
G1 Z5.5 F200
X100.31
Z0.8
Z-0.89 F50
G3 Y31.895 Z-1.2 J0.31 K0
G1 Y32.05
G17 G3 X100 Y32.36 I-0.31 J0
X100 Y27.46 I0 J-2.45 F200
X100 Y32.36 I0 J2.45
X99.69 Y32.05 I0 J-0.31 F50
G1 Y31.895
G19 G2 Y31.585 Z-0.89 J0 K0.31
G1 Z5.5 F200
X100.31
Z0.5
Z-1.19 F50
G3 Y31.895 Z-1.5 J0.31 K0
G1 Y32.05
G17 G3 X100 Y32.36 I-0.31 J0
X100 Y27.46 I0 J-2.45 F200
X100 Y32.36 I0 J2.45
X99.69 Y32.05 I0 J-0.31 F50
G1 Y31.895
G19 G2 Y31.585 Z-1.19 J0 K0.31
G1 Z5.5 F200
X100.31
Z0.2
Z-1.49 F50
G3 Y31.895 Z-1.8 J0.31 K0
G1 Y32.05
G17 G3 X100 Y32.36 I-0.31 J0
X100 Y27.46 I0 J-2.45 F200
X100 Y32.36 I0 J2.45
X99.69 Y32.05 I0 J-0.31 F50
G1 Y31.895
G19 G2 Y31.585 Z-1.49 J0 K0.31
G1 Z5.5 F200
X100.31
Z-0.065
Z-1.755 F50
G3 Y31.895 Z-2.065 J0.31 K0
G1 Y32.05
G17 G3 X100 Y32.36 I-0.31 J0
X100 Y27.46 I0 J-2.45 F200
X100 Y32.36 I0 J2.45
X99.69 Y32.05 I0 J-0.31 F50
G1 Y31.895
G19 G2 Y31.585 Z-1.755 J0 K0.31
G1 Z5.5 F200
X100.31
Z-0.33
Z-2.02 F50
G3 Y31.895 Z-2.33 J0.31 K0
G1 Y32.05
G17 G3 X100 Y32.36 I-0.31 J0
X100 Y27.46 I0 J-2.45 F200
X100 Y32.36 I0 J2.45
X99.69 Y32.05 I0 J-0.31 F50
G1 Y31.895
G19 G2 Y31.585 Z-2.02 J0 K0.31
G1 Z5.5 F200
X100.31 Y55.585
Z1.7
Z0.01 F50
G3 Y55.895 Z-0.3 J0.31 K0
G1 Y56.05
G17 G3 X100 Y56.36 I-0.31 J0
X100 Y51.46 I0 J-2.45 F200
X100 Y56.36 I0 J2.45
X99.69 Y56.05 I0 J-0.31 F50
G1 Y55.895
G19 G2 Y55.585 Z0.01 J0 K0.31
G1 Z5.5 F200
X100.31
Z1.4
Z-0.29 F50
G3 Y55.895 Z-0.6 J0.31 K0
G1 Y56.05
G17 G3 X100 Y56.36 I-0.31 J0
X100 Y51.46 I0 J-2.45 F200
X100 Y56.36 I0 J2.45
X99.69 Y56.05 I0 J-0.31 F50
G1 Y55.895
G19 G2 Y55.585 Z-0.29 J0 K0.31
G1 Z5.5 F200
X100.31
Z1.1
Z-0.59 F50
G3 Y55.895 Z-0.9 J0.31 K0
G1 Y56.05
G17 G3 X100 Y56.36 I-0.31 J0
X100 Y51.46 I0 J-2.45 F200
X100 Y56.36 I0 J2.45
X99.69 Y56.05 I0 J-0.31 F50
G1 Y55.895
G19 G2 Y55.585 Z-0.59 J0 K0.31
G1 Z5.5 F200
X100.31
Z0.8
Z-0.89 F50
G3 Y55.895 Z-1.2 J0.31 K0
G1 Y56.05
G17 G3 X100 Y56.36 I-0.31 J0
X100 Y51.46 I0 J-2.45 F200
X100 Y56.36 I0 J2.45
X99.69 Y56.05 I0 J-0.31 F50
G1 Y55.895
G19 G2 Y55.585 Z-0.89 J0 K0.31
G1 Z5.5 F200
X100.31
Z0.5
Z-1.19 F50
G3 Y55.895 Z-1.5 J0.31 K0
G1 Y56.05
G17 G3 X100 Y56.36 I-0.31 J0
X100 Y51.46 I0 J-2.45 F200
X100 Y56.36 I0 J2.45
X99.69 Y56.05 I0 J-0.31 F50
G1 Y55.895
G19 G2 Y55.585 Z-1.19 J0 K0.31
G1 Z5.5 F200
X100.31
Z0.2
Z-1.49 F50
G3 Y55.895 Z-1.8 J0.31 K0
G1 Y56.05
G17 G3 X100 Y56.36 I-0.31 J0
X100 Y51.46 I0 J-2.45 F200
X100 Y56.36 I0 J2.45
X99.69 Y56.05 I0 J-0.31 F50
G1 Y55.895
G19 G2 Y55.585 Z-1.49 J0 K0.31
G1 Z5.5 F200
X100.31
Z-0.065
Z-1.755 F50
G3 Y55.895 Z-2.065 J0.31 K0
G1 Y56.05
G17 G3 X100 Y56.36 I-0.31 J0
X100 Y51.46 I0 J-2.45 F200
X100 Y56.36 I0 J2.45
X99.69 Y56.05 I0 J-0.31 F50
G1 Y55.895
G19 G2 Y55.585 Z-1.755 J0 K0.31
G1 Z5.5 F200
X100.31
Z-0.33
Z-2.02 F50
G3 Y55.895 Z-2.33 J0.31 K0
G1 Y56.05
G17 G3 X100 Y56.36 I-0.31 J0
X100 Y51.46 I0 J-2.45 F200
X100 Y56.36 I0 J2.45
X99.69 Y56.05 I0 J-0.31 F50
G1 Y55.895
G19 G2 Y55.585 Z-2.02 J0 K0.31
G1 Z5.5 F200
X140.31
Z1.7
Z0.01 F50
G3 Y55.895 Z-0.3 J0.31 K0
G1 Y56.05
G17 G3 X140 Y56.36 I-0.31 J0
X140 Y51.46 I0 J-2.45 F200
X140 Y56.36 I0 J2.45
X139.69 Y56.05 I0 J-0.31 F50
G1 Y55.895
G19 G2 Y55.585 Z0.01 J0 K0.31
G1 Z5.5 F200
X140.31
Z1.4
Z-0.29 F50
G3 Y55.895 Z-0.6 J0.31 K0
G1 Y56.05
G17 G3 X140 Y56.36 I-0.31 J0
X140 Y51.46 I0 J-2.45 F200
X140 Y56.36 I0 J2.45
X139.69 Y56.05 I0 J-0.31 F50
G1 Y55.895
G19 G2 Y55.585 Z-0.29 J0 K0.31
G1 Z5.5 F200
X140.31
Z1.1
Z-0.59 F50
G3 Y55.895 Z-0.9 J0.31 K0
G1 Y56.05
G17 G3 X140 Y56.36 I-0.31 J0
X140 Y51.46 I0 J-2.45 F200
X140 Y56.36 I0 J2.45
X139.69 Y56.05 I0 J-0.31 F50
G1 Y55.895
G19 G2 Y55.585 Z-0.59 J0 K0.31
G1 Z5.5 F200
X140.31
Z0.8
Z-0.89 F50
G3 Y55.895 Z-1.2 J0.31 K0
G1 Y56.05
G17 G3 X140 Y56.36 I-0.31 J0
X140 Y51.46 I0 J-2.45 F200
X140 Y56.36 I0 J2.45
X139.69 Y56.05 I0 J-0.31 F50
G1 Y55.895
G19 G2 Y55.585 Z-0.89 J0 K0.31
G1 Z5.5 F200
X140.31
Z0.5
Z-1.19 F50
G3 Y55.895 Z-1.5 J0.31 K0
G1 Y56.05
G17 G3 X140 Y56.36 I-0.31 J0
X140 Y51.46 I0 J-2.45 F200
X140 Y56.36 I0 J2.45
X139.69 Y56.05 I0 J-0.31 F50
G1 Y55.895
G19 G2 Y55.585 Z-1.19 J0 K0.31
G1 Z5.5 F200
X140.31
Z0.2
Z-1.49 F50
G3 Y55.895 Z-1.8 J0.31 K0
G1 Y56.05
G17 G3 X140 Y56.36 I-0.31 J0
X140 Y51.46 I0 J-2.45 F200
X140 Y56.36 I0 J2.45
X139.69 Y56.05 I0 J-0.31 F50
G1 Y55.895
G19 G2 Y55.585 Z-1.49 J0 K0.31
G1 Z5.5 F200
X140.31
Z-0.065
Z-1.755 F50
G3 Y55.895 Z-2.065 J0.31 K0
G1 Y56.05
G17 G3 X140 Y56.36 I-0.31 J0
X140 Y51.46 I0 J-2.45 F200
X140 Y56.36 I0 J2.45
X139.69 Y56.05 I0 J-0.31 F50
G1 Y55.895
G19 G2 Y55.585 Z-1.755 J0 K0.31
G1 Z5.5 F200
X140.31
Z-0.33
Z-2.02 F50
G3 Y55.895 Z-2.33 J0.31 K0
G1 Y56.05
G17 G3 X140 Y56.36 I-0.31 J0
X140 Y51.46 I0 J-2.45 F200
X140 Y56.36 I0 J2.45
X139.69 Y56.05 I0 J-0.31 F50
G1 Y55.895
G19 G2 Y55.585 Z-2.02 J0 K0.31
G1 Z5.5 F200
X140.31 Y31.585
Z1.7
Z0.01 F50
G3 Y31.895 Z-0.3 J0.31 K0
G1 Y32.05
G17 G3 X140 Y32.36 I-0.31 J0
X140 Y27.46 I0 J-2.45 F200
X140 Y32.36 I0 J2.45
X139.69 Y32.05 I0 J-0.31 F50
G1 Y31.895
G19 G2 Y31.585 Z0.01 J0 K0.31
G1 Z5.5 F200
X140.31
Z1.4
Z-0.29 F50
G3 Y31.895 Z-0.6 J0.31 K0
G1 Y32.05
G17 G3 X140 Y32.36 I-0.31 J0
X140 Y27.46 I0 J-2.45 F200
X140 Y32.36 I0 J2.45
X139.69 Y32.05 I0 J-0.31 F50
G1 Y31.895
G19 G2 Y31.585 Z-0.29 J0 K0.31
G1 Z5.5 F200
X140.31
Z1.1
Z-0.59 F50
G3 Y31.895 Z-0.9 J0.31 K0
G1 Y32.05
G17 G3 X140 Y32.36 I-0.31 J0
X140 Y27.46 I0 J-2.45 F200
X140 Y32.36 I0 J2.45
X139.69 Y32.05 I0 J-0.31 F50
G1 Y31.895
G19 G2 Y31.585 Z-0.59 J0 K0.31
G1 Z5.5 F200
X140.31
Z0.8
Z-0.89 F50
G3 Y31.895 Z-1.2 J0.31 K0
G1 Y32.05
G17 G3 X140 Y32.36 I-0.31 J0
X140 Y27.46 I0 J-2.45 F200
X140 Y32.36 I0 J2.45
X139.69 Y32.05 I0 J-0.31 F50
G1 Y31.895
G19 G2 Y31.585 Z-0.89 J0 K0.31
G1 Z5.5 F200
X140.31
Z0.5
Z-1.19 F50
G3 Y31.895 Z-1.5 J0.31 K0
G1 Y32.05
G17 G3 X140 Y32.36 I-0.31 J0
X140 Y27.46 I0 J-2.45 F200
X140 Y32.36 I0 J2.45
X139.69 Y32.05 I0 J-0.31 F50
G1 Y31.895
G19 G2 Y31.585 Z-1.19 J0 K0.31
G1 Z5.5 F200
X140.31
Z0.2
Z-1.49 F50
G3 Y31.895 Z-1.8 J0.31 K0
G1 Y32.05
G17 G3 X140 Y32.36 I-0.31 J0
X140 Y27.46 I0 J-2.45 F200
X140 Y32.36 I0 J2.45
X139.69 Y32.05 I0 J-0.31 F50
G1 Y31.895
G19 G2 Y31.585 Z-1.49 J0 K0.31
G1 Z5.5 F200
X140.31
Z-0.065
Z-1.755 F50
G3 Y31.895 Z-2.065 J0.31 K0
G1 Y32.05
G17 G3 X140 Y32.36 I-0.31 J0
X140 Y27.46 I0 J-2.45 F200
X140 Y32.36 I0 J2.45
X139.69 Y32.05 I0 J-0.31 F50
G1 Y31.895
G19 G2 Y31.585 Z-1.755 J0 K0.31
G1 Z5.5 F200
X140.31
Z-0.33
Z-2.02 F50
G3 Y31.895 Z-2.33 J0.31 K0
G1 Y32.05
G17 G3 X140 Y32.36 I-0.31 J0
X140 Y27.46 I0 J-2.45 F200
X140 Y32.36 I0 J2.45
X139.69 Y32.05 I0 J-0.31 F50
G1 Y31.895
G19 G2 Y31.585 Z-2.02 J0 K0.31
G1 Z5.5 F200
X194.31 Y28.175
Z1.7
Z0.01 F50
G3 Y28.485 Z-0.3 J0.31 K0
G1 Y28.64
G17 G3 X194 Y28.95 I-0.31 J0
X194 Y21.05 I0 J-3.95 F200
X194 Y28.95 I0 J3.95
X193.69 Y28.64 I0 J-0.31 F50
G1 Y28.485
G19 G2 Y28.175 Z0.01 J0 K0.31
G1 Z5.5 F200
X194.31
Z1.4
Z-0.29 F50
G3 Y28.485 Z-0.6 J0.31 K0
G1 Y28.64
G17 G3 X194 Y28.95 I-0.31 J0
X194 Y21.05 I0 J-3.95 F200
X194 Y28.95 I0 J3.95
X193.69 Y28.64 I0 J-0.31 F50
G1 Y28.485
G19 G2 Y28.175 Z-0.29 J0 K0.31
G1 Z5.5 F200
X194.31
Z1.1
Z-0.59 F50
G3 Y28.485 Z-0.9 J0.31 K0
G1 Y28.64
G17 G3 X194 Y28.95 I-0.31 J0
X194 Y21.05 I0 J-3.95 F200
X194 Y28.95 I0 J3.95
X193.69 Y28.64 I0 J-0.31 F50
G1 Y28.485
G19 G2 Y28.175 Z-0.59 J0 K0.31
G1 Z5.5 F200
X194.31
Z0.8
Z-0.89 F50
G3 Y28.485 Z-1.2 J0.31 K0
G1 Y28.64
G17 G3 X194 Y28.95 I-0.31 J0
X194 Y21.05 I0 J-3.95 F200
X194 Y28.95 I0 J3.95
X193.69 Y28.64 I0 J-0.31 F50
G1 Y28.485
G19 G2 Y28.175 Z-0.89 J0 K0.31
G1 Z5.5 F200
X194.31
Z0.5
Z-1.19 F50
G3 Y28.485 Z-1.5 J0.31 K0
G1 Y28.64
G17 G3 X194 Y28.95 I-0.31 J0
X194 Y21.05 I0 J-3.95 F200
X194 Y28.95 I0 J3.95
X193.69 Y28.64 I0 J-0.31 F50
G1 Y28.485
G19 G2 Y28.175 Z-1.19 J0 K0.31
G1 Z5.5 F200
X194.31
Z0.2
Z-1.49 F50
G3 Y28.485 Z-1.8 J0.31 K0
G1 Y28.64
G17 G3 X194 Y28.95 I-0.31 J0
X194 Y21.05 I0 J-3.95 F200
X194 Y28.95 I0 J3.95
X193.69 Y28.64 I0 J-0.31 F50
G1 Y28.485
G19 G2 Y28.175 Z-1.49 J0 K0.31
G1 Z5.5 F200
X194.31
Z-0.065
Z-1.755 F50
G3 Y28.485 Z-2.065 J0.31 K0
G1 Y28.64
G17 G3 X194 Y28.95 I-0.31 J0
X194 Y21.05 I0 J-3.95 F200
X194 Y28.95 I0 J3.95
X193.69 Y28.64 I0 J-0.31 F50
G1 Y28.485
G19 G2 Y28.175 Z-1.755 J0 K0.31
G1 Z5.5 F200
X194.31
Z-0.33
Z-2.02 F50
G3 Y28.485 Z-2.33 J0.31 K0
G1 Y28.64
G17 G3 X194 Y28.95 I-0.31 J0
X194 Y21.05 I0 J-3.95 F200
X194 Y28.95 I0 J3.95
X193.69 Y28.64 I0 J-0.31 F50
G1 Y28.485
G19 G2 Y28.175 Z-2.02 J0 K0.31
G1 Z5.5 F200
X226.31
Z1.7
Z0.01 F50
G3 Y28.485 Z-0.3 J0.31 K0
G1 Y28.64
G17 G3 X226 Y28.95 I-0.31 J0
X226 Y21.05 I0 J-3.95 F200
X226 Y28.95 I0 J3.95
X225.69 Y28.64 I0 J-0.31 F50
G1 Y28.485
G19 G2 Y28.175 Z0.01 J0 K0.31
G1 Z5.5 F200
X226.31
Z1.4
Z-0.29 F50
G3 Y28.485 Z-0.6 J0.31 K0
G1 Y28.64
G17 G3 X226 Y28.95 I-0.31 J0
X226 Y21.05 I0 J-3.95 F200
X226 Y28.95 I0 J3.95
X225.69 Y28.64 I0 J-0.31 F50
G1 Y28.485
G19 G2 Y28.175 Z-0.29 J0 K0.31
G1 Z5.5 F200
X226.31
Z1.1
Z-0.59 F50
G3 Y28.485 Z-0.9 J0.31 K0
G1 Y28.64
G17 G3 X226 Y28.95 I-0.31 J0
X226 Y21.05 I0 J-3.95 F200
X226 Y28.95 I0 J3.95
X225.69 Y28.64 I0 J-0.31 F50
G1 Y28.485
G19 G2 Y28.175 Z-0.59 J0 K0.31
G1 Z5.5 F200
X226.31
Z0.8
Z-0.89 F50
G3 Y28.485 Z-1.2 J0.31 K0
G1 Y28.64
G17 G3 X226 Y28.95 I-0.31 J0
X226 Y21.05 I0 J-3.95 F200
X226 Y28.95 I0 J3.95
X225.69 Y28.64 I0 J-0.31 F50
G1 Y28.485
G19 G2 Y28.175 Z-0.89 J0 K0.31
G1 Z5.5 F200
X226.31
Z0.5
Z-1.19 F50
G3 Y28.485 Z-1.5 J0.31 K0
G1 Y28.64
G17 G3 X226 Y28.95 I-0.31 J0
X226 Y21.05 I0 J-3.95 F200
X226 Y28.95 I0 J3.95
X225.69 Y28.64 I0 J-0.31 F50
G1 Y28.485
G19 G2 Y28.175 Z-1.19 J0 K0.31
G1 Z5.5 F200
X226.31
Z0.2
Z-1.49 F50
G3 Y28.485 Z-1.8 J0.31 K0
G1 Y28.64
G17 G3 X226 Y28.95 I-0.31 J0
X226 Y21.05 I0 J-3.95 F200
X226 Y28.95 I0 J3.95
X225.69 Y28.64 I0 J-0.31 F50
G1 Y28.485
G19 G2 Y28.175 Z-1.49 J0 K0.31
G1 Z5.5 F200
X226.31
Z-0.065
Z-1.755 F50
G3 Y28.485 Z-2.065 J0.31 K0
G1 Y28.64
G17 G3 X226 Y28.95 I-0.31 J0
X226 Y21.05 I0 J-3.95 F200
X226 Y28.95 I0 J3.95
X225.69 Y28.64 I0 J-0.31 F50
G1 Y28.485
G19 G2 Y28.175 Z-1.755 J0 K0.31
G1 Z5.5 F200
X226.31
Z-0.33
Z-2.02 F50
G3 Y28.485 Z-2.33 J0.31 K0
G1 Y28.64
G17 G3 X226 Y28.95 I-0.31 J0
X226 Y21.05 I0 J-3.95 F200
X226 Y28.95 I0 J3.95
X225.69 Y28.64 I0 J-0.31 F50
G1 Y28.485
G19 G2 Y28.175 Z-2.02 J0 K0.31
G1 Z5.5 F200
X226.31 Y64.175
Z1.7
Z0.01 F50
G3 Y64.485 Z-0.3 J0.31 K0
G1 Y64.64
G17 G3 X226 Y64.95 I-0.31 J0
X226 Y57.05 I0 J-3.95 F200
X226 Y64.95 I0 J3.95
X225.69 Y64.64 I0 J-0.31 F50
G1 Y64.485
G19 G2 Y64.175 Z0.01 J0 K0.31
G1 Z5.5 F200
X226.31
Z1.4
Z-0.29 F50
G3 Y64.485 Z-0.6 J0.31 K0
G1 Y64.64
G17 G3 X226 Y64.95 I-0.31 J0
X226 Y57.05 I0 J-3.95 F200
X226 Y64.95 I0 J3.95
X225.69 Y64.64 I0 J-0.31 F50
G1 Y64.485
G19 G2 Y64.175 Z-0.29 J0 K0.31
G1 Z5.5 F200
X226.31
Z1.1
Z-0.59 F50
G3 Y64.485 Z-0.9 J0.31 K0
G1 Y64.64
G17 G3 X226 Y64.95 I-0.31 J0
X226 Y57.05 I0 J-3.95 F200
X226 Y64.95 I0 J3.95
X225.69 Y64.64 I0 J-0.31 F50
G1 Y64.485
G19 G2 Y64.175 Z-0.59 J0 K0.31
G1 Z5.5 F200
X226.31
Z0.8
Z-0.89 F50
G3 Y64.485 Z-1.2 J0.31 K0
G1 Y64.64
G17 G3 X226 Y64.95 I-0.31 J0
X226 Y57.05 I0 J-3.95 F200
X226 Y64.95 I0 J3.95
X225.69 Y64.64 I0 J-0.31 F50
G1 Y64.485
G19 G2 Y64.175 Z-0.89 J0 K0.31
G1 Z5.5 F200
X226.31
Z0.5
Z-1.19 F50
G3 Y64.485 Z-1.5 J0.31 K0
G1 Y64.64
G17 G3 X226 Y64.95 I-0.31 J0
X226 Y57.05 I0 J-3.95 F200
X226 Y64.95 I0 J3.95
X225.69 Y64.64 I0 J-0.31 F50
G1 Y64.485
G19 G2 Y64.175 Z-1.19 J0 K0.31
G1 Z5.5 F200
X226.31
Z0.2
Z-1.49 F50
G3 Y64.485 Z-1.8 J0.31 K0
G1 Y64.64
G17 G3 X226 Y64.95 I-0.31 J0
X226 Y57.05 I0 J-3.95 F200
X226 Y64.95 I0 J3.95
X225.69 Y64.64 I0 J-0.31 F50
G1 Y64.485
G19 G2 Y64.175 Z-1.49 J0 K0.31
G1 Z5.5 F200
X226.31
Z-0.065
Z-1.755 F50
G3 Y64.485 Z-2.065 J0.31 K0
G1 Y64.64
G17 G3 X226 Y64.95 I-0.31 J0
X226 Y57.05 I0 J-3.95 F200
X226 Y64.95 I0 J3.95
X225.69 Y64.64 I0 J-0.31 F50
G1 Y64.485
G19 G2 Y64.175 Z-1.755 J0 K0.31
G1 Z5.5 F200
X226.31
Z-0.33
Z-2.02 F50
G3 Y64.485 Z-2.33 J0.31 K0
G1 Y64.64
G17 G3 X226 Y64.95 I-0.31 J0
X226 Y57.05 I0 J-3.95 F200
X226 Y64.95 I0 J3.95
X225.69 Y64.64 I0 J-0.31 F50
G1 Y64.485
G19 G2 Y64.175 Z-2.02 J0 K0.31
G1 Z5.5 F200
X194.31
Z1.7
Z0.01 F50
G3 Y64.485 Z-0.3 J0.31 K0
G1 Y64.64
G17 G3 X194 Y64.95 I-0.31 J0
X194 Y57.05 I0 J-3.95 F200
X194 Y64.95 I0 J3.95
X193.69 Y64.64 I0 J-0.31 F50
G1 Y64.485
G19 G2 Y64.175 Z0.01 J0 K0.31
G1 Z5.5 F200
X194.31
Z1.4
Z-0.29 F50
G3 Y64.485 Z-0.6 J0.31 K0
G1 Y64.64
G17 G3 X194 Y64.95 I-0.31 J0
X194 Y57.05 I0 J-3.95 F200
X194 Y64.95 I0 J3.95
X193.69 Y64.64 I0 J-0.31 F50
G1 Y64.485
G19 G2 Y64.175 Z-0.29 J0 K0.31
G1 Z5.5 F200
X194.31
Z1.1
Z-0.59 F50
G3 Y64.485 Z-0.9 J0.31 K0
G1 Y64.64
G17 G3 X194 Y64.95 I-0.31 J0
X194 Y57.05 I0 J-3.95 F200
X194 Y64.95 I0 J3.95
X193.69 Y64.64 I0 J-0.31 F50
G1 Y64.485
G19 G2 Y64.175 Z-0.59 J0 K0.31
G1 Z5.5 F200
X194.31
Z0.8
Z-0.89 F50
G3 Y64.485 Z-1.2 J0.31 K0
G1 Y64.64
G17 G3 X194 Y64.95 I-0.31 J0
X194 Y57.05 I0 J-3.95 F200
X194 Y64.95 I0 J3.95
X193.69 Y64.64 I0 J-0.31 F50
G1 Y64.485
G19 G2 Y64.175 Z-0.89 J0 K0.31
G1 Z5.5 F200
X194.31
Z0.5
Z-1.19 F50
G3 Y64.485 Z-1.5 J0.31 K0
G1 Y64.64
G17 G3 X194 Y64.95 I-0.31 J0
X194 Y57.05 I0 J-3.95 F200
X194 Y64.95 I0 J3.95
X193.69 Y64.64 I0 J-0.31 F50
G1 Y64.485
G19 G2 Y64.175 Z-1.19 J0 K0.31
G1 Z5.5 F200
X194.31
Z0.2
Z-1.49 F50
G3 Y64.485 Z-1.8 J0.31 K0
G1 Y64.64
G17 G3 X194 Y64.95 I-0.31 J0
X194 Y57.05 I0 J-3.95 F200
X194 Y64.95 I0 J3.95
X193.69 Y64.64 I0 J-0.31 F50
G1 Y64.485
G19 G2 Y64.175 Z-1.49 J0 K0.31
G1 Z5.5 F200
X194.31
Z-0.065
Z-1.755 F50
G3 Y64.485 Z-2.065 J0.31 K0
G1 Y64.64
G17 G3 X194 Y64.95 I-0.31 J0
X194 Y57.05 I0 J-3.95 F200
X194 Y64.95 I0 J3.95
X193.69 Y64.64 I0 J-0.31 F50
G1 Y64.485
G19 G2 Y64.175 Z-1.755 J0 K0.31
G1 Z5.5 F200
X194.31
Z-0.33
Z-2.02 F50
G3 Y64.485 Z-2.33 J0.31 K0
G1 Y64.64
G17 G3 X194 Y64.95 I-0.31 J0
X194 Y57.05 I0 J-3.95 F200
X194 Y64.95 I0 J3.95
X193.69 Y64.64 I0 J-0.31 F50
G1 Y64.485
G19 G2 Y64.175 Z-2.02 J0 K0.31
G1 Z15.5 F200
G17
(When using Fusion for Personal Use, the feedrate of rapid)
(moves is reduced to match the feedrate of cutting moves,)
(which can increase machining time. Unrestricted rapid moves)
(are available with a Fusion Subscription.)

(2D Contour9)
G0 X-1.853 Y89.274
G1 Z6.5 F200
Z1.12
Z-0.19 F50
X-1.847 Y89.269 Z-0.259
X-1.831 Y89.253 Z-0.325
X-1.805 Y89.226 Z-0.383
X-1.77 Y89.192 Z-0.432
X-1.729 Y89.15 Z-0.469
X-1.682 Y89.104 Z-0.492
X-1.633 Y89.055 Z-0.5
X-0.219 Y87.641
X-0.172 Y87.602
X-0.119 Y87.574
X-0.06 Y87.556
X0 Y87.55
X270 F200
G2 X271.55 Y86 I0 J-1.55
G1 Y0
G2 X270 Y-1.55 I-1.55 J0
G1 X0
G2 X-1.55 Y0 I0 J1.55
G1 Y86
G2 X0 Y87.55 I1.55 J0
G1 X0.06 Y87.556 F50
X0.119 Y87.574
X0.172 Y87.602
X0.219 Y87.641
X1.633 Y89.055
X1.682 Y89.104 Z-0.492
X1.729 Y89.15 Z-0.469
X1.77 Y89.192 Z-0.432
X1.805 Y89.226 Z-0.383
X1.831 Y89.253 Z-0.325
X1.847 Y89.269 Z-0.259
X1.853 Y89.274 Z-0.19
Z1.5 F200
X-1.853
Z0.83
Z0.12 F50
Z-1.19
X-1.847 Y89.269 Z-1.259
X-1.831 Y89.253 Z-1.325
X-1.805 Y89.226 Z-1.383
X-1.77 Y89.192 Z-1.432
X-1.729 Y89.15 Z-1.469
X-1.682 Y89.104 Z-1.492
X-1.633 Y89.055 Z-1.5
X-0.219 Y87.641
X-0.172 Y87.602
X-0.119 Y87.574
X-0.06 Y87.556
X0 Y87.55
X270 F200
G2 X271.55 Y86 I0 J-1.55
G1 Y0
G2 X270 Y-1.55 I-1.55 J0
G1 X0
G2 X-1.55 Y0 I0 J1.55
G1 Y86
G2 X0 Y87.55 I1.55 J0
G1 X0.06 Y87.556 F50
X0.119 Y87.574
X0.172 Y87.602
X0.219 Y87.641
X1.633 Y89.055
X1.682 Y89.104 Z-1.492
X1.729 Y89.15 Z-1.469
X1.77 Y89.192 Z-1.432
X1.805 Y89.226 Z-1.383
X1.831 Y89.253 Z-1.325
X1.847 Y89.269 Z-1.259
X1.853 Y89.274 Z-1.19
Z1.5 F200
X-1.853
Z0.83
Z-0.88 F50
Z-2.19
X-1.847 Y89.269 Z-2.259
X-1.831 Y89.253 Z-2.325
X-1.805 Y89.226 Z-2.383
X-1.77 Y89.192 Z-2.432
X-1.729 Y89.15 Z-2.469
X-1.682 Y89.104 Z-2.492
X-1.633 Y89.055 Z-2.5
X-0.219 Y87.641
X-0.172 Y87.602
X-0.119 Y87.574
X-0.06 Y87.556
X0 Y87.55
X270 F200
G2 X271.55 Y86 I0 J-1.55
G1 Y0
G2 X270 Y-1.55 I-1.55 J0
G1 X0
G2 X-1.55 Y0 I0 J1.55
G1 Y86
G2 X0 Y87.55 I1.55 J0
G1 X0.06 Y87.556 F50
X0.119 Y87.574
X0.172 Y87.602
X0.219 Y87.641
X1.633 Y89.055
X1.682 Y89.104 Z-2.492
X1.729 Y89.15 Z-2.469
X1.77 Y89.192 Z-2.432
X1.805 Y89.226 Z-2.383
X1.831 Y89.253 Z-2.325
X1.847 Y89.269 Z-2.259
X1.853 Y89.274 Z-2.19
Z1.5 F200
X-1.853
Z0.83
Z-1.88 F50
Z-3.19
X-1.847 Y89.269 Z-3.259
X-1.831 Y89.253 Z-3.325
X-1.805 Y89.226 Z-3.383
X-1.77 Y89.192 Z-3.432
X-1.729 Y89.15 Z-3.469
X-1.682 Y89.104 Z-3.492
X-1.633 Y89.055 Z-3.5
X-0.219 Y87.641
X-0.172 Y87.602
X-0.119 Y87.574
X-0.06 Y87.556
X0 Y87.55
X270 F200
G2 X271.55 Y86 I0 J-1.55
G1 Y0
G2 X270 Y-1.55 I-1.55 J0
G1 X0
G2 X-1.55 Y0 I0 J1.55
G1 Y86
G2 X0 Y87.55 I1.55 J0
G1 X0.06 Y87.556 F50
X0.119 Y87.574
X0.172 Y87.602
X0.219 Y87.641
X1.633 Y89.055
X1.682 Y89.104 Z-3.492
X1.729 Y89.15 Z-3.469
X1.77 Y89.192 Z-3.432
X1.805 Y89.226 Z-3.383
X1.831 Y89.253 Z-3.325
X1.847 Y89.269 Z-3.259
X1.853 Y89.274 Z-3.19
Z1.5 F200
X-1.853
Z0.83
Z-2.88 F50
Z-4.19
X-1.847 Y89.269 Z-4.259
X-1.831 Y89.253 Z-4.325
X-1.805 Y89.226 Z-4.383
X-1.77 Y89.192 Z-4.432
X-1.729 Y89.15 Z-4.469
X-1.682 Y89.104 Z-4.492
X-1.633 Y89.055 Z-4.5
X-0.219 Y87.641
X-0.172 Y87.602
X-0.119 Y87.574
X-0.06 Y87.556
X0 Y87.55
X270 F200
G2 X271.55 Y86 I0 J-1.55
G1 Y0
G2 X270 Y-1.55 I-1.55 J0
G1 X0
G2 X-1.55 Y0 I0 J1.55
G1 Y86
G2 X0 Y87.55 I1.55 J0
G1 X0.06 Y87.556 F50
X0.119 Y87.574
X0.172 Y87.602
X0.219 Y87.641
X1.633 Y89.055
X1.682 Y89.104 Z-4.492
X1.729 Y89.15 Z-4.469
X1.77 Y89.192 Z-4.432
X1.805 Y89.226 Z-4.383
X1.831 Y89.253 Z-4.325
X1.847 Y89.269 Z-4.259
X1.853 Y89.274 Z-4.19
Z1.5 F200
X-1.853
Z0.83
Z-3.88 F50
Z-5.19
X-1.847 Y89.269 Z-5.259
X-1.831 Y89.253 Z-5.325
X-1.805 Y89.226 Z-5.383
X-1.77 Y89.192 Z-5.432
X-1.729 Y89.15 Z-5.469
X-1.682 Y89.104 Z-5.492
X-1.633 Y89.055 Z-5.5
X-0.219 Y87.641
X-0.172 Y87.602
X-0.119 Y87.574
X-0.06 Y87.556
X0 Y87.55
X270 F200
G2 X271.55 Y86 I0 J-1.55
G1 Y0
G2 X270 Y-1.55 I-1.55 J0
G1 X0
G2 X-1.55 Y0 I0 J1.55
G1 Y86
G2 X0 Y87.55 I1.55 J0
G1 X0.06 Y87.556 F50
X0.119 Y87.574
X0.172 Y87.602
X0.219 Y87.641
X1.633 Y89.055
X1.682 Y89.104 Z-5.492
X1.729 Y89.15 Z-5.469
X1.77 Y89.192 Z-5.432
X1.805 Y89.226 Z-5.383
X1.831 Y89.253 Z-5.325
X1.847 Y89.269 Z-5.259
X1.853 Y89.274 Z-5.19
Z1.5 F200
X-1.853
Z0.83
Z-4.88 F50
Z-5.69
X-1.847 Y89.269 Z-5.759
X-1.831 Y89.253 Z-5.825
X-1.805 Y89.226 Z-5.883
X-1.77 Y89.192 Z-5.932
X-1.729 Y89.15 Z-5.969
X-1.682 Y89.104 Z-5.992
X-1.633 Y89.055 Z-6
X-0.219 Y87.641
X-0.172 Y87.602
X-0.119 Y87.574
X-0.06 Y87.556
X0 Y87.55
X270 F200
G2 X271.55 Y86 I0 J-1.55
G1 Y0
G2 X270 Y-1.55 I-1.55 J0
G1 X0
G2 X-1.55 Y0 I0 J1.55
G1 Y86
G2 X0 Y87.55 I1.55 J0
G1 X0.06 Y87.556 F50
X0.119 Y87.574
X0.172 Y87.602
X0.219 Y87.641
X1.633 Y89.055
X1.682 Y89.104 Z-5.992
X1.729 Y89.15 Z-5.969
X1.77 Y89.192 Z-5.932
X1.805 Y89.226 Z-5.883
X1.831 Y89.253 Z-5.825
X1.847 Y89.269 Z-5.759
X1.853 Y89.274 Z-5.69
Z6.5 F200

M9
M5
M30
