(z_axis_mount)
(Machine)
(  vendor: Autodesk)
(  model: Generic 3-axis)
(  description: This machine has XYZ axis on the Head)
(T3 D=3.1 CR=0 - ZMIN=-6 - flat end mill)
G90 G94
G17
G21
(-Attention- Property Safe Retracts is set to Clearance Height.)
(Ensure the clearance height will clear the part and or fixtures.)
(Raise the Z-axis to a safe height before starting the program.)
(When using Fusion for Personal Use, the feedrate of rapid)
(moves is reduced to match the feedrate of cutting moves,)
(which can increase machining time. Unrestricted rapid moves)
(are available with a Fusion Subscription.)

(Bore2)
T3
S18000 M3
G17 G90 G94
G54
M8
G0 X194.31 Y25.575
Z15.5
G1 Z2.5 F200
Z0.81 F50
G19 G3 Y25.885 Z0.5 J0.31 K0
G1 Y26.04
G17 G3 X194 Y26.35 I-0.31 J0
X194 Y23.65 Z0.195 I0 J-1.35 F200
X194 Y26.35 Z-0.11 I0 J1.35
X194 Y23.65 Z-0.414 I0 J-1.35
X194 Y26.35 Z-0.719 I0 J1.35
X194 Y23.65 Z-1.024 I0 J-1.35
X194 Y26.35 Z-1.329 I0 J1.35
X194 Y23.65 Z-1.634 I0 J-1.35
X194 Y26.35 Z-1.938 I0 J1.35
X194 Y23.65 Z-2.243 I0 J-1.35
X194 Y26.35 Z-2.548 I0 J1.35
X194 Y23.65 Z-2.853 I0 J-1.35
X194 Y26.35 Z-3.158 I0 J1.35
X194 Y23.65 Z-3.462 I0 J-1.35
X194 Y26.35 Z-3.767 I0 J1.35
X194 Y23.65 Z-4.072 I0 J-1.35
X194 Y26.35 Z-4.377 I0 J1.35
X194 Y23.65 Z-4.682 I0 J-1.35
X194 Y26.35 Z-4.986 I0 J1.35
X194 Y23.65 Z-5.291 I0 J-1.35
X194 Y26.35 Z-5.596 I0 J1.35
X194 Y23.65 Z-5.901 I0 J-1.35
X195.152 Y24.296 Z-6 I0 J1.35
X192.848 Y25.704 I-1.152 J0.704
X195.152 Y24.296 I1.152 J-0.704
X195.049 Y24.722 I-0.264 J0.162 F50
G1 X194.917 Y24.803
X194.858 Y24.839 Z-5.992
X194.802 Y24.873 Z-5.969
X194.752 Y24.904 Z-5.932
X194.71 Y24.929 Z-5.883
X194.678 Y24.948 Z-5.825
X194.659 Y24.96 Z-5.759
X194.652 Y24.964 Z-5.69
Z5.5 F200
X226.31 Y25.575
Z2.5
Z0.81 F50
G19 G3 Y25.885 Z0.5 J0.31 K0
G1 Y26.04
G17 G3 X226 Y26.35 I-0.31 J0
X226 Y23.65 Z0.195 I0 J-1.35 F200
X226 Y26.35 Z-0.11 I0 J1.35
X226 Y23.65 Z-0.414 I0 J-1.35
X226 Y26.35 Z-0.719 I0 J1.35
X226 Y23.65 Z-1.024 I0 J-1.35
X226 Y26.35 Z-1.329 I0 J1.35
X226 Y23.65 Z-1.634 I0 J-1.35
X226 Y26.35 Z-1.938 I0 J1.35
X226 Y23.65 Z-2.243 I0 J-1.35
X226 Y26.35 Z-2.548 I0 J1.35
X226 Y23.65 Z-2.853 I0 J-1.35
X226 Y26.35 Z-3.158 I0 J1.35
X226 Y23.65 Z-3.462 I0 J-1.35
X226 Y26.35 Z-3.767 I0 J1.35
X226 Y23.65 Z-4.072 I0 J-1.35
X226 Y26.35 Z-4.377 I0 J1.35
X226 Y23.65 Z-4.682 I0 J-1.35
X226 Y26.35 Z-4.986 I0 J1.35
X226 Y23.65 Z-5.291 I0 J-1.35
X226 Y26.35 Z-5.596 I0 J1.35
X226 Y23.65 Z-5.901 I0 J-1.35
X227.152 Y24.296 Z-6 I0 J1.35
X224.848 Y25.704 I-1.152 J0.704
X227.152 Y24.296 I1.152 J-0.704
X227.049 Y24.722 I-0.264 J0.162 F50
G1 X226.917 Y24.803
X226.858 Y24.839 Z-5.992
X226.802 Y24.873 Z-5.969
X226.752 Y24.904 Z-5.932
X226.71 Y24.929 Z-5.883
X226.678 Y24.948 Z-5.825
X226.659 Y24.96 Z-5.759
X226.652 Y24.964 Z-5.69
Z5.5 F200
X226.31 Y61.575
Z2.5
Z0.81 F50
G19 G3 Y61.885 Z0.5 J0.31 K0
G1 Y62.04
G17 G3 X226 Y62.35 I-0.31 J0
X226 Y59.65 Z0.195 I0 J-1.35 F200
X226 Y62.35 Z-0.11 I0 J1.35
X226 Y59.65 Z-0.414 I0 J-1.35
X226 Y62.35 Z-0.719 I0 J1.35
X226 Y59.65 Z-1.024 I0 J-1.35
X226 Y62.35 Z-1.329 I0 J1.35
X226 Y59.65 Z-1.634 I0 J-1.35
X226 Y62.35 Z-1.938 I0 J1.35
X226 Y59.65 Z-2.243 I0 J-1.35
X226 Y62.35 Z-2.548 I0 J1.35
X226 Y59.65 Z-2.853 I0 J-1.35
X226 Y62.35 Z-3.158 I0 J1.35
X226 Y59.65 Z-3.462 I0 J-1.35
X226 Y62.35 Z-3.767 I0 J1.35
X226 Y59.65 Z-4.072 I0 J-1.35
X226 Y62.35 Z-4.377 I0 J1.35
X226 Y59.65 Z-4.682 I0 J-1.35
X226 Y62.35 Z-4.986 I0 J1.35
X226 Y59.65 Z-5.291 I0 J-1.35
X226 Y62.35 Z-5.596 I0 J1.35
X226 Y59.65 Z-5.901 I0 J-1.35
X227.152 Y60.296 Z-6 I0 J1.35
X224.848 Y61.704 I-1.152 J0.704
X227.152 Y60.296 I1.152 J-0.704
X227.049 Y60.722 I-0.264 J0.162 F50
G1 X226.917 Y60.803
X226.858 Y60.839 Z-5.992
X226.802 Y60.873 Z-5.969
X226.752 Y60.904 Z-5.932
X226.71 Y60.929 Z-5.883
X226.678 Y60.948 Z-5.825
X226.659 Y60.96 Z-5.759
X226.652 Y60.964 Z-5.69
Z5.5 F200
X194.31 Y61.575
Z2.5
Z0.81 F50
G19 G3 Y61.885 Z0.5 J0.31 K0
G1 Y62.04
G17 G3 X194 Y62.35 I-0.31 J0
X194 Y59.65 Z0.195 I0 J-1.35 F200
X194 Y62.35 Z-0.11 I0 J1.35
X194 Y59.65 Z-0.414 I0 J-1.35
X194 Y62.35 Z-0.719 I0 J1.35
X194 Y59.65 Z-1.024 I0 J-1.35
X194 Y62.35 Z-1.329 I0 J1.35
X194 Y59.65 Z-1.634 I0 J-1.35
X194 Y62.35 Z-1.938 I0 J1.35
X194 Y59.65 Z-2.243 I0 J-1.35
X194 Y62.35 Z-2.548 I0 J1.35
X194 Y59.65 Z-2.853 I0 J-1.35
X194 Y62.35 Z-3.158 I0 J1.35
X194 Y59.65 Z-3.462 I0 J-1.35
X194 Y62.35 Z-3.767 I0 J1.35
X194 Y59.65 Z-4.072 I0 J-1.35
X194 Y62.35 Z-4.377 I0 J1.35
X194 Y59.65 Z-4.682 I0 J-1.35
X194 Y62.35 Z-4.986 I0 J1.35
X194 Y59.65 Z-5.291 I0 J-1.35
X194 Y62.35 Z-5.596 I0 J1.35
X194 Y59.65 Z-5.901 I0 J-1.35
X195.152 Y60.296 Z-6 I0 J1.35
X192.848 Y61.704 I-1.152 J0.704
X195.152 Y60.296 I1.152 J-0.704
X195.049 Y60.722 I-0.264 J0.162 F50
G1 X194.917 Y60.803
X194.858 Y60.839 Z-5.992
X194.802 Y60.873 Z-5.969
X194.752 Y60.904 Z-5.932
X194.71 Y60.929 Z-5.883
X194.678 Y60.948 Z-5.825
X194.659 Y60.96 Z-5.759
X194.652 Y60.964 Z-5.69
Z5.5 F200
X140.265 Y53.706
Z2.5
Z0.81 F50
X140.266 Y53.714 Z0.741
X140.267 Y53.737 Z0.675
X140.269 Y53.774 Z0.617
X140.271 Y53.823 Z0.568
X140.274 Y53.881 Z0.531
X140.277 Y53.947 Z0.508
X140.281 Y54.016 Z0.5
X140.288 Y54.171
G3 X140.027 Y54.459 I-0.275 J0.014
X139.973 Y53.36 Z0.279 I-0.027 J-0.549 F200
X140.027 Y54.459 Z0.059 I0.027 J0.549
X139.973 Y53.36 Z-0.162 I-0.027 J-0.549
X140.027 Y54.459 Z-0.383 I0.027 J0.549
X139.973 Y53.36 Z-0.604 I-0.027 J-0.549
X140.027 Y54.459 Z-0.824 I0.027 J0.549
X139.973 Y53.36 Z-1.045 I-0.027 J-0.549
X140.027 Y54.459 Z-1.266 I0.027 J0.549
X139.973 Y53.36 Z-1.486 I-0.027 J-0.549
X140.027 Y54.459 Z-1.707 I0.027 J0.549
X139.973 Y53.36 Z-1.928 I-0.027 J-0.549
X140.027 Y54.459 Z-2.149 I0.027 J0.549
X139.973 Y53.36 Z-2.369 I-0.027 J-0.549
X140.027 Y54.459 Z-2.59 I0.027 J0.549
X139.973 Y53.36 Z-2.811 I-0.027 J-0.549
X140.027 Y54.459 Z-3.032 I0.027 J0.549
X139.973 Y53.36 Z-3.252 I-0.027 J-0.549
X140.027 Y54.459 Z-3.473 I0.027 J0.549
X139.973 Y53.36 Z-3.694 I-0.027 J-0.549
X140.027 Y54.459 Z-3.914 I0.027 J0.549
X139.973 Y53.36 Z-4.135 I-0.027 J-0.549
X140.027 Y54.459 Z-4.356 I0.027 J0.549
X139.973 Y53.36 Z-4.577 I-0.027 J-0.549
X140.027 Y54.459 Z-4.797 I0.027 J0.549
X139.973 Y53.36 Z-5.018 I-0.027 J-0.549
X140.027 Y54.459 Z-5.239 I0.027 J0.549
X139.973 Y53.36 Z-5.459 I-0.027 J-0.549
X140.027 Y54.459 Z-5.68 I0.027 J0.549
X139.973 Y53.36 Z-5.901 I-0.027 J-0.549
X140.538 Y53.795 Z-6 I0.027 J0.549
X139.462 Y54.024 I-0.538 J0.114
X140.538 Y53.795 I0.538 J-0.114
X140.326 Y54.121 I-0.269 J0.057 F50
G1 X140.175 Y54.154
X140.107 Y54.168 Z-5.992
X140.043 Y54.182 Z-5.969
X139.986 Y54.194 Z-5.932
X139.938 Y54.204 Z-5.883
X139.901 Y54.212 Z-5.825
X139.879 Y54.216 Z-5.759
X139.871 Y54.218 Z-5.69
Z5.5 F200
X140.454 Y53.727
Z2.5
Z0.81 F50
Y53.735 Z0.741
X140.453 Y53.758 Z0.675
X140.452 Y53.795 Z0.617
X140.451 Y53.844 Z0.568
X140.449 Y53.903 Z0.531
X140.447 Y53.968 Z0.508
X140.444 Y54.037 Z0.5
X140.439 Y54.192
G3 X140.155 Y54.458 I-0.275 J-0.009
X140.191 Y53.358 Z0.279 I0.018 J-0.55 F200
X140.155 Y54.458 Z0.059 I-0.018 J0.55
X140.191 Y53.358 Z-0.162 I0.018 J-0.55
X140.155 Y54.458 Z-0.383 I-0.018 J0.55
X140.191 Y53.358 Z-0.604 I0.018 J-0.55
X140.155 Y54.458 Z-0.824 I-0.018 J0.55
X140.191 Y53.358 Z-1.045 I0.018 J-0.55
X140.155 Y54.458 Z-1.266 I-0.018 J0.55
X140.191 Y53.358 Z-1.486 I0.018 J-0.55
X140.155 Y54.458 Z-1.707 I-0.018 J0.55
X140.191 Y53.358 Z-1.928 I0.018 J-0.55
X140.155 Y54.458 Z-2.149 I-0.018 J0.55
X140.191 Y53.358 Z-2.369 I0.018 J-0.55
X140.155 Y54.458 Z-2.59 I-0.018 J0.55
X140.191 Y53.358 Z-2.811 I0.018 J-0.55
X140.155 Y54.458 Z-3.032 I-0.018 J0.55
X140.191 Y53.358 Z-3.252 I0.018 J-0.55
X140.155 Y54.458 Z-3.473 I-0.018 J0.55
X140.191 Y53.358 Z-3.694 I0.018 J-0.55
X140.155 Y54.458 Z-3.914 I-0.018 J0.55
X140.191 Y53.358 Z-4.135 I0.018 J-0.55
X140.155 Y54.458 Z-4.356 I-0.018 J0.55
X140.191 Y53.358 Z-4.577 I0.018 J-0.55
X140.155 Y54.458 Z-4.797 I-0.018 J0.55
X140.191 Y53.358 Z-5.018 I0.018 J-0.55
X140.155 Y54.458 Z-5.239 I-0.018 J0.55
X140.191 Y53.358 Z-5.459 I0.018 J-0.55
X140.155 Y54.458 Z-5.68 I-0.018 J0.55
X140.191 Y53.358 Z-5.901 I0.018 J-0.55
X140.719 Y53.838 Z-6 I-0.018 J0.55
X139.628 Y53.978 I-0.546 J0.07
X140.719 Y53.838 I0.546 J-0.07
X140.481 Y54.146 I-0.273 J0.035 F50
G1 X140.327 Y54.166
X140.259 Y54.174 Z-5.992
X140.194 Y54.183 Z-5.969
X140.135 Y54.19 Z-5.932
X140.087 Y54.196 Z-5.883
X140.05 Y54.201 Z-5.825
X140.027 Y54.204 Z-5.759
X140.02 Y54.205 Z-5.69
Z5.5 F200
X140.265 Y29.706
Z2.5
Z0.81 F50
X140.266 Y29.714 Z0.741
X140.267 Y29.737 Z0.675
X140.269 Y29.774 Z0.617
X140.271 Y29.823 Z0.568
X140.274 Y29.881 Z0.531
X140.277 Y29.947 Z0.508
X140.281 Y30.016 Z0.5
X140.288 Y30.171
G3 X140.027 Y30.459 I-0.275 J0.014
X139.973 Y29.36 Z0.279 I-0.027 J-0.549 F200
X140.027 Y30.459 Z0.059 I0.027 J0.549
X139.973 Y29.36 Z-0.162 I-0.027 J-0.549
X140.027 Y30.459 Z-0.383 I0.027 J0.549
X139.973 Y29.36 Z-0.604 I-0.027 J-0.549
X140.027 Y30.459 Z-0.824 I0.027 J0.549
X139.973 Y29.36 Z-1.045 I-0.027 J-0.549
X140.027 Y30.459 Z-1.266 I0.027 J0.549
X139.973 Y29.36 Z-1.486 I-0.027 J-0.549
X140.027 Y30.459 Z-1.707 I0.027 J0.549
X139.973 Y29.36 Z-1.928 I-0.027 J-0.549
X140.027 Y30.459 Z-2.149 I0.027 J0.549
X139.973 Y29.36 Z-2.369 I-0.027 J-0.549
X140.027 Y30.459 Z-2.59 I0.027 J0.549
X139.973 Y29.36 Z-2.811 I-0.027 J-0.549
X140.027 Y30.459 Z-3.032 I0.027 J0.549
X139.973 Y29.36 Z-3.252 I-0.027 J-0.549
X140.027 Y30.459 Z-3.473 I0.027 J0.549
X139.973 Y29.36 Z-3.694 I-0.027 J-0.549
X140.027 Y30.459 Z-3.914 I0.027 J0.549
X139.973 Y29.36 Z-4.135 I-0.027 J-0.549
X140.027 Y30.459 Z-4.356 I0.027 J0.549
X139.973 Y29.36 Z-4.577 I-0.027 J-0.549
X140.027 Y30.459 Z-4.797 I0.027 J0.549
X139.973 Y29.36 Z-5.018 I-0.027 J-0.549
X140.027 Y30.459 Z-5.239 I0.027 J0.549
X139.973 Y29.36 Z-5.459 I-0.027 J-0.549
X140.027 Y30.459 Z-5.68 I0.027 J0.549
X139.973 Y29.36 Z-5.901 I-0.027 J-0.549
X140.538 Y29.795 Z-6 I0.027 J0.549
X139.462 Y30.024 I-0.538 J0.114
X140.538 Y29.795 I0.538 J-0.114
X140.326 Y30.121 I-0.269 J0.057 F50
G1 X140.175 Y30.154
X140.107 Y30.168 Z-5.992
X140.043 Y30.182 Z-5.969
X139.986 Y30.194 Z-5.932
X139.938 Y30.204 Z-5.883
X139.901 Y30.212 Z-5.825
X139.879 Y30.216 Z-5.759
X139.871 Y30.218 Z-5.69
Z5.5 F200
X139.908 Y30.112
Z2.5
Z0.81 F50
Y30.104 Z0.741
X139.907 Y30.081 Z0.675
X139.905 Y30.044 Z0.617
X139.902 Y29.995 Z0.568
X139.899 Y29.936 Z0.531
X139.896 Y29.871 Z0.508
X139.893 Y29.802 Z0.5
X139.885 Y29.647
G3 X140.146 Y29.359 I0.275 J-0.014
X140.201 Y30.457 Z0.279 I0.027 J0.549 F200
X140.146 Y29.359 Z0.059 I-0.027 J-0.549
X140.201 Y30.457 Z-0.162 I0.027 J0.549
X140.146 Y29.359 Z-0.383 I-0.027 J-0.549
X140.201 Y30.457 Z-0.604 I0.027 J0.549
X140.146 Y29.359 Z-0.824 I-0.027 J-0.549
X140.201 Y30.457 Z-1.045 I0.027 J0.549
X140.146 Y29.359 Z-1.266 I-0.027 J-0.549
X140.201 Y30.457 Z-1.486 I0.027 J0.549
X140.146 Y29.359 Z-1.707 I-0.027 J-0.549
X140.201 Y30.457 Z-1.928 I0.027 J0.549
X140.146 Y29.359 Z-2.149 I-0.027 J-0.549
X140.201 Y30.457 Z-2.369 I0.027 J0.549
X140.146 Y29.359 Z-2.59 I-0.027 J-0.549
X140.201 Y30.457 Z-2.811 I0.027 J0.549
X140.146 Y29.359 Z-3.032 I-0.027 J-0.549
X140.201 Y30.457 Z-3.252 I0.027 J0.549
X140.146 Y29.359 Z-3.473 I-0.027 J-0.549
X140.201 Y30.457 Z-3.694 I0.027 J0.549
X140.146 Y29.359 Z-3.914 I-0.027 J-0.549
X140.201 Y30.457 Z-4.135 I0.027 J0.549
X140.146 Y29.359 Z-4.356 I-0.027 J-0.549
X140.201 Y30.457 Z-4.577 I0.027 J0.549
X140.146 Y29.359 Z-4.797 I-0.027 J-0.549
X140.201 Y30.457 Z-5.018 I0.027 J0.549
X140.146 Y29.359 Z-5.239 I-0.027 J-0.549
X140.201 Y30.457 Z-5.459 I0.027 J0.549
X140.146 Y29.359 Z-5.68 I-0.027 J-0.549
X140.201 Y30.457 Z-5.901 I0.027 J0.549
X139.635 Y30.022 Z-6 I-0.027 J-0.549
X140.711 Y29.794 I0.538 J-0.114
X139.635 Y30.022 I-0.538 J0.114
X139.847 Y29.696 I0.269 J-0.057 F50
G1 X139.999 Y29.664
X140.066 Y29.65 Z-5.992
X140.13 Y29.636 Z-5.969
X140.188 Y29.624 Z-5.932
X140.236 Y29.614 Z-5.883
X140.272 Y29.606 Z-5.825
X140.294 Y29.601 Z-5.759
X140.302 Y29.6 Z-5.69
Z5.5 F200
X99.908 Y30.112
Z2.5
Z0.81 F50
Y30.104 Z0.741
X99.907 Y30.081 Z0.675
X99.905 Y30.044 Z0.617
X99.902 Y29.995 Z0.568
X99.899 Y29.936 Z0.531
X99.896 Y29.871 Z0.508
X99.893 Y29.802 Z0.5
X99.885 Y29.647
G3 X100.146 Y29.359 I0.275 J-0.014
X100.201 Y30.457 Z0.279 I0.027 J0.549 F200
X100.146 Y29.359 Z0.059 I-0.027 J-0.549
X100.201 Y30.457 Z-0.162 I0.027 J0.549
X100.146 Y29.359 Z-0.383 I-0.027 J-0.549
X100.201 Y30.457 Z-0.604 I0.027 J0.549
X100.146 Y29.359 Z-0.824 I-0.027 J-0.549
X100.201 Y30.457 Z-1.045 I0.027 J0.549
X100.146 Y29.359 Z-1.266 I-0.027 J-0.549
X100.201 Y30.457 Z-1.486 I0.027 J0.549
X100.146 Y29.359 Z-1.707 I-0.027 J-0.549
X100.201 Y30.457 Z-1.928 I0.027 J0.549
X100.146 Y29.359 Z-2.149 I-0.027 J-0.549
X100.201 Y30.457 Z-2.369 I0.027 J0.549
X100.146 Y29.359 Z-2.59 I-0.027 J-0.549
X100.201 Y30.457 Z-2.811 I0.027 J0.549
X100.146 Y29.359 Z-3.032 I-0.027 J-0.549
X100.201 Y30.457 Z-3.252 I0.027 J0.549
X100.146 Y29.359 Z-3.473 I-0.027 J-0.549
X100.201 Y30.457 Z-3.694 I0.027 J0.549
X100.146 Y29.359 Z-3.914 I-0.027 J-0.549
X100.201 Y30.457 Z-4.135 I0.027 J0.549
X100.146 Y29.359 Z-4.356 I-0.027 J-0.549
X100.201 Y30.457 Z-4.577 I0.027 J0.549
X100.146 Y29.359 Z-4.797 I-0.027 J-0.549
X100.201 Y30.457 Z-5.018 I0.027 J0.549
X100.146 Y29.359 Z-5.239 I-0.027 J-0.549
X100.201 Y30.457 Z-5.459 I0.027 J0.549
X100.146 Y29.359 Z-5.68 I-0.027 J-0.549
X100.201 Y30.457 Z-5.901 I0.027 J0.549
X99.635 Y30.022 Z-6 I-0.027 J-0.549
X100.711 Y29.794 I0.538 J-0.114
X99.635 Y30.022 I-0.538 J0.114
X99.847 Y29.696 I0.269 J-0.057 F50
G1 X99.999 Y29.664
X100.066 Y29.65 Z-5.992
X100.13 Y29.636 Z-5.969
X100.188 Y29.624 Z-5.932
X100.236 Y29.614 Z-5.883
X100.272 Y29.606 Z-5.825
X100.294 Y29.601 Z-5.759
X100.302 Y29.6 Z-5.69
Z5.5 F200
X100.265 Y29.706
Z2.5
Z0.81 F50
X100.266 Y29.714 Z0.741
X100.267 Y29.737 Z0.675
X100.269 Y29.774 Z0.617
X100.271 Y29.823 Z0.568
X100.274 Y29.881 Z0.531
X100.277 Y29.947 Z0.508
X100.281 Y30.016 Z0.5
X100.288 Y30.171
G3 X100.027 Y30.459 I-0.275 J0.014
X99.973 Y29.36 Z0.279 I-0.027 J-0.549 F200
X100.027 Y30.459 Z0.059 I0.027 J0.549
X99.973 Y29.36 Z-0.162 I-0.027 J-0.549
X100.027 Y30.459 Z-0.383 I0.027 J0.549
X99.973 Y29.36 Z-0.604 I-0.027 J-0.549
X100.027 Y30.459 Z-0.824 I0.027 J0.549
X99.973 Y29.36 Z-1.045 I-0.027 J-0.549
X100.027 Y30.459 Z-1.266 I0.027 J0.549
X99.973 Y29.36 Z-1.486 I-0.027 J-0.549
X100.027 Y30.459 Z-1.707 I0.027 J0.549
X99.973 Y29.36 Z-1.928 I-0.027 J-0.549
X100.027 Y30.459 Z-2.149 I0.027 J0.549
X99.973 Y29.36 Z-2.369 I-0.027 J-0.549
X100.027 Y30.459 Z-2.59 I0.027 J0.549
X99.973 Y29.36 Z-2.811 I-0.027 J-0.549
X100.027 Y30.459 Z-3.032 I0.027 J0.549
X99.973 Y29.36 Z-3.252 I-0.027 J-0.549
X100.027 Y30.459 Z-3.473 I0.027 J0.549
X99.973 Y29.36 Z-3.694 I-0.027 J-0.549
X100.027 Y30.459 Z-3.914 I0.027 J0.549
X99.973 Y29.36 Z-4.135 I-0.027 J-0.549
X100.027 Y30.459 Z-4.356 I0.027 J0.549
X99.973 Y29.36 Z-4.577 I-0.027 J-0.549
X100.027 Y30.459 Z-4.797 I0.027 J0.549
X99.973 Y29.36 Z-5.018 I-0.027 J-0.549
X100.027 Y30.459 Z-5.239 I0.027 J0.549
X99.973 Y29.36 Z-5.459 I-0.027 J-0.549
X100.027 Y30.459 Z-5.68 I0.027 J0.549
X99.973 Y29.36 Z-5.901 I-0.027 J-0.549
X100.538 Y29.795 Z-6 I0.027 J0.549
X99.462 Y30.024 I-0.538 J0.114
X100.538 Y29.795 I0.538 J-0.114
X100.326 Y30.121 I-0.269 J0.057 F50
G1 X100.175 Y30.154
X100.107 Y30.168 Z-5.992
X100.043 Y30.182 Z-5.969
X99.986 Y30.194 Z-5.932
X99.938 Y30.204 Z-5.883
X99.901 Y30.212 Z-5.825
X99.879 Y30.216 Z-5.759
X99.871 Y30.218 Z-5.69
Z5.5 F200
X100.448 Y53.718
Z2.5
Z0.81 F50
G19 G3 Y54.028 Z0.5 J0.31 K0
G1 Y54.183
G17 G3 X100.173 Y54.458 I-0.275 J0
X100.173 Y53.358 Z0.279 I0 J-0.55 F200
X100.173 Y54.458 Z0.059 I0 J0.55
X100.173 Y53.358 Z-0.162 I0 J-0.55
X100.173 Y54.458 Z-0.383 I0 J0.55
X100.173 Y53.358 Z-0.604 I0 J-0.55
X100.173 Y54.458 Z-0.824 I0 J0.55
X100.173 Y53.358 Z-1.045 I0 J-0.55
X100.173 Y54.458 Z-1.266 I0 J0.55
X100.173 Y53.358 Z-1.486 I0 J-0.55
X100.173 Y54.458 Z-1.707 I0 J0.55
X100.173 Y53.358 Z-1.928 I0 J-0.55
X100.173 Y54.458 Z-2.149 I0 J0.55
X100.173 Y53.358 Z-2.369 I0 J-0.55
X100.173 Y54.458 Z-2.59 I0 J0.55
X100.173 Y53.358 Z-2.811 I0 J-0.55
X100.173 Y54.458 Z-3.032 I0 J0.55
X100.173 Y53.358 Z-3.252 I0 J-0.55
X100.173 Y54.458 Z-3.473 I0 J0.55
X100.173 Y53.358 Z-3.694 I0 J-0.55
X100.173 Y54.458 Z-3.914 I0 J0.55
X100.173 Y53.358 Z-4.135 I0 J-0.55
X100.173 Y54.458 Z-4.356 I0 J0.55
X100.173 Y53.358 Z-4.577 I0 J-0.55
X100.173 Y54.458 Z-4.797 I0 J0.55
X100.173 Y53.358 Z-5.018 I0 J-0.55
X100.173 Y54.458 Z-5.239 I0 J0.55
X100.173 Y53.358 Z-5.459 I0 J-0.55
X100.173 Y54.458 Z-5.68 I0 J0.55
X100.173 Y53.358 Z-5.901 I0 J-0.55
X100.716 Y53.821 Z-6 I0 J0.55
X99.63 Y53.995 I-0.543 J0.087
X100.716 Y53.821 I0.543 J-0.087
X100.489 Y54.136 I-0.272 J0.044 F50
G1 X100.336 Y54.161
X100.267 Y54.171 Z-5.992
X100.203 Y54.182 Z-5.969
X100.145 Y54.191 Z-5.932
X100.096 Y54.199 Z-5.883
X100.06 Y54.205 Z-5.825
X100.037 Y54.209 Z-5.759
X100.029 Y54.21 Z-5.69
Z5.5 F200
X100.265 Y53.706
Z2.5
Z0.81 F50
X100.266 Y53.714 Z0.741
X100.267 Y53.737 Z0.675
X100.269 Y53.774 Z0.617
X100.271 Y53.823 Z0.568
X100.274 Y53.881 Z0.531
X100.277 Y53.947 Z0.508
X100.281 Y54.016 Z0.5
X100.288 Y54.171
G3 X100.027 Y54.459 I-0.275 J0.014
X99.973 Y53.36 Z0.279 I-0.027 J-0.549 F200
X100.027 Y54.459 Z0.059 I0.027 J0.549
X99.973 Y53.36 Z-0.162 I-0.027 J-0.549
X100.027 Y54.459 Z-0.383 I0.027 J0.549
X99.973 Y53.36 Z-0.604 I-0.027 J-0.549
X100.027 Y54.459 Z-0.824 I0.027 J0.549
X99.973 Y53.36 Z-1.045 I-0.027 J-0.549
X100.027 Y54.459 Z-1.266 I0.027 J0.549
X99.973 Y53.36 Z-1.486 I-0.027 J-0.549
X100.027 Y54.459 Z-1.707 I0.027 J0.549
X99.973 Y53.36 Z-1.928 I-0.027 J-0.549
X100.027 Y54.459 Z-2.149 I0.027 J0.549
X99.973 Y53.36 Z-2.369 I-0.027 J-0.549
X100.027 Y54.459 Z-2.59 I0.027 J0.549
X99.973 Y53.36 Z-2.811 I-0.027 J-0.549
X100.027 Y54.459 Z-3.032 I0.027 J0.549
X99.973 Y53.36 Z-3.252 I-0.027 J-0.549
X100.027 Y54.459 Z-3.473 I0.027 J0.549
X99.973 Y53.36 Z-3.694 I-0.027 J-0.549
X100.027 Y54.459 Z-3.914 I0.027 J0.549
X99.973 Y53.36 Z-4.135 I-0.027 J-0.549
X100.027 Y54.459 Z-4.356 I0.027 J0.549
X99.973 Y53.36 Z-4.577 I-0.027 J-0.549
X100.027 Y54.459 Z-4.797 I0.027 J0.549
X99.973 Y53.36 Z-5.018 I-0.027 J-0.549
X100.027 Y54.459 Z-5.239 I0.027 J0.549
X99.973 Y53.36 Z-5.459 I-0.027 J-0.549
X100.027 Y54.459 Z-5.68 I0.027 J0.549
X99.973 Y53.36 Z-5.901 I-0.027 J-0.549
X100.538 Y53.795 Z-6 I0.027 J0.549
X99.462 Y54.024 I-0.538 J0.114
X100.538 Y53.795 I0.538 J-0.114
X100.326 Y54.121 I-0.269 J0.057 F50
G1 X100.175 Y54.154
X100.107 Y54.168 Z-5.992
X100.043 Y54.182 Z-5.969
X99.986 Y54.194 Z-5.932
X99.938 Y54.204 Z-5.883
X99.901 Y54.212 Z-5.825
X99.879 Y54.216 Z-5.759
X99.871 Y54.218 Z-5.69
Z5.5 F200
X46.31 Y61.575
Z2.5
Z0.81 F50
G19 G3 Y61.885 Z0.5 J0.31 K0
G1 Y62.04
G17 G3 X46 Y62.35 I-0.31 J0
X46 Y59.65 Z0.195 I0 J-1.35 F200
X46 Y62.35 Z-0.11 I0 J1.35
X46 Y59.65 Z-0.414 I0 J-1.35
X46 Y62.35 Z-0.719 I0 J1.35
X46 Y59.65 Z-1.024 I0 J-1.35
X46 Y62.35 Z-1.329 I0 J1.35
X46 Y59.65 Z-1.634 I0 J-1.35
X46 Y62.35 Z-1.938 I0 J1.35
X46 Y59.65 Z-2.243 I0 J-1.35
X46 Y62.35 Z-2.548 I0 J1.35
X46 Y59.65 Z-2.853 I0 J-1.35
X46 Y62.35 Z-3.158 I0 J1.35
X46 Y59.65 Z-3.462 I0 J-1.35
X46 Y62.35 Z-3.767 I0 J1.35
X46 Y59.65 Z-4.072 I0 J-1.35
X46 Y62.35 Z-4.377 I0 J1.35
X46 Y59.65 Z-4.682 I0 J-1.35
X46 Y62.35 Z-4.986 I0 J1.35
X46 Y59.65 Z-5.291 I0 J-1.35
X46 Y62.35 Z-5.596 I0 J1.35
X46 Y59.65 Z-5.901 I0 J-1.35
X47.152 Y60.296 Z-6 I0 J1.35
X44.848 Y61.704 I-1.152 J0.704
X47.152 Y60.296 I1.152 J-0.704
X47.049 Y60.722 I-0.264 J0.162 F50
G1 X46.917 Y60.803
X46.858 Y60.839 Z-5.992
X46.802 Y60.873 Z-5.969
X46.752 Y60.904 Z-5.932
X46.71 Y60.929 Z-5.883
X46.678 Y60.948 Z-5.825
X46.659 Y60.96 Z-5.759
X46.652 Y60.964 Z-5.69
Z5.5 F200
X14.31 Y61.575
Z2.5
Z0.81 F50
G19 G3 Y61.885 Z0.5 J0.31 K0
G1 Y62.04
G17 G3 X14 Y62.35 I-0.31 J0
X14 Y59.65 Z0.195 I0 J-1.35 F200
X14 Y62.35 Z-0.11 I0 J1.35
X14 Y59.65 Z-0.414 I0 J-1.35
X14 Y62.35 Z-0.719 I0 J1.35
X14 Y59.65 Z-1.024 I0 J-1.35
X14 Y62.35 Z-1.329 I0 J1.35
X14 Y59.65 Z-1.634 I0 J-1.35
X14 Y62.35 Z-1.938 I0 J1.35
X14 Y59.65 Z-2.243 I0 J-1.35
X14 Y62.35 Z-2.548 I0 J1.35
X14 Y59.65 Z-2.853 I0 J-1.35
X14 Y62.35 Z-3.158 I0 J1.35
X14 Y59.65 Z-3.462 I0 J-1.35
X14 Y62.35 Z-3.767 I0 J1.35
X14 Y59.65 Z-4.072 I0 J-1.35
X14 Y62.35 Z-4.377 I0 J1.35
X14 Y59.65 Z-4.682 I0 J-1.35
X14 Y62.35 Z-4.986 I0 J1.35
X14 Y59.65 Z-5.291 I0 J-1.35
X14 Y62.35 Z-5.596 I0 J1.35
X14 Y59.65 Z-5.901 I0 J-1.35
X15.152 Y60.296 Z-6 I0 J1.35
X12.848 Y61.704 I-1.152 J0.704
X15.152 Y60.296 I1.152 J-0.704
X15.049 Y60.722 I-0.264 J0.162 F50
G1 X14.917 Y60.803
X14.858 Y60.839 Z-5.992
X14.802 Y60.873 Z-5.969
X14.752 Y60.904 Z-5.932
X14.71 Y60.929 Z-5.883
X14.678 Y60.948 Z-5.825
X14.659 Y60.96 Z-5.759
X14.652 Y60.964 Z-5.69
Z5.5 F200
X14.31 Y25.575
Z2.5
Z0.81 F50
G19 G3 Y25.885 Z0.5 J0.31 K0
G1 Y26.04
G17 G3 X14 Y26.35 I-0.31 J0
X14 Y23.65 Z0.195 I0 J-1.35 F200
X14 Y26.35 Z-0.11 I0 J1.35
X14 Y23.65 Z-0.414 I0 J-1.35
X14 Y26.35 Z-0.719 I0 J1.35
X14 Y23.65 Z-1.024 I0 J-1.35
X14 Y26.35 Z-1.329 I0 J1.35
X14 Y23.65 Z-1.634 I0 J-1.35
X14 Y26.35 Z-1.938 I0 J1.35
X14 Y23.65 Z-2.243 I0 J-1.35
X14 Y26.35 Z-2.548 I0 J1.35
X14 Y23.65 Z-2.853 I0 J-1.35
X14 Y26.35 Z-3.158 I0 J1.35
X14 Y23.65 Z-3.462 I0 J-1.35
X14 Y26.35 Z-3.767 I0 J1.35
X14 Y23.65 Z-4.072 I0 J-1.35
X14 Y26.35 Z-4.377 I0 J1.35
X14 Y23.65 Z-4.682 I0 J-1.35
X14 Y26.35 Z-4.986 I0 J1.35
X14 Y23.65 Z-5.291 I0 J-1.35
X14 Y26.35 Z-5.596 I0 J1.35
X14 Y23.65 Z-5.901 I0 J-1.35
X15.152 Y24.296 Z-6 I0 J1.35
X12.848 Y25.704 I-1.152 J0.704
X15.152 Y24.296 I1.152 J-0.704
X15.049 Y24.722 I-0.264 J0.162 F50
G1 X14.917 Y24.803
X14.858 Y24.839 Z-5.992
X14.802 Y24.873 Z-5.969
X14.752 Y24.904 Z-5.932
X14.71 Y24.929 Z-5.883
X14.678 Y24.948 Z-5.825
X14.659 Y24.96 Z-5.759
X14.652 Y24.964 Z-5.69
Z5.5 F200
X46.31 Y25.575
Z2.5
Z0.81 F50
G19 G3 Y25.885 Z0.5 J0.31 K0
G1 Y26.04
G17 G3 X46 Y26.35 I-0.31 J0
X46 Y23.65 Z0.195 I0 J-1.35 F200
X46 Y26.35 Z-0.11 I0 J1.35
X46 Y23.65 Z-0.414 I0 J-1.35
X46 Y26.35 Z-0.719 I0 J1.35
X46 Y23.65 Z-1.024 I0 J-1.35
X46 Y26.35 Z-1.329 I0 J1.35
X46 Y23.65 Z-1.634 I0 J-1.35
X46 Y26.35 Z-1.938 I0 J1.35
X46 Y23.65 Z-2.243 I0 J-1.35
X46 Y26.35 Z-2.548 I0 J1.35
X46 Y23.65 Z-2.853 I0 J-1.35
X46 Y26.35 Z-3.158 I0 J1.35
X46 Y23.65 Z-3.462 I0 J-1.35
X46 Y26.35 Z-3.767 I0 J1.35
X46 Y23.65 Z-4.072 I0 J-1.35
X46 Y26.35 Z-4.377 I0 J1.35
X46 Y23.65 Z-4.682 I0 J-1.35
X46 Y26.35 Z-4.986 I0 J1.35
X46 Y23.65 Z-5.291 I0 J-1.35
X46 Y26.35 Z-5.596 I0 J1.35
X46 Y23.65 Z-5.901 I0 J-1.35
X47.152 Y24.296 Z-6 I0 J1.35
X44.848 Y25.704 I-1.152 J0.704
X47.152 Y24.296 I1.152 J-0.704
X47.049 Y24.722 I-0.264 J0.162 F50
G1 X46.917 Y24.803
X46.858 Y24.839 Z-5.992
X46.802 Y24.873 Z-5.969
X46.752 Y24.904 Z-5.932
X46.71 Y24.929 Z-5.883
X46.678 Y24.948 Z-5.825
X46.659 Y24.96 Z-5.759
X46.652 Y24.964 Z-5.69
Z15.5 F200
(When using Fusion for Personal Use, the feedrate of rapid)
(moves is reduced to match the feedrate of cutting moves,)
(which can increase machining time. Unrestricted rapid moves)
(are available with a Fusion Subscription.)

(Circular1)
G0 X46.31 Y64.175
G1 Z15.5 F200
Z1.7
Z0.01 F50
G19 G3 Y64.485 Z-0.3 J0.31 K0
G1 Y64.64
G17 G3 X46 Y64.95 I-0.31 J0
X46 Y57.05 I0 J-3.95 F200
X46 Y64.95 I0 J3.95
X45.69 Y64.64 I0 J-0.31 F50
G1 Y64.485
G19 G2 Y64.175 Z0.01 J0 K0.31
G1 Z5.5 F200
X46.31
Z1.4
Z-0.29 F50
G3 Y64.485 Z-0.6 J0.31 K0
G1 Y64.64
G17 G3 X46 Y64.95 I-0.31 J0
X46 Y57.05 I0 J-3.95 F200
X46 Y64.95 I0 J3.95
X45.69 Y64.64 I0 J-0.31 F50
G1 Y64.485
G19 G2 Y64.175 Z-0.29 J0 K0.31
G1 Z5.5 F200
X46.31
Z1.1
Z-0.59 F50
G3 Y64.485 Z-0.9 J0.31 K0
G1 Y64.64
G17 G3 X46 Y64.95 I-0.31 J0
X46 Y57.05 I0 J-3.95 F200
X46 Y64.95 I0 J3.95
X45.69 Y64.64 I0 J-0.31 F50
G1 Y64.485
G19 G2 Y64.175 Z-0.59 J0 K0.31
G1 Z5.5 F200
X46.31
Z0.8
Z-0.89 F50
G3 Y64.485 Z-1.2 J0.31 K0
G1 Y64.64
G17 G3 X46 Y64.95 I-0.31 J0
X46 Y57.05 I0 J-3.95 F200
X46 Y64.95 I0 J3.95
X45.69 Y64.64 I0 J-0.31 F50
G1 Y64.485
G19 G2 Y64.175 Z-0.89 J0 K0.31
G1 Z5.5 F200
X46.31
Z0.5
Z-1.19 F50
G3 Y64.485 Z-1.5 J0.31 K0
G1 Y64.64
G17 G3 X46 Y64.95 I-0.31 J0
X46 Y57.05 I0 J-3.95 F200
X46 Y64.95 I0 J3.95
X45.69 Y64.64 I0 J-0.31 F50
G1 Y64.485
G19 G2 Y64.175 Z-1.19 J0 K0.31
G1 Z5.5 F200
X46.31
Z0.2
Z-1.49 F50
G3 Y64.485 Z-1.8 J0.31 K0
G1 Y64.64
G17 G3 X46 Y64.95 I-0.31 J0
X46 Y57.05 I0 J-3.95 F200
X46 Y64.95 I0 J3.95
X45.69 Y64.64 I0 J-0.31 F50
G1 Y64.485
G19 G2 Y64.175 Z-1.49 J0 K0.31
G1 Z5.5 F200
X46.31
Z-0.065
Z-1.755 F50
G3 Y64.485 Z-2.065 J0.31 K0
G1 Y64.64
G17 G3 X46 Y64.95 I-0.31 J0
X46 Y57.05 I0 J-3.95 F200
X46 Y64.95 I0 J3.95
X45.69 Y64.64 I0 J-0.31 F50
G1 Y64.485
G19 G2 Y64.175 Z-1.755 J0 K0.31
G1 Z5.5 F200
X46.31
Z-0.33
Z-2.02 F50
G3 Y64.485 Z-2.33 J0.31 K0
G1 Y64.64
G17 G3 X46 Y64.95 I-0.31 J0
X46 Y57.05 I0 J-3.95 F200
X46 Y64.95 I0 J3.95
X45.69 Y64.64 I0 J-0.31 F50
G1 Y64.485
G19 G2 Y64.175 Z-2.02 J0 K0.31
G1 Z5.5 F200
X14.31
Z1.7
Z0.01 F50
G3 Y64.485 Z-0.3 J0.31 K0
G1 Y64.64
G17 G3 X14 Y64.95 I-0.31 J0
X14 Y57.05 I0 J-3.95 F200
X14 Y64.95 I0 J3.95
X13.69 Y64.64 I0 J-0.31 F50
G1 Y64.485
G19 G2 Y64.175 Z0.01 J0 K0.31
G1 Z5.5 F200
X14.31
Z1.4
Z-0.29 F50
G3 Y64.485 Z-0.6 J0.31 K0
G1 Y64.64
G17 G3 X14 Y64.95 I-0.31 J0
X14 Y57.05 I0 J-3.95 F200
X14 Y64.95 I0 J3.95
X13.69 Y64.64 I0 J-0.31 F50
G1 Y64.485
G19 G2 Y64.175 Z-0.29 J0 K0.31
G1 Z5.5 F200
X14.31
Z1.1
Z-0.59 F50
G3 Y64.485 Z-0.9 J0.31 K0
G1 Y64.64
G17 G3 X14 Y64.95 I-0.31 J0
X14 Y57.05 I0 J-3.95 F200
X14 Y64.95 I0 J3.95
X13.69 Y64.64 I0 J-0.31 F50
G1 Y64.485
G19 G2 Y64.175 Z-0.59 J0 K0.31
G1 Z5.5 F200
X14.31
Z0.8
Z-0.89 F50
G3 Y64.485 Z-1.2 J0.31 K0
G1 Y64.64
G17 G3 X14 Y64.95 I-0.31 J0
X14 Y57.05 I0 J-3.95 F200
X14 Y64.95 I0 J3.95
X13.69 Y64.64 I0 J-0.31 F50
G1 Y64.485
G19 G2 Y64.175 Z-0.89 J0 K0.31
G1 Z5.5 F200
X14.31
Z0.5
Z-1.19 F50
G3 Y64.485 Z-1.5 J0.31 K0
G1 Y64.64
G17 G3 X14 Y64.95 I-0.31 J0
X14 Y57.05 I0 J-3.95 F200
X14 Y64.95 I0 J3.95
X13.69 Y64.64 I0 J-0.31 F50
G1 Y64.485
G19 G2 Y64.175 Z-1.19 J0 K0.31
G1 Z5.5 F200
X14.31
Z0.2
Z-1.49 F50
G3 Y64.485 Z-1.8 J0.31 K0
G1 Y64.64
G17 G3 X14 Y64.95 I-0.31 J0
X14 Y57.05 I0 J-3.95 F200
X14 Y64.95 I0 J3.95
X13.69 Y64.64 I0 J-0.31 F50
G1 Y64.485
G19 G2 Y64.175 Z-1.49 J0 K0.31
G1 Z5.5 F200
X14.31
Z-0.065
Z-1.755 F50
G3 Y64.485 Z-2.065 J0.31 K0
G1 Y64.64
G17 G3 X14 Y64.95 I-0.31 J0
X14 Y57.05 I0 J-3.95 F200
X14 Y64.95 I0 J3.95
X13.69 Y64.64 I0 J-0.31 F50
G1 Y64.485
G19 G2 Y64.175 Z-1.755 J0 K0.31
G1 Z5.5 F200
X14.31
Z-0.33
Z-2.02 F50
G3 Y64.485 Z-2.33 J0.31 K0
G1 Y64.64
G17 G3 X14 Y64.95 I-0.31 J0
X14 Y57.05 I0 J-3.95 F200
X14 Y64.95 I0 J3.95
X13.69 Y64.64 I0 J-0.31 F50
G1 Y64.485
G19 G2 Y64.175 Z-2.02 J0 K0.31
G1 Z5.5 F200
X14.31 Y28.175
Z1.7
Z0.01 F50
G3 Y28.485 Z-0.3 J0.31 K0
G1 Y28.64
G17 G3 X14 Y28.95 I-0.31 J0
X14 Y21.05 I0 J-3.95 F200
X14 Y28.95 I0 J3.95
X13.69 Y28.64 I0 J-0.31 F50
G1 Y28.485
G19 G2 Y28.175 Z0.01 J0 K0.31
G1 Z5.5 F200
X14.31
Z1.4
Z-0.29 F50
G3 Y28.485 Z-0.6 J0.31 K0
G1 Y28.64
G17 G3 X14 Y28.95 I-0.31 J0
X14 Y21.05 I0 J-3.95 F200
X14 Y28.95 I0 J3.95
X13.69 Y28.64 I0 J-0.31 F50
G1 Y28.485
G19 G2 Y28.175 Z-0.29 J0 K0.31
G1 Z5.5 F200
X14.31
Z1.1
Z-0.59 F50
G3 Y28.485 Z-0.9 J0.31 K0
G1 Y28.64
G17 G3 X14 Y28.95 I-0.31 J0
X14 Y21.05 I0 J-3.95 F200
X14 Y28.95 I0 J3.95
X13.69 Y28.64 I0 J-0.31 F50
G1 Y28.485
G19 G2 Y28.175 Z-0.59 J0 K0.31
G1 Z5.5 F200
X14.31
Z0.8
Z-0.89 F50
G3 Y28.485 Z-1.2 J0.31 K0
G1 Y28.64
G17 G3 X14 Y28.95 I-0.31 J0
X14 Y21.05 I0 J-3.95 F200
X14 Y28.95 I0 J3.95
X13.69 Y28.64 I0 J-0.31 F50
G1 Y28.485
G19 G2 Y28.175 Z-0.89 J0 K0.31
G1 Z5.5 F200
X14.31
Z0.5
Z-1.19 F50
G3 Y28.485 Z-1.5 J0.31 K0
G1 Y28.64
G17 G3 X14 Y28.95 I-0.31 J0
X14 Y21.05 I0 J-3.95 F200
X14 Y28.95 I0 J3.95
X13.69 Y28.64 I0 J-0.31 F50
G1 Y28.485
G19 G2 Y28.175 Z-1.19 J0 K0.31
G1 Z5.5 F200
X14.31
Z0.2
Z-1.49 F50
G3 Y28.485 Z-1.8 J0.31 K0
G1 Y28.64
G17 G3 X14 Y28.95 I-0.31 J0
X14 Y21.05 I0 J-3.95 F200
X14 Y28.95 I0 J3.95
X13.69 Y28.64 I0 J-0.31 F50
G1 Y28.485
G19 G2 Y28.175 Z-1.49 J0 K0.31
G1 Z5.5 F200
X14.31
Z-0.065
Z-1.755 F50
G3 Y28.485 Z-2.065 J0.31 K0
G1 Y28.64
G17 G3 X14 Y28.95 I-0.31 J0
X14 Y21.05 I0 J-3.95 F200
X14 Y28.95 I0 J3.95
X13.69 Y28.64 I0 J-0.31 F50
G1 Y28.485
G19 G2 Y28.175 Z-1.755 J0 K0.31
G1 Z5.5 F200
X14.31
Z-0.33
Z-2.02 F50
G3 Y28.485 Z-2.33 J0.31 K0
G1 Y28.64
G17 G3 X14 Y28.95 I-0.31 J0
X14 Y21.05 I0 J-3.95 F200
X14 Y28.95 I0 J3.95
X13.69 Y28.64 I0 J-0.31 F50
G1 Y28.485
G19 G2 Y28.175 Z-2.02 J0 K0.31
G1 Z5.5 F200
X46.31
Z1.7
Z0.01 F50
G3 Y28.485 Z-0.3 J0.31 K0
G1 Y28.64
G17 G3 X46 Y28.95 I-0.31 J0
X46 Y21.05 I0 J-3.95 F200
X46 Y28.95 I0 J3.95
X45.69 Y28.64 I0 J-0.31 F50
G1 Y28.485
G19 G2 Y28.175 Z0.01 J0 K0.31
G1 Z5.5 F200
X46.31
Z1.4
Z-0.29 F50
G3 Y28.485 Z-0.6 J0.31 K0
G1 Y28.64
G17 G3 X46 Y28.95 I-0.31 J0
X46 Y21.05 I0 J-3.95 F200
X46 Y28.95 I0 J3.95
X45.69 Y28.64 I0 J-0.31 F50
G1 Y28.485
G19 G2 Y28.175 Z-0.29 J0 K0.31
G1 Z5.5 F200
X46.31
Z1.1
Z-0.59 F50
G3 Y28.485 Z-0.9 J0.31 K0
G1 Y28.64
G17 G3 X46 Y28.95 I-0.31 J0
X46 Y21.05 I0 J-3.95 F200
X46 Y28.95 I0 J3.95
X45.69 Y28.64 I0 J-0.31 F50
G1 Y28.485
G19 G2 Y28.175 Z-0.59 J0 K0.31
G1 Z5.5 F200
X46.31
Z0.8
Z-0.89 F50
G3 Y28.485 Z-1.2 J0.31 K0
G1 Y28.64
G17 G3 X46 Y28.95 I-0.31 J0
X46 Y21.05 I0 J-3.95 F200
X46 Y28.95 I0 J3.95
X45.69 Y28.64 I0 J-0.31 F50
G1 Y28.485
G19 G2 Y28.175 Z-0.89 J0 K0.31
G1 Z5.5 F200
X46.31
Z0.5
Z-1.19 F50
G3 Y28.485 Z-1.5 J0.31 K0
G1 Y28.64
G17 G3 X46 Y28.95 I-0.31 J0
X46 Y21.05 I0 J-3.95 F200
X46 Y28.95 I0 J3.95
X45.69 Y28.64 I0 J-0.31 F50
G1 Y28.485
G19 G2 Y28.175 Z-1.19 J0 K0.31
G1 Z5.5 F200
X46.31
Z0.2
Z-1.49 F50
G3 Y28.485 Z-1.8 J0.31 K0
G1 Y28.64
G17 G3 X46 Y28.95 I-0.31 J0
X46 Y21.05 I0 J-3.95 F200
X46 Y28.95 I0 J3.95
X45.69 Y28.64 I0 J-0.31 F50
G1 Y28.485
G19 G2 Y28.175 Z-1.49 J0 K0.31
G1 Z5.5 F200
X46.31
Z-0.065
Z-1.755 F50
G3 Y28.485 Z-2.065 J0.31 K0
G1 Y28.64
G17 G3 X46 Y28.95 I-0.31 J0
X46 Y21.05 I0 J-3.95 F200
X46 Y28.95 I0 J3.95
X45.69 Y28.64 I0 J-0.31 F50
G1 Y28.485
G19 G2 Y28.175 Z-1.755 J0 K0.31
G1 Z5.5 F200
X46.31
Z-0.33
Z-2.02 F50
G3 Y28.485 Z-2.33 J0.31 K0
G1 Y28.64
G17 G3 X46 Y28.95 I-0.31 J0
X46 Y21.05 I0 J-3.95 F200
X46 Y28.95 I0 J3.95
X45.69 Y28.64 I0 J-0.31 F50
G1 Y28.485
G19 G2 Y28.175 Z-2.02 J0 K0.31
G1 Z5.5 F200
X100.31 Y31.585
Z1.7
Z0.01 F50
G3 Y31.895 Z-0.3 J0.31 K0
G1 Y32.05
G17 G3 X100 Y32.36 I-0.31 J0
X100 Y27.46 I0 J-2.45 F200
X100 Y32.36 I0 J2.45
X99.69 Y32.05 I0 J-0.31 F50
G1 Y31.895
G19 G2 Y31.585 Z0.01 J0 K0.31
G1 Z5.5 F200
X100.31
Z1.4
Z-0.29 F50
G3 Y31.895 Z-0.6 J0.31 K0
G1 Y32.05
G17 G3 X100 Y32.36 I-0.31 J0
X100 Y27.46 I0 J-2.45 F200
X100 Y32.36 I0 J2.45
X99.69 Y32.05 I0 J-0.31 F50
G1 Y31.895
G19 G2 Y31.585 Z-0.29 J0 K0.31
G1 Z5.5 F200
X100.31
Z1.1
Z-0.59 F50
G3 Y31.895 Z-0.9 J0.31 K0
G1 Y32.05
G17 G3 X100 Y32.36 I-0.31 J0
X100 Y27.46 I0 J-2.45 F200
X100 Y32.36 I0 J2.45
X99.69 Y32.05 I0 J-0.31 F50
G1 Y31.895
G19 G2 Y31.585 Z-0.59 J0 K0.31
G1 Z5.5 F200
X100.31
Z0.8
Z-0.89 F50
G3 Y31.895 Z-1.2 J0.31 K0
G1 Y32.05
G17 G3 X100 Y32.36 I-0.31 J0
X100 Y27.46 I0 J-2.45 F200
X100 Y32.36 I0 J2.45
X99.69 Y32.05 I0 J-0.31 F50
G1 Y31.895
G19 G2 Y31.585 Z-0.89 J0 K0.31
G1 Z5.5 F200
X100.31
Z0.5
Z-1.19 F50
G3 Y31.895 Z-1.5 J0.31 K0
G1 Y32.05
G17 G3 X100 Y32.36 I-0.31 J0
X100 Y27.46 I0 J-2.45 F200
X100 Y32.36 I0 J2.45
X99.69 Y32.05 I0 J-0.31 F50
G1 Y31.895
G19 G2 Y31.585 Z-1.19 J0 K0.31
G1 Z5.5 F200
X100.31
Z0.2
Z-1.49 F50
G3 Y31.895 Z-1.8 J0.31 K0
G1 Y32.05
G17 G3 X100 Y32.36 I-0.31 J0
X100 Y27.46 I0 J-2.45 F200
X100 Y32.36 I0 J2.45
X99.69 Y32.05 I0 J-0.31 F50
G1 Y31.895
G19 G2 Y31.585 Z-1.49 J0 K0.31
G1 Z5.5 F200
X100.31
Z-0.065
Z-1.755 F50
G3 Y31.895 Z-2.065 J0.31 K0
G1 Y32.05
G17 G3 X100 Y32.36 I-0.31 J0
X100 Y27.46 I0 J-2.45 F200
X100 Y32.36 I0 J2.45
X99.69 Y32.05 I0 J-0.31 F50
G1 Y31.895
G19 G2 Y31.585 Z-1.755 J0 K0.31
G1 Z5.5 F200
X100.31
Z-0.33
Z-2.02 F50
G3 Y31.895 Z-2.33 J0.31 K0
G1 Y32.05
G17 G3 X100 Y32.36 I-0.31 J0
X100 Y27.46 I0 J-2.45 F200
X100 Y32.36 I0 J2.45
X99.69 Y32.05 I0 J-0.31 F50
G1 Y31.895
G19 G2 Y31.585 Z-2.02 J0 K0.31
G1 Z5.5 F200
X100.31 Y55.585
Z1.7
Z0.01 F50
G3 Y55.895 Z-0.3 J0.31 K0
G1 Y56.05
G17 G3 X100 Y56.36 I-0.31 J0
X100 Y51.46 I0 J-2.45 F200
X100 Y56.36 I0 J2.45
X99.69 Y56.05 I0 J-0.31 F50
G1 Y55.895
G19 G2 Y55.585 Z0.01 J0 K0.31
G1 Z5.5 F200
X100.31
Z1.4
Z-0.29 F50
G3 Y55.895 Z-0.6 J0.31 K0
G1 Y56.05
G17 G3 X100 Y56.36 I-0.31 J0
X100 Y51.46 I0 J-2.45 F200
X100 Y56.36 I0 J2.45
X99.69 Y56.05 I0 J-0.31 F50
G1 Y55.895
G19 G2 Y55.585 Z-0.29 J0 K0.31
G1 Z5.5 F200
X100.31
Z1.1
Z-0.59 F50
G3 Y55.895 Z-0.9 J0.31 K0
G1 Y56.05
G17 G3 X100 Y56.36 I-0.31 J0
X100 Y51.46 I0 J-2.45 F200
X100 Y56.36 I0 J2.45
X99.69 Y56.05 I0 J-0.31 F50
G1 Y55.895
G19 G2 Y55.585 Z-0.59 J0 K0.31
G1 Z5.5 F200
X100.31
Z0.8
Z-0.89 F50
G3 Y55.895 Z-1.2 J0.31 K0
G1 Y56.05
G17 G3 X100 Y56.36 I-0.31 J0
X100 Y51.46 I0 J-2.45 F200
X100 Y56.36 I0 J2.45
X99.69 Y56.05 I0 J-0.31 F50
G1 Y55.895
G19 G2 Y55.585 Z-0.89 J0 K0.31
G1 Z5.5 F200
X100.31
Z0.5
Z-1.19 F50
G3 Y55.895 Z-1.5 J0.31 K0
G1 Y56.05
G17 G3 X100 Y56.36 I-0.31 J0
X100 Y51.46 I0 J-2.45 F200
X100 Y56.36 I0 J2.45
X99.69 Y56.05 I0 J-0.31 F50
G1 Y55.895
G19 G2 Y55.585 Z-1.19 J0 K0.31
G1 Z5.5 F200
X100.31
Z0.2
Z-1.49 F50
G3 Y55.895 Z-1.8 J0.31 K0
G1 Y56.05
G17 G3 X100 Y56.36 I-0.31 J0
X100 Y51.46 I0 J-2.45 F200
X100 Y56.36 I0 J2.45
X99.69 Y56.05 I0 J-0.31 F50
G1 Y55.895
G19 G2 Y55.585 Z-1.49 J0 K0.31
G1 Z5.5 F200
X100.31
Z-0.065
Z-1.755 F50
G3 Y55.895 Z-2.065 J0.31 K0
G1 Y56.05
G17 G3 X100 Y56.36 I-0.31 J0
X100 Y51.46 I0 J-2.45 F200
X100 Y56.36 I0 J2.45
X99.69 Y56.05 I0 J-0.31 F50
G1 Y55.895
G19 G2 Y55.585 Z-1.755 J0 K0.31
G1 Z5.5 F200
X100.31
Z-0.33
Z-2.02 F50
G3 Y55.895 Z-2.33 J0.31 K0
G1 Y56.05
G17 G3 X100 Y56.36 I-0.31 J0
X100 Y51.46 I0 J-2.45 F200
X100 Y56.36 I0 J2.45
X99.69 Y56.05 I0 J-0.31 F50
G1 Y55.895
G19 G2 Y55.585 Z-2.02 J0 K0.31
G1 Z5.5 F200
X140.31
Z1.7
Z0.01 F50
G3 Y55.895 Z-0.3 J0.31 K0
G1 Y56.05
G17 G3 X140 Y56.36 I-0.31 J0
X140 Y51.46 I0 J-2.45 F200
X140 Y56.36 I0 J2.45
X139.69 Y56.05 I0 J-0.31 F50
G1 Y55.895
G19 G2 Y55.585 Z0.01 J0 K0.31
G1 Z5.5 F200
X140.31
Z1.4
Z-0.29 F50
G3 Y55.895 Z-0.6 J0.31 K0
G1 Y56.05
G17 G3 X140 Y56.36 I-0.31 J0
X140 Y51.46 I0 J-2.45 F200
X140 Y56.36 I0 J2.45
X139.69 Y56.05 I0 J-0.31 F50
G1 Y55.895
G19 G2 Y55.585 Z-0.29 J0 K0.31
G1 Z5.5 F200
X140.31
Z1.1
Z-0.59 F50
G3 Y55.895 Z-0.9 J0.31 K0
G1 Y56.05
G17 G3 X140 Y56.36 I-0.31 J0
X140 Y51.46 I0 J-2.45 F200
X140 Y56.36 I0 J2.45
X139.69 Y56.05 I0 J-0.31 F50
G1 Y55.895
G19 G2 Y55.585 Z-0.59 J0 K0.31
G1 Z5.5 F200
X140.31
Z0.8
Z-0.89 F50
G3 Y55.895 Z-1.2 J0.31 K0
G1 Y56.05
G17 G3 X140 Y56.36 I-0.31 J0
X140 Y51.46 I0 J-2.45 F200
X140 Y56.36 I0 J2.45
X139.69 Y56.05 I0 J-0.31 F50
G1 Y55.895
G19 G2 Y55.585 Z-0.89 J0 K0.31
G1 Z5.5 F200
X140.31
Z0.5
Z-1.19 F50
G3 Y55.895 Z-1.5 J0.31 K0
G1 Y56.05
G17 G3 X140 Y56.36 I-0.31 J0
X140 Y51.46 I0 J-2.45 F200
X140 Y56.36 I0 J2.45
X139.69 Y56.05 I0 J-0.31 F50
G1 Y55.895
G19 G2 Y55.585 Z-1.19 J0 K0.31
G1 Z5.5 F200
X140.31
Z0.2
Z-1.49 F50
G3 Y55.895 Z-1.8 J0.31 K0
G1 Y56.05
G17 G3 X140 Y56.36 I-0.31 J0
X140 Y51.46 I0 J-2.45 F200
X140 Y56.36 I0 J2.45
X139.69 Y56.05 I0 J-0.31 F50
G1 Y55.895
G19 G2 Y55.585 Z-1.49 J0 K0.31
G1 Z5.5 F200
X140.31
Z-0.065
Z-1.755 F50
G3 Y55.895 Z-2.065 J0.31 K0
G1 Y56.05
G17 G3 X140 Y56.36 I-0.31 J0
X140 Y51.46 I0 J-2.45 F200
X140 Y56.36 I0 J2.45
X139.69 Y56.05 I0 J-0.31 F50
G1 Y55.895
G19 G2 Y55.585 Z-1.755 J0 K0.31
G1 Z5.5 F200
X140.31
Z-0.33
Z-2.02 F50
G3 Y55.895 Z-2.33 J0.31 K0
G1 Y56.05
G17 G3 X140 Y56.36 I-0.31 J0
X140 Y51.46 I0 J-2.45 F200
X140 Y56.36 I0 J2.45
X139.69 Y56.05 I0 J-0.31 F50
G1 Y55.895
G19 G2 Y55.585 Z-2.02 J0 K0.31
G1 Z5.5 F200
X140.31 Y31.585
Z1.7
Z0.01 F50
G3 Y31.895 Z-0.3 J0.31 K0
G1 Y32.05
G17 G3 X140 Y32.36 I-0.31 J0
X140 Y27.46 I0 J-2.45 F200
X140 Y32.36 I0 J2.45
X139.69 Y32.05 I0 J-0.31 F50
G1 Y31.895
G19 G2 Y31.585 Z0.01 J0 K0.31
G1 Z5.5 F200
X140.31
Z1.4
Z-0.29 F50
G3 Y31.895 Z-0.6 J0.31 K0
G1 Y32.05
G17 G3 X140 Y32.36 I-0.31 J0
X140 Y27.46 I0 J-2.45 F200
X140 Y32.36 I0 J2.45
X139.69 Y32.05 I0 J-0.31 F50
G1 Y31.895
G19 G2 Y31.585 Z-0.29 J0 K0.31
G1 Z5.5 F200
X140.31
Z1.1
Z-0.59 F50
G3 Y31.895 Z-0.9 J0.31 K0
G1 Y32.05
G17 G3 X140 Y32.36 I-0.31 J0
X140 Y27.46 I0 J-2.45 F200
X140 Y32.36 I0 J2.45
X139.69 Y32.05 I0 J-0.31 F50
G1 Y31.895
G19 G2 Y31.585 Z-0.59 J0 K0.31
G1 Z5.5 F200
X140.31
Z0.8
Z-0.89 F50
G3 Y31.895 Z-1.2 J0.31 K0
G1 Y32.05
G17 G3 X140 Y32.36 I-0.31 J0
X140 Y27.46 I0 J-2.45 F200
X140 Y32.36 I0 J2.45
X139.69 Y32.05 I0 J-0.31 F50
G1 Y31.895
G19 G2 Y31.585 Z-0.89 J0 K0.31
G1 Z5.5 F200
X140.31
Z0.5
Z-1.19 F50
G3 Y31.895 Z-1.5 J0.31 K0
G1 Y32.05
G17 G3 X140 Y32.36 I-0.31 J0
X140 Y27.46 I0 J-2.45 F200
X140 Y32.36 I0 J2.45
X139.69 Y32.05 I0 J-0.31 F50
G1 Y31.895
G19 G2 Y31.585 Z-1.19 J0 K0.31
G1 Z5.5 F200
X140.31
Z0.2
Z-1.49 F50
G3 Y31.895 Z-1.8 J0.31 K0
G1 Y32.05
G17 G3 X140 Y32.36 I-0.31 J0
X140 Y27.46 I0 J-2.45 F200
X140 Y32.36 I0 J2.45
X139.69 Y32.05 I0 J-0.31 F50
G1 Y31.895
G19 G2 Y31.585 Z-1.49 J0 K0.31
G1 Z5.5 F200
X140.31
Z-0.065
Z-1.755 F50
G3 Y31.895 Z-2.065 J0.31 K0
G1 Y32.05
G17 G3 X140 Y32.36 I-0.31 J0
X140 Y27.46 I0 J-2.45 F200
X140 Y32.36 I0 J2.45
X139.69 Y32.05 I0 J-0.31 F50
G1 Y31.895
G19 G2 Y31.585 Z-1.755 J0 K0.31
G1 Z5.5 F200
X140.31
Z-0.33
Z-2.02 F50
G3 Y31.895 Z-2.33 J0.31 K0
G1 Y32.05
G17 G3 X140 Y32.36 I-0.31 J0
X140 Y27.46 I0 J-2.45 F200
X140 Y32.36 I0 J2.45
X139.69 Y32.05 I0 J-0.31 F50
G1 Y31.895
G19 G2 Y31.585 Z-2.02 J0 K0.31
G1 Z5.5 F200
X194.31 Y28.175
Z1.7
Z0.01 F50
G3 Y28.485 Z-0.3 J0.31 K0
G1 Y28.64
G17 G3 X194 Y28.95 I-0.31 J0
X194 Y21.05 I0 J-3.95 F200
X194 Y28.95 I0 J3.95
X193.69 Y28.64 I0 J-0.31 F50
G1 Y28.485
G19 G2 Y28.175 Z0.01 J0 K0.31
G1 Z5.5 F200
X194.31
Z1.4
Z-0.29 F50
G3 Y28.485 Z-0.6 J0.31 K0
G1 Y28.64
G17 G3 X194 Y28.95 I-0.31 J0
X194 Y21.05 I0 J-3.95 F200
X194 Y28.95 I0 J3.95
X193.69 Y28.64 I0 J-0.31 F50
G1 Y28.485
G19 G2 Y28.175 Z-0.29 J0 K0.31
G1 Z5.5 F200
X194.31
Z1.1
Z-0.59 F50
G3 Y28.485 Z-0.9 J0.31 K0
G1 Y28.64
G17 G3 X194 Y28.95 I-0.31 J0
X194 Y21.05 I0 J-3.95 F200
X194 Y28.95 I0 J3.95
X193.69 Y28.64 I0 J-0.31 F50
G1 Y28.485
G19 G2 Y28.175 Z-0.59 J0 K0.31
G1 Z5.5 F200
X194.31
Z0.8
Z-0.89 F50
G3 Y28.485 Z-1.2 J0.31 K0
G1 Y28.64
G17 G3 X194 Y28.95 I-0.31 J0
X194 Y21.05 I0 J-3.95 F200
X194 Y28.95 I0 J3.95
X193.69 Y28.64 I0 J-0.31 F50
G1 Y28.485
G19 G2 Y28.175 Z-0.89 J0 K0.31
G1 Z5.5 F200
X194.31
Z0.5
Z-1.19 F50
G3 Y28.485 Z-1.5 J0.31 K0
G1 Y28.64
G17 G3 X194 Y28.95 I-0.31 J0
X194 Y21.05 I0 J-3.95 F200
X194 Y28.95 I0 J3.95
X193.69 Y28.64 I0 J-0.31 F50
G1 Y28.485
G19 G2 Y28.175 Z-1.19 J0 K0.31
G1 Z5.5 F200
X194.31
Z0.2
Z-1.49 F50
G3 Y28.485 Z-1.8 J0.31 K0
G1 Y28.64
G17 G3 X194 Y28.95 I-0.31 J0
X194 Y21.05 I0 J-3.95 F200
X194 Y28.95 I0 J3.95
X193.69 Y28.64 I0 J-0.31 F50
G1 Y28.485
G19 G2 Y28.175 Z-1.49 J0 K0.31
G1 Z5.5 F200
X194.31
Z-0.065
Z-1.755 F50
G3 Y28.485 Z-2.065 J0.31 K0
G1 Y28.64
G17 G3 X194 Y28.95 I-0.31 J0
X194 Y21.05 I0 J-3.95 F200
X194 Y28.95 I0 J3.95
X193.69 Y28.64 I0 J-0.31 F50
G1 Y28.485
G19 G2 Y28.175 Z-1.755 J0 K0.31
G1 Z5.5 F200
X194.31
Z-0.33
Z-2.02 F50
G3 Y28.485 Z-2.33 J0.31 K0
G1 Y28.64
G17 G3 X194 Y28.95 I-0.31 J0
X194 Y21.05 I0 J-3.95 F200
X194 Y28.95 I0 J3.95
X193.69 Y28.64 I0 J-0.31 F50
G1 Y28.485
G19 G2 Y28.175 Z-2.02 J0 K0.31
G1 Z5.5 F200
X226.31
Z1.7
Z0.01 F50
G3 Y28.485 Z-0.3 J0.31 K0
G1 Y28.64
G17 G3 X226 Y28.95 I-0.31 J0
X226 Y21.05 I0 J-3.95 F200
X226 Y28.95 I0 J3.95
X225.69 Y28.64 I0 J-0.31 F50
G1 Y28.485
G19 G2 Y28.175 Z0.01 J0 K0.31
G1 Z5.5 F200
X226.31
Z1.4
Z-0.29 F50
G3 Y28.485 Z-0.6 J0.31 K0
G1 Y28.64
G17 G3 X226 Y28.95 I-0.31 J0
X226 Y21.05 I0 J-3.95 F200
X226 Y28.95 I0 J3.95
X225.69 Y28.64 I0 J-0.31 F50
G1 Y28.485
G19 G2 Y28.175 Z-0.29 J0 K0.31
G1 Z5.5 F200
X226.31
Z1.1
Z-0.59 F50
G3 Y28.485 Z-0.9 J0.31 K0
G1 Y28.64
G17 G3 X226 Y28.95 I-0.31 J0
X226 Y21.05 I0 J-3.95 F200
X226 Y28.95 I0 J3.95
X225.69 Y28.64 I0 J-0.31 F50
G1 Y28.485
G19 G2 Y28.175 Z-0.59 J0 K0.31
G1 Z5.5 F200
X226.31
Z0.8
Z-0.89 F50
G3 Y28.485 Z-1.2 J0.31 K0
G1 Y28.64
G17 G3 X226 Y28.95 I-0.31 J0
X226 Y21.05 I0 J-3.95 F200
X226 Y28.95 I0 J3.95
X225.69 Y28.64 I0 J-0.31 F50
G1 Y28.485
G19 G2 Y28.175 Z-0.89 J0 K0.31
G1 Z5.5 F200
X226.31
Z0.5
Z-1.19 F50
G3 Y28.485 Z-1.5 J0.31 K0
G1 Y28.64
G17 G3 X226 Y28.95 I-0.31 J0
X226 Y21.05 I0 J-3.95 F200
X226 Y28.95 I0 J3.95
X225.69 Y28.64 I0 J-0.31 F50
G1 Y28.485
G19 G2 Y28.175 Z-1.19 J0 K0.31
G1 Z5.5 F200
X226.31
Z0.2
Z-1.49 F50
G3 Y28.485 Z-1.8 J0.31 K0
G1 Y28.64
G17 G3 X226 Y28.95 I-0.31 J0
X226 Y21.05 I0 J-3.95 F200
X226 Y28.95 I0 J3.95
X225.69 Y28.64 I0 J-0.31 F50
G1 Y28.485
G19 G2 Y28.175 Z-1.49 J0 K0.31
G1 Z5.5 F200
X226.31
Z-0.065
Z-1.755 F50
G3 Y28.485 Z-2.065 J0.31 K0
G1 Y28.64
G17 G3 X226 Y28.95 I-0.31 J0
X226 Y21.05 I0 J-3.95 F200
X226 Y28.95 I0 J3.95
X225.69 Y28.64 I0 J-0.31 F50
G1 Y28.485
G19 G2 Y28.175 Z-1.755 J0 K0.31
G1 Z5.5 F200
X226.31
Z-0.33
Z-2.02 F50
G3 Y28.485 Z-2.33 J0.31 K0
G1 Y28.64
G17 G3 X226 Y28.95 I-0.31 J0
X226 Y21.05 I0 J-3.95 F200
X226 Y28.95 I0 J3.95
X225.69 Y28.64 I0 J-0.31 F50
G1 Y28.485
G19 G2 Y28.175 Z-2.02 J0 K0.31
G1 Z5.5 F200
X226.31 Y64.175
Z1.7
Z0.01 F50
G3 Y64.485 Z-0.3 J0.31 K0
G1 Y64.64
G17 G3 X226 Y64.95 I-0.31 J0
X226 Y57.05 I0 J-3.95 F200
X226 Y64.95 I0 J3.95
X225.69 Y64.64 I0 J-0.31 F50
G1 Y64.485
G19 G2 Y64.175 Z0.01 J0 K0.31
G1 Z5.5 F200
X226.31
Z1.4
Z-0.29 F50
G3 Y64.485 Z-0.6 J0.31 K0
G1 Y64.64
G17 G3 X226 Y64.95 I-0.31 J0
X226 Y57.05 I0 J-3.95 F200
X226 Y64.95 I0 J3.95
X225.69 Y64.64 I0 J-0.31 F50
G1 Y64.485
G19 G2 Y64.175 Z-0.29 J0 K0.31
G1 Z5.5 F200
X226.31
Z1.1
Z-0.59 F50
G3 Y64.485 Z-0.9 J0.31 K0
G1 Y64.64
G17 G3 X226 Y64.95 I-0.31 J0
X226 Y57.05 I0 J-3.95 F200
X226 Y64.95 I0 J3.95
X225.69 Y64.64 I0 J-0.31 F50
G1 Y64.485
G19 G2 Y64.175 Z-0.59 J0 K0.31
G1 Z5.5 F200
X226.31
Z0.8
Z-0.89 F50
G3 Y64.485 Z-1.2 J0.31 K0
G1 Y64.64
G17 G3 X226 Y64.95 I-0.31 J0
X226 Y57.05 I0 J-3.95 F200
X226 Y64.95 I0 J3.95
X225.69 Y64.64 I0 J-0.31 F50
G1 Y64.485
G19 G2 Y64.175 Z-0.89 J0 K0.31
G1 Z5.5 F200
X226.31
Z0.5
Z-1.19 F50
G3 Y64.485 Z-1.5 J0.31 K0
G1 Y64.64
G17 G3 X226 Y64.95 I-0.31 J0
X226 Y57.05 I0 J-3.95 F200
X226 Y64.95 I0 J3.95
X225.69 Y64.64 I0 J-0.31 F50
G1 Y64.485
G19 G2 Y64.175 Z-1.19 J0 K0.31
G1 Z5.5 F200
X226.31
Z0.2
Z-1.49 F50
G3 Y64.485 Z-1.8 J0.31 K0
G1 Y64.64
G17 G3 X226 Y64.95 I-0.31 J0
X226 Y57.05 I0 J-3.95 F200
X226 Y64.95 I0 J3.95
X225.69 Y64.64 I0 J-0.31 F50
G1 Y64.485
G19 G2 Y64.175 Z-1.49 J0 K0.31
G1 Z5.5 F200
X226.31
Z-0.065
Z-1.755 F50
G3 Y64.485 Z-2.065 J0.31 K0
G1 Y64.64
G17 G3 X226 Y64.95 I-0.31 J0
X226 Y57.05 I0 J-3.95 F200
X226 Y64.95 I0 J3.95
X225.69 Y64.64 I0 J-0.31 F50
G1 Y64.485
G19 G2 Y64.175 Z-1.755 J0 K0.31
G1 Z5.5 F200
X226.31
Z-0.33
Z-2.02 F50
G3 Y64.485 Z-2.33 J0.31 K0
G1 Y64.64
G17 G3 X226 Y64.95 I-0.31 J0
X226 Y57.05 I0 J-3.95 F200
X226 Y64.95 I0 J3.95
X225.69 Y64.64 I0 J-0.31 F50
G1 Y64.485
G19 G2 Y64.175 Z-2.02 J0 K0.31
G1 Z5.5 F200
X194.31
Z1.7
Z0.01 F50
G3 Y64.485 Z-0.3 J0.31 K0
G1 Y64.64
G17 G3 X194 Y64.95 I-0.31 J0
X194 Y57.05 I0 J-3.95 F200
X194 Y64.95 I0 J3.95
X193.69 Y64.64 I0 J-0.31 F50
G1 Y64.485
G19 G2 Y64.175 Z0.01 J0 K0.31
G1 Z5.5 F200
X194.31
Z1.4
Z-0.29 F50
G3 Y64.485 Z-0.6 J0.31 K0
G1 Y64.64
G17 G3 X194 Y64.95 I-0.31 J0
X194 Y57.05 I0 J-3.95 F200
X194 Y64.95 I0 J3.95
X193.69 Y64.64 I0 J-0.31 F50
G1 Y64.485
G19 G2 Y64.175 Z-0.29 J0 K0.31
G1 Z5.5 F200
X194.31
Z1.1
Z-0.59 F50
G3 Y64.485 Z-0.9 J0.31 K0
G1 Y64.64
G17 G3 X194 Y64.95 I-0.31 J0
X194 Y57.05 I0 J-3.95 F200
X194 Y64.95 I0 J3.95
X193.69 Y64.64 I0 J-0.31 F50
G1 Y64.485
G19 G2 Y64.175 Z-0.59 J0 K0.31
G1 Z5.5 F200
X194.31
Z0.8
Z-0.89 F50
G3 Y64.485 Z-1.2 J0.31 K0
G1 Y64.64
G17 G3 X194 Y64.95 I-0.31 J0
X194 Y57.05 I0 J-3.95 F200
X194 Y64.95 I0 J3.95
X193.69 Y64.64 I0 J-0.31 F50
G1 Y64.485
G19 G2 Y64.175 Z-0.89 J0 K0.31
G1 Z5.5 F200
X194.31
Z0.5
Z-1.19 F50
G3 Y64.485 Z-1.5 J0.31 K0
G1 Y64.64
G17 G3 X194 Y64.95 I-0.31 J0
X194 Y57.05 I0 J-3.95 F200
X194 Y64.95 I0 J3.95
X193.69 Y64.64 I0 J-0.31 F50
G1 Y64.485
G19 G2 Y64.175 Z-1.19 J0 K0.31
G1 Z5.5 F200
X194.31
Z0.2
Z-1.49 F50
G3 Y64.485 Z-1.8 J0.31 K0
G1 Y64.64
G17 G3 X194 Y64.95 I-0.31 J0
X194 Y57.05 I0 J-3.95 F200
X194 Y64.95 I0 J3.95
X193.69 Y64.64 I0 J-0.31 F50
G1 Y64.485
G19 G2 Y64.175 Z-1.49 J0 K0.31
G1 Z5.5 F200
X194.31
Z-0.065
Z-1.755 F50
G3 Y64.485 Z-2.065 J0.31 K0
G1 Y64.64
G17 G3 X194 Y64.95 I-0.31 J0
X194 Y57.05 I0 J-3.95 F200
X194 Y64.95 I0 J3.95
X193.69 Y64.64 I0 J-0.31 F50
G1 Y64.485
G19 G2 Y64.175 Z-1.755 J0 K0.31
G1 Z5.5 F200
X194.31
Z-0.33
Z-2.02 F50
G3 Y64.485 Z-2.33 J0.31 K0
G1 Y64.64
G17 G3 X194 Y64.95 I-0.31 J0
X194 Y57.05 I0 J-3.95 F200
X194 Y64.95 I0 J3.95
X193.69 Y64.64 I0 J-0.31 F50
G1 Y64.485
G19 G2 Y64.175 Z-2.02 J0 K0.31
G1 Z15.5 F200
G17
(When using Fusion for Personal Use, the feedrate of rapid)
(moves is reduced to match the feedrate of cutting moves,)
(which can increase machining time. Unrestricted rapid moves)
(are available with a Fusion Subscription.)

(Bore1)
G0 X260.31 Y78.61
G1 Z15.5 F200
Z2
Z0.31 F50
G19 G3 Y78.92 Z0 J0.31 K0
G1 Y79.075
G17 G3 X260 Y79.385 I-0.31 J0
X260 Y76.435 Z-0.318 I0 J-1.475 F200
X260 Y79.385 Z-0.636 I0 J1.475
X260 Y76.435 Z-0.954 I0 J-1.475
X260 Y79.385 Z-1.272 I0 J1.475
X260 Y76.435 Z-1.59 I0 J-1.475
X260 Y79.385 Z-1.908 I0 J1.475
X260 Y76.435 Z-2.226 I0 J-1.475
X260 Y79.385 Z-2.544 I0 J1.475
X260 Y76.435 Z-2.861 I0 J-1.475
X260 Y79.385 Z-3.179 I0 J1.475
X260 Y76.435 Z-3.497 I0 J-1.475
X260 Y79.385 Z-3.815 I0 J1.475
X260 Y76.435 Z-4.133 I0 J-1.475
X260 Y79.385 Z-4.451 I0 J1.475
X260 Y76.435 Z-4.769 I0 J-1.475
X260 Y79.385 Z-5.087 I0 J1.475
X260 Y76.435 Z-5.405 I0 J-1.475
X260 Y79.385 Z-5.723 I0 J1.475
X259.42 Y76.553 Z-6 I0 J-1.475
X260.58 Y79.266 I0.58 J1.356
X259.42 Y76.553 I-0.58 J-1.356
X259.827 Y76.716 I0.122 J0.285 F50
G1 X259.888 Y76.859
X259.915 Y76.922 Z-5.992
X259.941 Y76.983 Z-5.969
X259.964 Y77.037 Z-5.932
X259.983 Y77.082 Z-5.883
X259.998 Y77.116 Z-5.825
X260.007 Y77.137 Z-5.759
X260.01 Y77.144 Z-5.69
Z5.5 F200
X240.31 Y78.61
Z2
Z0.31 F50
G19 G3 Y78.92 Z0 J0.31 K0
G1 Y79.075
G17 G3 X240 Y79.385 I-0.31 J0
X240 Y76.435 Z-0.318 I0 J-1.475 F200
X240 Y79.385 Z-0.636 I0 J1.475
X240 Y76.435 Z-0.954 I0 J-1.475
X240 Y79.385 Z-1.272 I0 J1.475
X240 Y76.435 Z-1.59 I0 J-1.475
X240 Y79.385 Z-1.908 I0 J1.475
X240 Y76.435 Z-2.226 I0 J-1.475
X240 Y79.385 Z-2.544 I0 J1.475
X240 Y76.435 Z-2.861 I0 J-1.475
X240 Y79.385 Z-3.179 I0 J1.475
X240 Y76.435 Z-3.497 I0 J-1.475
X240 Y79.385 Z-3.815 I0 J1.475
X240 Y76.435 Z-4.133 I0 J-1.475
X240 Y79.385 Z-4.451 I0 J1.475
X240 Y76.435 Z-4.769 I0 J-1.475
X240 Y79.385 Z-5.087 I0 J1.475
X240 Y76.435 Z-5.405 I0 J-1.475
X240 Y79.385 Z-5.723 I0 J1.475
X239.42 Y76.553 Z-6 I0 J-1.475
X240.58 Y79.266 I0.58 J1.356
X239.42 Y76.553 I-0.58 J-1.356
X239.827 Y76.716 I0.122 J0.285 F50
G1 X239.888 Y76.859
X239.915 Y76.922 Z-5.992
X239.941 Y76.983 Z-5.969
X239.964 Y77.037 Z-5.932
X239.983 Y77.082 Z-5.883
X239.998 Y77.116 Z-5.825
X240.007 Y77.137 Z-5.759
X240.01 Y77.144 Z-5.69
Z5.5 F200
X180.31 Y78.61
Z2
Z0.31 F50
G19 G3 Y78.92 Z0 J0.31 K0
G1 Y79.075
G17 G3 X180 Y79.385 I-0.31 J0
X180 Y76.435 Z-0.318 I0 J-1.475 F200
X180 Y79.385 Z-0.636 I0 J1.475
X180 Y76.435 Z-0.954 I0 J-1.475
X180 Y79.385 Z-1.272 I0 J1.475
X180 Y76.435 Z-1.59 I0 J-1.475
X180 Y79.385 Z-1.908 I0 J1.475
X180 Y76.435 Z-2.226 I0 J-1.475
X180 Y79.385 Z-2.544 I0 J1.475
X180 Y76.435 Z-2.861 I0 J-1.475
X180 Y79.385 Z-3.179 I0 J1.475
X180 Y76.435 Z-3.497 I0 J-1.475
X180 Y79.385 Z-3.815 I0 J1.475
X180 Y76.435 Z-4.133 I0 J-1.475
X180 Y79.385 Z-4.451 I0 J1.475
X180 Y76.435 Z-4.769 I0 J-1.475
X180 Y79.385 Z-5.087 I0 J1.475
X180 Y76.435 Z-5.405 I0 J-1.475
X180 Y79.385 Z-5.723 I0 J1.475
X179.42 Y76.553 Z-6 I0 J-1.475
X180.58 Y79.266 I0.58 J1.356
X179.42 Y76.553 I-0.58 J-1.356
X179.827 Y76.716 I0.122 J0.285 F50
G1 X179.888 Y76.859
X179.915 Y76.922 Z-5.992
X179.941 Y76.983 Z-5.969
X179.964 Y77.037 Z-5.932
X179.983 Y77.082 Z-5.883
X179.998 Y77.116 Z-5.825
X180.007 Y77.137 Z-5.759
X180.01 Y77.144 Z-5.69
Z5.5 F200
X160.31 Y78.61
Z2
Z0.31 F50
G19 G3 Y78.92 Z0 J0.31 K0
G1 Y79.075
G17 G3 X160 Y79.385 I-0.31 J0
X160 Y76.435 Z-0.318 I0 J-1.475 F200
X160 Y79.385 Z-0.636 I0 J1.475
X160 Y76.435 Z-0.954 I0 J-1.475
X160 Y79.385 Z-1.272 I0 J1.475
X160 Y76.435 Z-1.59 I0 J-1.475
X160 Y79.385 Z-1.908 I0 J1.475
X160 Y76.435 Z-2.226 I0 J-1.475
X160 Y79.385 Z-2.544 I0 J1.475
X160 Y76.435 Z-2.861 I0 J-1.475
X160 Y79.385 Z-3.179 I0 J1.475
X160 Y76.435 Z-3.497 I0 J-1.475
X160 Y79.385 Z-3.815 I0 J1.475
X160 Y76.435 Z-4.133 I0 J-1.475
X160 Y79.385 Z-4.451 I0 J1.475
X160 Y76.435 Z-4.769 I0 J-1.475
X160 Y79.385 Z-5.087 I0 J1.475
X160 Y76.435 Z-5.405 I0 J-1.475
X160 Y79.385 Z-5.723 I0 J1.475
X159.42 Y76.553 Z-6 I0 J-1.475
X160.58 Y79.266 I0.58 J1.356
X159.42 Y76.553 I-0.58 J-1.356
X159.827 Y76.716 I0.122 J0.285 F50
G1 X159.888 Y76.859
X159.915 Y76.922 Z-5.992
X159.941 Y76.983 Z-5.969
X159.964 Y77.037 Z-5.932
X159.983 Y77.082 Z-5.883
X159.998 Y77.116 Z-5.825
X160.007 Y77.137 Z-5.759
X160.01 Y77.144 Z-5.69
Z5.5 F200
X140.31 Y78.61
Z2
Z0.31 F50
G19 G3 Y78.92 Z0 J0.31 K0
G1 Y79.075
G17 G3 X140 Y79.385 I-0.31 J0
X140 Y76.435 Z-0.318 I0 J-1.475 F200
X140 Y79.385 Z-0.636 I0 J1.475
X140 Y76.435 Z-0.954 I0 J-1.475
X140 Y79.385 Z-1.272 I0 J1.475
X140 Y76.435 Z-1.59 I0 J-1.475
X140 Y79.385 Z-1.908 I0 J1.475
X140 Y76.435 Z-2.226 I0 J-1.475
X140 Y79.385 Z-2.544 I0 J1.475
X140 Y76.435 Z-2.861 I0 J-1.475
X140 Y79.385 Z-3.179 I0 J1.475
X140 Y76.435 Z-3.497 I0 J-1.475
X140 Y79.385 Z-3.815 I0 J1.475
X140 Y76.435 Z-4.133 I0 J-1.475
X140 Y79.385 Z-4.451 I0 J1.475
X140 Y76.435 Z-4.769 I0 J-1.475
X140 Y79.385 Z-5.087 I0 J1.475
X140 Y76.435 Z-5.405 I0 J-1.475
X140 Y79.385 Z-5.723 I0 J1.475
X139.42 Y76.553 Z-6 I0 J-1.475
X140.58 Y79.266 I0.58 J1.356
X139.42 Y76.553 I-0.58 J-1.356
X139.827 Y76.716 I0.122 J0.285 F50
G1 X139.888 Y76.859
X139.915 Y76.922 Z-5.992
X139.941 Y76.983 Z-5.969
X139.964 Y77.037 Z-5.932
X139.983 Y77.082 Z-5.883
X139.998 Y77.116 Z-5.825
X140.007 Y77.137 Z-5.759
X140.01 Y77.144 Z-5.69
Z5.5 F200
X120.31 Y78.61
Z2
Z0.31 F50
G19 G3 Y78.92 Z0 J0.31 K0
G1 Y79.075
G17 G3 X120 Y79.385 I-0.31 J0
X120 Y76.435 Z-0.318 I0 J-1.475 F200
X120 Y79.385 Z-0.636 I0 J1.475
X120 Y76.435 Z-0.954 I0 J-1.475
X120 Y79.385 Z-1.272 I0 J1.475
X120 Y76.435 Z-1.59 I0 J-1.475
X120 Y79.385 Z-1.908 I0 J1.475
X120 Y76.435 Z-2.226 I0 J-1.475
X120 Y79.385 Z-2.544 I0 J1.475
X120 Y76.435 Z-2.861 I0 J-1.475
X120 Y79.385 Z-3.179 I0 J1.475
X120 Y76.435 Z-3.497 I0 J-1.475
X120 Y79.385 Z-3.815 I0 J1.475
X120 Y76.435 Z-4.133 I0 J-1.475
X120 Y79.385 Z-4.451 I0 J1.475
X120 Y76.435 Z-4.769 I0 J-1.475
X120 Y79.385 Z-5.087 I0 J1.475
X120 Y76.435 Z-5.405 I0 J-1.475
X120 Y79.385 Z-5.723 I0 J1.475
X119.42 Y76.553 Z-6 I0 J-1.475
X120.58 Y79.266 I0.58 J1.356
X119.42 Y76.553 I-0.58 J-1.356
X119.827 Y76.716 I0.122 J0.285 F50
G1 X119.888 Y76.859
X119.915 Y76.922 Z-5.992
X119.941 Y76.983 Z-5.969
X119.964 Y77.037 Z-5.932
X119.983 Y77.082 Z-5.883
X119.998 Y77.116 Z-5.825
X120.007 Y77.137 Z-5.759
X120.01 Y77.144 Z-5.69
Z5.5 F200
X100.31 Y78.61
Z2
Z0.31 F50
G19 G3 Y78.92 Z0 J0.31 K0
G1 Y79.075
G17 G3 X100 Y79.385 I-0.31 J0
X100 Y76.435 Z-0.318 I0 J-1.475 F200
X100 Y79.385 Z-0.636 I0 J1.475
X100 Y76.435 Z-0.954 I0 J-1.475
X100 Y79.385 Z-1.272 I0 J1.475
X100 Y76.435 Z-1.59 I0 J-1.475
X100 Y79.385 Z-1.908 I0 J1.475
X100 Y76.435 Z-2.226 I0 J-1.475
X100 Y79.385 Z-2.544 I0 J1.475
X100 Y76.435 Z-2.861 I0 J-1.475
X100 Y79.385 Z-3.179 I0 J1.475
X100 Y76.435 Z-3.497 I0 J-1.475
X100 Y79.385 Z-3.815 I0 J1.475
X100 Y76.435 Z-4.133 I0 J-1.475
X100 Y79.385 Z-4.451 I0 J1.475
X100 Y76.435 Z-4.769 I0 J-1.475
X100 Y79.385 Z-5.087 I0 J1.475
X100 Y76.435 Z-5.405 I0 J-1.475
X100 Y79.385 Z-5.723 I0 J1.475
X99.42 Y76.553 Z-6 I0 J-1.475
X100.58 Y79.266 I0.58 J1.356
X99.42 Y76.553 I-0.58 J-1.356
X99.827 Y76.716 I0.122 J0.285 F50
G1 X99.888 Y76.859
X99.915 Y76.922 Z-5.992
X99.941 Y76.983 Z-5.969
X99.964 Y77.037 Z-5.932
X99.983 Y77.082 Z-5.883
X99.998 Y77.116 Z-5.825
X100.007 Y77.137 Z-5.759
X100.01 Y77.144 Z-5.69
Z5.5 F200
X80.31 Y78.61
Z2
Z0.31 F50
G19 G3 Y78.92 Z0 J0.31 K0
G1 Y79.075
G17 G3 X80 Y79.385 I-0.31 J0
X80 Y76.435 Z-0.318 I0 J-1.475 F200
X80 Y79.385 Z-0.636 I0 J1.475
X80 Y76.435 Z-0.954 I0 J-1.475
X80 Y79.385 Z-1.272 I0 J1.475
X80 Y76.435 Z-1.59 I0 J-1.475
X80 Y79.385 Z-1.908 I0 J1.475
X80 Y76.435 Z-2.226 I0 J-1.475
X80 Y79.385 Z-2.544 I0 J1.475
X80 Y76.435 Z-2.861 I0 J-1.475
X80 Y79.385 Z-3.179 I0 J1.475
X80 Y76.435 Z-3.497 I0 J-1.475
X80 Y79.385 Z-3.815 I0 J1.475
X80 Y76.435 Z-4.133 I0 J-1.475
X80 Y79.385 Z-4.451 I0 J1.475
X80 Y76.435 Z-4.769 I0 J-1.475
X80 Y79.385 Z-5.087 I0 J1.475
X80 Y76.435 Z-5.405 I0 J-1.475
X80 Y79.385 Z-5.723 I0 J1.475
X79.42 Y76.553 Z-6 I0 J-1.475
X80.58 Y79.266 I0.58 J1.356
X79.42 Y76.553 I-0.58 J-1.356
X79.827 Y76.716 I0.122 J0.285 F50
G1 X79.888 Y76.859
X79.915 Y76.922 Z-5.992
X79.941 Y76.983 Z-5.969
X79.964 Y77.037 Z-5.932
X79.983 Y77.082 Z-5.883
X79.998 Y77.116 Z-5.825
X80.007 Y77.137 Z-5.759
X80.01 Y77.144 Z-5.69
Z5.5 F200
X60.31 Y78.61
Z2
Z0.31 F50
G19 G3 Y78.92 Z0 J0.31 K0
G1 Y79.075
G17 G3 X60 Y79.385 I-0.31 J0
X60 Y76.435 Z-0.318 I0 J-1.475 F200
X60 Y79.385 Z-0.636 I0 J1.475
X60 Y76.435 Z-0.954 I0 J-1.475
X60 Y79.385 Z-1.272 I0 J1.475
X60 Y76.435 Z-1.59 I0 J-1.475
X60 Y79.385 Z-1.908 I0 J1.475
X60 Y76.435 Z-2.226 I0 J-1.475
X60 Y79.385 Z-2.544 I0 J1.475
X60 Y76.435 Z-2.861 I0 J-1.475
X60 Y79.385 Z-3.179 I0 J1.475
X60 Y76.435 Z-3.497 I0 J-1.475
X60 Y79.385 Z-3.815 I0 J1.475
X60 Y76.435 Z-4.133 I0 J-1.475
X60 Y79.385 Z-4.451 I0 J1.475
X60 Y76.435 Z-4.769 I0 J-1.475
X60 Y79.385 Z-5.087 I0 J1.475
X60 Y76.435 Z-5.405 I0 J-1.475
X60 Y79.385 Z-5.723 I0 J1.475
X59.42 Y76.553 Z-6 I0 J-1.475
X60.58 Y79.266 I0.58 J1.356
X59.42 Y76.553 I-0.58 J-1.356
X59.827 Y76.716 I0.122 J0.285 F50
G1 X59.888 Y76.859
X59.915 Y76.922 Z-5.992
X59.941 Y76.983 Z-5.969
X59.964 Y77.037 Z-5.932
X59.983 Y77.082 Z-5.883
X59.998 Y77.116 Z-5.825
X60.007 Y77.137 Z-5.759
X60.01 Y77.144 Z-5.69
Z5.5 F200
X60.31 Y8.61
Z2
Z0.31 F50
G19 G3 Y8.92 Z0 J0.31 K0
G1 Y9.075
G17 G3 X60 Y9.385 I-0.31 J0
X60 Y6.435 Z-0.318 I0 J-1.475 F200
X60 Y9.385 Z-0.636 I0 J1.475
X60 Y6.435 Z-0.954 I0 J-1.475
X60 Y9.385 Z-1.272 I0 J1.475
X60 Y6.435 Z-1.59 I0 J-1.475
X60 Y9.385 Z-1.908 I0 J1.475
X60 Y6.435 Z-2.226 I0 J-1.475
X60 Y9.385 Z-2.544 I0 J1.475
X60 Y6.435 Z-2.861 I0 J-1.475
X60 Y9.385 Z-3.179 I0 J1.475
X60 Y6.435 Z-3.497 I0 J-1.475
X60 Y9.385 Z-3.815 I0 J1.475
X60 Y6.435 Z-4.133 I0 J-1.475
X60 Y9.385 Z-4.451 I0 J1.475
X60 Y6.435 Z-4.769 I0 J-1.475
X60 Y9.385 Z-5.087 I0 J1.475
X60 Y6.435 Z-5.405 I0 J-1.475
X60 Y9.385 Z-5.723 I0 J1.475
X59.42 Y6.553 Z-6 I0 J-1.475
X60.58 Y9.266 I0.58 J1.356
X59.42 Y6.553 I-0.58 J-1.356
X59.827 Y6.716 I0.122 J0.285 F50
G1 X59.888 Y6.859
X59.915 Y6.922 Z-5.992
X59.941 Y6.983 Z-5.969
X59.964 Y7.037 Z-5.932
X59.983 Y7.082 Z-5.883
X59.998 Y7.116 Z-5.825
X60.007 Y7.137 Z-5.759
X60.01 Y7.144 Z-5.69
Z5.5 F200
X80.31 Y8.61
Z2
Z0.31 F50
G19 G3 Y8.92 Z0 J0.31 K0
G1 Y9.075
G17 G3 X80 Y9.385 I-0.31 J0
X80 Y6.435 Z-0.318 I0 J-1.475 F200
X80 Y9.385 Z-0.636 I0 J1.475
X80 Y6.435 Z-0.954 I0 J-1.475
X80 Y9.385 Z-1.272 I0 J1.475
X80 Y6.435 Z-1.59 I0 J-1.475
X80 Y9.385 Z-1.908 I0 J1.475
X80 Y6.435 Z-2.226 I0 J-1.475
X80 Y9.385 Z-2.544 I0 J1.475
X80 Y6.435 Z-2.861 I0 J-1.475
X80 Y9.385 Z-3.179 I0 J1.475
X80 Y6.435 Z-3.497 I0 J-1.475
X80 Y9.385 Z-3.815 I0 J1.475
X80 Y6.435 Z-4.133 I0 J-1.475
X80 Y9.385 Z-4.451 I0 J1.475
X80 Y6.435 Z-4.769 I0 J-1.475
X80 Y9.385 Z-5.087 I0 J1.475
X80 Y6.435 Z-5.405 I0 J-1.475
X80 Y9.385 Z-5.723 I0 J1.475
X79.42 Y6.553 Z-6 I0 J-1.475
X80.58 Y9.266 I0.58 J1.356
X79.42 Y6.553 I-0.58 J-1.356
X79.827 Y6.716 I0.122 J0.285 F50
G1 X79.888 Y6.859
X79.915 Y6.922 Z-5.992
X79.941 Y6.983 Z-5.969
X79.964 Y7.037 Z-5.932
X79.983 Y7.082 Z-5.883
X79.998 Y7.116 Z-5.825
X80.007 Y7.137 Z-5.759
X80.01 Y7.144 Z-5.69
Z5.5 F200
X100.31 Y8.61
Z2
Z0.31 F50
G19 G3 Y8.92 Z0 J0.31 K0
G1 Y9.075
G17 G3 X100 Y9.385 I-0.31 J0
X100 Y6.435 Z-0.318 I0 J-1.475 F200
X100 Y9.385 Z-0.636 I0 J1.475
X100 Y6.435 Z-0.954 I0 J-1.475
X100 Y9.385 Z-1.272 I0 J1.475
X100 Y6.435 Z-1.59 I0 J-1.475
X100 Y9.385 Z-1.908 I0 J1.475
X100 Y6.435 Z-2.226 I0 J-1.475
X100 Y9.385 Z-2.544 I0 J1.475
X100 Y6.435 Z-2.861 I0 J-1.475
X100 Y9.385 Z-3.179 I0 J1.475
X100 Y6.435 Z-3.497 I0 J-1.475
X100 Y9.385 Z-3.815 I0 J1.475
X100 Y6.435 Z-4.133 I0 J-1.475
X100 Y9.385 Z-4.451 I0 J1.475
X100 Y6.435 Z-4.769 I0 J-1.475
X100 Y9.385 Z-5.087 I0 J1.475
X100 Y6.435 Z-5.405 I0 J-1.475
X100 Y9.385 Z-5.723 I0 J1.475
X99.42 Y6.553 Z-6 I0 J-1.475
X100.58 Y9.266 I0.58 J1.356
X99.42 Y6.553 I-0.58 J-1.356
X99.827 Y6.716 I0.122 J0.285 F50
G1 X99.888 Y6.859
X99.915 Y6.922 Z-5.992
X99.941 Y6.983 Z-5.969
X99.964 Y7.037 Z-5.932
X99.983 Y7.082 Z-5.883
X99.998 Y7.116 Z-5.825
X100.007 Y7.137 Z-5.759
X100.01 Y7.144 Z-5.69
Z5.5 F200
X120.31 Y8.61
Z2
Z0.31 F50
G19 G3 Y8.92 Z0 J0.31 K0
G1 Y9.075
G17 G3 X120 Y9.385 I-0.31 J0
X120 Y6.435 Z-0.318 I0 J-1.475 F200
X120 Y9.385 Z-0.636 I0 J1.475
X120 Y6.435 Z-0.954 I0 J-1.475
X120 Y9.385 Z-1.272 I0 J1.475
X120 Y6.435 Z-1.59 I0 J-1.475
X120 Y9.385 Z-1.908 I0 J1.475
X120 Y6.435 Z-2.226 I0 J-1.475
X120 Y9.385 Z-2.544 I0 J1.475
X120 Y6.435 Z-2.861 I0 J-1.475
X120 Y9.385 Z-3.179 I0 J1.475
X120 Y6.435 Z-3.497 I0 J-1.475
X120 Y9.385 Z-3.815 I0 J1.475
X120 Y6.435 Z-4.133 I0 J-1.475
X120 Y9.385 Z-4.451 I0 J1.475
X120 Y6.435 Z-4.769 I0 J-1.475
X120 Y9.385 Z-5.087 I0 J1.475
X120 Y6.435 Z-5.405 I0 J-1.475
X120 Y9.385 Z-5.723 I0 J1.475
X119.42 Y6.553 Z-6 I0 J-1.475
X120.58 Y9.266 I0.58 J1.356
X119.42 Y6.553 I-0.58 J-1.356
X119.827 Y6.716 I0.122 J0.285 F50
G1 X119.888 Y6.859
X119.915 Y6.922 Z-5.992
X119.941 Y6.983 Z-5.969
X119.964 Y7.037 Z-5.932
X119.983 Y7.082 Z-5.883
X119.998 Y7.116 Z-5.825
X120.007 Y7.137 Z-5.759
X120.01 Y7.144 Z-5.69
Z5.5 F200
X140.31 Y8.61
Z2
Z0.31 F50
G19 G3 Y8.92 Z0 J0.31 K0
G1 Y9.075
G17 G3 X140 Y9.385 I-0.31 J0
X140 Y6.435 Z-0.318 I0 J-1.475 F200
X140 Y9.385 Z-0.636 I0 J1.475
X140 Y6.435 Z-0.954 I0 J-1.475
X140 Y9.385 Z-1.272 I0 J1.475
X140 Y6.435 Z-1.59 I0 J-1.475
X140 Y9.385 Z-1.908 I0 J1.475
X140 Y6.435 Z-2.226 I0 J-1.475
X140 Y9.385 Z-2.544 I0 J1.475
X140 Y6.435 Z-2.861 I0 J-1.475
X140 Y9.385 Z-3.179 I0 J1.475
X140 Y6.435 Z-3.497 I0 J-1.475
X140 Y9.385 Z-3.815 I0 J1.475
X140 Y6.435 Z-4.133 I0 J-1.475
X140 Y9.385 Z-4.451 I0 J1.475
X140 Y6.435 Z-4.769 I0 J-1.475
X140 Y9.385 Z-5.087 I0 J1.475
X140 Y6.435 Z-5.405 I0 J-1.475
X140 Y9.385 Z-5.723 I0 J1.475
X139.42 Y6.553 Z-6 I0 J-1.475
X140.58 Y9.266 I0.58 J1.356
X139.42 Y6.553 I-0.58 J-1.356
X139.827 Y6.716 I0.122 J0.285 F50
G1 X139.888 Y6.859
X139.915 Y6.922 Z-5.992
X139.941 Y6.983 Z-5.969
X139.964 Y7.037 Z-5.932
X139.983 Y7.082 Z-5.883
X139.998 Y7.116 Z-5.825
X140.007 Y7.137 Z-5.759
X140.01 Y7.144 Z-5.69
Z5.5 F200
X160.31 Y8.61
Z2
Z0.31 F50
G19 G3 Y8.92 Z0 J0.31 K0
G1 Y9.075
G17 G3 X160 Y9.385 I-0.31 J0
X160 Y6.435 Z-0.318 I0 J-1.475 F200
X160 Y9.385 Z-0.636 I0 J1.475
X160 Y6.435 Z-0.954 I0 J-1.475
X160 Y9.385 Z-1.272 I0 J1.475
X160 Y6.435 Z-1.59 I0 J-1.475
X160 Y9.385 Z-1.908 I0 J1.475
X160 Y6.435 Z-2.226 I0 J-1.475
X160 Y9.385 Z-2.544 I0 J1.475
X160 Y6.435 Z-2.861 I0 J-1.475
X160 Y9.385 Z-3.179 I0 J1.475
X160 Y6.435 Z-3.497 I0 J-1.475
X160 Y9.385 Z-3.815 I0 J1.475
X160 Y6.435 Z-4.133 I0 J-1.475
X160 Y9.385 Z-4.451 I0 J1.475
X160 Y6.435 Z-4.769 I0 J-1.475
X160 Y9.385 Z-5.087 I0 J1.475
X160 Y6.435 Z-5.405 I0 J-1.475
X160 Y9.385 Z-5.723 I0 J1.475
X159.42 Y6.553 Z-6 I0 J-1.475
X160.58 Y9.266 I0.58 J1.356
X159.42 Y6.553 I-0.58 J-1.356
X159.827 Y6.716 I0.122 J0.285 F50
G1 X159.888 Y6.859
X159.915 Y6.922 Z-5.992
X159.941 Y6.983 Z-5.969
X159.964 Y7.037 Z-5.932
X159.983 Y7.082 Z-5.883
X159.998 Y7.116 Z-5.825
X160.007 Y7.137 Z-5.759
X160.01 Y7.144 Z-5.69
Z5.5 F200
X180.31 Y8.61
Z2
Z0.31 F50
G19 G3 Y8.92 Z0 J0.31 K0
G1 Y9.075
G17 G3 X180 Y9.385 I-0.31 J0
X180 Y6.435 Z-0.318 I0 J-1.475 F200
X180 Y9.385 Z-0.636 I0 J1.475
X180 Y6.435 Z-0.954 I0 J-1.475
X180 Y9.385 Z-1.272 I0 J1.475
X180 Y6.435 Z-1.59 I0 J-1.475
X180 Y9.385 Z-1.908 I0 J1.475
X180 Y6.435 Z-2.226 I0 J-1.475
X180 Y9.385 Z-2.544 I0 J1.475
X180 Y6.435 Z-2.861 I0 J-1.475
X180 Y9.385 Z-3.179 I0 J1.475
X180 Y6.435 Z-3.497 I0 J-1.475
X180 Y9.385 Z-3.815 I0 J1.475
X180 Y6.435 Z-4.133 I0 J-1.475
X180 Y9.385 Z-4.451 I0 J1.475
X180 Y6.435 Z-4.769 I0 J-1.475
X180 Y9.385 Z-5.087 I0 J1.475
X180 Y6.435 Z-5.405 I0 J-1.475
X180 Y9.385 Z-5.723 I0 J1.475
X179.42 Y6.553 Z-6 I0 J-1.475
X180.58 Y9.266 I0.58 J1.356
X179.42 Y6.553 I-0.58 J-1.356
X179.827 Y6.716 I0.122 J0.285 F50
G1 X179.888 Y6.859
X179.915 Y6.922 Z-5.992
X179.941 Y6.983 Z-5.969
X179.964 Y7.037 Z-5.932
X179.983 Y7.082 Z-5.883
X179.998 Y7.116 Z-5.825
X180.007 Y7.137 Z-5.759
X180.01 Y7.144 Z-5.69
Z5.5 F200
X240.31 Y8.61
Z2
Z0.31 F50
G19 G3 Y8.92 Z0 J0.31 K0
G1 Y9.075
G17 G3 X240 Y9.385 I-0.31 J0
X240 Y6.435 Z-0.318 I0 J-1.475 F200
X240 Y9.385 Z-0.636 I0 J1.475
X240 Y6.435 Z-0.954 I0 J-1.475
X240 Y9.385 Z-1.272 I0 J1.475
X240 Y6.435 Z-1.59 I0 J-1.475
X240 Y9.385 Z-1.908 I0 J1.475
X240 Y6.435 Z-2.226 I0 J-1.475
X240 Y9.385 Z-2.544 I0 J1.475
X240 Y6.435 Z-2.861 I0 J-1.475
X240 Y9.385 Z-3.179 I0 J1.475
X240 Y6.435 Z-3.497 I0 J-1.475
X240 Y9.385 Z-3.815 I0 J1.475
X240 Y6.435 Z-4.133 I0 J-1.475
X240 Y9.385 Z-4.451 I0 J1.475
X240 Y6.435 Z-4.769 I0 J-1.475
X240 Y9.385 Z-5.087 I0 J1.475
X240 Y6.435 Z-5.405 I0 J-1.475
X240 Y9.385 Z-5.723 I0 J1.475
X239.42 Y6.553 Z-6 I0 J-1.475
X240.58 Y9.266 I0.58 J1.356
X239.42 Y6.553 I-0.58 J-1.356
X239.827 Y6.716 I0.122 J0.285 F50
G1 X239.888 Y6.859
X239.915 Y6.922 Z-5.992
X239.941 Y6.983 Z-5.969
X239.964 Y7.037 Z-5.932
X239.983 Y7.082 Z-5.883
X239.998 Y7.116 Z-5.825
X240.007 Y7.137 Z-5.759
X240.01 Y7.144 Z-5.69
Z5.5 F200
X260.31 Y8.61
Z2
Z0.31 F50
G19 G3 Y8.92 Z0 J0.31 K0
G1 Y9.075
G17 G3 X260 Y9.385 I-0.31 J0
X260 Y6.435 Z-0.318 I0 J-1.475 F200
X260 Y9.385 Z-0.636 I0 J1.475
X260 Y6.435 Z-0.954 I0 J-1.475
X260 Y9.385 Z-1.272 I0 J1.475
X260 Y6.435 Z-1.59 I0 J-1.475
X260 Y9.385 Z-1.908 I0 J1.475
X260 Y6.435 Z-2.226 I0 J-1.475
X260 Y9.385 Z-2.544 I0 J1.475
X260 Y6.435 Z-2.861 I0 J-1.475
X260 Y9.385 Z-3.179 I0 J1.475
X260 Y6.435 Z-3.497 I0 J-1.475
X260 Y9.385 Z-3.815 I0 J1.475
X260 Y6.435 Z-4.133 I0 J-1.475
X260 Y9.385 Z-4.451 I0 J1.475
X260 Y6.435 Z-4.769 I0 J-1.475
X260 Y9.385 Z-5.087 I0 J1.475
X260 Y6.435 Z-5.405 I0 J-1.475
X260 Y9.385 Z-5.723 I0 J1.475
X259.42 Y6.553 Z-6 I0 J-1.475
X260.58 Y9.266 I0.58 J1.356
X259.42 Y6.553 I-0.58 J-1.356
X259.827 Y6.716 I0.122 J0.285 F50
G1 X259.888 Y6.859
X259.915 Y6.922 Z-5.992
X259.941 Y6.983 Z-5.969
X259.964 Y7.037 Z-5.932
X259.983 Y7.082 Z-5.883
X259.998 Y7.116 Z-5.825
X260.007 Y7.137 Z-5.759
X260.01 Y7.144 Z-5.69
Z15.5 F200
(When using Fusion for Personal Use, the feedrate of rapid)
(moves is reduced to match the feedrate of cutting moves,)
(which can increase machining time. Unrestricted rapid moves)
(are available with a Fusion Subscription.)

(2D Contour9)
G0 X-1.853 Y89.274
G1 Z6.5 F200
Z1.12
Z-0.19 F50
X-1.847 Y89.269 Z-0.259
X-1.831 Y89.253 Z-0.325
X-1.805 Y89.226 Z-0.383
X-1.77 Y89.192 Z-0.432
X-1.729 Y89.15 Z-0.469
X-1.682 Y89.104 Z-0.492
X-1.633 Y89.055 Z-0.5
X-0.219 Y87.641
X-0.172 Y87.602
X-0.119 Y87.574
X-0.06 Y87.556
X0 Y87.55
X270 F200
G2 X271.55 Y86 I0 J-1.55
G1 Y0
G2 X270 Y-1.55 I-1.55 J0
G1 X0
G2 X-1.55 Y0 I0 J1.55
G1 Y86
G2 X0 Y87.55 I1.55 J0
G1 X0.06 Y87.556 F50
X0.119 Y87.574
X0.172 Y87.602
X0.219 Y87.641
X1.633 Y89.055
X1.682 Y89.104 Z-0.492
X1.729 Y89.15 Z-0.469
X1.77 Y89.192 Z-0.432
X1.805 Y89.226 Z-0.383
X1.831 Y89.253 Z-0.325
X1.847 Y89.269 Z-0.259
X1.853 Y89.274 Z-0.19
Z1.5 F200
X-1.853
Z0.83
Z0.12 F50
Z-1.19
X-1.847 Y89.269 Z-1.259
X-1.831 Y89.253 Z-1.325
X-1.805 Y89.226 Z-1.383
X-1.77 Y89.192 Z-1.432
X-1.729 Y89.15 Z-1.469
X-1.682 Y89.104 Z-1.492
X-1.633 Y89.055 Z-1.5
X-0.219 Y87.641
X-0.172 Y87.602
X-0.119 Y87.574
X-0.06 Y87.556
X0 Y87.55
X270 F200
G2 X271.55 Y86 I0 J-1.55
G1 Y0
G2 X270 Y-1.55 I-1.55 J0
G1 X0
G2 X-1.55 Y0 I0 J1.55
G1 Y86
G2 X0 Y87.55 I1.55 J0
G1 X0.06 Y87.556 F50
X0.119 Y87.574
X0.172 Y87.602
X0.219 Y87.641
X1.633 Y89.055
X1.682 Y89.104 Z-1.492
X1.729 Y89.15 Z-1.469
X1.77 Y89.192 Z-1.432
X1.805 Y89.226 Z-1.383
X1.831 Y89.253 Z-1.325
X1.847 Y89.269 Z-1.259
X1.853 Y89.274 Z-1.19
Z1.5 F200
X-1.853
Z0.83
Z-0.88 F50
Z-2.19
X-1.847 Y89.269 Z-2.259
X-1.831 Y89.253 Z-2.325
X-1.805 Y89.226 Z-2.383
X-1.77 Y89.192 Z-2.432
X-1.729 Y89.15 Z-2.469
X-1.682 Y89.104 Z-2.492
X-1.633 Y89.055 Z-2.5
X-0.219 Y87.641
X-0.172 Y87.602
X-0.119 Y87.574
X-0.06 Y87.556
X0 Y87.55
X270 F200
G2 X271.55 Y86 I0 J-1.55
G1 Y0
G2 X270 Y-1.55 I-1.55 J0
G1 X0
G2 X-1.55 Y0 I0 J1.55
G1 Y86
G2 X0 Y87.55 I1.55 J0
G1 X0.06 Y87.556 F50
X0.119 Y87.574
X0.172 Y87.602
X0.219 Y87.641
X1.633 Y89.055
X1.682 Y89.104 Z-2.492
X1.729 Y89.15 Z-2.469
X1.77 Y89.192 Z-2.432
X1.805 Y89.226 Z-2.383
X1.831 Y89.253 Z-2.325
X1.847 Y89.269 Z-2.259
X1.853 Y89.274 Z-2.19
Z1.5 F200
X-1.853
Z0.83
Z-1.88 F50
Z-3.19
X-1.847 Y89.269 Z-3.259
X-1.831 Y89.253 Z-3.325
X-1.805 Y89.226 Z-3.383
X-1.77 Y89.192 Z-3.432
X-1.729 Y89.15 Z-3.469
X-1.682 Y89.104 Z-3.492
X-1.633 Y89.055 Z-3.5
X-0.219 Y87.641
X-0.172 Y87.602
X-0.119 Y87.574
X-0.06 Y87.556
X0 Y87.55
X270 F200
G2 X271.55 Y86 I0 J-1.55
G1 Y0
G2 X270 Y-1.55 I-1.55 J0
G1 X0
G2 X-1.55 Y0 I0 J1.55
G1 Y86
G2 X0 Y87.55 I1.55 J0
G1 X0.06 Y87.556 F50
X0.119 Y87.574
X0.172 Y87.602
X0.219 Y87.641
X1.633 Y89.055
X1.682 Y89.104 Z-3.492
X1.729 Y89.15 Z-3.469
X1.77 Y89.192 Z-3.432
X1.805 Y89.226 Z-3.383
X1.831 Y89.253 Z-3.325
X1.847 Y89.269 Z-3.259
X1.853 Y89.274 Z-3.19
Z1.5 F200
X-1.853
Z0.83
Z-2.88 F50
Z-4.19
X-1.847 Y89.269 Z-4.259
X-1.831 Y89.253 Z-4.325
X-1.805 Y89.226 Z-4.383
X-1.77 Y89.192 Z-4.432
X-1.729 Y89.15 Z-4.469
X-1.682 Y89.104 Z-4.492
X-1.633 Y89.055 Z-4.5
X-0.219 Y87.641
X-0.172 Y87.602
X-0.119 Y87.574
X-0.06 Y87.556
X0 Y87.55
X270 F200
G2 X271.55 Y86 I0 J-1.55
G1 Y0
G2 X270 Y-1.55 I-1.55 J0
G1 X0
G2 X-1.55 Y0 I0 J1.55
G1 Y86
G2 X0 Y87.55 I1.55 J0
G1 X0.06 Y87.556 F50
X0.119 Y87.574
X0.172 Y87.602
X0.219 Y87.641
X1.633 Y89.055
X1.682 Y89.104 Z-4.492
X1.729 Y89.15 Z-4.469
X1.77 Y89.192 Z-4.432
X1.805 Y89.226 Z-4.383
X1.831 Y89.253 Z-4.325
X1.847 Y89.269 Z-4.259
X1.853 Y89.274 Z-4.19
Z1.5 F200
X-1.853
Z0.83
Z-3.88 F50
Z-5.19
X-1.847 Y89.269 Z-5.259
X-1.831 Y89.253 Z-5.325
X-1.805 Y89.226 Z-5.383
X-1.77 Y89.192 Z-5.432
X-1.729 Y89.15 Z-5.469
X-1.682 Y89.104 Z-5.492
X-1.633 Y89.055 Z-5.5
X-0.219 Y87.641
X-0.172 Y87.602
X-0.119 Y87.574
X-0.06 Y87.556
X0 Y87.55
X270 F200
G2 X271.55 Y86 I0 J-1.55
G1 Y0
G2 X270 Y-1.55 I-1.55 J0
G1 X0
G2 X-1.55 Y0 I0 J1.55
G1 Y86
G2 X0 Y87.55 I1.55 J0
G1 X0.06 Y87.556 F50
X0.119 Y87.574
X0.172 Y87.602
X0.219 Y87.641
X1.633 Y89.055
X1.682 Y89.104 Z-5.492
X1.729 Y89.15 Z-5.469
X1.77 Y89.192 Z-5.432
X1.805 Y89.226 Z-5.383
X1.831 Y89.253 Z-5.325
X1.847 Y89.269 Z-5.259
X1.853 Y89.274 Z-5.19
Z1.5 F200
X-1.853
Z0.83
Z-4.88 F50
Z-5.69
X-1.847 Y89.269 Z-5.759
X-1.831 Y89.253 Z-5.825
X-1.805 Y89.226 Z-5.883
X-1.77 Y89.192 Z-5.932
X-1.729 Y89.15 Z-5.969
X-1.682 Y89.104 Z-5.992
X-1.633 Y89.055 Z-6
X-0.219 Y87.641
X-0.172 Y87.602
X-0.119 Y87.574
X-0.06 Y87.556
X0 Y87.55
X270 F200
G2 X271.55 Y86 I0 J-1.55
G1 Y0
G2 X270 Y-1.55 I-1.55 J0
G1 X0
G2 X-1.55 Y0 I0 J1.55
G1 Y86
G2 X0 Y87.55 I1.55 J0
G1 X0.06 Y87.556 F50
X0.119 Y87.574
X0.172 Y87.602
X0.219 Y87.641
X1.633 Y89.055
X1.682 Y89.104 Z-5.992
X1.729 Y89.15 Z-5.969
X1.77 Y89.192 Z-5.932
X1.805 Y89.226 Z-5.883
X1.831 Y89.253 Z-5.825
X1.847 Y89.269 Z-5.759
X1.853 Y89.274 Z-5.69
Z6.5 F200

M9
M5
M30
