(z_axis_mount)
(Machine)
(  vendor: Autodesk)
(  model: Generic 3-axis)
(  description: This machine has XYZ axis on the Head)
(T1 D=4 CR=0 - ZMIN=-6 - flat end mill)
G90 G94
G17
G21
(-Attention- Property Safe Retracts is set to Clearance Height.)
(Ensure the clearance height will clear the part and or fixtures.)
(Raise the Z-axis to a safe height before starting the program.)
(When using Fusion for Personal Use, the feedrate of rapid)
(moves is reduced to match the feedrate of cutting moves,)
(which can increase machining time. Unrestricted rapid moves)
(are available with a Fusion Subscription.)

(Bore2)
T1
S16000 M3
G17 G90 G94
G54
M8
G0 X194.4 Y24.9
Z15.5
G1 Z2.5 F150
Z0.9 F50
G19 G3 Y25.3 Z0.5 J0.4 K0
G1 Y25.5
G17 G3 X194 Y25.9 I-0.4 J0
X194 Y24.1 Z0.297 I0 J-0.9 F150
X194 Y25.9 Z0.094 I0 J0.9
X194 Y24.1 Z-0.108 I0 J-0.9
X194 Y25.9 Z-0.311 I0 J0.9
X194 Y24.1 Z-0.514 I0 J-0.9
X194 Y25.9 Z-0.717 I0 J0.9
X194 Y24.1 Z-0.92 I0 J-0.9
X194 Y25.9 Z-1.122 I0 J0.9
X194 Y24.1 Z-1.325 I0 J-0.9
X194 Y25.9 Z-1.528 I0 J0.9
X194 Y24.1 Z-1.731 I0 J-0.9
X194 Y25.9 Z-1.933 I0 J0.9
X194 Y24.1 Z-2.136 I0 J-0.9
X194 Y25.9 Z-2.339 I0 J0.9
X194 Y24.1 Z-2.542 I0 J-0.9
X194 Y25.9 Z-2.745 I0 J0.9
X194 Y24.1 Z-2.947 I0 J-0.9
X194 Y25.9 Z-3.15 I0 J0.9
X194 Y24.1 Z-3.353 I0 J-0.9
X194 Y25.9 Z-3.556 I0 J0.9
X194 Y24.1 Z-3.759 I0 J-0.9
X194 Y25.9 Z-3.961 I0 J0.9
X194 Y24.1 Z-4.164 I0 J-0.9
X194 Y25.9 Z-4.367 I0 J0.9
X194 Y24.1 Z-4.57 I0 J-0.9
X194 Y25.9 Z-4.772 I0 J0.9
X194 Y24.1 Z-4.975 I0 J-0.9
X194 Y25.9 Z-5.178 I0 J0.9
X194 Y24.1 Z-5.381 I0 J-0.9
X194 Y25.9 Z-5.584 I0 J0.9
X194 Y24.1 Z-5.786 I0 J-0.9
X194.897 Y25.075 Z-5.893 I0 J0.9
X193.85 Y25.887 Z-6 I-0.897 J-0.075
X194.15 Y24.113 I0.15 J-0.887
X193.85 Y25.887 I-0.15 J0.887
X193.522 Y25.426 I0.067 J-0.394
G1 X193.556 Y25.229
X193.569 Y25.152 Z-5.992
X193.581 Y25.078 Z-5.97
X193.593 Y25.01 Z-5.933
X193.603 Y24.95 Z-5.883
X193.611 Y24.901 Z-5.822
X193.617 Y24.865 Z-5.753
X193.621 Y24.842 Z-5.678
X193.622 Y24.835 Z-5.6
Z5.5
X226.4 Y24.9
Z2.5
Z0.9 F50
G19 G3 Y25.3 Z0.5 J0.4 K0
G1 Y25.5
G17 G3 X226 Y25.9 I-0.4 J0
X226 Y24.1 Z0.297 I0 J-0.9 F150
X226 Y25.9 Z0.094 I0 J0.9
X226 Y24.1 Z-0.108 I0 J-0.9
X226 Y25.9 Z-0.311 I0 J0.9
X226 Y24.1 Z-0.514 I0 J-0.9
X226 Y25.9 Z-0.717 I0 J0.9
X226 Y24.1 Z-0.92 I0 J-0.9
X226 Y25.9 Z-1.122 I0 J0.9
X226 Y24.1 Z-1.325 I0 J-0.9
X226 Y25.9 Z-1.528 I0 J0.9
X226 Y24.1 Z-1.731 I0 J-0.9
X226 Y25.9 Z-1.933 I0 J0.9
X226 Y24.1 Z-2.136 I0 J-0.9
X226 Y25.9 Z-2.339 I0 J0.9
X226 Y24.1 Z-2.542 I0 J-0.9
X226 Y25.9 Z-2.745 I0 J0.9
X226 Y24.1 Z-2.947 I0 J-0.9
X226 Y25.9 Z-3.15 I0 J0.9
X226 Y24.1 Z-3.353 I0 J-0.9
X226 Y25.9 Z-3.556 I0 J0.9
X226 Y24.1 Z-3.759 I0 J-0.9
X226 Y25.9 Z-3.961 I0 J0.9
X226 Y24.1 Z-4.164 I0 J-0.9
X226 Y25.9 Z-4.367 I0 J0.9
X226 Y24.1 Z-4.57 I0 J-0.9
X226 Y25.9 Z-4.772 I0 J0.9
X226 Y24.1 Z-4.975 I0 J-0.9
X226 Y25.9 Z-5.178 I0 J0.9
X226 Y24.1 Z-5.381 I0 J-0.9
X226 Y25.9 Z-5.584 I0 J0.9
X226 Y24.1 Z-5.786 I0 J-0.9
X226.897 Y25.075 Z-5.893 I0 J0.9
X225.85 Y25.887 Z-6 I-0.897 J-0.075
X226.15 Y24.113 I0.15 J-0.887
X225.85 Y25.887 I-0.15 J0.887
X225.522 Y25.426 I0.067 J-0.394
G1 X225.556 Y25.229
X225.569 Y25.152 Z-5.992
X225.581 Y25.078 Z-5.97
X225.593 Y25.01 Z-5.933
X225.603 Y24.95 Z-5.883
X225.611 Y24.901 Z-5.822
X225.617 Y24.865 Z-5.753
X225.621 Y24.842 Z-5.678
X225.622 Y24.835 Z-5.6
Z5.5
X226.4 Y60.9
Z2.5
Z0.9 F50
G19 G3 Y61.3 Z0.5 J0.4 K0
G1 Y61.5
G17 G3 X226 Y61.9 I-0.4 J0
X226 Y60.1 Z0.297 I0 J-0.9 F150
X226 Y61.9 Z0.094 I0 J0.9
X226 Y60.1 Z-0.108 I0 J-0.9
X226 Y61.9 Z-0.311 I0 J0.9
X226 Y60.1 Z-0.514 I0 J-0.9
X226 Y61.9 Z-0.717 I0 J0.9
X226 Y60.1 Z-0.92 I0 J-0.9
X226 Y61.9 Z-1.122 I0 J0.9
X226 Y60.1 Z-1.325 I0 J-0.9
X226 Y61.9 Z-1.528 I0 J0.9
X226 Y60.1 Z-1.731 I0 J-0.9
X226 Y61.9 Z-1.933 I0 J0.9
X226 Y60.1 Z-2.136 I0 J-0.9
X226 Y61.9 Z-2.339 I0 J0.9
X226 Y60.1 Z-2.542 I0 J-0.9
X226 Y61.9 Z-2.745 I0 J0.9
X226 Y60.1 Z-2.947 I0 J-0.9
X226 Y61.9 Z-3.15 I0 J0.9
X226 Y60.1 Z-3.353 I0 J-0.9
X226 Y61.9 Z-3.556 I0 J0.9
X226 Y60.1 Z-3.759 I0 J-0.9
X226 Y61.9 Z-3.961 I0 J0.9
X226 Y60.1 Z-4.164 I0 J-0.9
X226 Y61.9 Z-4.367 I0 J0.9
X226 Y60.1 Z-4.57 I0 J-0.9
X226 Y61.9 Z-4.772 I0 J0.9
X226 Y60.1 Z-4.975 I0 J-0.9
X226 Y61.9 Z-5.178 I0 J0.9
X226 Y60.1 Z-5.381 I0 J-0.9
X226 Y61.9 Z-5.584 I0 J0.9
X226 Y60.1 Z-5.786 I0 J-0.9
X226.897 Y61.075 Z-5.893 I0 J0.9
X225.85 Y61.887 Z-6 I-0.897 J-0.075
X226.15 Y60.113 I0.15 J-0.887
X225.85 Y61.887 I-0.15 J0.887
X225.522 Y61.426 I0.067 J-0.394
G1 X225.556 Y61.229
X225.569 Y61.152 Z-5.992
X225.581 Y61.078 Z-5.97
X225.593 Y61.01 Z-5.933
X225.603 Y60.95 Z-5.883
X225.611 Y60.901 Z-5.822
X225.617 Y60.865 Z-5.753
X225.621 Y60.842 Z-5.678
X225.622 Y60.835 Z-5.6
Z5.5
X194.4 Y60.9
Z2.5
Z0.9 F50
G19 G3 Y61.3 Z0.5 J0.4 K0
G1 Y61.5
G17 G3 X194 Y61.9 I-0.4 J0
X194 Y60.1 Z0.297 I0 J-0.9 F150
X194 Y61.9 Z0.094 I0 J0.9
X194 Y60.1 Z-0.108 I0 J-0.9
X194 Y61.9 Z-0.311 I0 J0.9
X194 Y60.1 Z-0.514 I0 J-0.9
X194 Y61.9 Z-0.717 I0 J0.9
X194 Y60.1 Z-0.92 I0 J-0.9
X194 Y61.9 Z-1.122 I0 J0.9
X194 Y60.1 Z-1.325 I0 J-0.9
X194 Y61.9 Z-1.528 I0 J0.9
X194 Y60.1 Z-1.731 I0 J-0.9
X194 Y61.9 Z-1.933 I0 J0.9
X194 Y60.1 Z-2.136 I0 J-0.9
X194 Y61.9 Z-2.339 I0 J0.9
X194 Y60.1 Z-2.542 I0 J-0.9
X194 Y61.9 Z-2.745 I0 J0.9
X194 Y60.1 Z-2.947 I0 J-0.9
X194 Y61.9 Z-3.15 I0 J0.9
X194 Y60.1 Z-3.353 I0 J-0.9
X194 Y61.9 Z-3.556 I0 J0.9
X194 Y60.1 Z-3.759 I0 J-0.9
X194 Y61.9 Z-3.961 I0 J0.9
X194 Y60.1 Z-4.164 I0 J-0.9
X194 Y61.9 Z-4.367 I0 J0.9
X194 Y60.1 Z-4.57 I0 J-0.9
X194 Y61.9 Z-4.772 I0 J0.9
X194 Y60.1 Z-4.975 I0 J-0.9
X194 Y61.9 Z-5.178 I0 J0.9
X194 Y60.1 Z-5.381 I0 J-0.9
X194 Y61.9 Z-5.584 I0 J0.9
X194 Y60.1 Z-5.786 I0 J-0.9
X194.897 Y61.075 Z-5.893 I0 J0.9
X193.85 Y61.887 Z-6 I-0.897 J-0.075
X194.15 Y60.113 I0.15 J-0.887
X193.85 Y61.887 I-0.15 J0.887
X193.522 Y61.426 I0.067 J-0.394
G1 X193.556 Y61.229
X193.569 Y61.152 Z-5.992
X193.581 Y61.078 Z-5.97
X193.593 Y61.01 Z-5.933
X193.603 Y60.95 Z-5.883
X193.611 Y60.901 Z-5.822
X193.617 Y60.865 Z-5.753
X193.621 Y60.842 Z-5.678
X193.622 Y60.835 Z-5.6
Z5.5
X140 Y53.91
Z2.1
Z0.5 F50
X140.052 Y53.957
X140.047 Y53.982
X140.03 Y54.002
X140.005 Y54.009
X139.966 Y54.004 Z0.481 F150
X139.932 Y53.983 Z0.463
X139.909 Y53.951 Z0.444
X139.9 Y53.912 Z0.425
X139.907 Y53.873 Z0.407
X139.929 Y53.84 Z0.388
X139.962 Y53.817 Z0.369
X140.001 Y53.81 Z0.351
X140.039 Y53.818 Z0.332
X140.072 Y53.84 Z0.313
X140.093 Y53.874 Z0.295
X140.1 Y53.913 Z0.276
X140.091 Y53.951 Z0.257
X140.067 Y53.984 Z0.239
X140.033 Y54.004 Z0.22
X139.994 Y54.009 Z0.201
X139.956 Y53.999 Z0.182
X139.924 Y53.975 Z0.164
X139.905 Y53.94 Z0.145
X139.9 Y53.901 Z0.126
X139.912 Y53.863 Z0.108
X139.937 Y53.832 Z0.089
X139.972 Y53.814 Z0.07
X140.012 Y53.81 Z0.052
X140.049 Y53.823 Z0.033
X140.079 Y53.849 Z0.014
X140.097 Y53.884 Z-0.004
X140.099 Y53.924 Z-0.023
X140.086 Y53.961 Z-0.042
X140.059 Y53.99 Z-0.06
X140.023 Y54.007 Z-0.079
X139.983 Y54.008 Z-0.098
X139.946 Y53.994 Z-0.116
X139.918 Y53.966 Z-0.135
X139.902 Y53.93 Z-0.154
Y53.89 Z-0.172
X139.917 Y53.853 Z-0.191
X139.946 Y53.826 Z-0.21
X139.983 Y53.811 Z-0.228
X140.022 Y53.812 Z-0.247
X140.059 Y53.829 Z-0.266
X140.085 Y53.858 Z-0.284
X140.099 Y53.895 Z-0.303
X140.097 Y53.935 Z-0.322
X140.079 Y53.97 Z-0.341
X140.05 Y53.996 Z-0.359
X140.012 Y54.009 Z-0.378
X139.972 Y54.006 Z-0.397
X139.937 Y53.987 Z-0.415
X139.912 Y53.957 Z-0.434
X139.9 Y53.919 Z-0.453
X139.905 Y53.879 Z-0.471
X139.924 Y53.845 Z-0.49
X139.955 Y53.82 Z-0.509
X139.994 Y53.81 Z-0.527
X140.033 Y53.815 Z-0.546
X140.067 Y53.835 Z-0.565
X140.091 Y53.867 Z-0.583
X140.1 Y53.906 Z-0.602
X140.093 Y53.945 Z-0.621
X140.072 Y53.979 Z-0.639
X140.04 Y54.001 Z-0.658
X140.001 Y54.01 Z-0.677
X139.962 Y54.002 Z-0.695
X139.929 Y53.98 Z-0.714
X139.907 Y53.947 Z-0.733
X139.9 Y53.908 Z-0.751
X139.909 Y53.869 Z-0.77
X139.932 Y53.837 Z-0.789
X139.965 Y53.816 Z-0.807
X140.005 Y53.81 Z-0.826
X140.043 Y53.819 Z-0.845
X140.075 Y53.843 Z-0.864
X140.095 Y53.878 Z-0.882
X140.1 Y53.917 Z-0.901
X140.089 Y53.955 Z-0.92
X140.064 Y53.986 Z-0.938
X140.029 Y54.005 Z-0.957
X139.99 Y54.009 Z-0.976
X139.952 Y53.997 Z-0.994
X139.922 Y53.972 Z-1.013
X139.904 Y53.936 Z-1.032
X139.901 Y53.897 Z-1.05
X139.914 Y53.859 Z-1.069
X139.94 Y53.83 Z-1.088
X139.976 Y53.813 Z-1.106
X140.016 Y53.811 Z-1.125
X140.053 Y53.825 Z-1.144
X140.082 Y53.852 Z-1.162
X140.098 Y53.888 Z-1.181
Y53.928 Z-1.2
X140.083 Y53.965 Z-1.218
X140.055 Y53.993 Z-1.237
X140.019 Y54.008 Z-1.256
X139.979 Y54.007 Z-1.274
X139.943 Y53.991 Z-1.293
X139.915 Y53.963 Z-1.312
X139.901 Y53.925 Z-1.33
X139.903 Y53.886 Z-1.349
X139.92 Y53.85 Z-1.368
X139.949 Y53.823 Z-1.386
X139.987 Y53.81 Z-1.405
X140.026 Y53.813 Z-1.424
X140.062 Y53.831 Z-1.443
X140.088 Y53.861 Z-1.461
X140.099 Y53.899 Z-1.48
X140.096 Y53.939 Z-1.499
X140.077 Y53.974 Z-1.517
X140.046 Y53.998 Z-1.536
X140.008 Y54.009 Z-1.555
X139.968 Y54.004 Z-1.573
X139.934 Y53.985 Z-1.592
X139.91 Y53.953 Z-1.611
X139.9 Y53.915 Z-1.629
X139.906 Y53.875 Z-1.648
X139.927 Y53.841 Z-1.667
X139.959 Y53.818 Z-1.685
X139.998 Y53.81 Z-1.704
X140.037 Y53.817 Z-1.723
X140.07 Y53.838 Z-1.741
X140.092 Y53.871 Z-1.76
X140.1 Y53.91 Z-1.779
X140.092 Y53.949 Z-1.797
X140.069 Y53.982 Z-1.816
X140.036 Y54.003 Z-1.835
X139.997 Y54.01 Z-1.853
X139.958 Y54 Z-1.872
X139.926 Y53.977 Z-1.891
X139.906 Y53.943 Z-1.909
X139.9 Y53.903 Z-1.928
X139.91 Y53.865 Z-1.947
X139.935 Y53.834 Z-1.966
X139.969 Y53.814 Z-1.984
X140.009 Y53.81 Z-2.003
X140.047 Y53.821 Z-2.022
X140.078 Y53.847 Z-2.04
X140.096 Y53.882 Z-2.059
X140.099 Y53.921 Z-2.078
X140.087 Y53.959 Z-2.096
X140.061 Y53.989 Z-2.115
X140.025 Y54.006 Z-2.134
X139.986 Y54.009 Z-2.152
X139.948 Y53.995 Z-2.171
X139.919 Y53.968 Z-2.19
X139.903 Y53.932 Z-2.208
X139.901 Y53.893 Z-2.227
X139.916 Y53.856 Z-2.246
X139.944 Y53.827 Z-2.264
X139.98 Y53.812 Z-2.283
X140.02 Z-2.302
X140.056 Y53.827 Z-2.32
X140.084 Y53.855 Z-2.339
X140.099 Y53.892 Z-2.358
X140.097 Y53.932 Z-2.376
X140.081 Y53.968 Z-2.395
X140.052 Y53.995 Z-2.414
X140.014 Y54.009 Z-2.432
X139.975 Y54.006 Z-2.451
X139.939 Y53.989 Z-2.47
X139.913 Y53.959 Z-2.489
X139.901 Y53.921 Z-2.507
X139.904 Y53.882 Z-2.526
X139.922 Y53.847 Z-2.545
X139.953 Y53.821 Z-2.563
X139.991 Y53.81 Z-2.582
X140.03 Y53.814 Z-2.601
X140.065 Y53.834 Z-2.619
X140.09 Y53.865 Z-2.638
X140.1 Y53.903 Z-2.657
X140.094 Y53.943 Z-2.675
X140.074 Y53.977 Z-2.694
X140.042 Y54 Z-2.713
X140.003 Y54.01 Z-2.731
X139.964 Y54.003 Z-2.75
X139.931 Y53.982 Z-2.769
X139.908 Y53.949 Z-2.787
X139.9 Y53.91 Z-2.806
X139.908 Y53.871 Z-2.825
X139.93 Y53.838 Z-2.843
X139.963 Y53.817 Z-2.862
X140.002 Y53.81 Z-2.881
X140.041 Y53.818 Z-2.899
X140.073 Y53.841 Z-2.918
X140.094 Y53.875 Z-2.937
X140.1 Y53.914 Z-2.955
X140.09 Y53.953 Z-2.974
X140.066 Y53.985 Z-2.993
X140.032 Y54.004 Z-3.011
X139.992 Y54.009 Z-3.03
X139.954 Y53.999 Z-3.049
X139.923 Y53.974 Z-3.068
X139.904 Y53.939 Z-3.086
X139.901 Y53.899 Z-3.105
X139.912 Y53.861 Z-3.124
X139.938 Y53.831 Z-3.142
X139.973 Y53.813 Z-3.161
X140.013 Y53.81 Z-3.18
X140.051 Y53.823 Z-3.198
X140.08 Y53.85 Z-3.217
X140.097 Y53.886 Z-3.236
X140.099 Y53.925 Z-3.254
X140.085 Y53.963 Z-3.273
X140.058 Y53.991 Z-3.292
X140.021 Y54.007 Z-3.31
X139.982 Y54.008 Z-3.329
X139.945 Y53.993 Z-3.348
X139.917 Y53.965 Z-3.366
X139.902 Y53.928 Z-3.385
Y53.888 Z-3.404
X139.918 Y53.852 Z-3.422
X139.947 Y53.825 Z-3.441
X139.984 Y53.811 Z-3.46
X140.024 Y53.812 Z-3.478
X140.06 Y53.829 Z-3.497
X140.086 Y53.859 Z-3.516
X140.099 Y53.897 Z-3.534
X140.096 Y53.936 Z-3.553
X140.079 Y53.972 Z-3.572
X140.048 Y53.997 Z-3.591
X140.01 Y54.009 Z-3.609
X139.971 Y54.005 Z-3.628
X139.936 Y53.986 Z-3.647
X139.911 Y53.955 Z-3.665
X139.9 Y53.917 Z-3.684
X139.905 Y53.878 Z-3.703
X139.925 Y53.843 Z-3.721
X139.957 Y53.819 Z-3.74
X139.995 Y53.81 Z-3.759
X140.034 Y53.816 Z-3.777
X140.068 Y53.836 Z-3.796
X140.091 Y53.869 Z-3.815
X140.1 Y53.908 Z-3.833
X140.093 Y53.947 Z-3.852
X140.071 Y53.98 Z-3.871
X140.038 Y54.002 Z-3.889
X139.999 Y54.01 Z-3.908
X139.96 Y54.001 Z-3.927
X139.928 Y53.979 Z-3.945
X139.907 Y53.945 Z-3.964
X139.9 Y53.906 Z-3.983
X139.909 Y53.868 Z-4.001
X139.933 Y53.836 Z-4.02
X139.967 Y53.815 Z-4.039
X140.006 Y53.81 Z-4.057
X140.045 Y53.82 Z-4.076
X140.076 Y53.844 Z-4.095
X140.095 Y53.879 Z-4.114
X140.1 Y53.919 Z-4.132
X140.088 Y53.957 Z-4.151
X140.063 Y53.987 Z-4.17
X140.028 Y54.006 Z-4.188
X139.988 Y54.009 Z-4.207
X139.951 Y53.997 Z-4.226
X139.921 Y53.97 Z-4.244
X139.903 Y53.935 Z-4.263
X139.901 Y53.895 Z-4.282
X139.914 Y53.858 Z-4.3
X139.941 Y53.829 Z-4.319
X139.977 Y53.812 Z-4.338
X140.017 Y53.811 Z-4.356
X140.054 Y53.826 Z-4.375
X140.083 Y53.853 Z-4.394
X140.098 Y53.89 Z-4.412
Y53.929 Z-4.431
X140.083 Y53.966 Z-4.45
X140.054 Y53.994 Z-4.468
X140.017 Y54.008 Z-4.487
X139.977 Y54.007 Z-4.506
X139.941 Y53.991 Z-4.524
X139.914 Y53.961 Z-4.543
X139.901 Y53.924 Z-4.562
X139.903 Y53.884 Z-4.58
X139.921 Y53.849 Z-4.599
X139.951 Y53.823 Z-4.618
X139.988 Y53.81 Z-4.636
X140.028 Y53.814 Z-4.655
X140.063 Y53.832 Z-4.674
X140.088 Y53.863 Z-4.693
X140.1 Y53.901 Z-4.711
X140.095 Y53.94 Z-4.73
X140.076 Y53.975 Z-4.749
X140.045 Y53.999 Z-4.767
X140.006 Y54.009 Z-4.786
X139.967 Y54.004 Z-4.805
X139.933 Y53.984 Z-4.823
X139.909 Y53.952 Z-4.842
X139.9 Y53.913 Z-4.861
X139.907 Y53.874 Z-4.879
X139.928 Y53.84 Z-4.898
X139.96 Y53.818 Z-4.917
X139.999 Y53.81 Z-4.935
X140.038 Y53.817 Z-4.954
X140.071 Y53.839 Z-4.973
X140.093 Y53.873 Z-4.991
X140.1 Y53.912 Z-5.01
X140.091 Y53.95 Z-5.029
X140.068 Y53.983 Z-5.047
X140.034 Y54.004 Z-5.066
X139.995 Y54.009 Z-5.085
X139.957 Y54 Z-5.103
X139.925 Y53.976 Z-5.122
X139.905 Y53.941 Z-5.141
X139.9 Y53.902 Z-5.159
X139.911 Y53.864 Z-5.178
X139.936 Y53.833 Z-5.197
X139.971 Y53.814 Z-5.216
X140.01 Y53.81 Z-5.234
X140.048 Y53.822 Z-5.253
X140.079 Y53.848 Z-5.272
X140.096 Y53.883 Z-5.29
X140.099 Y53.923 Z-5.309
X140.086 Y53.96 Z-5.328
X140.06 Y53.99 Z-5.346
X140.024 Y54.007 Z-5.365
X139.984 Y54.008 Z-5.384
X139.947 Y53.994 Z-5.402
X139.918 Y53.967 Z-5.421
X139.902 Y53.931 Z-5.44
Y53.891 Z-5.458
X139.917 Y53.854 Z-5.477
X139.945 Y53.826 Z-5.496
X139.982 Y53.811 Z-5.514
X140.021 Y53.812 Z-5.533
X140.058 Y53.828 Z-5.552
X140.085 Y53.857 Z-5.57
X140.099 Y53.894 Z-5.589
X140.097 Y53.934 Z-5.608
X140.08 Y53.969 Z-5.626
X140.051 Y53.996 Z-5.645
X140.013 Y54.009 Z-5.664
X139.973 Y54.006 Z-5.682
X139.938 Y53.988 Z-5.701
X139.912 Y53.958 Z-5.72
X139.901 Y53.92 Z-5.739
X139.904 Y53.88 Z-5.757
X139.923 Y53.845 Z-5.776
X139.954 Y53.821 Z-5.795
X139.993 Y53.81 Z-5.813
X140.032 Y53.815 Z-5.832
X140.066 Y53.835 Z-5.851
X140.09 Y53.866 Z-5.869
X140.1 Y53.905 Z-5.888
X140.094 Y53.944 Z-5.907
X140.073 Y53.978 Z-5.925
X140.041 Y54.001 Z-5.944
X140.002 Y54.01 Z-5.963
X139.963 Y54.002 Z-5.981
X139.93 Y53.981 Z-6
G3 X140.07 Y53.838 I0.07 J-0.071
X139.93 Y53.981 I-0.07 J0.071
G1 X139.917 Y53.958
X139.916 Y53.933
X139.929 Y53.91
X140
Z5.5
X140.173 Y53.908
Z2.1
Z0.5 F50
X140.222 Y53.96
X140.214 Y53.984
X140.195 Y54.002
X140.17 Y54.008
X140.131 Y53.999 Z0.481 F150
X140.099 Y53.975 Z0.463
X140.079 Y53.941 Z0.444
X140.074 Y53.902 Z0.425
X140.084 Y53.864 Z0.407
X140.108 Y53.832 Z0.388
X140.143 Y53.813 Z0.369
X140.182 Y53.808 Z0.351
X140.22 Y53.82 Z0.332
X140.251 Y53.845 Z0.313
X140.269 Y53.88 Z0.295
X140.273 Y53.92 Z0.276
X140.26 Y53.957 Z0.257
X140.234 Y53.987 Z0.239
X140.199 Y54.005 Z0.22
X140.159 Y54.007 Z0.201
X140.122 Y53.994 Z0.182
X140.092 Y53.967 Z0.164
X140.076 Y53.931 Z0.145
X140.075 Y53.891 Z0.126
X140.089 Y53.854 Z0.108
X140.117 Y53.826 Z0.089
X140.153 Y53.81 Z0.07
X140.193 Z0.052
X140.23 Y53.825 Z0.033
X140.257 Y53.854 Z0.014
X140.272 Y53.891 Z-0.004
X140.271 Y53.93 Z-0.023
X140.254 Y53.967 Z-0.042
X140.225 Y53.994 Z-0.06
X140.188 Y54.007 Z-0.079
X140.148 Y54.005 Z-0.098
X140.113 Y53.988 Z-0.116
X140.087 Y53.958 Z-0.135
X140.074 Y53.92 Z-0.154
X140.077 Y53.88 Z-0.172
X140.096 Y53.845 Z-0.191
X140.126 Y53.82 Z-0.21
X140.164 Y53.809 Z-0.228
X140.204 Y53.813 Z-0.247
X140.238 Y53.832 Z-0.266
X140.263 Y53.863 Z-0.284
X140.273 Y53.902 Z-0.303
X140.268 Y53.941 Z-0.322
X140.248 Y53.975 Z-0.341
X140.216 Y53.999 Z-0.359
X140.177 Y54.008 Z-0.378
X140.138 Y54.002 Z-0.397
X140.104 Y53.98 Z-0.415
X140.082 Y53.948 Z-0.434
X140.073 Y53.909 Z-0.453
X140.081 Y53.87 Z-0.471
X140.103 Y53.837 Z-0.49
X140.136 Y53.815 Z-0.509
X140.175 Y53.808 Z-0.527
X140.214 Y53.817 Z-0.546
X140.246 Y53.84 Z-0.565
X140.267 Y53.874 Z-0.583
X140.273 Y53.913 Z-0.602
X140.264 Y53.951 Z-0.621
X140.24 Y53.983 Z-0.639
X140.205 Y54.003 Z-0.658
X140.166 Y54.008 Z-0.677
X140.128 Y53.997 Z-0.695
X140.097 Y53.972 Z-0.714
X140.078 Y53.937 Z-0.733
X140.074 Y53.898 Z-0.751
X140.086 Y53.86 Z-0.77
X140.111 Y53.83 Z-0.789
X140.147 Y53.812 Z-0.807
X140.186 Y53.809 Z-0.826
X140.224 Y53.822 Z-0.845
X140.253 Y53.848 Z-0.864
X140.27 Y53.884 Z-0.882
X140.272 Y53.924 Z-0.901
X140.258 Y53.961 Z-0.92
X140.231 Y53.99 Z-0.938
X140.195 Y54.006 Z-0.957
X140.155 Z-0.976
X140.118 Y53.992 Z-0.994
X140.09 Y53.963 Z-1.013
X140.075 Y53.927 Z-1.032
X140.076 Y53.887 Z-1.05
X140.092 Y53.851 Z-1.069
X140.12 Y53.823 Z-1.088
X140.157 Y53.809 Z-1.106
X140.197 Y53.811 Z-1.125
X140.233 Y53.828 Z-1.144
X140.26 Y53.857 Z-1.162
X140.272 Y53.895 Z-1.181
X140.27 Y53.935 Z-1.2
X140.252 Y53.97 Z-1.218
X140.222 Y53.996 Z-1.237
X140.184 Y54.008 Z-1.256
X140.144 Y54.004 Z-1.274
X140.109 Y53.985 Z-1.293
X140.085 Y53.954 Z-1.312
X140.074 Y53.916 Z-1.33
X140.079 Y53.876 Z-1.349
X140.098 Y53.842 Z-1.368
X140.13 Y53.818 Z-1.386
X140.168 Y53.808 Z-1.405
X140.208 Y53.814 Z-1.424
X140.242 Y53.835 Z-1.443
X140.265 Y53.867 Z-1.461
X140.273 Y53.906 Z-1.48
X140.266 Y53.945 Z-1.499
X140.245 Y53.978 Z-1.517
X140.212 Y54 Z-1.536
X140.173 Y54.008 Z-1.555
X140.134 Y54 Z-1.573
X140.101 Y53.977 Z-1.592
X140.08 Y53.944 Z-1.611
X140.073 Y53.905 Z-1.629
X140.083 Y53.866 Z-1.648
X140.106 Y53.834 Z-1.667
X140.14 Y53.814 Z-1.685
X140.179 Y53.808 Z-1.704
X140.218 Y53.819 Z-1.723
X140.249 Y53.843 Z-1.741
X140.269 Y53.877 Z-1.76
X140.273 Y53.917 Z-1.779
X140.262 Y53.955 Z-1.797
X140.236 Y53.986 Z-1.816
X140.201 Y54.004 Z-1.835
X140.162 Y54.007 Z-1.853
X140.124 Y53.995 Z-1.872
X140.094 Y53.969 Z-1.891
X140.077 Y53.933 Z-1.909
X140.074 Y53.894 Z-1.928
X140.088 Y53.856 Z-1.947
X140.115 Y53.827 Z-1.966
X140.151 Y53.811 Z-1.984
X140.19 Y53.81 Z-2.003
X140.227 Y53.824 Z-2.022
X140.256 Y53.852 Z-2.04
X140.271 Y53.888 Z-2.059
Y53.928 Z-2.078
X140.256 Y53.964 Z-2.096
X140.228 Y53.992 Z-2.115
X140.191 Y54.007 Z-2.134
X140.151 Y54.006 Z-2.152
X140.115 Y53.989 Z-2.171
X140.088 Y53.96 Z-2.19
X140.074 Y53.923 Z-2.208
X140.077 Y53.883 Z-2.227
X140.094 Y53.847 Z-2.246
X140.124 Y53.821 Z-2.264
X140.162 Y53.809 Z-2.283
X140.201 Y53.812 Z-2.302
X140.236 Y53.83 Z-2.32
X140.262 Y53.861 Z-2.339
X140.273 Y53.899 Z-2.358
X140.269 Y53.939 Z-2.376
X140.249 Y53.973 Z-2.395
X140.218 Y53.998 Z-2.414
X140.18 Y54.008 Z-2.432
X140.14 Y54.002 Z-2.451
X140.106 Y53.982 Z-2.47
X140.083 Y53.95 Z-2.489
X140.073 Y53.912 Z-2.507
X140.08 Y53.872 Z-2.526
X140.101 Y53.839 Z-2.545
X140.134 Y53.816 Z-2.563
X140.173 Y53.808 Z-2.582
X140.212 Y53.816 Z-2.601
X140.245 Y53.838 Z-2.619
X140.266 Y53.871 Z-2.638
X140.273 Y53.91 Z-2.657
X140.265 Y53.949 Z-2.675
X140.242 Y53.981 Z-2.694
X140.208 Y54.002 Z-2.713
X140.169 Y54.008 Z-2.731
X140.13 Y53.998 Z-2.75
X140.098 Y53.974 Z-2.769
X140.079 Y53.94 Z-2.787
X140.074 Y53.901 Z-2.806
X140.084 Y53.862 Z-2.825
X140.109 Y53.831 Z-2.843
X140.144 Y53.812 Z-2.862
X140.184 Y53.809 Z-2.881
X140.222 Y53.82 Z-2.899
X140.252 Y53.846 Z-2.918
X140.27 Y53.881 Z-2.937
X140.273 Y53.921 Z-2.955
X140.26 Y53.959 Z-2.974
X140.233 Y53.988 Z-2.993
X140.197 Y54.005 Z-3.011
X140.158 Y54.007 Z-3.03
X140.12 Y53.993 Z-3.049
X140.092 Y53.966 Z-3.068
X140.076 Y53.929 Z-3.086
X140.075 Y53.89 Z-3.105
X140.09 Y53.853 Z-3.124
X140.118 Y53.825 Z-3.142
X140.155 Y53.81 Z-3.161
X140.195 Z-3.18
X140.231 Y53.826 Z-3.198
X140.258 Y53.855 Z-3.217
X140.272 Y53.892 Z-3.236
X140.27 Y53.932 Z-3.254
X140.254 Y53.968 Z-3.273
X140.224 Y53.994 Z-3.292
X140.186 Y54.007 Z-3.31
X140.147 Y54.005 Z-3.329
X140.111 Y53.987 Z-3.348
X140.086 Y53.956 Z-3.366
X140.074 Y53.918 Z-3.385
X140.078 Y53.879 Z-3.404
X140.097 Y53.844 Z-3.422
X140.128 Y53.819 Z-3.441
X140.166 Y53.808 Z-3.46
X140.205 Y53.813 Z-3.478
X140.24 Y53.833 Z-3.497
X140.263 Y53.865 Z-3.516
X140.273 Y53.903 Z-3.534
X140.267 Y53.942 Z-3.553
X140.246 Y53.976 Z-3.572
X140.214 Y53.999 Z-3.591
X140.175 Y54.008 Z-3.609
X140.136 Y54.001 Z-3.628
X140.103 Y53.979 Z-3.647
X140.081 Y53.946 Z-3.665
X140.073 Y53.907 Z-3.684
X140.082 Y53.869 Z-3.703
X140.104 Y53.836 Z-3.721
X140.138 Y53.815 Z-3.74
X140.177 Y53.808 Z-3.759
X140.215 Y53.817 Z-3.777
X140.247 Y53.841 Z-3.796
X140.268 Y53.875 Z-3.815
X140.273 Y53.914 Z-3.833
X140.263 Y53.953 Z-3.852
X140.239 Y53.984 Z-3.871
X140.204 Y54.003 Z-3.889
X140.164 Y54.008 Z-3.908
X140.126 Y53.996 Z-3.927
X140.096 Y53.971 Z-3.945
X140.077 Y53.936 Z-3.964
X140.074 Y53.896 Z-3.983
X140.086 Y53.859 Z-4.001
X140.112 Y53.829 Z-4.02
X140.148 Y53.811 Z-4.039
X140.188 Y53.809 Z-4.057
X140.225 Y53.823 Z-4.076
X140.254 Y53.849 Z-4.095
X140.271 Y53.886 Z-4.114
X140.272 Y53.925 Z-4.132
X140.257 Y53.962 Z-4.151
X140.23 Y53.991 Z-4.17
X140.193 Y54.006 Z-4.188
X140.154 Z-4.207
X140.117 Y53.991 Z-4.226
X140.089 Y53.962 Z-4.244
X140.075 Y53.925 Z-4.263
X140.076 Y53.886 Z-4.282
X140.092 Y53.849 Z-4.3
X140.122 Y53.823 Z-4.319
X140.159 Y53.809 Z-4.338
X140.199 Y53.811 Z-4.356
X140.234 Y53.829 Z-4.375
X140.26 Y53.859 Z-4.394
X140.273 Y53.896 Z-4.412
X140.269 Y53.936 Z-4.431
X140.251 Y53.971 Z-4.45
X140.22 Y53.996 Z-4.468
X140.182 Y54.008 Z-4.487
X140.143 Y54.003 Z-4.506
X140.108 Y53.984 Z-4.524
X140.084 Y53.953 Z-4.543
X140.074 Y53.914 Z-4.562
X140.079 Y53.875 Z-4.58
X140.099 Y53.841 Z-4.599
X140.131 Y53.817 Z-4.618
X140.17 Y53.808 Z-4.636
X140.209 Y53.815 Z-4.655
X140.243 Y53.836 Z-4.674
X140.265 Y53.869 Z-4.693
X140.273 Y53.907 Z-4.711
X140.266 Y53.946 Z-4.73
X140.244 Y53.979 Z-4.749
X140.21 Y54.001 Z-4.767
X140.171 Y54.008 Z-4.786
X140.133 Y53.999 Z-4.805
X140.1 Y53.976 Z-4.823
X140.079 Y53.942 Z-4.842
X140.073 Y53.903 Z-4.861
X140.083 Y53.865 Z-4.879
X140.107 Y53.833 Z-4.898
X140.142 Y53.813 Z-4.917
X140.181 Y53.808 Z-4.935
X140.219 Y53.819 Z-4.954
X140.25 Y53.844 Z-4.973
X140.269 Y53.879 Z-4.991
X140.273 Y53.918 Z-5.01
X140.261 Y53.956 Z-5.029
X140.235 Y53.987 Z-5.047
X140.2 Y54.005 Z-5.066
X140.16 Y54.007 Z-5.085
X140.123 Y53.994 Z-5.103
X140.093 Y53.968 Z-5.122
X140.076 Y53.932 Z-5.141
X140.075 Y53.892 Z-5.159
X140.089 Y53.855 Z-5.178
X140.116 Y53.826 Z-5.197
X140.152 Y53.81 Z-5.216
X140.192 Z-5.234
X140.229 Y53.825 Z-5.253
X140.257 Y53.853 Z-5.272
X140.272 Y53.89 Z-5.29
X140.271 Y53.929 Z-5.309
X140.255 Y53.966 Z-5.328
X140.226 Y53.993 Z-5.346
X140.189 Y54.007 Z-5.365
X140.149 Y54.005 Z-5.384
X140.114 Y53.988 Z-5.402
X140.087 Y53.959 Z-5.421
X140.074 Y53.921 Z-5.44
X140.077 Y53.882 Z-5.458
X140.095 Y53.846 Z-5.477
X140.125 Y53.82 Z-5.496
X140.163 Y53.809 Z-5.514
X140.203 Y53.812 Z-5.533
X140.238 Y53.831 Z-5.552
X140.262 Y53.862 Z-5.57
X140.273 Y53.901 Z-5.589
X140.268 Y53.94 Z-5.608
X140.248 Y53.974 Z-5.626
X140.217 Y53.998 Z-5.645
X140.178 Y54.008 Z-5.664
X140.139 Y54.002 Z-5.682
X140.105 Y53.981 Z-5.701
X140.082 Y53.949 Z-5.72
X140.073 Y53.91 Z-5.739
X140.08 Y53.871 Z-5.757
X140.102 Y53.838 Z-5.776
X140.135 Y53.816 Z-5.795
X140.174 Y53.808 Z-5.813
X140.213 Y53.816 Z-5.832
X140.246 Y53.839 Z-5.851
X140.267 Y53.872 Z-5.869
X140.273 Y53.912 Z-5.888
X140.264 Y53.95 Z-5.907
X140.241 Y53.982 Z-5.925
X140.206 Y54.002 Z-5.944
X140.167 Y54.008 Z-5.963
X140.129 Y53.998 Z-5.981
X140.097 Y53.973 Z-6
G3 X140.249 Y53.843 I0.076 J-0.065
X140.097 Y53.973 I-0.076 J0.065
G1 X140.086 Y53.95
X140.088 Y53.924
X140.103 Y53.903
X140.173 Y53.908
Z5.5
X140 Y29.91
Z2.1
Z0.5 F50
X140.052 Y29.957
X140.047 Y29.982
X140.03 Y30.002
X140.005 Y30.009
X139.966 Y30.004 Z0.481 F150
X139.932 Y29.983 Z0.463
X139.909 Y29.951 Z0.444
X139.9 Y29.912 Z0.425
X139.907 Y29.873 Z0.407
X139.929 Y29.84 Z0.388
X139.962 Y29.817 Z0.369
X140.001 Y29.81 Z0.351
X140.039 Y29.818 Z0.332
X140.072 Y29.84 Z0.313
X140.093 Y29.874 Z0.295
X140.1 Y29.913 Z0.276
X140.091 Y29.951 Z0.257
X140.067 Y29.984 Z0.239
X140.033 Y30.004 Z0.22
X139.994 Y30.009 Z0.201
X139.956 Y29.999 Z0.182
X139.924 Y29.975 Z0.164
X139.905 Y29.94 Z0.145
X139.9 Y29.901 Z0.126
X139.912 Y29.863 Z0.108
X139.937 Y29.832 Z0.089
X139.972 Y29.814 Z0.07
X140.012 Y29.81 Z0.052
X140.049 Y29.823 Z0.033
X140.079 Y29.849 Z0.014
X140.097 Y29.884 Z-0.004
X140.099 Y29.924 Z-0.023
X140.086 Y29.961 Z-0.042
X140.059 Y29.99 Z-0.06
X140.023 Y30.007 Z-0.079
X139.983 Y30.008 Z-0.098
X139.946 Y29.994 Z-0.116
X139.918 Y29.966 Z-0.135
X139.902 Y29.93 Z-0.154
Y29.89 Z-0.172
X139.917 Y29.853 Z-0.191
X139.946 Y29.826 Z-0.21
X139.983 Y29.811 Z-0.228
X140.022 Y29.812 Z-0.247
X140.059 Y29.829 Z-0.266
X140.085 Y29.858 Z-0.284
X140.099 Y29.895 Z-0.303
X140.097 Y29.935 Z-0.322
X140.079 Y29.97 Z-0.341
X140.05 Y29.996 Z-0.359
X140.012 Y30.009 Z-0.378
X139.972 Y30.006 Z-0.397
X139.937 Y29.987 Z-0.415
X139.912 Y29.957 Z-0.434
X139.9 Y29.919 Z-0.453
X139.905 Y29.879 Z-0.471
X139.924 Y29.845 Z-0.49
X139.955 Y29.82 Z-0.509
X139.994 Y29.81 Z-0.527
X140.033 Y29.815 Z-0.546
X140.067 Y29.835 Z-0.565
X140.091 Y29.867 Z-0.583
X140.1 Y29.906 Z-0.602
X140.093 Y29.945 Z-0.621
X140.072 Y29.979 Z-0.639
X140.04 Y30.001 Z-0.658
X140.001 Y30.01 Z-0.677
X139.962 Y30.002 Z-0.695
X139.929 Y29.98 Z-0.714
X139.907 Y29.947 Z-0.733
X139.9 Y29.908 Z-0.751
X139.909 Y29.869 Z-0.77
X139.932 Y29.837 Z-0.789
X139.965 Y29.816 Z-0.807
X140.005 Y29.81 Z-0.826
X140.043 Y29.819 Z-0.845
X140.075 Y29.843 Z-0.864
X140.095 Y29.878 Z-0.882
X140.1 Y29.917 Z-0.901
X140.089 Y29.955 Z-0.92
X140.064 Y29.986 Z-0.938
X140.029 Y30.005 Z-0.957
X139.99 Y30.009 Z-0.976
X139.952 Y29.997 Z-0.994
X139.922 Y29.972 Z-1.013
X139.904 Y29.936 Z-1.032
X139.901 Y29.897 Z-1.05
X139.914 Y29.859 Z-1.069
X139.94 Y29.83 Z-1.088
X139.976 Y29.813 Z-1.106
X140.016 Y29.811 Z-1.125
X140.053 Y29.825 Z-1.144
X140.082 Y29.852 Z-1.162
X140.098 Y29.888 Z-1.181
Y29.928 Z-1.2
X140.083 Y29.965 Z-1.218
X140.055 Y29.993 Z-1.237
X140.019 Y30.008 Z-1.256
X139.979 Y30.007 Z-1.274
X139.943 Y29.991 Z-1.293
X139.915 Y29.963 Z-1.312
X139.901 Y29.925 Z-1.33
X139.903 Y29.886 Z-1.349
X139.92 Y29.85 Z-1.368
X139.949 Y29.823 Z-1.386
X139.987 Y29.81 Z-1.405
X140.026 Y29.813 Z-1.424
X140.062 Y29.831 Z-1.443
X140.088 Y29.861 Z-1.461
X140.099 Y29.899 Z-1.48
X140.096 Y29.939 Z-1.499
X140.077 Y29.974 Z-1.517
X140.046 Y29.998 Z-1.536
X140.008 Y30.009 Z-1.555
X139.968 Y30.004 Z-1.573
X139.934 Y29.985 Z-1.592
X139.91 Y29.953 Z-1.611
X139.9 Y29.915 Z-1.629
X139.906 Y29.875 Z-1.648
X139.927 Y29.841 Z-1.667
X139.959 Y29.818 Z-1.685
X139.998 Y29.81 Z-1.704
X140.037 Y29.817 Z-1.723
X140.07 Y29.838 Z-1.741
X140.092 Y29.871 Z-1.76
X140.1 Y29.91 Z-1.779
X140.092 Y29.949 Z-1.797
X140.069 Y29.982 Z-1.816
X140.036 Y30.003 Z-1.835
X139.997 Y30.01 Z-1.853
X139.958 Y30 Z-1.872
X139.926 Y29.977 Z-1.891
X139.906 Y29.943 Z-1.909
X139.9 Y29.903 Z-1.928
X139.91 Y29.865 Z-1.947
X139.935 Y29.834 Z-1.966
X139.969 Y29.814 Z-1.984
X140.009 Y29.81 Z-2.003
X140.047 Y29.821 Z-2.022
X140.078 Y29.846 Z-2.04
X140.096 Y29.882 Z-2.059
X140.099 Y29.921 Z-2.078
X140.087 Y29.959 Z-2.096
X140.061 Y29.989 Z-2.115
X140.025 Y30.006 Z-2.134
X139.986 Y30.009 Z-2.152
X139.948 Y29.995 Z-2.171
X139.919 Y29.968 Z-2.19
X139.903 Y29.932 Z-2.208
X139.901 Y29.893 Z-2.227
X139.916 Y29.856 Z-2.246
X139.944 Y29.827 Z-2.264
X139.98 Y29.812 Z-2.283
X140.02 Z-2.302
X140.056 Y29.827 Z-2.32
X140.084 Y29.855 Z-2.339
X140.099 Y29.892 Z-2.358
X140.097 Y29.932 Z-2.376
X140.081 Y29.968 Z-2.395
X140.052 Y29.995 Z-2.414
X140.014 Y30.009 Z-2.432
X139.975 Y30.006 Z-2.451
X139.939 Y29.989 Z-2.47
X139.913 Y29.959 Z-2.489
X139.901 Y29.921 Z-2.507
X139.904 Y29.882 Z-2.526
X139.922 Y29.847 Z-2.545
X139.953 Y29.821 Z-2.563
X139.991 Y29.81 Z-2.582
X140.03 Y29.814 Z-2.601
X140.065 Y29.834 Z-2.619
X140.09 Y29.865 Z-2.638
X140.1 Y29.903 Z-2.657
X140.094 Y29.943 Z-2.675
X140.074 Y29.977 Z-2.694
X140.042 Y30 Z-2.713
X140.003 Y30.01 Z-2.731
X139.964 Y30.003 Z-2.75
X139.931 Y29.982 Z-2.769
X139.908 Y29.949 Z-2.787
X139.9 Y29.91 Z-2.806
X139.908 Y29.871 Z-2.825
X139.93 Y29.838 Z-2.843
X139.963 Y29.817 Z-2.862
X140.002 Y29.81 Z-2.881
X140.041 Y29.818 Z-2.899
X140.073 Y29.841 Z-2.918
X140.094 Y29.875 Z-2.937
X140.1 Y29.914 Z-2.955
X140.09 Y29.953 Z-2.974
X140.066 Y29.985 Z-2.993
X140.032 Y30.004 Z-3.011
X139.992 Y30.009 Z-3.03
X139.954 Y29.999 Z-3.049
X139.923 Y29.974 Z-3.068
X139.904 Y29.939 Z-3.086
X139.901 Y29.899 Z-3.105
X139.912 Y29.861 Z-3.124
X139.938 Y29.831 Z-3.142
X139.973 Y29.813 Z-3.161
X140.013 Y29.81 Z-3.18
X140.051 Y29.823 Z-3.198
X140.08 Y29.85 Z-3.217
X140.097 Y29.886 Z-3.236
X140.099 Y29.925 Z-3.254
X140.085 Y29.963 Z-3.273
X140.058 Y29.991 Z-3.292
X140.021 Y30.007 Z-3.31
X139.982 Y30.008 Z-3.329
X139.945 Y29.993 Z-3.348
X139.917 Y29.965 Z-3.366
X139.902 Y29.928 Z-3.385
Y29.888 Z-3.404
X139.918 Y29.852 Z-3.422
X139.947 Y29.825 Z-3.441
X139.984 Y29.811 Z-3.46
X140.024 Y29.812 Z-3.478
X140.06 Y29.829 Z-3.497
X140.086 Y29.859 Z-3.516
X140.099 Y29.897 Z-3.534
X140.096 Y29.936 Z-3.553
X140.079 Y29.972 Z-3.572
X140.048 Y29.997 Z-3.591
X140.01 Y30.009 Z-3.609
X139.971 Y30.005 Z-3.628
X139.936 Y29.986 Z-3.647
X139.911 Y29.955 Z-3.665
X139.9 Y29.917 Z-3.684
X139.905 Y29.878 Z-3.703
X139.925 Y29.843 Z-3.721
X139.957 Y29.819 Z-3.74
X139.995 Y29.81 Z-3.759
X140.034 Y29.816 Z-3.777
X140.068 Y29.836 Z-3.796
X140.091 Y29.869 Z-3.815
X140.1 Y29.908 Z-3.833
X140.093 Y29.947 Z-3.852
X140.071 Y29.98 Z-3.871
X140.038 Y30.002 Z-3.889
X139.999 Y30.01 Z-3.908
X139.96 Y30.001 Z-3.927
X139.928 Y29.979 Z-3.945
X139.907 Y29.945 Z-3.964
X139.9 Y29.906 Z-3.983
X139.909 Y29.868 Z-4.001
X139.933 Y29.836 Z-4.02
X139.967 Y29.815 Z-4.039
X140.006 Y29.81 Z-4.057
X140.045 Y29.82 Z-4.076
X140.076 Y29.844 Z-4.095
X140.095 Y29.879 Z-4.114
X140.1 Y29.919 Z-4.132
X140.088 Y29.957 Z-4.151
X140.063 Y29.987 Z-4.17
X140.028 Y30.006 Z-4.188
X139.988 Y30.009 Z-4.207
X139.951 Y29.997 Z-4.226
X139.921 Y29.97 Z-4.244
X139.903 Y29.935 Z-4.263
X139.901 Y29.895 Z-4.282
X139.914 Y29.858 Z-4.3
X139.941 Y29.829 Z-4.319
X139.977 Y29.812 Z-4.338
X140.017 Y29.811 Z-4.356
X140.054 Y29.826 Z-4.375
X140.083 Y29.853 Z-4.394
X140.098 Y29.89 Z-4.412
Y29.929 Z-4.431
X140.083 Y29.966 Z-4.45
X140.054 Y29.994 Z-4.468
X140.017 Y30.008 Z-4.487
X139.977 Y30.007 Z-4.506
X139.941 Y29.991 Z-4.524
X139.914 Y29.961 Z-4.543
X139.901 Y29.924 Z-4.562
X139.903 Y29.884 Z-4.58
X139.921 Y29.849 Z-4.599
X139.951 Y29.823 Z-4.618
X139.988 Y29.81 Z-4.636
X140.028 Y29.814 Z-4.655
X140.063 Y29.832 Z-4.674
X140.088 Y29.863 Z-4.693
X140.1 Y29.901 Z-4.711
X140.095 Y29.94 Z-4.73
X140.076 Y29.975 Z-4.749
X140.045 Y29.999 Z-4.767
X140.006 Y30.009 Z-4.786
X139.967 Y30.004 Z-4.805
X139.933 Y29.984 Z-4.823
X139.909 Y29.952 Z-4.842
X139.9 Y29.913 Z-4.861
X139.907 Y29.874 Z-4.879
X139.928 Y29.84 Z-4.898
X139.96 Y29.818 Z-4.917
X139.999 Y29.81 Z-4.935
X140.038 Y29.817 Z-4.954
X140.071 Y29.839 Z-4.973
X140.093 Y29.873 Z-4.991
X140.1 Y29.912 Z-5.01
X140.091 Y29.95 Z-5.029
X140.068 Y29.983 Z-5.047
X140.034 Y30.004 Z-5.066
X139.995 Y30.009 Z-5.085
X139.957 Y30 Z-5.103
X139.925 Y29.976 Z-5.122
X139.905 Y29.941 Z-5.141
X139.9 Y29.902 Z-5.159
X139.911 Y29.864 Z-5.178
X139.936 Y29.833 Z-5.197
X139.971 Y29.814 Z-5.216
X140.01 Y29.81 Z-5.234
X140.048 Y29.822 Z-5.253
X140.079 Y29.848 Z-5.272
X140.096 Y29.883 Z-5.29
X140.099 Y29.923 Z-5.309
X140.086 Y29.96 Z-5.328
X140.06 Y29.99 Z-5.346
X140.024 Y30.007 Z-5.365
X139.984 Y30.008 Z-5.384
X139.947 Y29.994 Z-5.402
X139.918 Y29.967 Z-5.421
X139.902 Y29.931 Z-5.44
Y29.891 Z-5.458
X139.917 Y29.854 Z-5.477
X139.945 Y29.826 Z-5.496
X139.982 Y29.811 Z-5.514
X140.021 Y29.812 Z-5.533
X140.058 Y29.828 Z-5.552
X140.085 Y29.857 Z-5.57
X140.099 Y29.894 Z-5.589
X140.097 Y29.934 Z-5.608
X140.08 Y29.969 Z-5.626
X140.051 Y29.996 Z-5.645
X140.013 Y30.009 Z-5.664
X139.973 Y30.006 Z-5.682
X139.938 Y29.988 Z-5.701
X139.912 Y29.958 Z-5.72
X139.901 Y29.92 Z-5.739
X139.904 Y29.88 Z-5.757
X139.923 Y29.845 Z-5.776
X139.954 Y29.821 Z-5.795
X139.993 Y29.81 Z-5.813
X140.032 Y29.815 Z-5.832
X140.066 Y29.835 Z-5.851
X140.09 Y29.866 Z-5.869
X140.1 Y29.905 Z-5.888
X140.094 Y29.944 Z-5.907
X140.073 Y29.978 Z-5.925
X140.041 Y30.001 Z-5.944
X140.002 Y30.01 Z-5.963
X139.963 Y30.002 Z-5.981
X139.93 Y29.981 Z-6
G3 X140.07 Y29.838 I0.07 J-0.071
X139.93 Y29.981 I-0.07 J0.071
G1 X139.917 Y29.958
X139.916 Y29.933
X139.929 Y29.91
X140
Z5.5
X140.173 Y29.908
Z2.1
Z0.5 F50
X140.121 Y29.861
X140.126 Y29.835
X140.144 Y29.816
X140.168 Y29.808
X140.208 Y29.814 Z0.481 F150
X140.241 Y29.835 Z0.463
X140.265 Y29.867 Z0.444
X140.273 Y29.906 Z0.425
X140.266 Y29.945 Z0.407
X140.245 Y29.978 Z0.388
X140.212 Y30 Z0.369
X140.173 Y30.008 Z0.351
X140.134 Y30 Z0.332
X140.101 Y29.977 Z0.313
X140.08 Y29.944 Z0.295
X140.073 Y29.905 Z0.276
X140.083 Y29.866 Z0.257
X140.106 Y29.834 Z0.239
X140.14 Y29.814 Z0.22
X140.179 Y29.808 Z0.201
X140.218 Y29.818 Z0.182
X140.249 Y29.843 Z0.164
X140.269 Y29.877 Z0.145
X140.273 Y29.917 Z0.126
X140.262 Y29.955 Z0.108
X140.237 Y29.986 Z0.089
X140.201 Y30.004 Z0.07
X140.162 Y30.007 Z0.052
X140.124 Y29.995 Z0.033
X140.094 Y29.969 Z0.014
X140.077 Y29.933 Z-0.004
X140.074 Y29.894 Z-0.023
X140.088 Y29.856 Z-0.042
X140.115 Y29.827 Z-0.06
X140.151 Y29.811 Z-0.079
X140.19 Y29.81 Z-0.098
X140.227 Y29.824 Z-0.116
X140.256 Y29.852 Z-0.135
X140.271 Y29.888 Z-0.154
Y29.928 Z-0.172
X140.256 Y29.964 Z-0.191
X140.228 Y29.992 Z-0.21
X140.191 Y30.007 Z-0.228
X140.151 Y30.006 Z-0.247
X140.115 Y29.989 Z-0.266
X140.088 Y29.96 Z-0.284
X140.074 Y29.923 Z-0.303
X140.077 Y29.883 Z-0.322
X140.094 Y29.847 Z-0.341
X140.124 Y29.821 Z-0.359
X140.162 Y29.809 Z-0.378
X140.201 Y29.812 Z-0.397
X140.236 Y29.83 Z-0.415
X140.262 Y29.861 Z-0.434
X140.273 Y29.899 Z-0.453
X140.269 Y29.938 Z-0.471
X140.249 Y29.973 Z-0.49
X140.218 Y29.998 Z-0.509
X140.18 Y30.008 Z-0.527
X140.14 Y30.002 Z-0.546
X140.106 Y29.982 Z-0.565
X140.083 Y29.95 Z-0.583
X140.073 Y29.912 Z-0.602
X140.08 Y29.872 Z-0.621
X140.101 Y29.839 Z-0.639
X140.134 Y29.816 Z-0.658
X140.173 Y29.808 Z-0.677
X140.212 Y29.816 Z-0.695
X140.244 Y29.838 Z-0.714
X140.266 Y29.871 Z-0.733
X140.273 Y29.91 Z-0.751
X140.265 Y29.949 Z-0.77
X140.242 Y29.981 Z-0.789
X140.208 Y30.002 Z-0.807
X140.169 Y30.008 Z-0.826
X140.13 Y29.998 Z-0.845
X140.098 Y29.974 Z-0.864
X140.079 Y29.94 Z-0.882
X140.074 Y29.901 Z-0.901
X140.084 Y29.862 Z-0.92
X140.109 Y29.831 Z-0.938
X140.144 Y29.812 Z-0.957
X140.184 Y29.809 Z-0.976
X140.221 Y29.82 Z-0.994
X140.252 Y29.846 Z-1.013
X140.27 Y29.881 Z-1.032
X140.273 Y29.921 Z-1.05
X140.26 Y29.959 Z-1.069
X140.233 Y29.988 Z-1.088
X140.197 Y30.005 Z-1.106
X140.158 Y30.007 Z-1.125
X140.121 Y29.993 Z-1.144
X140.092 Y29.966 Z-1.162
X140.076 Y29.929 Z-1.181
X140.075 Y29.89 Z-1.2
X140.09 Y29.853 Z-1.218
X140.118 Y29.825 Z-1.237
X140.155 Y29.81 Z-1.256
X140.194 Z-1.274
X140.231 Y29.826 Z-1.293
X140.258 Y29.855 Z-1.312
X140.272 Y29.892 Z-1.33
X140.271 Y29.932 Z-1.349
X140.254 Y29.968 Z-1.368
X140.224 Y29.994 Z-1.386
X140.187 Y30.007 Z-1.405
X140.147 Y30.005 Z-1.424
X140.111 Y29.987 Z-1.443
X140.086 Y29.956 Z-1.461
X140.074 Y29.918 Z-1.48
X140.078 Y29.879 Z-1.499
X140.097 Y29.844 Z-1.517
X140.128 Y29.819 Z-1.536
X140.166 Y29.808 Z-1.555
X140.205 Y29.813 Z-1.573
X140.239 Y29.833 Z-1.592
X140.263 Y29.865 Z-1.611
X140.273 Y29.903 Z-1.629
X140.267 Y29.942 Z-1.648
X140.247 Y29.976 Z-1.667
X140.214 Y29.999 Z-1.685
X140.176 Y30.008 Z-1.704
X140.136 Y30.001 Z-1.723
X140.103 Y29.979 Z-1.741
X140.081 Y29.946 Z-1.76
X140.073 Y29.907 Z-1.779
X140.081 Y29.869 Z-1.797
X140.104 Y29.836 Z-1.816
X140.138 Y29.815 Z-1.835
X140.177 Y29.808 Z-1.853
X140.215 Y29.817 Z-1.872
X140.247 Y29.841 Z-1.891
X140.268 Y29.875 Z-1.909
X140.273 Y29.914 Z-1.928
X140.263 Y29.953 Z-1.947
X140.239 Y29.984 Z-1.966
X140.204 Y30.003 Z-1.984
X140.164 Y30.008 Z-2.003
X140.126 Y29.996 Z-2.022
X140.096 Y29.971 Z-2.04
X140.077 Y29.936 Z-2.059
X140.074 Y29.896 Z-2.078
X140.086 Y29.859 Z-2.096
X140.112 Y29.829 Z-2.115
X140.148 Y29.811 Z-2.134
X140.188 Y29.809 Z-2.152
X140.225 Y29.823 Z-2.171
X140.254 Y29.849 Z-2.19
X140.271 Y29.885 Z-2.208
X140.272 Y29.925 Z-2.227
X140.257 Y29.962 Z-2.246
X140.23 Y29.991 Z-2.264
X140.193 Y30.006 Z-2.283
X140.154 Z-2.302
X140.117 Y29.991 Z-2.32
X140.089 Y29.962 Z-2.339
X140.075 Y29.925 Z-2.358
X140.076 Y29.886 Z-2.376
X140.092 Y29.849 Z-2.395
X140.122 Y29.823 Z-2.414
X140.159 Y29.809 Z-2.432
X140.199 Y29.811 Z-2.451
X140.234 Y29.829 Z-2.47
X140.26 Y29.859 Z-2.489
X140.273 Y29.896 Z-2.507
X140.269 Y29.936 Z-2.526
X140.251 Y29.971 Z-2.545
X140.22 Y29.996 Z-2.563
X140.182 Y30.008 Z-2.582
X140.143 Y30.003 Z-2.601
X140.108 Y29.984 Z-2.619
X140.084 Y29.953 Z-2.638
X140.074 Y29.914 Z-2.657
X140.079 Y29.875 Z-2.675
X140.099 Y29.841 Z-2.694
X140.131 Y29.817 Z-2.713
X140.17 Y29.808 Z-2.731
X140.209 Y29.815 Z-2.75
X140.243 Y29.836 Z-2.769
X140.265 Y29.869 Z-2.787
X140.273 Y29.907 Z-2.806
X140.266 Y29.946 Z-2.825
X140.244 Y29.979 Z-2.843
X140.21 Y30.001 Z-2.862
X140.171 Y30.008 Z-2.881
X140.133 Y29.999 Z-2.899
X140.1 Y29.976 Z-2.918
X140.079 Y29.943 Z-2.937
X140.073 Y29.903 Z-2.955
X140.083 Y29.865 Z-2.974
X140.107 Y29.833 Z-2.993
X140.142 Y29.813 Z-3.011
X140.181 Y29.808 Z-3.03
X140.219 Y29.819 Z-3.049
X140.25 Y29.844 Z-3.068
X140.269 Y29.879 Z-3.086
X140.273 Y29.918 Z-3.105
X140.261 Y29.956 Z-3.124
X140.235 Y29.987 Z-3.142
X140.2 Y30.004 Z-3.161
X140.16 Y30.007 Z-3.18
X140.123 Y29.994 Z-3.198
X140.093 Y29.968 Z-3.217
X140.076 Y29.932 Z-3.236
X140.075 Y29.892 Z-3.254
X140.089 Y29.855 Z-3.273
X140.116 Y29.826 Z-3.292
X140.152 Y29.81 Z-3.31
X140.192 Z-3.329
X140.229 Y29.825 Z-3.348
X140.257 Y29.853 Z-3.366
X140.272 Y29.89 Z-3.385
X140.271 Y29.929 Z-3.404
X140.255 Y29.966 Z-3.422
X140.226 Y29.993 Z-3.441
X140.189 Y30.007 Z-3.46
X140.15 Y30.005 Z-3.478
X140.114 Y29.988 Z-3.497
X140.087 Y29.959 Z-3.516
X140.074 Y29.921 Z-3.534
X140.077 Y29.882 Z-3.553
X140.095 Y29.846 Z-3.572
X140.125 Y29.82 Z-3.591
X140.163 Y29.809 Z-3.609
X140.203 Y29.812 Z-3.628
X140.237 Y29.831 Z-3.647
X140.262 Y29.862 Z-3.665
X140.273 Y29.901 Z-3.684
X140.268 Y29.94 Z-3.703
X140.248 Y29.974 Z-3.721
X140.217 Y29.998 Z-3.74
X140.178 Y30.008 Z-3.759
X140.139 Y30.002 Z-3.777
X140.105 Y29.981 Z-3.796
X140.082 Y29.949 Z-3.815
X140.073 Y29.91 Z-3.833
X140.08 Y29.871 Z-3.852
X140.102 Y29.838 Z-3.871
X140.135 Y29.816 Z-3.889
X140.174 Y29.808 Z-3.908
X140.213 Y29.816 Z-3.927
X140.246 Y29.839 Z-3.945
X140.267 Y29.872 Z-3.964
X140.273 Y29.912 Z-3.983
X140.264 Y29.95 Z-4.001
X140.241 Y29.982 Z-4.02
X140.206 Y30.002 Z-4.039
X140.167 Y30.008 Z-4.057
X140.129 Y29.998 Z-4.076
X140.098 Y29.973 Z-4.095
X140.078 Y29.939 Z-4.114
X140.074 Y29.899 Z-4.132
X140.085 Y29.861 Z-4.151
X140.11 Y29.83 Z-4.17
X140.146 Y29.812 Z-4.188
X140.185 Y29.809 Z-4.207
X140.223 Y29.821 Z-4.226
X140.253 Y29.847 Z-4.244
X140.27 Y29.883 Z-4.263
X140.272 Y29.923 Z-4.282
X140.259 Y29.96 Z-4.3
X140.232 Y29.989 Z-4.319
X140.196 Y30.006 Z-4.338
X140.156 Y30.007 Z-4.356
X140.119 Y29.992 Z-4.375
X140.091 Y29.964 Z-4.394
X140.075 Y29.928 Z-4.412
Y29.888 Z-4.431
X140.091 Y29.852 Z-4.45
X140.119 Y29.824 Z-4.468
X140.156 Y29.81 Z-4.487
X140.196 Y29.811 Z-4.506
X140.232 Y29.827 Z-4.524
X140.259 Y29.856 Z-4.543
X140.272 Y29.894 Z-4.562
X140.27 Y29.933 Z-4.58
X140.253 Y29.969 Z-4.599
X140.223 Y29.995 Z-4.618
X140.185 Y30.007 Z-4.636
X140.145 Y30.004 Z-4.655
X140.11 Y29.986 Z-4.674
X140.085 Y29.955 Z-4.693
X140.074 Y29.917 Z-4.711
X140.078 Y29.878 Z-4.73
X140.098 Y29.843 Z-4.749
X140.129 Y29.819 Z-4.767
X140.167 Y29.808 Z-4.786
X140.207 Y29.814 Z-4.805
X140.241 Y29.834 Z-4.823
X140.264 Y29.866 Z-4.842
X140.273 Y29.905 Z-4.861
X140.267 Y29.944 Z-4.879
X140.246 Y29.977 Z-4.898
X140.213 Y30 Z-4.917
X140.174 Y30.008 Z-4.935
X140.135 Y30 Z-4.954
X140.102 Y29.978 Z-4.973
X140.08 Y29.945 Z-4.991
X140.073 Y29.906 Z-5.01
X140.082 Y29.867 Z-5.029
X140.105 Y29.835 Z-5.047
X140.139 Y29.814 Z-5.066
X140.178 Y29.808 Z-5.085
X140.217 Y29.818 Z-5.103
X140.248 Y29.842 Z-5.122
X140.268 Y29.876 Z-5.141
X140.273 Y29.916 Z-5.159
X140.262 Y29.954 Z-5.178
X140.237 Y29.985 Z-5.197
X140.203 Y30.004 Z-5.216
X140.163 Y30.008 Z-5.234
X140.125 Y29.996 Z-5.253
X140.095 Y29.97 Z-5.272
X140.077 Y29.935 Z-5.29
X140.074 Y29.895 Z-5.309
X140.087 Y29.857 Z-5.328
X140.114 Y29.828 Z-5.346
X140.15 Y29.811 Z-5.365
X140.189 Y29.809 Z-5.384
X140.226 Y29.823 Z-5.402
X140.255 Y29.851 Z-5.421
X140.271 Y29.887 Z-5.44
X140.272 Y29.927 Z-5.458
X140.257 Y29.963 Z-5.477
X140.229 Y29.991 Z-5.496
X140.192 Y30.006 Z-5.514
X140.152 Z-5.533
X140.116 Y29.99 Z-5.552
X140.089 Y29.961 Z-5.57
X140.075 Y29.924 Z-5.589
X140.076 Y29.884 Z-5.608
X140.093 Y29.848 Z-5.626
X140.123 Y29.822 Z-5.645
X140.16 Y29.809 Z-5.664
X140.2 Y29.812 Z-5.682
X140.235 Y29.83 Z-5.701
X140.261 Y29.86 Z-5.72
X140.273 Y29.898 Z-5.739
X140.269 Y29.937 Z-5.757
X140.25 Y29.972 Z-5.776
X140.219 Y29.997 Z-5.795
X140.181 Y30.008 Z-5.813
X140.141 Y30.003 Z-5.832
X140.107 Y29.983 Z-5.851
X140.083 Y29.951 Z-5.869
X140.073 Y29.913 Z-5.888
X140.08 Y29.874 Z-5.907
X140.1 Y29.84 Z-5.925
X140.133 Y29.817 Z-5.944
X140.171 Y29.808 Z-5.963
X140.21 Y29.815 Z-5.981
X140.244 Y29.837 Z-6
G3 X140.103 Y29.979 I-0.07 J0.071
X140.244 Y29.837 I0.07 J-0.071
G1 X140.257 Y29.859
Y29.885
X140.244 Y29.908
X140.173
Z5.5
X100.173
Z2.1
Z0.5 F50
X100.121 Y29.861
X100.126 Y29.835
X100.144 Y29.816
X100.168 Y29.808
X100.208 Y29.814 Z0.481 F150
X100.241 Y29.835 Z0.463
X100.265 Y29.867 Z0.444
X100.273 Y29.906 Z0.425
X100.266 Y29.945 Z0.407
X100.245 Y29.978 Z0.388
X100.212 Y30 Z0.369
X100.173 Y30.008 Z0.351
X100.134 Y30 Z0.332
X100.101 Y29.977 Z0.313
X100.08 Y29.944 Z0.295
X100.073 Y29.905 Z0.276
X100.083 Y29.866 Z0.257
X100.106 Y29.834 Z0.239
X100.14 Y29.814 Z0.22
X100.179 Y29.808 Z0.201
X100.218 Y29.818 Z0.182
X100.249 Y29.843 Z0.164
X100.269 Y29.877 Z0.145
X100.273 Y29.917 Z0.126
X100.262 Y29.955 Z0.108
X100.237 Y29.986 Z0.089
X100.201 Y30.004 Z0.07
X100.162 Y30.007 Z0.052
X100.124 Y29.995 Z0.033
X100.094 Y29.969 Z0.014
X100.077 Y29.933 Z-0.004
X100.074 Y29.894 Z-0.023
X100.088 Y29.856 Z-0.042
X100.115 Y29.827 Z-0.06
X100.151 Y29.811 Z-0.079
X100.19 Y29.81 Z-0.098
X100.227 Y29.824 Z-0.116
X100.256 Y29.852 Z-0.135
X100.271 Y29.888 Z-0.154
Y29.928 Z-0.172
X100.256 Y29.964 Z-0.191
X100.228 Y29.992 Z-0.21
X100.191 Y30.007 Z-0.228
X100.151 Y30.006 Z-0.247
X100.115 Y29.989 Z-0.266
X100.088 Y29.96 Z-0.284
X100.074 Y29.923 Z-0.303
X100.077 Y29.883 Z-0.322
X100.094 Y29.847 Z-0.341
X100.124 Y29.821 Z-0.359
X100.162 Y29.809 Z-0.378
X100.201 Y29.812 Z-0.397
X100.236 Y29.83 Z-0.415
X100.262 Y29.861 Z-0.434
X100.273 Y29.899 Z-0.453
X100.269 Y29.938 Z-0.471
X100.249 Y29.973 Z-0.49
X100.218 Y29.998 Z-0.509
X100.18 Y30.008 Z-0.527
X100.14 Y30.002 Z-0.546
X100.106 Y29.982 Z-0.565
X100.083 Y29.95 Z-0.583
X100.073 Y29.912 Z-0.602
X100.08 Y29.873 Z-0.621
X100.101 Y29.839 Z-0.639
X100.134 Y29.816 Z-0.658
X100.173 Y29.808 Z-0.677
X100.212 Y29.816 Z-0.695
X100.244 Y29.838 Z-0.714
X100.266 Y29.871 Z-0.733
X100.273 Y29.91 Z-0.751
X100.265 Y29.949 Z-0.77
X100.242 Y29.981 Z-0.789
X100.208 Y30.002 Z-0.807
X100.169 Y30.008 Z-0.826
X100.13 Y29.998 Z-0.845
X100.098 Y29.974 Z-0.864
X100.079 Y29.94 Z-0.882
X100.074 Y29.901 Z-0.901
X100.084 Y29.862 Z-0.92
X100.109 Y29.831 Z-0.938
X100.144 Y29.812 Z-0.957
X100.184 Y29.809 Z-0.976
X100.221 Y29.82 Z-0.994
X100.252 Y29.846 Z-1.013
X100.27 Y29.881 Z-1.032
X100.273 Y29.921 Z-1.05
X100.26 Y29.959 Z-1.069
X100.233 Y29.988 Z-1.088
X100.197 Y30.005 Z-1.106
X100.158 Y30.007 Z-1.125
X100.121 Y29.993 Z-1.144
X100.092 Y29.966 Z-1.162
X100.076 Y29.929 Z-1.181
X100.075 Y29.89 Z-1.2
X100.09 Y29.853 Z-1.218
X100.118 Y29.825 Z-1.237
X100.155 Y29.81 Z-1.256
X100.194 Z-1.274
X100.231 Y29.826 Z-1.293
X100.258 Y29.855 Z-1.312
X100.272 Y29.892 Z-1.33
X100.271 Y29.932 Z-1.349
X100.254 Y29.968 Z-1.368
X100.224 Y29.994 Z-1.386
X100.187 Y30.007 Z-1.405
X100.147 Y30.005 Z-1.424
X100.111 Y29.987 Z-1.443
X100.086 Y29.956 Z-1.461
X100.074 Y29.919 Z-1.48
X100.078 Y29.879 Z-1.499
X100.097 Y29.844 Z-1.517
X100.128 Y29.819 Z-1.536
X100.166 Y29.808 Z-1.555
X100.205 Y29.813 Z-1.573
X100.239 Y29.833 Z-1.592
X100.263 Y29.865 Z-1.611
X100.273 Y29.903 Z-1.629
X100.267 Y29.942 Z-1.648
X100.247 Y29.976 Z-1.667
X100.214 Y29.999 Z-1.685
X100.176 Y30.008 Z-1.704
X100.136 Y30.001 Z-1.723
X100.103 Y29.979 Z-1.741
X100.081 Y29.946 Z-1.76
X100.073 Y29.907 Z-1.779
X100.081 Y29.869 Z-1.797
X100.104 Y29.836 Z-1.816
X100.138 Y29.815 Z-1.835
X100.177 Y29.808 Z-1.853
X100.215 Y29.817 Z-1.872
X100.247 Y29.841 Z-1.891
X100.268 Y29.875 Z-1.909
X100.273 Y29.914 Z-1.928
X100.263 Y29.953 Z-1.947
X100.239 Y29.984 Z-1.966
X100.204 Y30.003 Z-1.984
X100.165 Y30.008 Z-2.003
X100.126 Y29.996 Z-2.022
X100.096 Y29.971 Z-2.04
X100.077 Y29.936 Z-2.059
X100.074 Y29.896 Z-2.078
X100.086 Y29.859 Z-2.096
X100.112 Y29.829 Z-2.115
X100.148 Y29.811 Z-2.134
X100.188 Y29.809 Z-2.152
X100.225 Y29.822 Z-2.171
X100.254 Y29.849 Z-2.19
X100.271 Y29.885 Z-2.208
X100.272 Y29.925 Z-2.227
X100.258 Y29.962 Z-2.246
X100.23 Y29.991 Z-2.264
X100.193 Y30.006 Z-2.283
X100.154 Z-2.302
X100.117 Y29.991 Z-2.32
X100.089 Y29.962 Z-2.339
X100.075 Y29.925 Z-2.358
X100.076 Y29.886 Z-2.376
X100.092 Y29.849 Z-2.395
X100.122 Y29.823 Z-2.414
X100.159 Y29.809 Z-2.432
X100.199 Y29.811 Z-2.451
X100.234 Y29.829 Z-2.47
X100.26 Y29.859 Z-2.489
X100.273 Y29.896 Z-2.507
X100.269 Y29.936 Z-2.526
X100.251 Y29.971 Z-2.545
X100.22 Y29.996 Z-2.563
X100.182 Y30.008 Z-2.582
X100.143 Y30.003 Z-2.601
X100.108 Y29.984 Z-2.619
X100.084 Y29.953 Z-2.638
X100.074 Y29.914 Z-2.657
X100.079 Y29.875 Z-2.675
X100.099 Y29.841 Z-2.694
X100.131 Y29.817 Z-2.713
X100.17 Y29.808 Z-2.731
X100.209 Y29.815 Z-2.75
X100.243 Y29.836 Z-2.769
X100.265 Y29.869 Z-2.787
X100.273 Y29.907 Z-2.806
X100.266 Y29.946 Z-2.825
X100.244 Y29.979 Z-2.843
X100.21 Y30.001 Z-2.862
X100.171 Y30.008 Z-2.881
X100.133 Y29.999 Z-2.899
X100.1 Y29.976 Z-2.918
X100.079 Y29.943 Z-2.937
X100.073 Y29.903 Z-2.955
X100.083 Y29.865 Z-2.974
X100.107 Y29.833 Z-2.993
X100.142 Y29.813 Z-3.011
X100.181 Y29.808 Z-3.03
X100.219 Y29.819 Z-3.049
X100.25 Y29.844 Z-3.068
X100.269 Y29.879 Z-3.086
X100.273 Y29.918 Z-3.105
X100.261 Y29.956 Z-3.124
X100.235 Y29.987 Z-3.142
X100.2 Y30.004 Z-3.161
X100.16 Y30.007 Z-3.18
X100.123 Y29.994 Z-3.198
X100.093 Y29.968 Z-3.217
X100.076 Y29.932 Z-3.236
X100.075 Y29.892 Z-3.254
X100.089 Y29.855 Z-3.273
X100.116 Y29.826 Z-3.292
X100.152 Y29.81 Z-3.31
X100.192 Z-3.329
X100.229 Y29.825 Z-3.348
X100.257 Y29.853 Z-3.366
X100.272 Y29.89 Z-3.385
X100.271 Y29.929 Z-3.404
X100.255 Y29.966 Z-3.422
X100.226 Y29.993 Z-3.441
X100.189 Y30.007 Z-3.46
X100.15 Y30.005 Z-3.478
X100.114 Y29.988 Z-3.497
X100.087 Y29.959 Z-3.516
X100.074 Y29.921 Z-3.534
X100.077 Y29.882 Z-3.553
X100.095 Y29.846 Z-3.572
X100.125 Y29.82 Z-3.591
X100.163 Y29.809 Z-3.609
X100.203 Y29.812 Z-3.628
X100.237 Y29.831 Z-3.647
X100.262 Y29.862 Z-3.665
X100.273 Y29.901 Z-3.684
X100.268 Y29.94 Z-3.703
X100.248 Y29.974 Z-3.721
X100.217 Y29.998 Z-3.74
X100.178 Y30.008 Z-3.759
X100.139 Y30.002 Z-3.777
X100.105 Y29.981 Z-3.796
X100.082 Y29.949 Z-3.815
X100.073 Y29.91 Z-3.833
X100.08 Y29.871 Z-3.852
X100.102 Y29.838 Z-3.871
X100.135 Y29.816 Z-3.889
X100.174 Y29.808 Z-3.908
X100.213 Y29.816 Z-3.927
X100.246 Y29.839 Z-3.945
X100.267 Y29.872 Z-3.964
X100.273 Y29.912 Z-3.983
X100.264 Y29.95 Z-4.001
X100.241 Y29.982 Z-4.02
X100.206 Y30.002 Z-4.039
X100.167 Y30.008 Z-4.057
X100.129 Y29.998 Z-4.076
X100.098 Y29.973 Z-4.095
X100.078 Y29.939 Z-4.114
X100.074 Y29.899 Z-4.132
X100.085 Y29.861 Z-4.151
X100.11 Y29.83 Z-4.17
X100.146 Y29.812 Z-4.188
X100.185 Y29.809 Z-4.207
X100.223 Y29.821 Z-4.226
X100.253 Y29.847 Z-4.244
X100.27 Y29.883 Z-4.263
X100.272 Y29.923 Z-4.282
X100.259 Y29.96 Z-4.3
X100.232 Y29.989 Z-4.319
X100.196 Y30.006 Z-4.338
X100.156 Y30.007 Z-4.356
X100.119 Y29.992 Z-4.375
X100.091 Y29.964 Z-4.394
X100.075 Y29.928 Z-4.412
Y29.888 Z-4.431
X100.091 Y29.852 Z-4.45
X100.119 Y29.824 Z-4.468
X100.156 Y29.81 Z-4.487
X100.196 Y29.811 Z-4.506
X100.232 Y29.827 Z-4.524
X100.259 Y29.856 Z-4.543
X100.272 Y29.894 Z-4.562
X100.27 Y29.933 Z-4.58
X100.253 Y29.969 Z-4.599
X100.223 Y29.995 Z-4.618
X100.185 Y30.007 Z-4.636
X100.145 Y30.004 Z-4.655
X100.11 Y29.986 Z-4.674
X100.085 Y29.955 Z-4.693
X100.074 Y29.917 Z-4.711
X100.078 Y29.878 Z-4.73
X100.098 Y29.843 Z-4.749
X100.129 Y29.819 Z-4.767
X100.167 Y29.808 Z-4.786
X100.207 Y29.814 Z-4.805
X100.241 Y29.834 Z-4.823
X100.264 Y29.866 Z-4.842
X100.273 Y29.905 Z-4.861
X100.267 Y29.944 Z-4.879
X100.246 Y29.977 Z-4.898
X100.213 Y30 Z-4.917
X100.174 Y30.008 Z-4.935
X100.135 Y30 Z-4.954
X100.102 Y29.978 Z-4.973
X100.08 Y29.945 Z-4.991
X100.073 Y29.906 Z-5.01
X100.082 Y29.867 Z-5.029
X100.105 Y29.835 Z-5.047
X100.139 Y29.814 Z-5.066
X100.178 Y29.808 Z-5.085
X100.217 Y29.818 Z-5.103
X100.248 Y29.842 Z-5.122
X100.268 Y29.876 Z-5.141
X100.273 Y29.916 Z-5.159
X100.262 Y29.954 Z-5.178
X100.237 Y29.985 Z-5.197
X100.203 Y30.004 Z-5.216
X100.163 Y30.008 Z-5.234
X100.125 Y29.996 Z-5.253
X100.095 Y29.97 Z-5.272
X100.077 Y29.935 Z-5.29
X100.074 Y29.895 Z-5.309
X100.087 Y29.857 Z-5.328
X100.114 Y29.828 Z-5.346
X100.15 Y29.811 Z-5.365
X100.189 Y29.809 Z-5.384
X100.226 Y29.823 Z-5.402
X100.255 Y29.851 Z-5.421
X100.271 Y29.887 Z-5.44
X100.272 Y29.927 Z-5.458
X100.257 Y29.963 Z-5.477
X100.229 Y29.991 Z-5.496
X100.192 Y30.006 Z-5.514
X100.152 Z-5.533
X100.116 Y29.99 Z-5.552
X100.089 Y29.961 Z-5.57
X100.075 Y29.924 Z-5.589
X100.076 Y29.884 Z-5.608
X100.093 Y29.848 Z-5.626
X100.123 Y29.822 Z-5.645
X100.16 Y29.809 Z-5.664
X100.2 Y29.812 Z-5.682
X100.235 Y29.83 Z-5.701
X100.261 Y29.86 Z-5.72
X100.273 Y29.898 Z-5.739
X100.269 Y29.937 Z-5.757
X100.25 Y29.972 Z-5.776
X100.219 Y29.997 Z-5.795
X100.181 Y30.008 Z-5.813
X100.141 Y30.003 Z-5.832
X100.107 Y29.983 Z-5.851
X100.083 Y29.951 Z-5.869
X100.073 Y29.913 Z-5.888
X100.08 Y29.874 Z-5.907
X100.1 Y29.84 Z-5.925
X100.133 Y29.817 Z-5.944
X100.171 Y29.808 Z-5.963
X100.21 Y29.815 Z-5.981
X100.244 Y29.837 Z-6
G3 X100.103 Y29.979 I-0.07 J0.071
X100.244 Y29.837 I0.07 J-0.071
G1 X100.257 Y29.859
Y29.885
X100.244 Y29.908
X100.173
Z5.5
X100 Y29.91
Z2.1
Z0.5 F50
X100.052 Y29.957
X100.047 Y29.982
X100.03 Y30.002
X100.005 Y30.009
X99.966 Y30.004 Z0.481 F150
X99.932 Y29.983 Z0.463
X99.909 Y29.951 Z0.444
X99.9 Y29.912 Z0.425
X99.907 Y29.873 Z0.407
X99.929 Y29.84 Z0.388
X99.962 Y29.817 Z0.369
X100.001 Y29.81 Z0.351
X100.039 Y29.818 Z0.332
X100.072 Y29.84 Z0.313
X100.093 Y29.874 Z0.295
X100.1 Y29.913 Z0.276
X100.091 Y29.952 Z0.257
X100.067 Y29.984 Z0.239
X100.033 Y30.004 Z0.22
X99.994 Y30.009 Z0.201
X99.956 Y29.999 Z0.182
X99.924 Y29.975 Z0.164
X99.905 Y29.94 Z0.145
X99.9 Y29.901 Z0.126
X99.912 Y29.863 Z0.108
X99.937 Y29.832 Z0.089
X99.972 Y29.814 Z0.07
X100.012 Y29.81 Z0.052
X100.049 Y29.823 Z0.033
X100.079 Y29.849 Z0.014
X100.097 Y29.884 Z-0.004
X100.099 Y29.924 Z-0.023
X100.086 Y29.961 Z-0.042
X100.059 Y29.99 Z-0.06
X100.023 Y30.007 Z-0.079
X99.983 Y30.008 Z-0.098
X99.946 Y29.994 Z-0.116
X99.918 Y29.966 Z-0.135
X99.902 Y29.93 Z-0.154
Y29.89 Z-0.172
X99.917 Y29.853 Z-0.191
X99.946 Y29.826 Z-0.21
X99.983 Y29.811 Z-0.228
X100.022 Y29.812 Z-0.247
X100.059 Y29.829 Z-0.266
X100.085 Y29.858 Z-0.284
X100.099 Y29.895 Z-0.303
X100.097 Y29.935 Z-0.322
X100.079 Y29.97 Z-0.341
X100.05 Y29.996 Z-0.359
X100.012 Y30.009 Z-0.378
X99.972 Y30.006 Z-0.397
X99.937 Y29.987 Z-0.415
X99.912 Y29.957 Z-0.434
X99.9 Y29.919 Z-0.453
X99.905 Y29.879 Z-0.471
X99.924 Y29.845 Z-0.49
X99.955 Y29.82 Z-0.509
X99.994 Y29.81 Z-0.527
X100.033 Y29.815 Z-0.546
X100.067 Y29.835 Z-0.565
X100.091 Y29.867 Z-0.583
X100.1 Y29.906 Z-0.602
X100.093 Y29.945 Z-0.621
X100.072 Y29.979 Z-0.639
X100.04 Y30.001 Z-0.658
X100.001 Y30.01 Z-0.677
X99.962 Y30.002 Z-0.695
X99.929 Y29.98 Z-0.714
X99.907 Y29.947 Z-0.733
X99.9 Y29.908 Z-0.751
X99.909 Y29.869 Z-0.77
X99.932 Y29.837 Z-0.789
X99.965 Y29.816 Z-0.807
X100.005 Y29.81 Z-0.826
X100.043 Y29.819 Z-0.845
X100.075 Y29.843 Z-0.864
X100.095 Y29.878 Z-0.882
X100.1 Y29.917 Z-0.901
X100.089 Y29.955 Z-0.92
X100.064 Y29.986 Z-0.938
X100.029 Y30.005 Z-0.957
X99.99 Y30.009 Z-0.976
X99.952 Y29.997 Z-0.994
X99.922 Y29.972 Z-1.013
X99.904 Y29.936 Z-1.032
X99.901 Y29.897 Z-1.05
X99.914 Y29.859 Z-1.069
X99.94 Y29.83 Z-1.088
X99.976 Y29.813 Z-1.106
X100.016 Y29.811 Z-1.125
X100.053 Y29.825 Z-1.144
X100.082 Y29.852 Z-1.162
X100.098 Y29.888 Z-1.181
Y29.928 Z-1.2
X100.083 Y29.965 Z-1.218
X100.055 Y29.993 Z-1.237
X100.019 Y30.008 Z-1.256
X99.979 Y30.007 Z-1.274
X99.943 Y29.991 Z-1.293
X99.915 Y29.963 Z-1.312
X99.901 Y29.925 Z-1.33
X99.903 Y29.886 Z-1.349
X99.92 Y29.85 Z-1.368
X99.949 Y29.823 Z-1.386
X99.987 Y29.81 Z-1.405
X100.026 Y29.813 Z-1.424
X100.062 Y29.831 Z-1.443
X100.088 Y29.861 Z-1.461
X100.099 Y29.899 Z-1.48
X100.096 Y29.939 Z-1.499
X100.077 Y29.974 Z-1.517
X100.046 Y29.998 Z-1.536
X100.008 Y30.009 Z-1.555
X99.968 Y30.004 Z-1.573
X99.934 Y29.985 Z-1.592
X99.91 Y29.953 Z-1.611
X99.9 Y29.915 Z-1.629
X99.906 Y29.875 Z-1.648
X99.927 Y29.841 Z-1.667
X99.959 Y29.818 Z-1.685
X99.998 Y29.81 Z-1.704
X100.037 Y29.817 Z-1.723
X100.07 Y29.838 Z-1.741
X100.092 Y29.871 Z-1.76
X100.1 Y29.91 Z-1.779
X100.092 Y29.949 Z-1.797
X100.069 Y29.982 Z-1.816
X100.036 Y30.003 Z-1.835
X99.997 Y30.01 Z-1.853
X99.958 Y30 Z-1.872
X99.926 Y29.977 Z-1.891
X99.906 Y29.943 Z-1.909
X99.9 Y29.903 Z-1.928
X99.91 Y29.865 Z-1.947
X99.935 Y29.834 Z-1.966
X99.969 Y29.814 Z-1.984
X100.009 Y29.81 Z-2.003
X100.047 Y29.821 Z-2.022
X100.078 Y29.847 Z-2.04
X100.096 Y29.882 Z-2.059
X100.099 Y29.921 Z-2.078
X100.087 Y29.959 Z-2.096
X100.061 Y29.989 Z-2.115
X100.025 Y30.006 Z-2.134
X99.986 Y30.009 Z-2.152
X99.948 Y29.995 Z-2.171
X99.919 Y29.968 Z-2.19
X99.903 Y29.932 Z-2.208
X99.901 Y29.893 Z-2.227
X99.916 Y29.856 Z-2.246
X99.944 Y29.827 Z-2.264
X99.98 Y29.812 Z-2.283
X100.02 Z-2.302
X100.056 Y29.827 Z-2.32
X100.084 Y29.855 Z-2.339
X100.099 Y29.892 Z-2.358
X100.097 Y29.932 Z-2.376
X100.081 Y29.968 Z-2.395
X100.052 Y29.995 Z-2.414
X100.014 Y30.009 Z-2.432
X99.975 Y30.006 Z-2.451
X99.939 Y29.989 Z-2.47
X99.913 Y29.959 Z-2.489
X99.901 Y29.921 Z-2.507
X99.904 Y29.882 Z-2.526
X99.922 Y29.847 Z-2.545
X99.953 Y29.821 Z-2.563
X99.991 Y29.81 Z-2.582
X100.03 Y29.814 Z-2.601
X100.065 Y29.834 Z-2.619
X100.09 Y29.865 Z-2.638
X100.1 Y29.903 Z-2.657
X100.094 Y29.943 Z-2.675
X100.074 Y29.977 Z-2.694
X100.042 Y30 Z-2.713
X100.003 Y30.01 Z-2.731
X99.964 Y30.003 Z-2.75
X99.931 Y29.982 Z-2.769
X99.908 Y29.949 Z-2.787
X99.9 Y29.91 Z-2.806
X99.908 Y29.871 Z-2.825
X99.93 Y29.838 Z-2.843
X99.963 Y29.817 Z-2.862
X100.002 Y29.81 Z-2.881
X100.041 Y29.818 Z-2.899
X100.073 Y29.841 Z-2.918
X100.094 Y29.875 Z-2.937
X100.1 Y29.914 Z-2.955
X100.09 Y29.953 Z-2.974
X100.066 Y29.985 Z-2.993
X100.032 Y30.004 Z-3.011
X99.992 Y30.009 Z-3.03
X99.954 Y29.999 Z-3.049
X99.923 Y29.974 Z-3.068
X99.904 Y29.939 Z-3.086
X99.901 Y29.899 Z-3.105
X99.912 Y29.861 Z-3.124
X99.938 Y29.831 Z-3.142
X99.973 Y29.813 Z-3.161
X100.013 Y29.81 Z-3.18
X100.051 Y29.823 Z-3.198
X100.08 Y29.85 Z-3.217
X100.097 Y29.886 Z-3.236
X100.099 Y29.925 Z-3.254
X100.085 Y29.963 Z-3.273
X100.058 Y29.991 Z-3.292
X100.021 Y30.007 Z-3.31
X99.982 Y30.008 Z-3.329
X99.945 Y29.993 Z-3.348
X99.917 Y29.965 Z-3.366
X99.902 Y29.928 Z-3.385
Y29.888 Z-3.404
X99.918 Y29.852 Z-3.422
X99.947 Y29.825 Z-3.441
X99.984 Y29.811 Z-3.46
X100.024 Y29.812 Z-3.478
X100.06 Y29.829 Z-3.497
X100.086 Y29.859 Z-3.516
X100.099 Y29.897 Z-3.534
X100.096 Y29.936 Z-3.553
X100.079 Y29.972 Z-3.572
X100.048 Y29.997 Z-3.591
X100.01 Y30.009 Z-3.609
X99.971 Y30.005 Z-3.628
X99.936 Y29.986 Z-3.647
X99.911 Y29.955 Z-3.665
X99.9 Y29.917 Z-3.684
X99.905 Y29.878 Z-3.703
X99.925 Y29.843 Z-3.721
X99.957 Y29.819 Z-3.74
X99.995 Y29.81 Z-3.759
X100.034 Y29.816 Z-3.777
X100.068 Y29.836 Z-3.796
X100.091 Y29.869 Z-3.815
X100.1 Y29.908 Z-3.833
X100.093 Y29.947 Z-3.852
X100.071 Y29.98 Z-3.871
X100.038 Y30.002 Z-3.889
X99.999 Y30.01 Z-3.908
X99.96 Y30.001 Z-3.927
X99.928 Y29.979 Z-3.945
X99.907 Y29.945 Z-3.964
X99.9 Y29.906 Z-3.983
X99.909 Y29.868 Z-4.001
X99.933 Y29.836 Z-4.02
X99.967 Y29.815 Z-4.039
X100.006 Y29.81 Z-4.057
X100.045 Y29.82 Z-4.076
X100.076 Y29.844 Z-4.095
X100.095 Y29.879 Z-4.114
X100.1 Y29.919 Z-4.132
X100.088 Y29.957 Z-4.151
X100.063 Y29.987 Z-4.17
X100.028 Y30.006 Z-4.188
X99.988 Y30.009 Z-4.207
X99.951 Y29.997 Z-4.226
X99.921 Y29.97 Z-4.244
X99.903 Y29.935 Z-4.263
X99.901 Y29.895 Z-4.282
X99.914 Y29.858 Z-4.3
X99.941 Y29.829 Z-4.319
X99.977 Y29.812 Z-4.338
X100.017 Y29.811 Z-4.356
X100.054 Y29.826 Z-4.375
X100.083 Y29.853 Z-4.394
X100.098 Y29.89 Z-4.412
Y29.929 Z-4.431
X100.083 Y29.966 Z-4.45
X100.054 Y29.994 Z-4.468
X100.017 Y30.008 Z-4.487
X99.977 Y30.007 Z-4.506
X99.941 Y29.991 Z-4.524
X99.914 Y29.961 Z-4.543
X99.901 Y29.924 Z-4.562
X99.903 Y29.884 Z-4.58
X99.921 Y29.849 Z-4.599
X99.951 Y29.823 Z-4.618
X99.988 Y29.81 Z-4.636
X100.028 Y29.814 Z-4.655
X100.063 Y29.832 Z-4.674
X100.088 Y29.863 Z-4.693
X100.1 Y29.901 Z-4.711
X100.095 Y29.94 Z-4.73
X100.076 Y29.975 Z-4.749
X100.045 Y29.999 Z-4.767
X100.006 Y30.009 Z-4.786
X99.967 Y30.004 Z-4.805
X99.933 Y29.984 Z-4.823
X99.909 Y29.952 Z-4.842
X99.9 Y29.913 Z-4.861
X99.907 Y29.874 Z-4.879
X99.928 Y29.84 Z-4.898
X99.96 Y29.818 Z-4.917
X99.999 Y29.81 Z-4.935
X100.038 Y29.817 Z-4.954
X100.071 Y29.839 Z-4.973
X100.093 Y29.873 Z-4.991
X100.1 Y29.912 Z-5.01
X100.091 Y29.95 Z-5.029
X100.068 Y29.983 Z-5.047
X100.034 Y30.004 Z-5.066
X99.995 Y30.009 Z-5.085
X99.957 Y30 Z-5.103
X99.925 Y29.976 Z-5.122
X99.905 Y29.941 Z-5.141
X99.9 Y29.902 Z-5.159
X99.911 Y29.864 Z-5.178
X99.936 Y29.833 Z-5.197
X99.971 Y29.814 Z-5.216
X100.01 Y29.81 Z-5.234
X100.048 Y29.822 Z-5.253
X100.079 Y29.848 Z-5.272
X100.096 Y29.883 Z-5.29
X100.099 Y29.923 Z-5.309
X100.086 Y29.96 Z-5.328
X100.06 Y29.99 Z-5.346
X100.024 Y30.007 Z-5.365
X99.984 Y30.008 Z-5.384
X99.947 Y29.994 Z-5.402
X99.918 Y29.967 Z-5.421
X99.902 Y29.931 Z-5.44
Y29.891 Z-5.458
X99.917 Y29.854 Z-5.477
X99.945 Y29.826 Z-5.496
X99.982 Y29.811 Z-5.514
X100.021 Y29.812 Z-5.533
X100.058 Y29.828 Z-5.552
X100.085 Y29.857 Z-5.57
X100.099 Y29.894 Z-5.589
X100.097 Y29.934 Z-5.608
X100.08 Y29.969 Z-5.626
X100.051 Y29.996 Z-5.645
X100.013 Y30.009 Z-5.664
X99.973 Y30.006 Z-5.682
X99.938 Y29.988 Z-5.701
X99.912 Y29.958 Z-5.72
X99.901 Y29.92 Z-5.739
X99.904 Y29.88 Z-5.757
X99.923 Y29.845 Z-5.776
X99.954 Y29.821 Z-5.795
X99.992 Y29.81 Z-5.813
X100.032 Y29.815 Z-5.832
X100.066 Y29.835 Z-5.851
X100.09 Y29.866 Z-5.869
X100.1 Y29.905 Z-5.888
X100.094 Y29.944 Z-5.907
X100.073 Y29.978 Z-5.925
X100.041 Y30.001 Z-5.944
X100.002 Y30.01 Z-5.963
X99.963 Y30.002 Z-5.981
X99.93 Y29.981 Z-6
G3 X100.07 Y29.838 I0.07 J-0.071
X99.93 Y29.981 I-0.07 J0.071
G1 X99.917 Y29.958
X99.916 Y29.933
X99.929 Y29.91
X100
Z5.5
X100.173 Y53.908
Z2.1
Z0.5 F50
X100.223 Y53.958
X100.217 Y53.983
X100.198 Y54.001
X100.173 Y54.008
X100.134 Y54 Z0.481 F150
X100.102 Y53.978 Z0.463
X100.08 Y53.944 Z0.444
X100.073 Y53.905 Z0.425
X100.082 Y53.867 Z0.407
X100.106 Y53.835 Z0.388
X100.14 Y53.814 Z0.369
X100.179 Y53.808 Z0.351
X100.217 Y53.818 Z0.332
X100.249 Y53.842 Z0.313
X100.268 Y53.877 Z0.295
X100.273 Y53.916 Z0.276
X100.262 Y53.954 Z0.257
X100.237 Y53.985 Z0.239
X100.202 Y54.004 Z0.22
X100.162 Y54.007 Z0.201
X100.125 Y53.995 Z0.182
X100.094 Y53.969 Z0.164
X100.077 Y53.934 Z0.145
X100.074 Y53.894 Z0.126
X100.087 Y53.857 Z0.108
X100.114 Y53.828 Z0.089
X100.15 Y53.811 Z0.07
X100.19 Y53.809 Z0.052
X100.227 Y53.824 Z0.033
X100.256 Y53.851 Z0.014
X100.271 Y53.888 Z-0.004
X100.272 Y53.927 Z-0.023
X100.256 Y53.964 Z-0.042
X100.228 Y53.992 Z-0.06
X100.191 Y54.006 Z-0.079
X100.151 Z-0.098
X100.115 Y53.989 Z-0.116
X100.088 Y53.96 Z-0.135
X100.075 Y53.923 Z-0.154
X100.076 Y53.884 Z-0.172
X100.094 Y53.848 Z-0.191
X100.123 Y53.821 Z-0.21
X100.161 Y53.809 Z-0.228
X100.201 Y53.812 Z-0.247
X100.236 Y53.83 Z-0.266
X100.261 Y53.861 Z-0.284
X100.273 Y53.898 Z-0.303
X100.269 Y53.938 Z-0.322
X100.25 Y53.973 Z-0.341
X100.218 Y53.997 Z-0.359
X100.18 Y54.008 Z-0.378
X100.141 Y54.003 Z-0.397
X100.107 Y53.983 Z-0.415
X100.083 Y53.951 Z-0.434
X100.073 Y53.912 Z-0.453
X100.08 Y53.873 Z-0.471
X100.101 Y53.839 Z-0.49
X100.133 Y53.816 Z-0.509
X100.172 Y53.808 Z-0.527
X100.211 Y53.815 Z-0.546
X100.244 Y53.837 Z-0.565
X100.266 Y53.87 Z-0.583
X100.273 Y53.91 Z-0.602
X100.265 Y53.948 Z-0.621
X100.242 Y53.981 Z-0.639
X100.208 Y54.002 Z-0.658
X100.169 Y54.008 Z-0.677
X100.131 Y53.999 Z-0.695
X100.099 Y53.975 Z-0.714
X100.079 Y53.941 Z-0.733
X100.074 Y53.901 Z-0.751
X100.084 Y53.863 Z-0.77
X100.109 Y53.832 Z-0.789
X100.144 Y53.813 Z-0.807
X100.183 Y53.809 Z-0.826
X100.221 Y53.82 Z-0.845
X100.251 Y53.846 Z-0.864
X100.27 Y53.881 Z-0.882
X100.273 Y53.921 Z-0.901
X100.26 Y53.958 Z-0.92
X100.234 Y53.988 Z-0.938
X100.198 Y54.005 Z-0.957
X100.158 Y54.007 Z-0.976
X100.121 Y53.993 Z-0.994
X100.092 Y53.966 Z-1.013
X100.076 Y53.93 Z-1.032
X100.075 Y53.89 Z-1.05
X100.09 Y53.853 Z-1.069
X100.118 Y53.825 Z-1.088
X100.154 Y53.81 Z-1.106
X100.194 Z-1.125
X100.23 Y53.826 Z-1.144
X100.258 Y53.855 Z-1.162
X100.272 Y53.892 Z-1.181
X100.271 Y53.931 Z-1.2
X100.254 Y53.967 Z-1.218
X100.224 Y53.994 Z-1.237
X100.187 Y54.007 Z-1.256
X100.147 Y54.005 Z-1.274
X100.112 Y53.987 Z-1.293
X100.086 Y53.957 Z-1.312
X100.074 Y53.919 Z-1.33
X100.078 Y53.879 Z-1.349
X100.096 Y53.844 Z-1.368
X100.127 Y53.819 Z-1.386
X100.165 Y53.808 Z-1.405
X100.205 Y53.813 Z-1.424
X100.239 Y53.833 Z-1.443
X100.263 Y53.864 Z-1.461
X100.273 Y53.903 Z-1.48
X100.267 Y53.942 Z-1.499
X100.247 Y53.976 Z-1.517
X100.215 Y53.999 Z-1.536
X100.176 Y54.008 Z-1.555
X100.137 Y54.001 Z-1.573
X100.104 Y53.98 Z-1.592
X100.081 Y53.947 Z-1.611
X100.073 Y53.908 Z-1.629
X100.081 Y53.869 Z-1.648
X100.104 Y53.836 Z-1.667
X100.137 Y53.815 Z-1.685
X100.176 Y53.808 Z-1.704
X100.215 Y53.817 Z-1.723
X100.247 Y53.84 Z-1.741
X100.268 Y53.874 Z-1.76
X100.273 Y53.914 Z-1.779
X100.263 Y53.952 Z-1.797
X100.239 Y53.984 Z-1.816
X100.204 Y54.003 Z-1.835
X100.165 Y54.008 Z-1.853
X100.127 Y53.997 Z-1.872
X100.096 Y53.972 Z-1.891
X100.078 Y53.937 Z-1.909
X100.074 Y53.897 Z-1.928
X100.086 Y53.859 Z-1.947
X100.112 Y53.829 Z-1.966
X100.148 Y53.811 Z-1.984
X100.187 Y53.809 Z-2.003
X100.225 Y53.822 Z-2.022
X100.254 Y53.849 Z-2.04
X100.271 Y53.885 Z-2.059
X100.272 Y53.925 Z-2.078
X100.258 Y53.962 Z-2.096
X100.23 Y53.99 Z-2.115
X100.194 Y54.006 Z-2.134
X100.154 Z-2.152
X100.117 Y53.991 Z-2.171
X100.09 Y53.963 Z-2.19
X100.075 Y53.926 Z-2.208
X100.076 Y53.886 Z-2.227
X100.092 Y53.85 Z-2.246
X100.121 Y53.823 Z-2.264
X100.158 Y53.809 Z-2.283
X100.198 Y53.811 Z-2.302
X100.234 Y53.828 Z-2.32
X100.26 Y53.858 Z-2.339
X100.273 Y53.896 Z-2.358
X100.27 Y53.935 Z-2.376
X100.251 Y53.971 Z-2.395
X100.221 Y53.996 Z-2.414
X100.183 Y54.008 Z-2.432
X100.143 Y54.003 Z-2.451
X100.109 Y53.984 Z-2.47
X100.084 Y53.953 Z-2.489
X100.074 Y53.915 Z-2.507
X100.079 Y53.876 Z-2.526
X100.099 Y53.841 Z-2.545
X100.131 Y53.818 Z-2.563
X100.169 Y53.808 Z-2.582
X100.209 Y53.814 Z-2.601
X100.242 Y53.836 Z-2.619
X100.265 Y53.868 Z-2.638
X100.273 Y53.907 Z-2.657
X100.266 Y53.946 Z-2.675
X100.244 Y53.979 Z-2.694
X100.211 Y54.001 Z-2.713
X100.172 Y54.008 Z-2.731
X100.133 Y54 Z-2.75
X100.101 Y53.977 Z-2.769
X100.08 Y53.943 Z-2.787
X100.073 Y53.904 Z-2.806
X100.083 Y53.865 Z-2.825
X100.107 Y53.834 Z-2.843
X100.141 Y53.813 Z-2.862
X100.18 Y53.808 Z-2.881
X100.219 Y53.819 Z-2.899
X100.25 Y53.844 Z-2.918
X100.269 Y53.878 Z-2.937
X100.273 Y53.918 Z-2.955
X100.261 Y53.956 Z-2.974
X100.236 Y53.986 Z-2.993
X100.2 Y54.004 Z-3.011
X100.161 Y54.007 Z-3.03
X100.123 Y53.995 Z-3.049
X100.094 Y53.968 Z-3.068
X100.076 Y53.933 Z-3.086
X100.075 Y53.893 Z-3.105
X100.088 Y53.856 Z-3.124
X100.115 Y53.827 Z-3.142
X100.152 Y53.81 Z-3.161
X100.191 Z-3.18
X100.228 Y53.824 Z-3.198
X100.256 Y53.852 Z-3.217
X100.272 Y53.889 Z-3.236
X100.271 Y53.929 Z-3.254
X100.255 Y53.965 Z-3.273
X100.227 Y53.993 Z-3.292
X100.19 Y54.007 Z-3.31
X100.15 Y54.005 Z-3.329
X100.114 Y53.989 Z-3.348
X100.087 Y53.959 Z-3.366
X100.074 Y53.922 Z-3.385
X100.077 Y53.882 Z-3.404
X100.095 Y53.847 Z-3.422
X100.125 Y53.821 Z-3.441
X100.163 Y53.809 Z-3.46
X100.202 Y53.812 Z-3.478
X100.237 Y53.831 Z-3.497
X100.262 Y53.862 Z-3.516
X100.273 Y53.9 Z-3.534
X100.268 Y53.939 Z-3.553
X100.249 Y53.974 Z-3.572
X100.217 Y53.998 Z-3.591
X100.179 Y54.008 Z-3.609
X100.139 Y54.002 Z-3.628
X100.106 Y53.982 Z-3.647
X100.082 Y53.949 Z-3.665
X100.073 Y53.911 Z-3.684
X100.08 Y53.872 Z-3.703
X100.102 Y53.838 Z-3.721
X100.135 Y53.816 Z-3.74
X100.174 Y53.808 Z-3.759
X100.212 Y53.816 Z-3.777
X100.245 Y53.838 Z-3.796
X100.267 Y53.872 Z-3.815
X100.273 Y53.911 Z-3.833
X100.264 Y53.95 Z-3.852
X100.241 Y53.982 Z-3.871
X100.207 Y54.002 Z-3.889
X100.168 Y54.008 Z-3.908
X100.129 Y53.998 Z-3.927
X100.098 Y53.974 Z-3.945
X100.078 Y53.939 Z-3.964
X100.074 Y53.9 Z-3.983
X100.085 Y53.862 Z-4.001
X100.11 Y53.831 Z-4.02
X100.145 Y53.812 Z-4.039
X100.185 Y53.809 Z-4.057
X100.222 Y53.821 Z-4.076
X100.252 Y53.847 Z-4.095
X100.27 Y53.882 Z-4.114
X100.272 Y53.922 Z-4.132
X100.259 Y53.959 Z-4.151
X100.232 Y53.989 Z-4.17
X100.196 Y54.005 Z-4.188
X100.157 Y54.007 Z-4.207
X100.12 Y53.992 Z-4.226
X100.091 Y53.965 Z-4.244
X100.075 Y53.928 Z-4.263
Y53.889 Z-4.282
X100.091 Y53.852 Z-4.3
X100.119 Y53.824 Z-4.319
X100.156 Y53.81 Z-4.338
X100.195 Y53.811 Z-4.356
X100.232 Y53.827 Z-4.375
X100.259 Y53.856 Z-4.394
X100.272 Y53.893 Z-4.412
X100.27 Y53.933 Z-4.431
X100.253 Y53.969 Z-4.45
X100.223 Y53.995 Z-4.468
X100.186 Y54.007 Z-4.487
X100.146 Y54.004 Z-4.506
X100.111 Y53.986 Z-4.524
X100.085 Y53.956 Z-4.543
X100.074 Y53.918 Z-4.562
X100.078 Y53.878 Z-4.58
X100.097 Y53.843 Z-4.599
X100.128 Y53.819 Z-4.618
X100.167 Y53.808 Z-4.636
X100.206 Y53.814 Z-4.655
X100.24 Y53.834 Z-4.674
X100.264 Y53.866 Z-4.693
X100.273 Y53.904 Z-4.711
X100.267 Y53.943 Z-4.73
X100.246 Y53.977 Z-4.749
X100.213 Y54 Z-4.767
X100.175 Y54.008 Z-4.786
X100.136 Y54.001 Z-4.805
X100.103 Y53.979 Z-4.823
X100.081 Y53.946 Z-4.842
X100.073 Y53.907 Z-4.861
X100.082 Y53.868 Z-4.879
X100.105 Y53.835 Z-4.898
X100.139 Y53.814 Z-4.917
X100.178 Y53.808 Z-4.935
X100.216 Y53.818 Z-4.954
X100.248 Y53.842 Z-4.973
X100.268 Y53.876 Z-4.991
X100.273 Y53.915 Z-5.01
X100.262 Y53.953 Z-5.029
X100.238 Y53.985 Z-5.047
X100.203 Y54.004 Z-5.066
X100.164 Y54.008 Z-5.085
X100.126 Y53.996 Z-5.103
X100.095 Y53.97 Z-5.122
X100.077 Y53.935 Z-5.141
X100.074 Y53.896 Z-5.159
X100.087 Y53.858 Z-5.178
X100.113 Y53.828 Z-5.197
X100.149 Y53.811 Z-5.216
X100.189 Y53.809 Z-5.234
X100.226 Y53.823 Z-5.253
X100.255 Y53.85 Z-5.272
X100.271 Y53.886 Z-5.29
X100.272 Y53.926 Z-5.309
X100.257 Y53.963 Z-5.328
X100.229 Y53.991 Z-5.346
X100.192 Y54.006 Z-5.365
X100.153 Z-5.384
X100.116 Y53.99 Z-5.402
X100.089 Y53.961 Z-5.421
X100.075 Y53.924 Z-5.44
X100.076 Y53.885 Z-5.458
X100.093 Y53.849 Z-5.477
X100.122 Y53.822 Z-5.496
X100.16 Y53.809 Z-5.514
X100.199 Y53.812 Z-5.533
X100.235 Y53.829 Z-5.552
X100.261 Y53.859 Z-5.57
X100.273 Y53.897 Z-5.589
X100.269 Y53.937 Z-5.608
X100.25 Y53.972 Z-5.626
X100.22 Y53.997 Z-5.645
X100.181 Y54.008 Z-5.664
X100.142 Y54.003 Z-5.682
X100.108 Y53.983 Z-5.701
X100.083 Y53.952 Z-5.72
X100.074 Y53.913 Z-5.739
X100.079 Y53.874 Z-5.757
X100.1 Y53.84 Z-5.776
X100.132 Y53.817 Z-5.795
X100.171 Y53.808 Z-5.813
X100.21 Y53.815 Z-5.832
X100.243 Y53.837 Z-5.851
X100.266 Y53.869 Z-5.869
X100.273 Y53.908 Z-5.888
X100.265 Y53.947 Z-5.907
X100.243 Y53.98 Z-5.925
X100.209 Y54.001 Z-5.944
X100.17 Y54.008 Z-5.963
X100.132 Y53.999 Z-5.981
X100.1 Y53.976 Z-6
G3 X100.247 Y53.841 I0.074 J-0.068
X100.1 Y53.976 I-0.074 J0.068
G1 X100.088 Y53.953
X100.089 Y53.927
X100.103 Y53.905
X100.173 Y53.908
Z5.5
X100 Y53.91
Z2.1
Z0.5 F50
X100.052 Y53.957
X100.047 Y53.982
X100.03 Y54.002
X100.005 Y54.009
X99.966 Y54.004 Z0.481 F150
X99.932 Y53.983 Z0.463
X99.909 Y53.951 Z0.444
X99.9 Y53.912 Z0.425
X99.907 Y53.873 Z0.407
X99.929 Y53.84 Z0.388
X99.962 Y53.817 Z0.369
X100.001 Y53.81 Z0.351
X100.039 Y53.818 Z0.332
X100.072 Y53.84 Z0.313
X100.093 Y53.874 Z0.295
X100.1 Y53.913 Z0.276
X100.091 Y53.952 Z0.257
X100.067 Y53.984 Z0.239
X100.033 Y54.004 Z0.22
X99.994 Y54.009 Z0.201
X99.956 Y53.999 Z0.182
X99.924 Y53.975 Z0.164
X99.905 Y53.94 Z0.145
X99.9 Y53.901 Z0.126
X99.912 Y53.863 Z0.108
X99.937 Y53.832 Z0.089
X99.972 Y53.814 Z0.07
X100.012 Y53.81 Z0.052
X100.049 Y53.823 Z0.033
X100.079 Y53.849 Z0.014
X100.097 Y53.884 Z-0.004
X100.099 Y53.924 Z-0.023
X100.086 Y53.961 Z-0.042
X100.059 Y53.99 Z-0.06
X100.023 Y54.007 Z-0.079
X99.983 Y54.008 Z-0.098
X99.946 Y53.994 Z-0.116
X99.918 Y53.966 Z-0.135
X99.902 Y53.93 Z-0.154
Y53.89 Z-0.172
X99.917 Y53.853 Z-0.191
X99.946 Y53.826 Z-0.21
X99.983 Y53.811 Z-0.228
X100.022 Y53.812 Z-0.247
X100.059 Y53.829 Z-0.266
X100.085 Y53.858 Z-0.284
X100.099 Y53.895 Z-0.303
X100.097 Y53.935 Z-0.322
X100.079 Y53.97 Z-0.341
X100.05 Y53.996 Z-0.359
X100.012 Y54.009 Z-0.378
X99.972 Y54.006 Z-0.397
X99.937 Y53.987 Z-0.415
X99.912 Y53.957 Z-0.434
X99.9 Y53.919 Z-0.453
X99.905 Y53.879 Z-0.471
X99.924 Y53.845 Z-0.49
X99.955 Y53.82 Z-0.509
X99.994 Y53.81 Z-0.527
X100.033 Y53.815 Z-0.546
X100.067 Y53.835 Z-0.565
X100.091 Y53.867 Z-0.583
X100.1 Y53.906 Z-0.602
X100.093 Y53.945 Z-0.621
X100.072 Y53.979 Z-0.639
X100.04 Y54.001 Z-0.658
X100.001 Y54.01 Z-0.677
X99.962 Y54.002 Z-0.695
X99.929 Y53.98 Z-0.714
X99.907 Y53.947 Z-0.733
X99.9 Y53.908 Z-0.751
X99.909 Y53.869 Z-0.77
X99.932 Y53.837 Z-0.789
X99.965 Y53.816 Z-0.807
X100.005 Y53.81 Z-0.826
X100.043 Y53.819 Z-0.845
X100.075 Y53.843 Z-0.864
X100.095 Y53.878 Z-0.882
X100.1 Y53.917 Z-0.901
X100.089 Y53.955 Z-0.92
X100.064 Y53.986 Z-0.938
X100.029 Y54.005 Z-0.957
X99.99 Y54.009 Z-0.976
X99.952 Y53.997 Z-0.994
X99.922 Y53.972 Z-1.013
X99.904 Y53.936 Z-1.032
X99.901 Y53.897 Z-1.05
X99.914 Y53.859 Z-1.069
X99.94 Y53.83 Z-1.088
X99.976 Y53.813 Z-1.106
X100.016 Y53.811 Z-1.125
X100.053 Y53.825 Z-1.144
X100.082 Y53.852 Z-1.162
X100.098 Y53.888 Z-1.181
Y53.928 Z-1.2
X100.083 Y53.965 Z-1.218
X100.055 Y53.993 Z-1.237
X100.019 Y54.008 Z-1.256
X99.979 Y54.007 Z-1.274
X99.943 Y53.991 Z-1.293
X99.915 Y53.963 Z-1.312
X99.901 Y53.925 Z-1.33
X99.903 Y53.886 Z-1.349
X99.92 Y53.85 Z-1.368
X99.949 Y53.823 Z-1.386
X99.987 Y53.81 Z-1.405
X100.026 Y53.813 Z-1.424
X100.062 Y53.831 Z-1.443
X100.088 Y53.861 Z-1.461
X100.099 Y53.899 Z-1.48
X100.096 Y53.939 Z-1.499
X100.077 Y53.974 Z-1.517
X100.046 Y53.998 Z-1.536
X100.008 Y54.009 Z-1.555
X99.968 Y54.004 Z-1.573
X99.934 Y53.985 Z-1.592
X99.91 Y53.953 Z-1.611
X99.9 Y53.915 Z-1.629
X99.906 Y53.875 Z-1.648
X99.927 Y53.841 Z-1.667
X99.959 Y53.818 Z-1.685
X99.998 Y53.81 Z-1.704
X100.037 Y53.817 Z-1.723
X100.07 Y53.838 Z-1.741
X100.092 Y53.871 Z-1.76
X100.1 Y53.91 Z-1.779
X100.092 Y53.949 Z-1.797
X100.069 Y53.982 Z-1.816
X100.036 Y54.003 Z-1.835
X99.997 Y54.01 Z-1.853
X99.958 Y54 Z-1.872
X99.926 Y53.977 Z-1.891
X99.906 Y53.943 Z-1.909
X99.9 Y53.903 Z-1.928
X99.91 Y53.865 Z-1.947
X99.935 Y53.834 Z-1.966
X99.969 Y53.814 Z-1.984
X100.009 Y53.81 Z-2.003
X100.047 Y53.821 Z-2.022
X100.078 Y53.847 Z-2.04
X100.096 Y53.882 Z-2.059
X100.099 Y53.921 Z-2.078
X100.087 Y53.959 Z-2.096
X100.061 Y53.989 Z-2.115
X100.025 Y54.006 Z-2.134
X99.986 Y54.009 Z-2.152
X99.948 Y53.995 Z-2.171
X99.919 Y53.968 Z-2.19
X99.903 Y53.932 Z-2.208
X99.901 Y53.893 Z-2.227
X99.916 Y53.856 Z-2.246
X99.944 Y53.827 Z-2.264
X99.98 Y53.812 Z-2.283
X100.02 Z-2.302
X100.056 Y53.827 Z-2.32
X100.084 Y53.855 Z-2.339
X100.099 Y53.892 Z-2.358
X100.097 Y53.932 Z-2.376
X100.081 Y53.968 Z-2.395
X100.052 Y53.995 Z-2.414
X100.014 Y54.009 Z-2.432
X99.975 Y54.006 Z-2.451
X99.939 Y53.989 Z-2.47
X99.913 Y53.959 Z-2.489
X99.901 Y53.921 Z-2.507
X99.904 Y53.882 Z-2.526
X99.922 Y53.847 Z-2.545
X99.953 Y53.821 Z-2.563
X99.991 Y53.81 Z-2.582
X100.03 Y53.814 Z-2.601
X100.065 Y53.834 Z-2.619
X100.09 Y53.865 Z-2.638
X100.1 Y53.903 Z-2.657
X100.094 Y53.943 Z-2.675
X100.074 Y53.977 Z-2.694
X100.042 Y54 Z-2.713
X100.003 Y54.01 Z-2.731
X99.964 Y54.003 Z-2.75
X99.931 Y53.982 Z-2.769
X99.908 Y53.949 Z-2.787
X99.9 Y53.91 Z-2.806
X99.908 Y53.871 Z-2.825
X99.93 Y53.838 Z-2.843
X99.963 Y53.817 Z-2.862
X100.002 Y53.81 Z-2.881
X100.041 Y53.818 Z-2.899
X100.073 Y53.841 Z-2.918
X100.094 Y53.875 Z-2.937
X100.1 Y53.914 Z-2.955
X100.09 Y53.953 Z-2.974
X100.066 Y53.985 Z-2.993
X100.032 Y54.004 Z-3.011
X99.992 Y54.009 Z-3.03
X99.954 Y53.999 Z-3.049
X99.923 Y53.974 Z-3.068
X99.904 Y53.939 Z-3.086
X99.901 Y53.899 Z-3.105
X99.912 Y53.861 Z-3.124
X99.938 Y53.831 Z-3.142
X99.973 Y53.813 Z-3.161
X100.013 Y53.81 Z-3.18
X100.051 Y53.823 Z-3.198
X100.08 Y53.85 Z-3.217
X100.097 Y53.886 Z-3.236
X100.099 Y53.925 Z-3.254
X100.085 Y53.963 Z-3.273
X100.058 Y53.991 Z-3.292
X100.021 Y54.007 Z-3.31
X99.982 Y54.008 Z-3.329
X99.945 Y53.993 Z-3.348
X99.917 Y53.965 Z-3.366
X99.902 Y53.928 Z-3.385
Y53.888 Z-3.404
X99.918 Y53.852 Z-3.422
X99.947 Y53.825 Z-3.441
X99.984 Y53.811 Z-3.46
X100.024 Y53.812 Z-3.478
X100.06 Y53.829 Z-3.497
X100.086 Y53.859 Z-3.516
X100.099 Y53.897 Z-3.534
X100.096 Y53.936 Z-3.553
X100.078 Y53.972 Z-3.572
X100.048 Y53.997 Z-3.591
X100.01 Y54.009 Z-3.609
X99.971 Y54.005 Z-3.628
X99.936 Y53.986 Z-3.647
X99.911 Y53.955 Z-3.665
X99.9 Y53.917 Z-3.684
X99.905 Y53.878 Z-3.703
X99.925 Y53.843 Z-3.721
X99.957 Y53.819 Z-3.74
X99.995 Y53.81 Z-3.759
X100.034 Y53.816 Z-3.777
X100.068 Y53.836 Z-3.796
X100.091 Y53.869 Z-3.815
X100.1 Y53.908 Z-3.833
X100.093 Y53.947 Z-3.852
X100.071 Y53.98 Z-3.871
X100.038 Y54.002 Z-3.889
X99.999 Y54.01 Z-3.908
X99.96 Y54.001 Z-3.927
X99.928 Y53.979 Z-3.945
X99.907 Y53.945 Z-3.964
X99.9 Y53.906 Z-3.983
X99.909 Y53.868 Z-4.001
X99.933 Y53.836 Z-4.02
X99.967 Y53.815 Z-4.039
X100.006 Y53.81 Z-4.057
X100.045 Y53.82 Z-4.076
X100.076 Y53.844 Z-4.095
X100.095 Y53.879 Z-4.114
X100.1 Y53.919 Z-4.132
X100.088 Y53.957 Z-4.151
X100.063 Y53.987 Z-4.17
X100.028 Y54.006 Z-4.188
X99.988 Y54.009 Z-4.207
X99.951 Y53.997 Z-4.226
X99.921 Y53.97 Z-4.244
X99.903 Y53.935 Z-4.263
X99.901 Y53.895 Z-4.282
X99.914 Y53.858 Z-4.3
X99.941 Y53.829 Z-4.319
X99.977 Y53.812 Z-4.338
X100.017 Y53.811 Z-4.356
X100.054 Y53.826 Z-4.375
X100.083 Y53.853 Z-4.394
X100.098 Y53.89 Z-4.412
Y53.929 Z-4.431
X100.083 Y53.966 Z-4.45
X100.054 Y53.994 Z-4.468
X100.017 Y54.008 Z-4.487
X99.977 Y54.007 Z-4.506
X99.941 Y53.991 Z-4.524
X99.914 Y53.961 Z-4.543
X99.901 Y53.924 Z-4.562
X99.903 Y53.884 Z-4.58
X99.921 Y53.849 Z-4.599
X99.951 Y53.823 Z-4.618
X99.988 Y53.81 Z-4.636
X100.028 Y53.814 Z-4.655
X100.063 Y53.832 Z-4.674
X100.088 Y53.863 Z-4.693
X100.1 Y53.901 Z-4.711
X100.095 Y53.94 Z-4.73
X100.076 Y53.975 Z-4.749
X100.045 Y53.999 Z-4.767
X100.006 Y54.009 Z-4.786
X99.967 Y54.004 Z-4.805
X99.933 Y53.984 Z-4.823
X99.909 Y53.952 Z-4.842
X99.9 Y53.913 Z-4.861
X99.907 Y53.874 Z-4.879
X99.928 Y53.84 Z-4.898
X99.96 Y53.818 Z-4.917
X99.999 Y53.81 Z-4.935
X100.038 Y53.817 Z-4.954
X100.071 Y53.839 Z-4.973
X100.093 Y53.873 Z-4.991
X100.1 Y53.912 Z-5.01
X100.091 Y53.95 Z-5.029
X100.068 Y53.983 Z-5.047
X100.034 Y54.004 Z-5.066
X99.995 Y54.009 Z-5.085
X99.957 Y54 Z-5.103
X99.925 Y53.976 Z-5.122
X99.905 Y53.941 Z-5.141
X99.9 Y53.902 Z-5.159
X99.911 Y53.864 Z-5.178
X99.936 Y53.833 Z-5.197
X99.971 Y53.814 Z-5.216
X100.01 Y53.81 Z-5.234
X100.048 Y53.822 Z-5.253
X100.079 Y53.848 Z-5.272
X100.096 Y53.883 Z-5.29
X100.099 Y53.923 Z-5.309
X100.086 Y53.96 Z-5.328
X100.06 Y53.99 Z-5.346
X100.024 Y54.007 Z-5.365
X99.984 Y54.008 Z-5.384
X99.947 Y53.994 Z-5.402
X99.918 Y53.967 Z-5.421
X99.902 Y53.931 Z-5.44
Y53.891 Z-5.458
X99.917 Y53.854 Z-5.477
X99.945 Y53.826 Z-5.496
X99.982 Y53.811 Z-5.514
X100.021 Y53.812 Z-5.533
X100.058 Y53.828 Z-5.552
X100.085 Y53.857 Z-5.57
X100.099 Y53.894 Z-5.589
X100.097 Y53.934 Z-5.608
X100.08 Y53.969 Z-5.626
X100.051 Y53.996 Z-5.645
X100.013 Y54.009 Z-5.664
X99.973 Y54.006 Z-5.682
X99.938 Y53.988 Z-5.701
X99.912 Y53.958 Z-5.72
X99.901 Y53.92 Z-5.739
X99.904 Y53.88 Z-5.757
X99.923 Y53.845 Z-5.776
X99.954 Y53.821 Z-5.795
X99.992 Y53.81 Z-5.813
X100.032 Y53.815 Z-5.832
X100.066 Y53.835 Z-5.851
X100.09 Y53.866 Z-5.869
X100.1 Y53.905 Z-5.888
X100.094 Y53.944 Z-5.907
X100.073 Y53.978 Z-5.925
X100.041 Y54.001 Z-5.944
X100.002 Y54.01 Z-5.963
X99.963 Y54.002 Z-5.981
X99.93 Y53.981 Z-6
G3 X100.07 Y53.838 I0.07 J-0.071
X99.93 Y53.981 I-0.07 J0.071
G1 X99.917 Y53.958
X99.916 Y53.933
X99.929 Y53.91
X100
Z5.5
X46.4 Y60.9
Z2.5
Z0.9 F50
G19 G3 Y61.3 Z0.5 J0.4 K0
G1 Y61.5
G17 G3 X46 Y61.9 I-0.4 J0
X46 Y60.1 Z0.297 I0 J-0.9 F150
X46 Y61.9 Z0.094 I0 J0.9
X46 Y60.1 Z-0.108 I0 J-0.9
X46 Y61.9 Z-0.311 I0 J0.9
X46 Y60.1 Z-0.514 I0 J-0.9
X46 Y61.9 Z-0.717 I0 J0.9
X46 Y60.1 Z-0.92 I0 J-0.9
X46 Y61.9 Z-1.122 I0 J0.9
X46 Y60.1 Z-1.325 I0 J-0.9
X46 Y61.9 Z-1.528 I0 J0.9
X46 Y60.1 Z-1.731 I0 J-0.9
X46 Y61.9 Z-1.933 I0 J0.9
X46 Y60.1 Z-2.136 I0 J-0.9
X46 Y61.9 Z-2.339 I0 J0.9
X46 Y60.1 Z-2.542 I0 J-0.9
X46 Y61.9 Z-2.745 I0 J0.9
X46 Y60.1 Z-2.947 I0 J-0.9
X46 Y61.9 Z-3.15 I0 J0.9
X46 Y60.1 Z-3.353 I0 J-0.9
X46 Y61.9 Z-3.556 I0 J0.9
X46 Y60.1 Z-3.759 I0 J-0.9
X46 Y61.9 Z-3.961 I0 J0.9
X46 Y60.1 Z-4.164 I0 J-0.9
X46 Y61.9 Z-4.367 I0 J0.9
X46 Y60.1 Z-4.57 I0 J-0.9
X46 Y61.9 Z-4.772 I0 J0.9
X46 Y60.1 Z-4.975 I0 J-0.9
X46 Y61.9 Z-5.178 I0 J0.9
X46 Y60.1 Z-5.381 I0 J-0.9
X46 Y61.9 Z-5.584 I0 J0.9
X46 Y60.1 Z-5.786 I0 J-0.9
X46.897 Y61.075 Z-5.893 I0 J0.9
X45.85 Y61.887 Z-6 I-0.897 J-0.075
X46.15 Y60.113 I0.15 J-0.887
X45.85 Y61.887 I-0.15 J0.887
X45.522 Y61.426 I0.067 J-0.394
G1 X45.556 Y61.229
X45.569 Y61.152 Z-5.992
X45.581 Y61.078 Z-5.97
X45.593 Y61.01 Z-5.933
X45.603 Y60.95 Z-5.883
X45.611 Y60.901 Z-5.822
X45.617 Y60.865 Z-5.753
X45.621 Y60.842 Z-5.678
X45.622 Y60.835 Z-5.6
Z5.5
X14.4 Y60.9
Z2.5
Z0.9 F50
G19 G3 Y61.3 Z0.5 J0.4 K0
G1 Y61.5
G17 G3 X14 Y61.9 I-0.4 J0
X14 Y60.1 Z0.297 I0 J-0.9 F150
X14 Y61.9 Z0.094 I0 J0.9
X14 Y60.1 Z-0.108 I0 J-0.9
X14 Y61.9 Z-0.311 I0 J0.9
X14 Y60.1 Z-0.514 I0 J-0.9
X14 Y61.9 Z-0.717 I0 J0.9
X14 Y60.1 Z-0.92 I0 J-0.9
X14 Y61.9 Z-1.122 I0 J0.9
X14 Y60.1 Z-1.325 I0 J-0.9
X14 Y61.9 Z-1.528 I0 J0.9
X14 Y60.1 Z-1.731 I0 J-0.9
X14 Y61.9 Z-1.933 I0 J0.9
X14 Y60.1 Z-2.136 I0 J-0.9
X14 Y61.9 Z-2.339 I0 J0.9
X14 Y60.1 Z-2.542 I0 J-0.9
X14 Y61.9 Z-2.745 I0 J0.9
X14 Y60.1 Z-2.947 I0 J-0.9
X14 Y61.9 Z-3.15 I0 J0.9
X14 Y60.1 Z-3.353 I0 J-0.9
X14 Y61.9 Z-3.556 I0 J0.9
X14 Y60.1 Z-3.759 I0 J-0.9
X14 Y61.9 Z-3.961 I0 J0.9
X14 Y60.1 Z-4.164 I0 J-0.9
X14 Y61.9 Z-4.367 I0 J0.9
X14 Y60.1 Z-4.57 I0 J-0.9
X14 Y61.9 Z-4.772 I0 J0.9
X14 Y60.1 Z-4.975 I0 J-0.9
X14 Y61.9 Z-5.178 I0 J0.9
X14 Y60.1 Z-5.381 I0 J-0.9
X14 Y61.9 Z-5.584 I0 J0.9
X14 Y60.1 Z-5.786 I0 J-0.9
X14.897 Y61.075 Z-5.893 I0 J0.9
X13.85 Y61.887 Z-6 I-0.897 J-0.075
X14.15 Y60.113 I0.15 J-0.887
X13.85 Y61.887 I-0.15 J0.887
X13.522 Y61.426 I0.067 J-0.394
G1 X13.556 Y61.229
X13.569 Y61.152 Z-5.992
X13.581 Y61.078 Z-5.97
X13.593 Y61.01 Z-5.933
X13.603 Y60.95 Z-5.883
X13.611 Y60.901 Z-5.822
X13.617 Y60.865 Z-5.753
X13.621 Y60.842 Z-5.678
X13.622 Y60.835 Z-5.6
Z5.5
X14.4 Y24.9
Z2.5
Z0.9 F50
G19 G3 Y25.3 Z0.5 J0.4 K0
G1 Y25.5
G17 G3 X14 Y25.9 I-0.4 J0
X14 Y24.1 Z0.297 I0 J-0.9 F150
X14 Y25.9 Z0.094 I0 J0.9
X14 Y24.1 Z-0.108 I0 J-0.9
X14 Y25.9 Z-0.311 I0 J0.9
X14 Y24.1 Z-0.514 I0 J-0.9
X14 Y25.9 Z-0.717 I0 J0.9
X14 Y24.1 Z-0.92 I0 J-0.9
X14 Y25.9 Z-1.122 I0 J0.9
X14 Y24.1 Z-1.325 I0 J-0.9
X14 Y25.9 Z-1.528 I0 J0.9
X14 Y24.1 Z-1.731 I0 J-0.9
X14 Y25.9 Z-1.933 I0 J0.9
X14 Y24.1 Z-2.136 I0 J-0.9
X14 Y25.9 Z-2.339 I0 J0.9
X14 Y24.1 Z-2.542 I0 J-0.9
X14 Y25.9 Z-2.745 I0 J0.9
X14 Y24.1 Z-2.947 I0 J-0.9
X14 Y25.9 Z-3.15 I0 J0.9
X14 Y24.1 Z-3.353 I0 J-0.9
X14 Y25.9 Z-3.556 I0 J0.9
X14 Y24.1 Z-3.759 I0 J-0.9
X14 Y25.9 Z-3.961 I0 J0.9
X14 Y24.1 Z-4.164 I0 J-0.9
X14 Y25.9 Z-4.367 I0 J0.9
X14 Y24.1 Z-4.57 I0 J-0.9
X14 Y25.9 Z-4.772 I0 J0.9
X14 Y24.1 Z-4.975 I0 J-0.9
X14 Y25.9 Z-5.178 I0 J0.9
X14 Y24.1 Z-5.381 I0 J-0.9
X14 Y25.9 Z-5.584 I0 J0.9
X14 Y24.1 Z-5.786 I0 J-0.9
X14.897 Y25.075 Z-5.893 I0 J0.9
X13.85 Y25.887 Z-6 I-0.897 J-0.075
X14.15 Y24.113 I0.15 J-0.887
X13.85 Y25.887 I-0.15 J0.887
X13.522 Y25.426 I0.067 J-0.394
G1 X13.556 Y25.229
X13.569 Y25.152 Z-5.992
X13.581 Y25.078 Z-5.97
X13.593 Y25.01 Z-5.933
X13.603 Y24.95 Z-5.883
X13.611 Y24.901 Z-5.822
X13.617 Y24.865 Z-5.753
X13.621 Y24.842 Z-5.678
X13.622 Y24.835 Z-5.6
Z5.5
X46.4 Y24.9
Z2.5
Z0.9 F50
G19 G3 Y25.3 Z0.5 J0.4 K0
G1 Y25.5
G17 G3 X46 Y25.9 I-0.4 J0
X46 Y24.1 Z0.297 I0 J-0.9 F150
X46 Y25.9 Z0.094 I0 J0.9
X46 Y24.1 Z-0.108 I0 J-0.9
X46 Y25.9 Z-0.311 I0 J0.9
X46 Y24.1 Z-0.514 I0 J-0.9
X46 Y25.9 Z-0.717 I0 J0.9
X46 Y24.1 Z-0.92 I0 J-0.9
X46 Y25.9 Z-1.122 I0 J0.9
X46 Y24.1 Z-1.325 I0 J-0.9
X46 Y25.9 Z-1.528 I0 J0.9
X46 Y24.1 Z-1.731 I0 J-0.9
X46 Y25.9 Z-1.933 I0 J0.9
X46 Y24.1 Z-2.136 I0 J-0.9
X46 Y25.9 Z-2.339 I0 J0.9
X46 Y24.1 Z-2.542 I0 J-0.9
X46 Y25.9 Z-2.745 I0 J0.9
X46 Y24.1 Z-2.947 I0 J-0.9
X46 Y25.9 Z-3.15 I0 J0.9
X46 Y24.1 Z-3.353 I0 J-0.9
X46 Y25.9 Z-3.556 I0 J0.9
X46 Y24.1 Z-3.759 I0 J-0.9
X46 Y25.9 Z-3.961 I0 J0.9
X46 Y24.1 Z-4.164 I0 J-0.9
X46 Y25.9 Z-4.367 I0 J0.9
X46 Y24.1 Z-4.57 I0 J-0.9
X46 Y25.9 Z-4.772 I0 J0.9
X46 Y24.1 Z-4.975 I0 J-0.9
X46 Y25.9 Z-5.178 I0 J0.9
X46 Y24.1 Z-5.381 I0 J-0.9
X46 Y25.9 Z-5.584 I0 J0.9
X46 Y24.1 Z-5.786 I0 J-0.9
X46.897 Y25.075 Z-5.893 I0 J0.9
X45.85 Y25.887 Z-6 I-0.897 J-0.075
X46.15 Y24.113 I0.15 J-0.887
X45.85 Y25.887 I-0.15 J0.887
X45.522 Y25.426 I0.067 J-0.394
G1 X45.556 Y25.229
X45.569 Y25.152 Z-5.992
X45.581 Y25.078 Z-5.97
X45.593 Y25.01 Z-5.933
X45.603 Y24.95 Z-5.883
X45.611 Y24.901 Z-5.822
X45.617 Y24.865 Z-5.753
X45.621 Y24.842 Z-5.678
X45.622 Y24.835 Z-5.6
Z15.5
(When using Fusion for Personal Use, the feedrate of rapid)
(moves is reduced to match the feedrate of cutting moves,)
(which can increase machining time. Unrestricted rapid moves)
(are available with a Fusion Subscription.)

(Circular1)
G0 X14.4 Y62.5
G1 Z15.5 F150
Z1.4
Z-0.2 F50
G19 G3 Y62.9 Z-0.6 J0.4 K0
G1 Y63.1
G17 G3 X14 Y63.5 I-0.4 J0
X14 Y58.5 I0 J-2.5 F150
X14 Y63.5 I0 J2.5
X13.6 Y63.1 I0 J-0.4
G1 Y62.9
G19 G2 Y62.5 Z-0.2 J0 K0.4
G1 Z5.5
X14.4
Z0.8
Z-0.8 F50
G3 Y62.9 Z-1.2 J0.4 K0
G1 Y63.1
G17 G3 X14 Y63.5 I-0.4 J0
X14 Y58.5 I0 J-2.5 F150
X14 Y63.5 I0 J2.5
X13.6 Y63.1 I0 J-0.4
G1 Y62.9
G19 G2 Y62.5 Z-0.8 J0 K0.4
G1 Z5.5
X14.4
Z0.235
Z-1.365 F50
G3 Y62.9 Z-1.765 J0.4 K0
G1 Y63.1
G17 G3 X14 Y63.5 I-0.4 J0
X14 Y58.5 I0 J-2.5 F150
X14 Y63.5 I0 J2.5
X13.6 Y63.1 I0 J-0.4
G1 Y62.9
G19 G2 Y62.5 Z-1.365 J0 K0.4
G1 Z5.5
X14.4
Z-0.33
Z-1.93 F50
G3 Y62.9 Z-2.33 J0.4 K0
G1 Y63.1
G17 G3 X14 Y63.5 I-0.4 J0
X14 Y58.5 I0 J-2.5 F150
X14 Y63.5 I0 J2.5
X13.6 Y63.1 I0 J-0.4
G1 Y62.9
G19 G2 Y62.5 Z-1.93 J0 K0.4
G1 Z5.5
X46.4
Z1.4
Z-0.2 F50
G3 Y62.9 Z-0.6 J0.4 K0
G1 Y63.1
G17 G3 X46 Y63.5 I-0.4 J0
X46 Y58.5 I0 J-2.5 F150
X46 Y63.5 I0 J2.5
X45.6 Y63.1 I0 J-0.4
G1 Y62.9
G19 G2 Y62.5 Z-0.2 J0 K0.4
G1 Z5.5
X46.4
Z0.8
Z-0.8 F50
G3 Y62.9 Z-1.2 J0.4 K0
G1 Y63.1
G17 G3 X46 Y63.5 I-0.4 J0
X46 Y58.5 I0 J-2.5 F150
X46 Y63.5 I0 J2.5
X45.6 Y63.1 I0 J-0.4
G1 Y62.9
G19 G2 Y62.5 Z-0.8 J0 K0.4
G1 Z5.5
X46.4
Z0.235
Z-1.365 F50
G3 Y62.9 Z-1.765 J0.4 K0
G1 Y63.1
G17 G3 X46 Y63.5 I-0.4 J0
X46 Y58.5 I0 J-2.5 F150
X46 Y63.5 I0 J2.5
X45.6 Y63.1 I0 J-0.4
G1 Y62.9
G19 G2 Y62.5 Z-1.365 J0 K0.4
G1 Z5.5
X46.4
Z-0.33
Z-1.93 F50
G3 Y62.9 Z-2.33 J0.4 K0
G1 Y63.1
G17 G3 X46 Y63.5 I-0.4 J0
X46 Y58.5 I0 J-2.5 F150
X46 Y63.5 I0 J2.5
X45.6 Y63.1 I0 J-0.4
G1 Y62.9
G19 G2 Y62.5 Z-1.93 J0 K0.4
G1 Z5.5
X46.4 Y26.5
Z1.4
Z-0.2 F50
G3 Y26.9 Z-0.6 J0.4 K0
G1 Y27.1
G17 G3 X46 Y27.5 I-0.4 J0
X46 Y22.5 I0 J-2.5 F150
X46 Y27.5 I0 J2.5
X45.6 Y27.1 I0 J-0.4
G1 Y26.9
G19 G2 Y26.5 Z-0.2 J0 K0.4
G1 Z5.5
X46.4
Z0.8
Z-0.8 F50
G3 Y26.9 Z-1.2 J0.4 K0
G1 Y27.1
G17 G3 X46 Y27.5 I-0.4 J0
X46 Y22.5 I0 J-2.5 F150
X46 Y27.5 I0 J2.5
X45.6 Y27.1 I0 J-0.4
G1 Y26.9
G19 G2 Y26.5 Z-0.8 J0 K0.4
G1 Z5.5
X46.4
Z0.235
Z-1.365 F50
G3 Y26.9 Z-1.765 J0.4 K0
G1 Y27.1
G17 G3 X46 Y27.5 I-0.4 J0
X46 Y22.5 I0 J-2.5 F150
X46 Y27.5 I0 J2.5
X45.6 Y27.1 I0 J-0.4
G1 Y26.9
G19 G2 Y26.5 Z-1.365 J0 K0.4
G1 Z5.5
X46.4
Z-0.33
Z-1.93 F50
G3 Y26.9 Z-2.33 J0.4 K0
G1 Y27.1
G17 G3 X46 Y27.5 I-0.4 J0
X46 Y22.5 I0 J-2.5 F150
X46 Y27.5 I0 J2.5
X45.6 Y27.1 I0 J-0.4
G1 Y26.9
G19 G2 Y26.5 Z-1.93 J0 K0.4
G1 Z5.5
X14.4
Z1.4
Z-0.2 F50
G3 Y26.9 Z-0.6 J0.4 K0
G1 Y27.1
G17 G3 X14 Y27.5 I-0.4 J0
X14 Y22.5 I0 J-2.5 F150
X14 Y27.5 I0 J2.5
X13.6 Y27.1 I0 J-0.4
G1 Y26.9
G19 G2 Y26.5 Z-0.2 J0 K0.4
G1 Z5.5
X14.4
Z0.8
Z-0.8 F50
G3 Y26.9 Z-1.2 J0.4 K0
G1 Y27.1
G17 G3 X14 Y27.5 I-0.4 J0
X14 Y22.5 I0 J-2.5 F150
X14 Y27.5 I0 J2.5
X13.6 Y27.1 I0 J-0.4
G1 Y26.9
G19 G2 Y26.5 Z-0.8 J0 K0.4
G1 Z5.5
X14.4
Z0.235
Z-1.365 F50
G3 Y26.9 Z-1.765 J0.4 K0
G1 Y27.1
G17 G3 X14 Y27.5 I-0.4 J0
X14 Y22.5 I0 J-2.5 F150
X14 Y27.5 I0 J2.5
X13.6 Y27.1 I0 J-0.4
G1 Y26.9
G19 G2 Y26.5 Z-1.365 J0 K0.4
G1 Z5.5
X14.4
Z-0.33
Z-1.93 F50
G3 Y26.9 Z-2.33 J0.4 K0
G1 Y27.1
G17 G3 X14 Y27.5 I-0.4 J0
X14 Y22.5 I0 J-2.5 F150
X14 Y27.5 I0 J2.5
X13.6 Y27.1 I0 J-0.4
G1 Y26.9
G19 G2 Y26.5 Z-1.93 J0 K0.4
G1 Z5.5
X100.4 Y30.91
Z1.4
Z-0.2 F50
G3 Y31.31 Z-0.6 J0.4 K0
G1 Y31.51
G17 G3 X100 Y31.91 I-0.4 J0
X100 Y27.91 I0 J-2 F150
X100 Y31.91 I0 J2
X99.6 Y31.51 I0 J-0.4
G1 Y31.31
G19 G2 Y30.91 Z-0.2 J0 K0.4
G1 Z5.5
X100.4
Z0.8
Z-0.8 F50
G3 Y31.31 Z-1.2 J0.4 K0
G1 Y31.51
G17 G3 X100 Y31.91 I-0.4 J0
X100 Y27.91 I0 J-2 F150
X100 Y31.91 I0 J2
X99.6 Y31.51 I0 J-0.4
G1 Y31.31
G19 G2 Y30.91 Z-0.8 J0 K0.4
G1 Z5.5
X100.4
Z0.235
Z-1.365 F50
G3 Y31.31 Z-1.765 J0.4 K0
G1 Y31.51
G17 G3 X100 Y31.91 I-0.4 J0
X100 Y27.91 I0 J-2 F150
X100 Y31.91 I0 J2
X99.6 Y31.51 I0 J-0.4
G1 Y31.31
G19 G2 Y30.91 Z-1.365 J0 K0.4
G1 Z5.5
X100.4
Z-0.33
Z-1.93 F50
G3 Y31.31 Z-2.33 J0.4 K0
G1 Y31.51
G17 G3 X100 Y31.91 I-0.4 J0
X100 Y27.91 I0 J-2 F150
X100 Y31.91 I0 J2
X99.6 Y31.51 I0 J-0.4
G1 Y31.31
G19 G2 Y30.91 Z-1.93 J0 K0.4
G1 Z5.5
X100.4 Y54.91
Z1.4
Z-0.2 F50
G3 Y55.31 Z-0.6 J0.4 K0
G1 Y55.51
G17 G3 X100 Y55.91 I-0.4 J0
X100 Y51.91 I0 J-2 F150
X100 Y55.91 I0 J2
X99.6 Y55.51 I0 J-0.4
G1 Y55.31
G19 G2 Y54.91 Z-0.2 J0 K0.4
G1 Z5.5
X100.4
Z0.8
Z-0.8 F50
G3 Y55.31 Z-1.2 J0.4 K0
G1 Y55.51
G17 G3 X100 Y55.91 I-0.4 J0
X100 Y51.91 I0 J-2 F150
X100 Y55.91 I0 J2
X99.6 Y55.51 I0 J-0.4
G1 Y55.31
G19 G2 Y54.91 Z-0.8 J0 K0.4
G1 Z5.5
X100.4
Z0.235
Z-1.365 F50
G3 Y55.31 Z-1.765 J0.4 K0
G1 Y55.51
G17 G3 X100 Y55.91 I-0.4 J0
X100 Y51.91 I0 J-2 F150
X100 Y55.91 I0 J2
X99.6 Y55.51 I0 J-0.4
G1 Y55.31
G19 G2 Y54.91 Z-1.365 J0 K0.4
G1 Z5.5
X100.4
Z-0.33
Z-1.93 F50
G3 Y55.31 Z-2.33 J0.4 K0
G1 Y55.51
G17 G3 X100 Y55.91 I-0.4 J0
X100 Y51.91 I0 J-2 F150
X100 Y55.91 I0 J2
X99.6 Y55.51 I0 J-0.4
G1 Y55.31
G19 G2 Y54.91 Z-1.93 J0 K0.4
G1 Z5.5
X140.4
Z1.4
Z-0.2 F50
G3 Y55.31 Z-0.6 J0.4 K0
G1 Y55.51
G17 G3 X140 Y55.91 I-0.4 J0
X140 Y51.91 I0 J-2 F150
X140 Y55.91 I0 J2
X139.6 Y55.51 I0 J-0.4
G1 Y55.31
G19 G2 Y54.91 Z-0.2 J0 K0.4
G1 Z5.5
X140.4
Z0.8
Z-0.8 F50
G3 Y55.31 Z-1.2 J0.4 K0
G1 Y55.51
G17 G3 X140 Y55.91 I-0.4 J0
X140 Y51.91 I0 J-2 F150
X140 Y55.91 I0 J2
X139.6 Y55.51 I0 J-0.4
G1 Y55.31
G19 G2 Y54.91 Z-0.8 J0 K0.4
G1 Z5.5
X140.4
Z0.235
Z-1.365 F50
G3 Y55.31 Z-1.765 J0.4 K0
G1 Y55.51
G17 G3 X140 Y55.91 I-0.4 J0
X140 Y51.91 I0 J-2 F150
X140 Y55.91 I0 J2
X139.6 Y55.51 I0 J-0.4
G1 Y55.31
G19 G2 Y54.91 Z-1.365 J0 K0.4
G1 Z5.5
X140.4
Z-0.33
Z-1.93 F50
G3 Y55.31 Z-2.33 J0.4 K0
G1 Y55.51
G17 G3 X140 Y55.91 I-0.4 J0
X140 Y51.91 I0 J-2 F150
X140 Y55.91 I0 J2
X139.6 Y55.51 I0 J-0.4
G1 Y55.31
G19 G2 Y54.91 Z-1.93 J0 K0.4
G1 Z5.5
X140.4 Y30.91
Z1.4
Z-0.2 F50
G3 Y31.31 Z-0.6 J0.4 K0
G1 Y31.51
G17 G3 X140 Y31.91 I-0.4 J0
X140 Y27.91 I0 J-2 F150
X140 Y31.91 I0 J2
X139.6 Y31.51 I0 J-0.4
G1 Y31.31
G19 G2 Y30.91 Z-0.2 J0 K0.4
G1 Z5.5
X140.4
Z0.8
Z-0.8 F50
G3 Y31.31 Z-1.2 J0.4 K0
G1 Y31.51
G17 G3 X140 Y31.91 I-0.4 J0
X140 Y27.91 I0 J-2 F150
X140 Y31.91 I0 J2
X139.6 Y31.51 I0 J-0.4
G1 Y31.31
G19 G2 Y30.91 Z-0.8 J0 K0.4
G1 Z5.5
X140.4
Z0.235
Z-1.365 F50
G3 Y31.31 Z-1.765 J0.4 K0
G1 Y31.51
G17 G3 X140 Y31.91 I-0.4 J0
X140 Y27.91 I0 J-2 F150
X140 Y31.91 I0 J2
X139.6 Y31.51 I0 J-0.4
G1 Y31.31
G19 G2 Y30.91 Z-1.365 J0 K0.4
G1 Z5.5
X140.4
Z-0.33
Z-1.93 F50
G3 Y31.31 Z-2.33 J0.4 K0
G1 Y31.51
G17 G3 X140 Y31.91 I-0.4 J0
X140 Y27.91 I0 J-2 F150
X140 Y31.91 I0 J2
X139.6 Y31.51 I0 J-0.4
G1 Y31.31
G19 G2 Y30.91 Z-1.93 J0 K0.4
G1 Z5.5
X194.4 Y26.5
Z1.4
Z-0.2 F50
G3 Y26.9 Z-0.6 J0.4 K0
G1 Y27.1
G17 G3 X194 Y27.5 I-0.4 J0
X194 Y22.5 I0 J-2.5 F150
X194 Y27.5 I0 J2.5
X193.6 Y27.1 I0 J-0.4
G1 Y26.9
G19 G2 Y26.5 Z-0.2 J0 K0.4
G1 Z5.5
X194.4
Z0.8
Z-0.8 F50
G3 Y26.9 Z-1.2 J0.4 K0
G1 Y27.1
G17 G3 X194 Y27.5 I-0.4 J0
X194 Y22.5 I0 J-2.5 F150
X194 Y27.5 I0 J2.5
X193.6 Y27.1 I0 J-0.4
G1 Y26.9
G19 G2 Y26.5 Z-0.8 J0 K0.4
G1 Z5.5
X194.4
Z0.235
Z-1.365 F50
G3 Y26.9 Z-1.765 J0.4 K0
G1 Y27.1
G17 G3 X194 Y27.5 I-0.4 J0
X194 Y22.5 I0 J-2.5 F150
X194 Y27.5 I0 J2.5
X193.6 Y27.1 I0 J-0.4
G1 Y26.9
G19 G2 Y26.5 Z-1.365 J0 K0.4
G1 Z5.5
X194.4
Z-0.33
Z-1.93 F50
G3 Y26.9 Z-2.33 J0.4 K0
G1 Y27.1
G17 G3 X194 Y27.5 I-0.4 J0
X194 Y22.5 I0 J-2.5 F150
X194 Y27.5 I0 J2.5
X193.6 Y27.1 I0 J-0.4
G1 Y26.9
G19 G2 Y26.5 Z-1.93 J0 K0.4
G1 Z5.5
X226.4
Z1.4
Z-0.2 F50
G3 Y26.9 Z-0.6 J0.4 K0
G1 Y27.1
G17 G3 X226 Y27.5 I-0.4 J0
X226 Y22.5 I0 J-2.5 F150
X226 Y27.5 I0 J2.5
X225.6 Y27.1 I0 J-0.4
G1 Y26.9
G19 G2 Y26.5 Z-0.2 J0 K0.4
G1 Z5.5
X226.4
Z0.8
Z-0.8 F50
G3 Y26.9 Z-1.2 J0.4 K0
G1 Y27.1
G17 G3 X226 Y27.5 I-0.4 J0
X226 Y22.5 I0 J-2.5 F150
X226 Y27.5 I0 J2.5
X225.6 Y27.1 I0 J-0.4
G1 Y26.9
G19 G2 Y26.5 Z-0.8 J0 K0.4
G1 Z5.5
X226.4
Z0.235
Z-1.365 F50
G3 Y26.9 Z-1.765 J0.4 K0
G1 Y27.1
G17 G3 X226 Y27.5 I-0.4 J0
X226 Y22.5 I0 J-2.5 F150
X226 Y27.5 I0 J2.5
X225.6 Y27.1 I0 J-0.4
G1 Y26.9
G19 G2 Y26.5 Z-1.365 J0 K0.4
G1 Z5.5
X226.4
Z-0.33
Z-1.93 F50
G3 Y26.9 Z-2.33 J0.4 K0
G1 Y27.1
G17 G3 X226 Y27.5 I-0.4 J0
X226 Y22.5 I0 J-2.5 F150
X226 Y27.5 I0 J2.5
X225.6 Y27.1 I0 J-0.4
G1 Y26.9
G19 G2 Y26.5 Z-1.93 J0 K0.4
G1 Z5.5
X226.4 Y62.5
Z1.4
Z-0.2 F50
G3 Y62.9 Z-0.6 J0.4 K0
G1 Y63.1
G17 G3 X226 Y63.5 I-0.4 J0
X226 Y58.5 I0 J-2.5 F150
X226 Y63.5 I0 J2.5
X225.6 Y63.1 I0 J-0.4
G1 Y62.9
G19 G2 Y62.5 Z-0.2 J0 K0.4
G1 Z5.5
X226.4
Z0.8
Z-0.8 F50
G3 Y62.9 Z-1.2 J0.4 K0
G1 Y63.1
G17 G3 X226 Y63.5 I-0.4 J0
X226 Y58.5 I0 J-2.5 F150
X226 Y63.5 I0 J2.5
X225.6 Y63.1 I0 J-0.4
G1 Y62.9
G19 G2 Y62.5 Z-0.8 J0 K0.4
G1 Z5.5
X226.4
Z0.235
Z-1.365 F50
G3 Y62.9 Z-1.765 J0.4 K0
G1 Y63.1
G17 G3 X226 Y63.5 I-0.4 J0
X226 Y58.5 I0 J-2.5 F150
X226 Y63.5 I0 J2.5
X225.6 Y63.1 I0 J-0.4
G1 Y62.9
G19 G2 Y62.5 Z-1.365 J0 K0.4
G1 Z5.5
X226.4
Z-0.33
Z-1.93 F50
G3 Y62.9 Z-2.33 J0.4 K0
G1 Y63.1
G17 G3 X226 Y63.5 I-0.4 J0
X226 Y58.5 I0 J-2.5 F150
X226 Y63.5 I0 J2.5
X225.6 Y63.1 I0 J-0.4
G1 Y62.9
G19 G2 Y62.5 Z-1.93 J0 K0.4
G1 Z5.5
X194.4
Z1.4
Z-0.2 F50
G3 Y62.9 Z-0.6 J0.4 K0
G1 Y63.1
G17 G3 X194 Y63.5 I-0.4 J0
X194 Y58.5 I0 J-2.5 F150
X194 Y63.5 I0 J2.5
X193.6 Y63.1 I0 J-0.4
G1 Y62.9
G19 G2 Y62.5 Z-0.2 J0 K0.4
G1 Z5.5
X194.4
Z0.8
Z-0.8 F50
G3 Y62.9 Z-1.2 J0.4 K0
G1 Y63.1
G17 G3 X194 Y63.5 I-0.4 J0
X194 Y58.5 I0 J-2.5 F150
X194 Y63.5 I0 J2.5
X193.6 Y63.1 I0 J-0.4
G1 Y62.9
G19 G2 Y62.5 Z-0.8 J0 K0.4
G1 Z5.5
X194.4
Z0.235
Z-1.365 F50
G3 Y62.9 Z-1.765 J0.4 K0
G1 Y63.1
G17 G3 X194 Y63.5 I-0.4 J0
X194 Y58.5 I0 J-2.5 F150
X194 Y63.5 I0 J2.5
X193.6 Y63.1 I0 J-0.4
G1 Y62.9
G19 G2 Y62.5 Z-1.365 J0 K0.4
G1 Z5.5
X194.4
Z-0.33
Z-1.93 F50
G3 Y62.9 Z-2.33 J0.4 K0
G1 Y63.1
G17 G3 X194 Y63.5 I-0.4 J0
X194 Y58.5 I0 J-2.5 F150
X194 Y63.5 I0 J2.5
X193.6 Y63.1 I0 J-0.4
G1 Y62.9
G19 G2 Y62.5 Z-1.93 J0 K0.4
G1 Z15.5
G17
(When using Fusion for Personal Use, the feedrate of rapid)
(moves is reduced to match the feedrate of cutting moves,)
(which can increase machining time. Unrestricted rapid moves)
(are available with a Fusion Subscription.)

(Bore1)
G0 X260.4 Y77.935
G1 Z15.5 F150
Z2
Z0.4 F50
G19 G3 Y78.335 Z0 J0.4 K0
G1 Y78.535
G17 G3 X260 Y78.935 I-0.4 J0
X260 Y76.885 Z-0.212 I0 J-1.025 F150
X260 Y78.935 Z-0.423 I0 J1.025
X260 Y76.885 Z-0.635 I0 J-1.025
X260 Y78.935 Z-0.846 I0 J1.025
X260 Y76.885 Z-1.058 I0 J-1.025
X260 Y78.935 Z-1.269 I0 J1.025
X260 Y76.885 Z-1.481 I0 J-1.025
X260 Y78.935 Z-1.692 I0 J1.025
X260 Y76.885 Z-1.904 I0 J-1.025
X260 Y78.935 Z-2.115 I0 J1.025
X260 Y76.885 Z-2.327 I0 J-1.025
X260 Y78.935 Z-2.538 I0 J1.025
X260 Y76.885 Z-2.75 I0 J-1.025
X260 Y78.935 Z-2.961 I0 J1.025
X260 Y76.885 Z-3.173 I0 J-1.025
X260 Y78.935 Z-3.384 I0 J1.025
X260 Y76.885 Z-3.596 I0 J-1.025
X260 Y78.935 Z-3.808 I0 J1.025
X260 Y76.885 Z-4.019 I0 J-1.025
X260 Y78.935 Z-4.231 I0 J1.025
X260 Y76.885 Z-4.442 I0 J-1.025
X260 Y78.935 Z-4.654 I0 J1.025
X260 Y76.885 Z-4.865 I0 J-1.025
X260 Y78.935 Z-5.077 I0 J1.025
X260 Y76.885 Z-5.288 I0 J-1.025
X260 Y78.935 Z-5.5 I0 J1.025
X260 Y76.885 Z-5.711 I0 J-1.025
X260 Y78.935 Z-5.923 I0 J1.025
X259.066 Y78.332 Z-6 I0 J-1.025
X260.934 Y77.488 I0.934 J-0.422
X259.066 Y78.332 I-0.934 J0.422
X259.266 Y77.802 I0.365 J-0.165
G1 X259.448 Y77.72
X259.519 Y77.688 Z-5.992
X259.588 Y77.657 Z-5.97
X259.651 Y77.629 Z-5.933
X259.706 Y77.604 Z-5.883
X259.751 Y77.583 Z-5.822
X259.785 Y77.568 Z-5.753
X259.806 Y77.559 Z-5.678
X259.813 Y77.555 Z-5.6
Z5.5
X240.4 Y77.935
Z2
Z0.4 F50
G19 G3 Y78.335 Z0 J0.4 K0
G1 Y78.535
G17 G3 X240 Y78.935 I-0.4 J0
X240 Y76.885 Z-0.212 I0 J-1.025 F150
X240 Y78.935 Z-0.423 I0 J1.025
X240 Y76.885 Z-0.635 I0 J-1.025
X240 Y78.935 Z-0.846 I0 J1.025
X240 Y76.885 Z-1.058 I0 J-1.025
X240 Y78.935 Z-1.269 I0 J1.025
X240 Y76.885 Z-1.481 I0 J-1.025
X240 Y78.935 Z-1.692 I0 J1.025
X240 Y76.885 Z-1.904 I0 J-1.025
X240 Y78.935 Z-2.115 I0 J1.025
X240 Y76.885 Z-2.327 I0 J-1.025
X240 Y78.935 Z-2.538 I0 J1.025
X240 Y76.885 Z-2.75 I0 J-1.025
X240 Y78.935 Z-2.961 I0 J1.025
X240 Y76.885 Z-3.173 I0 J-1.025
X240 Y78.935 Z-3.384 I0 J1.025
X240 Y76.885 Z-3.596 I0 J-1.025
X240 Y78.935 Z-3.808 I0 J1.025
X240 Y76.885 Z-4.019 I0 J-1.025
X240 Y78.935 Z-4.231 I0 J1.025
X240 Y76.885 Z-4.442 I0 J-1.025
X240 Y78.935 Z-4.654 I0 J1.025
X240 Y76.885 Z-4.865 I0 J-1.025
X240 Y78.935 Z-5.077 I0 J1.025
X240 Y76.885 Z-5.288 I0 J-1.025
X240 Y78.935 Z-5.5 I0 J1.025
X240 Y76.885 Z-5.711 I0 J-1.025
X240 Y78.935 Z-5.923 I0 J1.025
X239.066 Y78.332 Z-6 I0 J-1.025
X240.934 Y77.488 I0.934 J-0.422
X239.066 Y78.332 I-0.934 J0.422
X239.266 Y77.802 I0.365 J-0.165
G1 X239.448 Y77.72
X239.519 Y77.688 Z-5.992
X239.588 Y77.657 Z-5.97
X239.651 Y77.629 Z-5.933
X239.706 Y77.604 Z-5.883
X239.751 Y77.583 Z-5.822
X239.785 Y77.568 Z-5.753
X239.806 Y77.559 Z-5.678
X239.813 Y77.555 Z-5.6
Z5.5
X180.4 Y77.935
Z2
Z0.4 F50
G19 G3 Y78.335 Z0 J0.4 K0
G1 Y78.535
G17 G3 X180 Y78.935 I-0.4 J0
X180 Y76.885 Z-0.212 I0 J-1.025 F150
X180 Y78.935 Z-0.423 I0 J1.025
X180 Y76.885 Z-0.635 I0 J-1.025
X180 Y78.935 Z-0.846 I0 J1.025
X180 Y76.885 Z-1.058 I0 J-1.025
X180 Y78.935 Z-1.269 I0 J1.025
X180 Y76.885 Z-1.481 I0 J-1.025
X180 Y78.935 Z-1.692 I0 J1.025
X180 Y76.885 Z-1.904 I0 J-1.025
X180 Y78.935 Z-2.115 I0 J1.025
X180 Y76.885 Z-2.327 I0 J-1.025
X180 Y78.935 Z-2.538 I0 J1.025
X180 Y76.885 Z-2.75 I0 J-1.025
X180 Y78.935 Z-2.961 I0 J1.025
X180 Y76.885 Z-3.173 I0 J-1.025
X180 Y78.935 Z-3.384 I0 J1.025
X180 Y76.885 Z-3.596 I0 J-1.025
X180 Y78.935 Z-3.808 I0 J1.025
X180 Y76.885 Z-4.019 I0 J-1.025
X180 Y78.935 Z-4.231 I0 J1.025
X180 Y76.885 Z-4.442 I0 J-1.025
X180 Y78.935 Z-4.654 I0 J1.025
X180 Y76.885 Z-4.865 I0 J-1.025
X180 Y78.935 Z-5.077 I0 J1.025
X180 Y76.885 Z-5.288 I0 J-1.025
X180 Y78.935 Z-5.5 I0 J1.025
X180 Y76.885 Z-5.711 I0 J-1.025
X180 Y78.935 Z-5.923 I0 J1.025
X179.066 Y78.332 Z-6 I0 J-1.025
X180.934 Y77.488 I0.934 J-0.422
X179.066 Y78.332 I-0.934 J0.422
X179.266 Y77.802 I0.365 J-0.165
G1 X179.448 Y77.72
X179.519 Y77.688 Z-5.992
X179.588 Y77.657 Z-5.97
X179.651 Y77.629 Z-5.933
X179.706 Y77.604 Z-5.883
X179.751 Y77.583 Z-5.822
X179.785 Y77.568 Z-5.753
X179.806 Y77.559 Z-5.678
X179.813 Y77.555 Z-5.6
Z5.5
X160.4 Y77.935
Z2
Z0.4 F50
G19 G3 Y78.335 Z0 J0.4 K0
G1 Y78.535
G17 G3 X160 Y78.935 I-0.4 J0
X160 Y76.885 Z-0.212 I0 J-1.025 F150
X160 Y78.935 Z-0.423 I0 J1.025
X160 Y76.885 Z-0.635 I0 J-1.025
X160 Y78.935 Z-0.846 I0 J1.025
X160 Y76.885 Z-1.058 I0 J-1.025
X160 Y78.935 Z-1.269 I0 J1.025
X160 Y76.885 Z-1.481 I0 J-1.025
X160 Y78.935 Z-1.692 I0 J1.025
X160 Y76.885 Z-1.904 I0 J-1.025
X160 Y78.935 Z-2.115 I0 J1.025
X160 Y76.885 Z-2.327 I0 J-1.025
X160 Y78.935 Z-2.538 I0 J1.025
X160 Y76.885 Z-2.75 I0 J-1.025
X160 Y78.935 Z-2.961 I0 J1.025
X160 Y76.885 Z-3.173 I0 J-1.025
X160 Y78.935 Z-3.384 I0 J1.025
X160 Y76.885 Z-3.596 I0 J-1.025
X160 Y78.935 Z-3.808 I0 J1.025
X160 Y76.885 Z-4.019 I0 J-1.025
X160 Y78.935 Z-4.231 I0 J1.025
X160 Y76.885 Z-4.442 I0 J-1.025
X160 Y78.935 Z-4.654 I0 J1.025
X160 Y76.885 Z-4.865 I0 J-1.025
X160 Y78.935 Z-5.077 I0 J1.025
X160 Y76.885 Z-5.288 I0 J-1.025
X160 Y78.935 Z-5.5 I0 J1.025
X160 Y76.885 Z-5.711 I0 J-1.025
X160 Y78.935 Z-5.923 I0 J1.025
X159.066 Y78.332 Z-6 I0 J-1.025
X160.934 Y77.488 I0.934 J-0.422
X159.066 Y78.332 I-0.934 J0.422
X159.266 Y77.802 I0.365 J-0.165
G1 X159.448 Y77.72
X159.519 Y77.688 Z-5.992
X159.588 Y77.657 Z-5.97
X159.651 Y77.629 Z-5.933
X159.706 Y77.604 Z-5.883
X159.751 Y77.583 Z-5.822
X159.785 Y77.568 Z-5.753
X159.806 Y77.559 Z-5.678
X159.813 Y77.555 Z-5.6
Z5.5
X140.4 Y77.935
Z2
Z0.4 F50
G19 G3 Y78.335 Z0 J0.4 K0
G1 Y78.535
G17 G3 X140 Y78.935 I-0.4 J0
X140 Y76.885 Z-0.212 I0 J-1.025 F150
X140 Y78.935 Z-0.423 I0 J1.025
X140 Y76.885 Z-0.635 I0 J-1.025
X140 Y78.935 Z-0.846 I0 J1.025
X140 Y76.885 Z-1.058 I0 J-1.025
X140 Y78.935 Z-1.269 I0 J1.025
