(z_axis_mount)
(Machine)
(  vendor: Autodesk)
(  model: Generic 3-axis)
(  description: This machine has XYZ axis on the Head)
(T1 D=4 CR=0 - ZMIN=-6 - flat end mill)
G90 G94
G17
G21
(-Attention- Property Safe Retracts is set to Clearance Height.)
(Ensure the clearance height will clear the part and or fixtures.)
(Raise the Z-axis to a safe height before starting the program.)
(When using Fusion for Personal Use, the feedrate of rapid)
(moves is reduced to match the feedrate of cutting moves,)
(which can increase machining time. Unrestricted rapid moves)
(are available with a Fusion Subscription.)

(2D Contour9)
T1
S16000 M3
G17 G90 G94
G54
M8
G0 X-3.814 Y-271.98
Z6.5
G1 Z1.3 F150
Z-0.6
X-3.809 Y-271.974 Z-0.678 F50
X-3.793 Y-271.958 Z-0.753
X-3.767 Y-271.932 Z-0.822
X-3.731 Y-271.897 Z-0.883
X-3.689 Y-271.854 Z-0.933
X-3.64 Y-271.805 Z-0.97
X-3.587 Y-271.752 Z-0.992
X-3.531 Y-271.697 Z-1
X-2.117 Y-270.283
G3 X-2 Y-270 I-0.283 J0.283
G1 Y0 F150
G2 X0 Y2 I2 J0
G1 X86
G2 X88 Y0 I0 J-2
G1 Y-270
G2 X86 Y-272 I-2 J0
G1 X0
G2 X-2 Y-270 I0 J2
G3 X-2.117 Y-269.717 I-0.4 J0
G1 X-3.531 Y-268.303
X-3.587 Y-268.248 Z-0.992
X-3.64 Y-268.195 Z-0.97
X-3.689 Y-268.146 Z-0.933
X-3.731 Y-268.103 Z-0.883
X-3.767 Y-268.068 Z-0.822
X-3.793 Y-268.042 Z-0.753
X-3.809 Y-268.026 Z-0.678
X-3.814 Y-268.02 Z-0.6
Z1.5
Y-271.98
Z0.83
Z-0.2
Z-2.1
X-3.809 Y-271.974 Z-2.178 F50
X-3.793 Y-271.958 Z-2.253
X-3.767 Y-271.932 Z-2.322
X-3.731 Y-271.897 Z-2.383
X-3.689 Y-271.854 Z-2.433
X-3.64 Y-271.805 Z-2.47
X-3.587 Y-271.752 Z-2.492
X-3.531 Y-271.697 Z-2.5
X-2.117 Y-270.283
G3 X-2 Y-270 I-0.283 J0.283
G1 Y0 F150
G2 X0 Y2 I2 J0
G1 X86
G2 X88 Y0 I0 J-2
G1 Y-270
G2 X86 Y-272 I-2 J0
G1 X0
G2 X-2 Y-270 I0 J2
G3 X-2.117 Y-269.717 I-0.4 J0
G1 X-3.531 Y-268.303
X-3.587 Y-268.248 Z-2.492
X-3.64 Y-268.195 Z-2.47
X-3.689 Y-268.146 Z-2.433
X-3.731 Y-268.103 Z-2.383
X-3.767 Y-268.068 Z-2.322
X-3.793 Y-268.042 Z-2.253
X-3.809 Y-268.026 Z-2.178
X-3.814 Y-268.02 Z-2.1
Z1.5
Y-271.98
Z0.83
Z-1.7
Z-3.6
X-3.809 Y-271.974 Z-3.678 F50
X-3.793 Y-271.958 Z-3.753
X-3.767 Y-271.932 Z-3.822
X-3.731 Y-271.897 Z-3.883
X-3.689 Y-271.854 Z-3.933
X-3.64 Y-271.805 Z-3.97
X-3.587 Y-271.752 Z-3.992
X-3.531 Y-271.697 Z-4
X-2.117 Y-270.283
G3 X-2 Y-270 I-0.283 J0.283
G1 Y0 F150
G2 X0 Y2 I2 J0
G1 X86
G2 X88 Y0 I0 J-2
G1 Y-270
G2 X86 Y-272 I-2 J0
G1 X0
G2 X-2 Y-270 I0 J2
G3 X-2.117 Y-269.717 I-0.4 J0
G1 X-3.531 Y-268.303
X-3.587 Y-268.248 Z-3.992
X-3.64 Y-268.195 Z-3.97
X-3.689 Y-268.146 Z-3.933
X-3.731 Y-268.103 Z-3.883
X-3.767 Y-268.068 Z-3.822
X-3.793 Y-268.042 Z-3.753
X-3.809 Y-268.026 Z-3.678
X-3.814 Y-268.02 Z-3.6
Z1.5
Y-271.98
Z0.83
Z-3.2
Z-5.1
X-3.809 Y-271.974 Z-5.178 F50
X-3.793 Y-271.958 Z-5.253
X-3.767 Y-271.932 Z-5.322
X-3.731 Y-271.897 Z-5.383
X-3.689 Y-271.854 Z-5.433
X-3.64 Y-271.805 Z-5.47
X-3.587 Y-271.752 Z-5.492
X-3.531 Y-271.697 Z-5.5
X-2.117 Y-270.283
G3 X-2 Y-270 I-0.283 J0.283
G1 Y0 F150
G2 X0 Y2 I2 J0
G1 X86
G2 X88 Y0 I0 J-2
G1 Y-270
G2 X86 Y-272 I-2 J0
G1 X0
G2 X-2 Y-270 I0 J2
G3 X-2.117 Y-269.717 I-0.4 J0
G1 X-3.531 Y-268.303
X-3.587 Y-268.248 Z-5.492
X-3.64 Y-268.195 Z-5.47
X-3.689 Y-268.146 Z-5.433
X-3.731 Y-268.103 Z-5.383
X-3.767 Y-268.068 Z-5.322
X-3.793 Y-268.042 Z-5.253
X-3.809 Y-268.026 Z-5.178
X-3.814 Y-268.02 Z-5.1
Z1.5
Y-271.98
Z0.83
Z-4.7
Z-5.6
X-3.809 Y-271.974 Z-5.678 F50
X-3.793 Y-271.958 Z-5.753
X-3.767 Y-271.932 Z-5.822
X-3.731 Y-271.897 Z-5.883
X-3.689 Y-271.854 Z-5.933
X-3.64 Y-271.805 Z-5.97
X-3.587 Y-271.752 Z-5.992
X-3.531 Y-271.697 Z-6
X-2.117 Y-270.283
G3 X-2 Y-270 I-0.283 J0.283
G1 Y0 F150
G2 X0 Y2 I2 J0
G1 X86
G2 X88 Y0 I0 J-2
G1 Y-270
G2 X86 Y-272 I-2 J0
G1 X0
G2 X-2 Y-270 I0 J2
G3 X-2.117 Y-269.717 I-0.4 J0
G1 X-3.531 Y-268.303
X-3.587 Y-268.248 Z-5.992
X-3.64 Y-268.195 Z-5.97
X-3.689 Y-268.146 Z-5.933
X-3.731 Y-268.103 Z-5.883
X-3.767 Y-268.068 Z-5.822
X-3.793 Y-268.042 Z-5.753
X-3.809 Y-268.026 Z-5.678
X-3.814 Y-268.02 Z-5.6
Z6.5

M9
M5
M30
