(z_spindle_mount_front)
(Machine)
(  vendor: Autodesk)
(  model: Generic 3-axis)
(  description: This machine has XY axis on the Table and Z axis on the Head)
(T1 D=4 CR=0 - ZMIN=-6.2 - flat end mill)
G90 G94
G17
G21
(-Attention- Property Safe Retracts is set to Clearance Height.)
(Ensure the clearance height will clear the part and or fixtures.)
(Raise the Z-axis to a safe height before starting the program.)
(When using Fusion for Personal Use, the feedrate of rapid)
(moves is reduced to match the feedrate of cutting moves,)
(which can increase machining time. Unrestricted rapid moves)
(are available with a Fusion Subscription.)

(Bore2)
T1
S20000 M3
G17 G90 G94
G54
M8
G0 X125.025 Y7.203
Z15
G1 Z2 F250
Z0.4 F50
G18 G2 X125.425 Z0 I0.4 K0
G1 X125.625
G17 G3 X126.025 Y7.603 I0 J0.4
X123.975 Y7.603 Z-0.318 I-1.025 J0 F250
X126.025 Y7.603 Z-0.636 I1.025 J0
X123.975 Y7.603 Z-0.954 I-1.025 J0
X126.025 Y7.603 Z-1.272 I1.025 J0
X123.975 Y7.603 Z-1.59 I-1.025 J0
X126.025 Y7.603 Z-1.908 I1.025 J0
X123.975 Y7.603 Z-2.226 I-1.025 J0
X126.025 Y7.603 Z-2.544 I1.025 J0
X123.975 Y7.603 Z-2.861 I-1.025 J0
X126.025 Y7.603 Z-3.179 I1.025 J0
X123.975 Y7.603 Z-3.497 I-1.025 J0
X126.025 Y7.603 Z-3.815 I1.025 J0
X123.975 Y7.603 Z-4.133 I-1.025 J0
X126.025 Y7.603 Z-4.451 I1.025 J0
X123.975 Y7.603 Z-4.769 I-1.025 J0
X126.025 Y7.603 Z-5.087 I1.025 J0
X123.975 Y7.603 Z-5.405 I-1.025 J0
X126.025 Y7.603 Z-5.723 I1.025 J0
X123.975 Y7.603 Z-6.041 I-1.025 J0
X125.002 Y6.578 Z-6.2 I1.025 J0
X124.998 Y8.628 I-0.002 J1.025
X125.002 Y6.578 I0.002 J-1.025
X125.401 Y6.979 I-0.001 J0.4 F50
G1 Y7.179
Y7.257 Z-6.192
X125.4 Y7.332 Z-6.17
Y7.401 Z-6.133
Y7.461 Z-6.083
Y7.511 Z-6.022
Y7.548 Z-5.953
Y7.571 Z-5.878
Y7.579 Z-5.8
Z5 F250
X137.475 Y15.4
Z2
Z0.4 F50
G18 G3 X137.075 Z0 I-0.4 K0
G1 X136.875
G17 G3 X136.475 Y15 I0 J-0.4
X138.525 Y15 Z-0.318 I1.025 J0 F250
X136.475 Y15 Z-0.636 I-1.025 J0
X138.525 Y15 Z-0.954 I1.025 J0
X136.475 Y15 Z-1.272 I-1.025 J0
X138.525 Y15 Z-1.59 I1.025 J0
X136.475 Y15 Z-1.908 I-1.025 J0
X138.525 Y15 Z-2.226 I1.025 J0
X136.475 Y15 Z-2.544 I-1.025 J0
X138.525 Y15 Z-2.861 I1.025 J0
X136.475 Y15 Z-3.179 I-1.025 J0
X138.525 Y15 Z-3.497 I1.025 J0
X136.475 Y15 Z-3.815 I-1.025 J0
X138.525 Y15 Z-4.133 I1.025 J0
X136.475 Y15 Z-4.451 I-1.025 J0
X138.525 Y15 Z-4.769 I1.025 J0
X136.475 Y15 Z-5.087 I-1.025 J0
X138.525 Y15 Z-5.405 I1.025 J0
X136.475 Y15 Z-5.723 I-1.025 J0
X138.525 Y15 Z-6.041 I1.025 J0
X137.498 Y16.025 Z-6.2 I-1.025 J0
X137.502 Y13.975 I0.002 J-1.025
X137.498 Y16.025 I-0.002 J1.025
X137.099 Y15.624 I0.001 J-0.4 F50
G1 Y15.424
Y15.346 Z-6.192
X137.1 Y15.271 Z-6.17
Y15.202 Z-6.133
Y15.142 Z-6.083
Y15.092 Z-6.022
Y15.055 Z-5.953
Y15.032 Z-5.878
Y15.024 Z-5.8
Z5 F250
X137.475 Y55.4
Z2
Z0.4 F50
G18 G3 X137.075 Z0 I-0.4 K0
G1 X136.875
G17 G3 X136.475 Y55 I0 J-0.4
X138.525 Y55 Z-0.318 I1.025 J0 F250
X136.475 Y55 Z-0.636 I-1.025 J0
X138.525 Y55 Z-0.954 I1.025 J0
X136.475 Y55 Z-1.272 I-1.025 J0
X138.525 Y55 Z-1.59 I1.025 J0
X136.475 Y55 Z-1.908 I-1.025 J0
X138.525 Y55 Z-2.226 I1.025 J0
X136.475 Y55 Z-2.544 I-1.025 J0
X138.525 Y55 Z-2.861 I1.025 J0
X136.475 Y55 Z-3.179 I-1.025 J0
X138.525 Y55 Z-3.497 I1.025 J0
X136.475 Y55 Z-3.815 I-1.025 J0
X138.525 Y55 Z-4.133 I1.025 J0
X136.475 Y55 Z-4.451 I-1.025 J0
X138.525 Y55 Z-4.769 I1.025 J0
X136.475 Y55 Z-5.087 I-1.025 J0
X138.525 Y55 Z-5.405 I1.025 J0
X136.475 Y55 Z-5.723 I-1.025 J0
X138.525 Y55 Z-6.041 I1.025 J0
X137.498 Y56.025 Z-6.2 I-1.025 J0
X137.502 Y53.975 I0.002 J-1.025
X137.498 Y56.025 I-0.002 J1.025
X137.099 Y55.624 I0.001 J-0.4 F50
G1 Y55.424
Y55.346 Z-6.192
X137.1 Y55.271 Z-6.17
Y55.202 Z-6.133
Y55.142 Z-6.083
Y55.092 Z-6.022
Y55.055 Z-5.953
Y55.032 Z-5.878
Y55.024 Z-5.8
Z5 F250
X125.025 Y57.203
Z2
Z0.4 F50
G18 G2 X125.425 Z0 I0.4 K0
G1 X125.625
G17 G3 X126.025 Y57.603 I0 J0.4
X123.975 Y57.603 Z-0.318 I-1.025 J0 F250
X126.025 Y57.603 Z-0.636 I1.025 J0
X123.975 Y57.603 Z-0.954 I-1.025 J0
X126.025 Y57.603 Z-1.272 I1.025 J0
X123.975 Y57.603 Z-1.59 I-1.025 J0
X126.025 Y57.603 Z-1.908 I1.025 J0
X123.975 Y57.603 Z-2.226 I-1.025 J0
X126.025 Y57.603 Z-2.544 I1.025 J0
X123.975 Y57.603 Z-2.861 I-1.025 J0
X126.025 Y57.603 Z-3.179 I1.025 J0
X123.975 Y57.603 Z-3.497 I-1.025 J0
X126.025 Y57.603 Z-3.815 I1.025 J0
X123.975 Y57.603 Z-4.133 I-1.025 J0
X126.025 Y57.603 Z-4.451 I1.025 J0
X123.975 Y57.603 Z-4.769 I-1.025 J0
X126.025 Y57.603 Z-5.087 I1.025 J0
X123.975 Y57.603 Z-5.405 I-1.025 J0
X126.025 Y57.603 Z-5.723 I1.025 J0
X123.975 Y57.603 Z-6.041 I-1.025 J0
X125.002 Y56.578 Z-6.2 I1.025 J0
X124.998 Y58.628 I-0.002 J1.025
X125.002 Y56.578 I0.002 J-1.025
X125.401 Y56.979 I-0.001 J0.4 F50
G1 Y57.179
Y57.257 Z-6.192
X125.4 Y57.332 Z-6.17
Y57.401 Z-6.133
Y57.461 Z-6.083
Y57.511 Z-6.022
Y57.548 Z-5.953
Y57.571 Z-5.878
Y57.579 Z-5.8
Z5 F250
X25.025 Y57.203
Z2
Z0.4 F50
G18 G2 X25.425 Z0 I0.4 K0
G1 X25.625
G17 G3 X26.025 Y57.603 I0 J0.4
X23.975 Y57.603 Z-0.318 I-1.025 J0 F250
X26.025 Y57.603 Z-0.636 I1.025 J0
X23.975 Y57.603 Z-0.954 I-1.025 J0
X26.025 Y57.603 Z-1.272 I1.025 J0
X23.975 Y57.603 Z-1.59 I-1.025 J0
X26.025 Y57.603 Z-1.908 I1.025 J0
X23.975 Y57.603 Z-2.226 I-1.025 J0
X26.025 Y57.603 Z-2.544 I1.025 J0
X23.975 Y57.603 Z-2.861 I-1.025 J0
X26.025 Y57.603 Z-3.179 I1.025 J0
X23.975 Y57.603 Z-3.497 I-1.025 J0
X26.025 Y57.603 Z-3.815 I1.025 J0
X23.975 Y57.603 Z-4.133 I-1.025 J0
X26.025 Y57.603 Z-4.451 I1.025 J0
X23.975 Y57.603 Z-4.769 I-1.025 J0
X26.025 Y57.603 Z-5.087 I1.025 J0
X23.975 Y57.603 Z-5.405 I-1.025 J0
X26.025 Y57.603 Z-5.723 I1.025 J0
X23.975 Y57.603 Z-6.041 I-1.025 J0
X25.002 Y56.578 Z-6.2 I1.025 J0
X24.998 Y58.628 I-0.002 J1.025
X25.002 Y56.578 I0.002 J-1.025
X25.401 Y56.979 I-0.001 J0.4 F50
G1 Y57.179
Y57.257 Z-6.192
X25.4 Y57.332 Z-6.17
Y57.401 Z-6.133
Y57.461 Z-6.083
Y57.511 Z-6.022
Y57.548 Z-5.953
Y57.571 Z-5.878
Y57.579 Z-5.8
Z5 F250
X12.475 Y55.4
Z2
Z0.4 F50
G18 G3 X12.075 Z0 I-0.4 K0
G1 X11.875
G17 G3 X11.475 Y55 I0 J-0.4
X13.525 Y55 Z-0.318 I1.025 J0 F250
X11.475 Y55 Z-0.636 I-1.025 J0
X13.525 Y55 Z-0.954 I1.025 J0
X11.475 Y55 Z-1.272 I-1.025 J0
X13.525 Y55 Z-1.59 I1.025 J0
X11.475 Y55 Z-1.908 I-1.025 J0
X13.525 Y55 Z-2.226 I1.025 J0
X11.475 Y55 Z-2.544 I-1.025 J0
X13.525 Y55 Z-2.861 I1.025 J0
X11.475 Y55 Z-3.179 I-1.025 J0
X13.525 Y55 Z-3.497 I1.025 J0
X11.475 Y55 Z-3.815 I-1.025 J0
X13.525 Y55 Z-4.133 I1.025 J0
X11.475 Y55 Z-4.451 I-1.025 J0
X13.525 Y55 Z-4.769 I1.025 J0
X11.475 Y55 Z-5.087 I-1.025 J0
X13.525 Y55 Z-5.405 I1.025 J0
X11.475 Y55 Z-5.723 I-1.025 J0
X13.525 Y55 Z-6.041 I1.025 J0
X12.498 Y56.025 Z-6.2 I-1.025 J0
X12.502 Y53.975 I0.002 J-1.025
X12.498 Y56.025 I-0.002 J1.025
X12.099 Y55.624 I0.001 J-0.4 F50
G1 Y55.424
Y55.346 Z-6.192
X12.1 Y55.271 Z-6.17
Y55.202 Z-6.133
Y55.142 Z-6.083
Y55.092 Z-6.022
Y55.055 Z-5.953
Y55.032 Z-5.878
Y55.024 Z-5.8
Z5 F250
X12.475 Y15.4
Z2
Z0.4 F50
G18 G3 X12.075 Z0 I-0.4 K0
G1 X11.875
G17 G3 X11.475 Y15 I0 J-0.4
X13.525 Y15 Z-0.318 I1.025 J0 F250
X11.475 Y15 Z-0.636 I-1.025 J0
X13.525 Y15 Z-0.954 I1.025 J0
X11.475 Y15 Z-1.272 I-1.025 J0
X13.525 Y15 Z-1.59 I1.025 J0
X11.475 Y15 Z-1.908 I-1.025 J0
X13.525 Y15 Z-2.226 I1.025 J0
X11.475 Y15 Z-2.544 I-1.025 J0
X13.525 Y15 Z-2.861 I1.025 J0
X11.475 Y15 Z-3.179 I-1.025 J0
X13.525 Y15 Z-3.497 I1.025 J0
X11.475 Y15 Z-3.815 I-1.025 J0
X13.525 Y15 Z-4.133 I1.025 J0
X11.475 Y15 Z-4.451 I-1.025 J0
X13.525 Y15 Z-4.769 I1.025 J0
X11.475 Y15 Z-5.087 I-1.025 J0
X13.525 Y15 Z-5.405 I1.025 J0
X11.475 Y15 Z-5.723 I-1.025 J0
X13.525 Y15 Z-6.041 I1.025 J0
X12.498 Y16.025 Z-6.2 I-1.025 J0
X12.502 Y13.975 I0.002 J-1.025
X12.498 Y16.025 I-0.002 J1.025
X12.099 Y15.624 I0.001 J-0.4 F50
G1 Y15.424
Y15.346 Z-6.192
X12.1 Y15.271 Z-6.17
Y15.202 Z-6.133
Y15.142 Z-6.083
Y15.092 Z-6.022
Y15.055 Z-5.953
Y15.032 Z-5.878
Y15.024 Z-5.8
Z5 F250
X25.025 Y7.203
Z2
Z0.4 F50
G18 G2 X25.425 Z0 I0.4 K0
G1 X25.625
G17 G3 X26.025 Y7.603 I0 J0.4
X23.975 Y7.603 Z-0.318 I-1.025 J0 F250
X26.025 Y7.603 Z-0.636 I1.025 J0
X23.975 Y7.603 Z-0.954 I-1.025 J0
X26.025 Y7.603 Z-1.272 I1.025 J0
X23.975 Y7.603 Z-1.59 I-1.025 J0
X26.025 Y7.603 Z-1.908 I1.025 J0
X23.975 Y7.603 Z-2.226 I-1.025 J0
X26.025 Y7.603 Z-2.544 I1.025 J0
X23.975 Y7.603 Z-2.861 I-1.025 J0
X26.025 Y7.603 Z-3.179 I1.025 J0
X23.975 Y7.603 Z-3.497 I-1.025 J0
X26.025 Y7.603 Z-3.815 I1.025 J0
X23.975 Y7.603 Z-4.133 I-1.025 J0
X26.025 Y7.603 Z-4.451 I1.025 J0
X23.975 Y7.603 Z-4.769 I-1.025 J0
X26.025 Y7.603 Z-5.087 I1.025 J0
X23.975 Y7.603 Z-5.405 I-1.025 J0
X26.025 Y7.603 Z-5.723 I1.025 J0
X23.975 Y7.603 Z-6.041 I-1.025 J0
X25.002 Y6.578 Z-6.2 I1.025 J0
X24.998 Y8.628 I-0.002 J1.025
X25.002 Y6.578 I0.002 J-1.025
X25.401 Y6.979 I-0.001 J0.4 F50
G1 Y7.179
Y7.257 Z-6.192
X25.4 Y7.332 Z-6.17
Y7.401 Z-6.133
Y7.461 Z-6.083
Y7.511 Z-6.022
Y7.548 Z-5.953
Y7.571 Z-5.878
Y7.579 Z-5.8
Z15 F250
(When using Fusion for Personal Use, the feedrate of rapid)
(moves is reduced to match the feedrate of cutting moves,)
(which can increase machining time. Unrestricted rapid moves)
(are available with a Fusion Subscription.)

(Circular1)
G0 X27.5 Y7.203
G1 Z15 F250
Z1.4
Z-0.2 F50
G18 G2 X27.9 Z-0.6 I0.4 K0
G1 X28.1
G17 G3 X28.5 Y7.603 I0 J0.4
X21.5 Y7.603 I-3.5 J0 F250
X28.5 Y7.603 I3.5 J0
X28.1 Y8.003 I-0.4 J0 F50
G1 X27.9
G18 G3 X27.5 Z-0.2 I0 K0.4
G1 Z5 F250
Y7.203
Z0.8
Z-0.8 F50
G2 X27.9 Z-1.2 I0.4 K0
G1 X28.1
G17 G3 X28.5 Y7.603 I0 J0.4
X21.5 Y7.603 I-3.5 J0 F250
X28.5 Y7.603 I3.5 J0
X28.1 Y8.003 I-0.4 J0 F50
G1 X27.9
G18 G3 X27.5 Z-0.8 I0 K0.4
G1 Z5 F250
Y7.203
Z0.275
Z-1.325 F50
G2 X27.9 Z-1.725 I0.4 K0
G1 X28.1
G17 G3 X28.5 Y7.603 I0 J0.4
X21.5 Y7.603 I-3.5 J0 F250
X28.5 Y7.603 I3.5 J0
X28.1 Y8.003 I-0.4 J0 F50
G1 X27.9
G18 G3 X27.5 Z-1.325 I0 K0.4
G1 Z5 F250
Y7.203
Z-0.25
Z-1.85 F50
G2 X27.9 Z-2.25 I0.4 K0
G1 X28.1
G17 G3 X28.5 Y7.603 I0 J0.4
X21.5 Y7.603 I-3.5 J0 F250
X28.5 Y7.603 I3.5 J0
X28.1 Y8.003 I-0.4 J0 F50
G1 X27.9
G18 G3 X27.5 Z-1.85 I0 K0.4
G1 Z5 F250
Y57.203
Z1.4
Z-0.2 F50
G2 X27.9 Z-0.6 I0.4 K0
G1 X28.1
G17 G3 X28.5 Y57.603 I0 J0.4
X21.5 Y57.603 I-3.5 J0 F250
X28.5 Y57.603 I3.5 J0
X28.1 Y58.003 I-0.4 J0 F50
G1 X27.9
G18 G3 X27.5 Z-0.2 I0 K0.4
G1 Z5 F250
Y57.203
Z0.8
Z-0.8 F50
G2 X27.9 Z-1.2 I0.4 K0
G1 X28.1
G17 G3 X28.5 Y57.603 I0 J0.4
X21.5 Y57.603 I-3.5 J0 F250
X28.5 Y57.603 I3.5 J0
X28.1 Y58.003 I-0.4 J0 F50
G1 X27.9
G18 G3 X27.5 Z-0.8 I0 K0.4
G1 Z5 F250
Y57.203
Z0.275
Z-1.325 F50
G2 X27.9 Z-1.725 I0.4 K0
G1 X28.1
G17 G3 X28.5 Y57.603 I0 J0.4
X21.5 Y57.603 I-3.5 J0 F250
X28.5 Y57.603 I3.5 J0
X28.1 Y58.003 I-0.4 J0 F50
G1 X27.9
G18 G3 X27.5 Z-1.325 I0 K0.4
G1 Z5 F250
Y57.203
Z-0.25
Z-1.85 F50
G2 X27.9 Z-2.25 I0.4 K0
G1 X28.1
G17 G3 X28.5 Y57.603 I0 J0.4
X21.5 Y57.603 I-3.5 J0 F250
X28.5 Y57.603 I3.5 J0
X28.1 Y58.003 I-0.4 J0 F50
G1 X27.9
G18 G3 X27.5 Z-1.85 I0 K0.4
G1 Z5 F250
X127.5 Y57.203
Z1.4
Z-0.2 F50
G2 X127.9 Z-0.6 I0.4 K0
G1 X128.1
G17 G3 X128.5 Y57.603 I0 J0.4
X121.5 Y57.603 I-3.5 J0 F250
X128.5 Y57.603 I3.5 J0
X128.1 Y58.003 I-0.4 J0 F50
G1 X127.9
G18 G3 X127.5 Z-0.2 I0 K0.4
G1 Z5 F250
Y57.203
Z0.8
Z-0.8 F50
G2 X127.9 Z-1.2 I0.4 K0
G1 X128.1
G17 G3 X128.5 Y57.603 I0 J0.4
X121.5 Y57.603 I-3.5 J0 F250
X128.5 Y57.603 I3.5 J0
X128.1 Y58.003 I-0.4 J0 F50
G1 X127.9
G18 G3 X127.5 Z-0.8 I0 K0.4
G1 Z5 F250
Y57.203
Z0.275
Z-1.325 F50
G2 X127.9 Z-1.725 I0.4 K0
G1 X128.1
G17 G3 X128.5 Y57.603 I0 J0.4
X121.5 Y57.603 I-3.5 J0 F250
X128.5 Y57.603 I3.5 J0
X128.1 Y58.003 I-0.4 J0 F50
G1 X127.9
G18 G3 X127.5 Z-1.325 I0 K0.4
G1 Z5 F250
Y57.203
Z-0.25
Z-1.85 F50
G2 X127.9 Z-2.25 I0.4 K0
G1 X128.1
G17 G3 X128.5 Y57.603 I0 J0.4
X121.5 Y57.603 I-3.5 J0 F250
X128.5 Y57.603 I3.5 J0
X128.1 Y58.003 I-0.4 J0 F50
G1 X127.9
G18 G3 X127.5 Z-1.85 I0 K0.4
G1 Z5 F250
Y7.203
Z1.4
Z-0.2 F50
G2 X127.9 Z-0.6 I0.4 K0
G1 X128.1
G17 G3 X128.5 Y7.603 I0 J0.4
X121.5 Y7.603 I-3.5 J0 F250
X128.5 Y7.603 I3.5 J0
X128.1 Y8.003 I-0.4 J0 F50
G1 X127.9
G18 G3 X127.5 Z-0.2 I0 K0.4
G1 Z5 F250
Y7.203
Z0.8
Z-0.8 F50
G2 X127.9 Z-1.2 I0.4 K0
G1 X128.1
G17 G3 X128.5 Y7.603 I0 J0.4
X121.5 Y7.603 I-3.5 J0 F250
X128.5 Y7.603 I3.5 J0
X128.1 Y8.003 I-0.4 J0 F50
G1 X127.9
G18 G3 X127.5 Z-0.8 I0 K0.4
G1 Z5 F250
Y7.203
Z0.275
Z-1.325 F50
G2 X127.9 Z-1.725 I0.4 K0
G1 X128.1
G17 G3 X128.5 Y7.603 I0 J0.4
X121.5 Y7.603 I-3.5 J0 F250
X128.5 Y7.603 I3.5 J0
X128.1 Y8.003 I-0.4 J0 F50
G1 X127.9
G18 G3 X127.5 Z-1.325 I0 K0.4
G1 Z5 F250
Y7.203
Z-0.25
Z-1.85 F50
G2 X127.9 Z-2.25 I0.4 K0
G1 X128.1
G17 G3 X128.5 Y7.603 I0 J0.4
X121.5 Y7.603 I-3.5 J0 F250
X128.5 Y7.603 I3.5 J0
X128.1 Y8.003 I-0.4 J0 F50
G1 X127.9
G18 G3 X127.5 Z-1.85 I0 K0.4
G1 Z15 F250
G17

M9
M5
M30
