(z_spindle_mount_back)
(Machine)
(  vendor: Autodesk)
(  model: Generic 3-axis)
(  description: This machine has XY axis on the Table and Z axis on the Head)
(T1 D=4 CR=0 - ZMIN=-7 - flat end mill)
G90 G94
G17
G21
(-Attention- Property Safe Retracts is set to Clearance Height.)
(Ensure the clearance height will clear the part and or fixtures.)
(Raise the Z-axis to a safe height before starting the program.)
(When using Fusion for Personal Use, the feedrate of rapid)
(moves is reduced to match the feedrate of cutting moves,)
(which can increase machining time. Unrestricted rapid moves)
(are available with a Fusion Subscription.)

(Circular2)
T1
S20000 M3
G17 G90 G94
G54
M8
G0 X-15 Y55.4
Z15
G1 Z1.4 F250
Z-0.2 F50
G18 G3 X-15.4 Z-0.6 I-0.4 K0
G1 X-15.6
G17 G3 X-16 Y55 I0 J-0.4
X-9 Y55 I3.5 J0 F250
X-16 Y55 I-3.5 J0
X-15.6 Y54.6 I0.4 J0 F50
G1 X-15.4
G18 G2 X-15 Z-0.2 I0 K0.4
G1 Z5 F250
Y55.4
Z0.8
Z-0.8 F50
G3 X-15.4 Z-1.2 I-0.4 K0
G1 X-15.6
G17 G3 X-16 Y55 I0 J-0.4
X-9 Y55 I3.5 J0 F250
X-16 Y55 I-3.5 J0
X-15.6 Y54.6 I0.4 J0 F50
G1 X-15.4
G18 G2 X-15 Z-0.8 I0 K0.4
G1 Z5 F250
Y55.4
Z0.275
Z-1.325 F50
G3 X-15.4 Z-1.725 I-0.4 K0
G1 X-15.6
G17 G3 X-16 Y55 I0 J-0.4
X-9 Y55 I3.5 J0 F250
X-16 Y55 I-3.5 J0
X-15.6 Y54.6 I0.4 J0 F50
G1 X-15.4
G18 G2 X-15 Z-1.325 I0 K0.4
G1 Z5 F250
Y55.4
Z-0.25
Z-1.85 F50
G3 X-15.4 Z-2.25 I-0.4 K0
G1 X-15.6
G17 G3 X-16 Y55 I0 J-0.4
X-9 Y55 I3.5 J0 F250
X-16 Y55 I-3.5 J0
X-15.6 Y54.6 I0.4 J0 F50
G1 X-15.4
G18 G2 X-15 Z-1.85 I0 K0.4
G1 Z5 F250
Y15.4
Z1.4
Z-0.2 F50
G3 X-15.4 Z-0.6 I-0.4 K0
G1 X-15.6
G17 G3 X-16 Y15 I0 J-0.4
X-9 Y15 I3.5 J0 F250
X-16 Y15 I-3.5 J0
X-15.6 Y14.6 I0.4 J0 F50
G1 X-15.4
G18 G2 X-15 Z-0.2 I0 K0.4
G1 Z5 F250
Y15.4
Z0.8
Z-0.8 F50
G3 X-15.4 Z-1.2 I-0.4 K0
G1 X-15.6
G17 G3 X-16 Y15 I0 J-0.4
X-9 Y15 I3.5 J0 F250
X-16 Y15 I-3.5 J0
X-15.6 Y14.6 I0.4 J0 F50
G1 X-15.4
G18 G2 X-15 Z-0.8 I0 K0.4
G1 Z5 F250
Y15.4
Z0.275
Z-1.325 F50
G3 X-15.4 Z-1.725 I-0.4 K0
G1 X-15.6
G17 G3 X-16 Y15 I0 J-0.4
X-9 Y15 I3.5 J0 F250
X-16 Y15 I-3.5 J0
X-15.6 Y14.6 I0.4 J0 F50
G1 X-15.4
G18 G2 X-15 Z-1.325 I0 K0.4
G1 Z5 F250
Y15.4
Z-0.25
Z-1.85 F50
G3 X-15.4 Z-2.25 I-0.4 K0
G1 X-15.6
G17 G3 X-16 Y15 I0 J-0.4
X-9 Y15 I3.5 J0 F250
X-16 Y15 I-3.5 J0
X-15.6 Y14.6 I0.4 J0 F50
G1 X-15.4
G18 G2 X-15 Z-1.85 I0 K0.4
G1 Z5 F250
X-140 Y15.4
Z1.4
Z-0.2 F50
G3 X-140.4 Z-0.6 I-0.4 K0
G1 X-140.6
G17 G3 X-141 Y15 I0 J-0.4
X-134 Y15 I3.5 J0 F250
X-141 Y15 I-3.5 J0
X-140.6 Y14.6 I0.4 J0 F50
G1 X-140.4
G18 G2 X-140 Z-0.2 I0 K0.4
G1 Z5 F250
Y15.4
Z0.8
Z-0.8 F50
G3 X-140.4 Z-1.2 I-0.4 K0
G1 X-140.6
G17 G3 X-141 Y15 I0 J-0.4
X-134 Y15 I3.5 J0 F250
X-141 Y15 I-3.5 J0
X-140.6 Y14.6 I0.4 J0 F50
G1 X-140.4
G18 G2 X-140 Z-0.8 I0 K0.4
G1 Z5 F250
Y15.4
Z0.275
Z-1.325 F50
G3 X-140.4 Z-1.725 I-0.4 K0
G1 X-140.6
G17 G3 X-141 Y15 I0 J-0.4
X-134 Y15 I3.5 J0 F250
X-141 Y15 I-3.5 J0
X-140.6 Y14.6 I0.4 J0 F50
G1 X-140.4
G18 G2 X-140 Z-1.325 I0 K0.4
G1 Z5 F250
Y15.4
Z-0.25
Z-1.85 F50
G3 X-140.4 Z-2.25 I-0.4 K0
G1 X-140.6
G17 G3 X-141 Y15 I0 J-0.4
X-134 Y15 I3.5 J0 F250
X-141 Y15 I-3.5 J0
X-140.6 Y14.6 I0.4 J0 F50
G1 X-140.4
G18 G2 X-140 Z-1.85 I0 K0.4
G1 Z5 F250
Y55.4
Z1.4
Z-0.2 F50
G3 X-140.4 Z-0.6 I-0.4 K0
G1 X-140.6
G17 G3 X-141 Y55 I0 J-0.4
X-134 Y55 I3.5 J0 F250
X-141 Y55 I-3.5 J0
X-140.6 Y54.6 I0.4 J0 F50
G1 X-140.4
G18 G2 X-140 Z-0.2 I0 K0.4
G1 Z5 F250
Y55.4
Z0.8
Z-0.8 F50
G3 X-140.4 Z-1.2 I-0.4 K0
G1 X-140.6
G17 G3 X-141 Y55 I0 J-0.4
X-134 Y55 I3.5 J0 F250
X-141 Y55 I-3.5 J0
X-140.6 Y54.6 I0.4 J0 F50
G1 X-140.4
G18 G2 X-140 Z-0.8 I0 K0.4
G1 Z5 F250
Y55.4
Z0.275
Z-1.325 F50
G3 X-140.4 Z-1.725 I-0.4 K0
G1 X-140.6
G17 G3 X-141 Y55 I0 J-0.4
X-134 Y55 I3.5 J0 F250
X-141 Y55 I-3.5 J0
X-140.6 Y54.6 I0.4 J0 F50
G1 X-140.4
G18 G2 X-140 Z-1.325 I0 K0.4
G1 Z5 F250
Y55.4
Z-0.25
Z-1.85 F50
G3 X-140.4 Z-2.25 I-0.4 K0
G1 X-140.6
G17 G3 X-141 Y55 I0 J-0.4
X-134 Y55 I3.5 J0 F250
X-141 Y55 I-3.5 J0
X-140.6 Y54.6 I0.4 J0 F50
G1 X-140.4
G18 G2 X-140 Z-1.85 I0 K0.4
G1 Z15 F250
G17
(When using Fusion for Personal Use, the feedrate of rapid)
(moves is reduced to match the feedrate of cutting moves,)
(which can increase machining time. Unrestricted rapid moves)
(are available with a Fusion Subscription.)

(2D Contour2)
G0 X-151.98 Y73.814
G1 Z6 F250
Z0.8
Z-0.6 F50
X-151.974 Y73.809 Z-0.678
X-151.958 Y73.793 Z-0.753
X-151.932 Y73.767 Z-0.822
X-151.897 Y73.731 Z-0.883
X-151.854 Y73.689 Z-0.933
X-151.805 Y73.64 Z-0.97
X-151.752 Y73.587 Z-0.992
X-151.697 Y73.531 Z-1
X-150.283 Y72.117
G3 X-150 Y72 I0.283 J0.283
G1 X0 F250
G2 X2 Y70 I0 J-2
G1 Y0
G2 X0 Y-2 I-2 J0
G1 X-150
G2 X-152 Y0 I0 J2
G1 Y70
G2 X-150 Y72 I2 J0
G3 X-149.717 Y72.117 I0 J0.4 F50
G1 X-148.303 Y73.531
X-148.248 Y73.587 Z-0.992
X-148.195 Y73.64 Z-0.97
X-148.146 Y73.689 Z-0.933
X-148.103 Y73.731 Z-0.883
X-148.068 Y73.767 Z-0.822
X-148.042 Y73.793 Z-0.753
X-148.026 Y73.809 Z-0.678
X-148.02 Y73.814 Z-0.6
Z1 F250
X-151.98
Z0.33
Z-0.2 F50
Z-1.6
X-151.974 Y73.809 Z-1.678
X-151.958 Y73.793 Z-1.753
X-151.932 Y73.767 Z-1.822
X-151.897 Y73.731 Z-1.883
X-151.854 Y73.689 Z-1.933
X-151.805 Y73.64 Z-1.97
X-151.752 Y73.587 Z-1.992
X-151.697 Y73.531 Z-2
X-150.283 Y72.117
G3 X-150 Y72 I0.283 J0.283
G1 X0 F250
G2 X2 Y70 I0 J-2
G1 Y0
G2 X0 Y-2 I-2 J0
G1 X-150
G2 X-152 Y0 I0 J2
G1 Y70
G2 X-150 Y72 I2 J0
G3 X-149.717 Y72.117 I0 J0.4 F50
G1 X-148.303 Y73.531
X-148.248 Y73.587 Z-1.992
X-148.195 Y73.64 Z-1.97
X-148.146 Y73.689 Z-1.933
X-148.103 Y73.731 Z-1.883
X-148.068 Y73.767 Z-1.822
X-148.042 Y73.793 Z-1.753
X-148.026 Y73.809 Z-1.678
X-148.02 Y73.814 Z-1.6
Z1 F250
X-151.98
Z0.33
Z-1.2 F50
Z-2.6
X-151.974 Y73.809 Z-2.678
X-151.958 Y73.793 Z-2.753
X-151.932 Y73.767 Z-2.822
X-151.897 Y73.731 Z-2.883
X-151.854 Y73.689 Z-2.933
X-151.805 Y73.64 Z-2.97
X-151.752 Y73.587 Z-2.992
X-151.697 Y73.531 Z-3
X-150.283 Y72.117
G3 X-150 Y72 I0.283 J0.283
G1 X0 F250
G2 X2 Y70 I0 J-2
G1 Y0
G2 X0 Y-2 I-2 J0
G1 X-150
G2 X-152 Y0 I0 J2
G1 Y70
G2 X-150 Y72 I2 J0
G3 X-149.717 Y72.117 I0 J0.4 F50
G1 X-148.303 Y73.531
X-148.248 Y73.587 Z-2.992
X-148.195 Y73.64 Z-2.97
X-148.146 Y73.689 Z-2.933
X-148.103 Y73.731 Z-2.883
X-148.068 Y73.767 Z-2.822
X-148.042 Y73.793 Z-2.753
X-148.026 Y73.809 Z-2.678
X-148.02 Y73.814 Z-2.6
Z1 F250
X-151.98
Z0.33
Z-2.2 F50
Z-3.6
X-151.974 Y73.809 Z-3.678
X-151.958 Y73.793 Z-3.753
X-151.932 Y73.767 Z-3.822
X-151.897 Y73.731 Z-3.883
X-151.854 Y73.689 Z-3.933
X-151.805 Y73.64 Z-3.97
X-151.752 Y73.587 Z-3.992
X-151.697 Y73.531 Z-4
X-150.283 Y72.117
G3 X-150 Y72 I0.283 J0.283
G1 X0 F250
G2 X2 Y70 I0 J-2
G1 Y0
G2 X0 Y-2 I-2 J0
G1 X-150
G2 X-152 Y0 I0 J2
G1 Y70
G2 X-150 Y72 I2 J0
G3 X-149.717 Y72.117 I0 J0.4 F50
G1 X-148.303 Y73.531
X-148.248 Y73.587 Z-3.992
X-148.195 Y73.64 Z-3.97
X-148.146 Y73.689 Z-3.933
X-148.103 Y73.731 Z-3.883
X-148.068 Y73.767 Z-3.822
X-148.042 Y73.793 Z-3.753
X-148.026 Y73.809 Z-3.678
X-148.02 Y73.814 Z-3.6
Z1 F250
X-151.98
Z0.33
Z-3.2 F50
Z-4.6
X-151.974 Y73.809 Z-4.678
X-151.958 Y73.793 Z-4.753
X-151.932 Y73.767 Z-4.822
X-151.897 Y73.731 Z-4.883
X-151.854 Y73.689 Z-4.933
X-151.805 Y73.64 Z-4.97
X-151.752 Y73.587 Z-4.992
X-151.697 Y73.531 Z-5
X-150.283 Y72.117
G3 X-150 Y72 I0.283 J0.283
G1 X0 F250
G2 X2 Y70 I0 J-2
G1 Y0
G2 X0 Y-2 I-2 J0
G1 X-150
G2 X-152 Y0 I0 J2
G1 Y70
G2 X-150 Y72 I2 J0
G3 X-149.717 Y72.117 I0 J0.4 F50
G1 X-148.303 Y73.531
X-148.248 Y73.587 Z-4.992
X-148.195 Y73.64 Z-4.97
X-148.146 Y73.689 Z-4.933
X-148.103 Y73.731 Z-4.883
X-148.068 Y73.767 Z-4.822
X-148.042 Y73.793 Z-4.753
X-148.026 Y73.809 Z-4.678
X-148.02 Y73.814 Z-4.6
Z1 F250
X-151.98
Z0.33
Z-4.2 F50
Z-5.6
X-151.974 Y73.809 Z-5.678
X-151.958 Y73.793 Z-5.753
X-151.932 Y73.767 Z-5.822
X-151.897 Y73.731 Z-5.883
X-151.854 Y73.689 Z-5.933
X-151.805 Y73.64 Z-5.97
X-151.752 Y73.587 Z-5.992
X-151.697 Y73.531 Z-6
X-150.283 Y72.117
G3 X-150 Y72 I0.283 J0.283
G1 X0 F250
G2 X2 Y70 I0 J-2
G1 Y0
G2 X0 Y-2 I-2 J0
G1 X-150
G2 X-152 Y0 I0 J2
G1 Y70
G2 X-150 Y72 I2 J0
G3 X-149.717 Y72.117 I0 J0.4 F50
G1 X-148.303 Y73.531
X-148.248 Y73.587 Z-5.992
X-148.195 Y73.64 Z-5.97
X-148.146 Y73.689 Z-5.933
X-148.103 Y73.731 Z-5.883
X-148.068 Y73.767 Z-5.822
X-148.042 Y73.793 Z-5.753
X-148.026 Y73.809 Z-5.678
X-148.02 Y73.814 Z-5.6
Z1 F250
X-151.98
Z0.33
Z-5.2 F50
Z-6.6
X-151.974 Y73.809 Z-6.678
X-151.958 Y73.793 Z-6.753
X-151.932 Y73.767 Z-6.822
X-151.897 Y73.731 Z-6.883
X-151.854 Y73.689 Z-6.933
X-151.805 Y73.64 Z-6.97
X-151.752 Y73.587 Z-6.992
X-151.697 Y73.531 Z-7
X-150.283 Y72.117
G3 X-150 Y72 I0.283 J0.283
G1 X0 F250
G2 X2 Y70 I0 J-2
G1 Y0
G2 X0 Y-2 I-2 J0
G1 X-150
G2 X-152 Y0 I0 J2
G1 Y70
G2 X-150 Y72 I2 J0
G3 X-149.717 Y72.117 I0 J0.4 F50
G1 X-148.303 Y73.531
X-148.248 Y73.587 Z-6.992
X-148.195 Y73.64 Z-6.97
X-148.146 Y73.689 Z-6.933
X-148.103 Y73.731 Z-6.883
X-148.068 Y73.767 Z-6.822
X-148.042 Y73.793 Z-6.753
X-148.026 Y73.809 Z-6.678
X-148.02 Y73.814 Z-6.6
Z6 F250

M9
M5
M30
