(z_spindle_mount_back)
(Machine)
(  vendor: Autodesk)
(  model: Generic 3-axis)
(  description: This machine has XY axis on the Table and Z axis on the Head)
(T1 D=4 CR=0 - ZMIN=-6.22 - flat end mill)
G90 G94
G17
G21
(-Attention- Property Safe Retracts is set to Clearance Height.)
(Ensure the clearance height will clear the part and or fixtures.)
(Raise the Z-axis to a safe height before starting the program.)
(When using Fusion for Personal Use, the feedrate of rapid)
(moves is reduced to match the feedrate of cutting moves,)
(which can increase machining time. Unrestricted rapid moves)
(are available with a Fusion Subscription.)

(Circular2)
T1
S20000 M3
G17 G90 G94
G54
M8
G0 X15 Y14.6
Z15
G1 Z1.4 F250
Z-0.2 F50
G18 G2 X15.4 Z-0.6 I0.4 K0
G1 X15.6
G17 G3 X16 Y15 I0 J0.4
X9 Y15 I-3.5 J0 F250
X16 Y15 I3.5 J0
X15.6 Y15.4 I-0.4 J0 F50
G1 X15.4
G18 G3 X15 Z-0.2 I0 K0.4
G1 Z5 F250
Y14.6
Z0.8
Z-0.8 F50
G2 X15.4 Z-1.2 I0.4 K0
G1 X15.6
G17 G3 X16 Y15 I0 J0.4
X9 Y15 I-3.5 J0 F250
X16 Y15 I3.5 J0
X15.6 Y15.4 I-0.4 J0 F50
G1 X15.4
G18 G3 X15 Z-0.8 I0 K0.4
G1 Z5 F250
Y14.6
Z0.275
Z-1.325 F50
G2 X15.4 Z-1.725 I0.4 K0
G1 X15.6
G17 G3 X16 Y15 I0 J0.4
X9 Y15 I-3.5 J0 F250
X16 Y15 I3.5 J0
X15.6 Y15.4 I-0.4 J0 F50
G1 X15.4
G18 G3 X15 Z-1.325 I0 K0.4
G1 Z5 F250
Y14.6
Z-0.25
Z-1.85 F50
G2 X15.4 Z-2.25 I0.4 K0
G1 X15.6
G17 G3 X16 Y15 I0 J0.4
X9 Y15 I-3.5 J0 F250
X16 Y15 I3.5 J0
X15.6 Y15.4 I-0.4 J0 F50
G1 X15.4
G18 G3 X15 Z-1.85 I0 K0.4
G1 Z5 F250
Y54.6
Z1.4
Z-0.2 F50
G2 X15.4 Z-0.6 I0.4 K0
G1 X15.6
G17 G3 X16 Y55 I0 J0.4
X9 Y55 I-3.5 J0 F250
X16 Y55 I3.5 J0
X15.6 Y55.4 I-0.4 J0 F50
G1 X15.4
G18 G3 X15 Z-0.2 I0 K0.4
G1 Z5 F250
Y54.6
Z0.8
Z-0.8 F50
G2 X15.4 Z-1.2 I0.4 K0
G1 X15.6
G17 G3 X16 Y55 I0 J0.4
X9 Y55 I-3.5 J0 F250
X16 Y55 I3.5 J0
X15.6 Y55.4 I-0.4 J0 F50
G1 X15.4
G18 G3 X15 Z-0.8 I0 K0.4
G1 Z5 F250
Y54.6
Z0.275
Z-1.325 F50
G2 X15.4 Z-1.725 I0.4 K0
G1 X15.6
G17 G3 X16 Y55 I0 J0.4
X9 Y55 I-3.5 J0 F250
X16 Y55 I3.5 J0
X15.6 Y55.4 I-0.4 J0 F50
G1 X15.4
G18 G3 X15 Z-1.325 I0 K0.4
G1 Z5 F250
Y54.6
Z-0.25
Z-1.85 F50
G2 X15.4 Z-2.25 I0.4 K0
G1 X15.6
G17 G3 X16 Y55 I0 J0.4
X9 Y55 I-3.5 J0 F250
X16 Y55 I3.5 J0
X15.6 Y55.4 I-0.4 J0 F50
G1 X15.4
G18 G3 X15 Z-1.85 I0 K0.4
G1 Z5 F250
X140 Y54.6
Z1.4
Z-0.2 F50
G2 X140.4 Z-0.6 I0.4 K0
G1 X140.6
G17 G3 X141 Y55 I0 J0.4
X134 Y55 I-3.5 J0 F250
X141 Y55 I3.5 J0
X140.6 Y55.4 I-0.4 J0 F50
G1 X140.4
G18 G3 X140 Z-0.2 I0 K0.4
G1 Z5 F250
Y54.6
Z0.8
Z-0.8 F50
G2 X140.4 Z-1.2 I0.4 K0
G1 X140.6
G17 G3 X141 Y55 I0 J0.4
X134 Y55 I-3.5 J0 F250
X141 Y55 I3.5 J0
X140.6 Y55.4 I-0.4 J0 F50
G1 X140.4
G18 G3 X140 Z-0.8 I0 K0.4
G1 Z5 F250
Y54.6
Z0.275
Z-1.325 F50
G2 X140.4 Z-1.725 I0.4 K0
G1 X140.6
G17 G3 X141 Y55 I0 J0.4
X134 Y55 I-3.5 J0 F250
X141 Y55 I3.5 J0
X140.6 Y55.4 I-0.4 J0 F50
G1 X140.4
G18 G3 X140 Z-1.325 I0 K0.4
G1 Z5 F250
Y54.6
Z-0.25
Z-1.85 F50
G2 X140.4 Z-2.25 I0.4 K0
G1 X140.6
G17 G3 X141 Y55 I0 J0.4
X134 Y55 I-3.5 J0 F250
X141 Y55 I3.5 J0
X140.6 Y55.4 I-0.4 J0 F50
G1 X140.4
G18 G3 X140 Z-1.85 I0 K0.4
G1 Z5 F250
Y14.6
Z1.4
Z-0.2 F50
G2 X140.4 Z-0.6 I0.4 K0
G1 X140.6
G17 G3 X141 Y15 I0 J0.4
X134 Y15 I-3.5 J0 F250
X141 Y15 I3.5 J0
X140.6 Y15.4 I-0.4 J0 F50
G1 X140.4
G18 G3 X140 Z-0.2 I0 K0.4
G1 Z5 F250
Y14.6
Z0.8
Z-0.8 F50
G2 X140.4 Z-1.2 I0.4 K0
G1 X140.6
G17 G3 X141 Y15 I0 J0.4
X134 Y15 I-3.5 J0 F250
X141 Y15 I3.5 J0
X140.6 Y15.4 I-0.4 J0 F50
G1 X140.4
G18 G3 X140 Z-0.8 I0 K0.4
G1 Z5 F250
Y14.6
Z0.275
Z-1.325 F50
G2 X140.4 Z-1.725 I0.4 K0
G1 X140.6
G17 G3 X141 Y15 I0 J0.4
X134 Y15 I-3.5 J0 F250
X141 Y15 I3.5 J0
X140.6 Y15.4 I-0.4 J0 F50
G1 X140.4
G18 G3 X140 Z-1.325 I0 K0.4
G1 Z5 F250
Y14.6
Z-0.25
Z-1.85 F50
G2 X140.4 Z-2.25 I0.4 K0
G1 X140.6
G17 G3 X141 Y15 I0 J0.4
X134 Y15 I-3.5 J0 F250
X141 Y15 I3.5 J0
X140.6 Y15.4 I-0.4 J0 F50
G1 X140.4
G18 G3 X140 Z-1.85 I0 K0.4
G1 Z15 F250
G17
(When using Fusion for Personal Use, the feedrate of rapid)
(moves is reduced to match the feedrate of cutting moves,)
(which can increase machining time. Unrestricted rapid moves)
(are available with a Fusion Subscription.)

(2D Contour2)
G0 X-1.98 Y73.814
G1 Z6 F250
Z0.8
Z-0.2 F50
X-1.974 Y73.809 Z-0.278
X-1.958 Y73.793 Z-0.353
X-1.932 Y73.767 Z-0.422
X-1.897 Y73.731 Z-0.483
X-1.854 Y73.689 Z-0.533
X-1.805 Y73.64 Z-0.57
X-1.752 Y73.587 Z-0.592
X-1.697 Y73.531 Z-0.6
X-0.283 Y72.117
G3 X0 Y72 I0.283 J0.283
G1 X150 F250
G2 X152 Y70 I0 J-2
G1 Y0
G2 X150 Y-2 I-2 J0
G1 X0
G2 X-2 Y0 I0 J2
G1 Y70
G2 X0 Y72 I2 J0
G3 X0.283 Y72.117 I0 J0.4 F50
G1 X1.697 Y73.531
X1.752 Y73.587 Z-0.592
X1.805 Y73.64 Z-0.57
X1.854 Y73.689 Z-0.533
X1.897 Y73.731 Z-0.483
X1.932 Y73.767 Z-0.422
X1.958 Y73.793 Z-0.353
X1.974 Y73.809 Z-0.278
X1.98 Y73.814 Z-0.2
Z1 F250
X-1.98
Z0.33
Z0.2 F50
Z-0.8
X-1.974 Y73.809 Z-0.878
X-1.958 Y73.793 Z-0.953
X-1.932 Y73.767 Z-1.022
X-1.897 Y73.731 Z-1.083
X-1.854 Y73.689 Z-1.133
X-1.805 Y73.64 Z-1.17
X-1.752 Y73.587 Z-1.192
X-1.697 Y73.531 Z-1.2
X-0.283 Y72.117
G3 X0 Y72 I0.283 J0.283
G1 X150 F250
G2 X152 Y70 I0 J-2
G1 Y0
G2 X150 Y-2 I-2 J0
G1 X0
G2 X-2 Y0 I0 J2
G1 Y70
G2 X0 Y72 I2 J0
G3 X0.283 Y72.117 I0 J0.4 F50
G1 X1.697 Y73.531
X1.752 Y73.587 Z-1.192
X1.805 Y73.64 Z-1.17
X1.854 Y73.689 Z-1.133
X1.897 Y73.731 Z-1.083
X1.932 Y73.767 Z-1.022
X1.958 Y73.793 Z-0.953
X1.974 Y73.809 Z-0.878
X1.98 Y73.814 Z-0.8
Z1 F250
X-1.98
Z0.33
Z-0.4 F50
Z-1.4
X-1.974 Y73.809 Z-1.478
X-1.958 Y73.793 Z-1.553
X-1.932 Y73.767 Z-1.622
X-1.897 Y73.731 Z-1.683
X-1.854 Y73.689 Z-1.733
X-1.805 Y73.64 Z-1.77
X-1.752 Y73.587 Z-1.792
X-1.697 Y73.531 Z-1.8
X-0.283 Y72.117
G3 X0 Y72 I0.283 J0.283
G1 X150 F250
G2 X152 Y70 I0 J-2
G1 Y0
G2 X150 Y-2 I-2 J0
G1 X0
G2 X-2 Y0 I0 J2
G1 Y70
G2 X0 Y72 I2 J0
G3 X0.283 Y72.117 I0 J0.4 F50
G1 X1.697 Y73.531
X1.752 Y73.587 Z-1.792
X1.805 Y73.64 Z-1.77
X1.854 Y73.689 Z-1.733
X1.897 Y73.731 Z-1.683
X1.932 Y73.767 Z-1.622
X1.958 Y73.793 Z-1.553
X1.974 Y73.809 Z-1.478
X1.98 Y73.814 Z-1.4
Z1 F250
X-1.98
Z0.33
Z-1 F50
Z-2
X-1.974 Y73.809 Z-2.078
X-1.958 Y73.793 Z-2.153
X-1.932 Y73.767 Z-2.222
X-1.897 Y73.731 Z-2.283
X-1.854 Y73.689 Z-2.333
X-1.805 Y73.64 Z-2.37
X-1.752 Y73.587 Z-2.392
X-1.697 Y73.531 Z-2.4
X-0.283 Y72.117
G3 X0 Y72 I0.283 J0.283
G1 X150 F250
G2 X152 Y70 I0 J-2
G1 Y0
G2 X150 Y-2 I-2 J0
G1 X0
G2 X-2 Y0 I0 J2
G1 Y70
G2 X0 Y72 I2 J0
G3 X0.283 Y72.117 I0 J0.4 F50
G1 X1.697 Y73.531
X1.752 Y73.587 Z-2.392
X1.805 Y73.64 Z-2.37
X1.854 Y73.689 Z-2.333
X1.897 Y73.731 Z-2.283
X1.932 Y73.767 Z-2.222
X1.958 Y73.793 Z-2.153
X1.974 Y73.809 Z-2.078
X1.98 Y73.814 Z-2
Z1 F250
X-1.98
Z0.33
Z-1.6 F50
Z-2.6
X-1.974 Y73.809 Z-2.678
X-1.958 Y73.793 Z-2.753
X-1.932 Y73.767 Z-2.822
X-1.897 Y73.731 Z-2.883
X-1.854 Y73.689 Z-2.933
X-1.805 Y73.64 Z-2.97
X-1.752 Y73.587 Z-2.992
X-1.697 Y73.531 Z-3
X-0.283 Y72.117
G3 X0 Y72 I0.283 J0.283
G1 X150 F250
G2 X152 Y70 I0 J-2
G1 Y0
G2 X150 Y-2 I-2 J0
G1 X0
G2 X-2 Y0 I0 J2
G1 Y70
G2 X0 Y72 I2 J0
G3 X0.283 Y72.117 I0 J0.4 F50
G1 X1.697 Y73.531
X1.752 Y73.587 Z-2.992
X1.805 Y73.64 Z-2.97
X1.854 Y73.689 Z-2.933
X1.897 Y73.731 Z-2.883
X1.932 Y73.767 Z-2.822
X1.958 Y73.793 Z-2.753
X1.974 Y73.809 Z-2.678
X1.98 Y73.814 Z-2.6
Z1 F250
X-1.98
Z0.33
Z-2.2 F50
Z-3.2
X-1.974 Y73.809 Z-3.278
X-1.958 Y73.793 Z-3.353
X-1.932 Y73.767 Z-3.422
X-1.897 Y73.731 Z-3.483
X-1.854 Y73.689 Z-3.533
X-1.805 Y73.64 Z-3.57
X-1.752 Y73.587 Z-3.592
X-1.697 Y73.531 Z-3.6
X-0.283 Y72.117
G3 X0 Y72 I0.283 J0.283
G1 X150 F250
G2 X152 Y70 I0 J-2
G1 Y0
G2 X150 Y-2 I-2 J0
G1 X0
G2 X-2 Y0 I0 J2
G1 Y70
G2 X0 Y72 I2 J0
G3 X0.283 Y72.117 I0 J0.4 F50
G1 X1.697 Y73.531
X1.752 Y73.587 Z-3.592
X1.805 Y73.64 Z-3.57
X1.854 Y73.689 Z-3.533
X1.897 Y73.731 Z-3.483
X1.932 Y73.767 Z-3.422
X1.958 Y73.793 Z-3.353
X1.974 Y73.809 Z-3.278
X1.98 Y73.814 Z-3.2
Z1 F250
X-1.98
Z0.33
Z-2.8 F50
Z-3.8
X-1.974 Y73.809 Z-3.878
X-1.958 Y73.793 Z-3.953
X-1.932 Y73.767 Z-4.022
X-1.897 Y73.731 Z-4.083
X-1.854 Y73.689 Z-4.133
X-1.805 Y73.64 Z-4.17
X-1.752 Y73.587 Z-4.192
X-1.697 Y73.531 Z-4.2
X-0.283 Y72.117
G3 X0 Y72 I0.283 J0.283
G1 X150 F250
G2 X152 Y70 I0 J-2
G1 Y0
G2 X150 Y-2 I-2 J0
G1 X0
G2 X-2 Y0 I0 J2
G1 Y70
G2 X0 Y72 I2 J0
G3 X0.283 Y72.117 I0 J0.4 F50
G1 X1.697 Y73.531
X1.752 Y73.587 Z-4.192
X1.805 Y73.64 Z-4.17
X1.854 Y73.689 Z-4.133
X1.897 Y73.731 Z-4.083
X1.932 Y73.767 Z-4.022
X1.958 Y73.793 Z-3.953
X1.974 Y73.809 Z-3.878
X1.98 Y73.814 Z-3.8
Z1 F250
X-1.98
Z0.33
Z-3.4 F50
Z-4.4
X-1.974 Y73.809 Z-4.478
X-1.958 Y73.793 Z-4.553
X-1.932 Y73.767 Z-4.622
X-1.897 Y73.731 Z-4.683
X-1.854 Y73.689 Z-4.733
X-1.805 Y73.64 Z-4.77
X-1.752 Y73.587 Z-4.792
X-1.697 Y73.531 Z-4.8
X-0.283 Y72.117
G3 X0 Y72 I0.283 J0.283
G1 X150 F250
G2 X152 Y70 I0 J-2
G1 Y0
G2 X150 Y-2 I-2 J0
G1 X0
G2 X-2 Y0 I0 J2
G1 Y70
G2 X0 Y72 I2 J0
G3 X0.283 Y72.117 I0 J0.4 F50
G1 X1.697 Y73.531
X1.752 Y73.587 Z-4.792
X1.805 Y73.64 Z-4.77
X1.854 Y73.689 Z-4.733
X1.897 Y73.731 Z-4.683
X1.932 Y73.767 Z-4.622
X1.958 Y73.793 Z-4.553
X1.974 Y73.809 Z-4.478
X1.98 Y73.814 Z-4.4
Z1 F250
X-1.98
Z0.33
Z-4 F50
Z-5
X-1.974 Y73.809 Z-5.078
X-1.958 Y73.793 Z-5.153
X-1.932 Y73.767 Z-5.222
X-1.897 Y73.731 Z-5.283
X-1.854 Y73.689 Z-5.333
X-1.805 Y73.64 Z-5.37
X-1.752 Y73.587 Z-5.392
X-1.697 Y73.531 Z-5.4
X-0.283 Y72.117
G3 X0 Y72 I0.283 J0.283
G1 X150 F250
G2 X152 Y70 I0 J-2
G1 Y0
G2 X150 Y-2 I-2 J0
G1 X0
G2 X-2 Y0 I0 J2
G1 Y70
G2 X0 Y72 I2 J0
G3 X0.283 Y72.117 I0 J0.4 F50
G1 X1.697 Y73.531
X1.752 Y73.587 Z-5.392
X1.805 Y73.64 Z-5.37
X1.854 Y73.689 Z-5.333
X1.897 Y73.731 Z-5.283
X1.932 Y73.767 Z-5.222
X1.958 Y73.793 Z-5.153
X1.974 Y73.809 Z-5.078
X1.98 Y73.814 Z-5
Z1 F250
X-1.98
Z0.33
Z-4.6 F50
Z-5.6
X-1.974 Y73.809 Z-5.678
X-1.958 Y73.793 Z-5.753
X-1.932 Y73.767 Z-5.822
X-1.897 Y73.731 Z-5.883
X-1.854 Y73.689 Z-5.933
X-1.805 Y73.64 Z-5.97
X-1.752 Y73.587 Z-5.992
X-1.697 Y73.531 Z-6
X-0.283 Y72.117
G3 X0 Y72 I0.283 J0.283
G1 X150 F250
G2 X152 Y70 I0 J-2
G1 Y0
G2 X150 Y-2 I-2 J0
G1 X0
G2 X-2 Y0 I0 J2
G1 Y70
G2 X0 Y72 I2 J0
G3 X0.283 Y72.117 I0 J0.4 F50
G1 X1.697 Y73.531
X1.752 Y73.587 Z-5.992
X1.805 Y73.64 Z-5.97
X1.854 Y73.689 Z-5.933
X1.897 Y73.731 Z-5.883
X1.932 Y73.767 Z-5.822
X1.958 Y73.793 Z-5.753
X1.974 Y73.809 Z-5.678
X1.98 Y73.814 Z-5.6
Z1 F250
X-1.98
Z0.33
Z-5.2 F50
Z-5.82
X-1.974 Y73.809 Z-5.898
X-1.958 Y73.793 Z-5.973
X-1.932 Y73.767 Z-6.042
X-1.897 Y73.731 Z-6.103
X-1.854 Y73.689 Z-6.153
X-1.805 Y73.64 Z-6.19
X-1.752 Y73.587 Z-6.212
X-1.697 Y73.531 Z-6.22
X-0.283 Y72.117
G3 X0 Y72 I0.283 J0.283
G1 X150 F250
G2 X152 Y70 I0 J-2
G1 Y0
G2 X150 Y-2 I-2 J0
G1 X0
G2 X-2 Y0 I0 J2
G1 Y70
G2 X0 Y72 I2 J0
G3 X0.283 Y72.117 I0 J0.4 F50
G1 X1.697 Y73.531
X1.752 Y73.587 Z-6.212
X1.805 Y73.64 Z-6.19
X1.854 Y73.689 Z-6.153
X1.897 Y73.731 Z-6.103
X1.932 Y73.767 Z-6.042
X1.958 Y73.793 Z-5.973
X1.974 Y73.809 Z-5.898
X1.98 Y73.814 Z-5.82
Z6 F250

M9
M5
M30
