(pdu_bottom)
(Machine)
(  vendor: Autodesk)
(  model: Generic 3-axis)
(  description: This machine has XY axis on the Table and Z axis on the Head)
(T3 D=3.1 CR=0 - ZMIN=-1.33 - flat end mill)
G90 G94
G17
G21
(-Attention- Property Safe Retracts is set to Clearance Height.)
(Ensure the clearance height will clear the part and or fixtures.)
(Raise the Z-axis to a safe height before starting the program.)

(Drill1)
T3
S21000 M3
G17 G90 G94
G54
M8
G0 X285 Y50.339
Z15
G0 Z5
G1 Z-1.33 F150
G0 Z5
Y24.561
G1 Z-1.33 F150
G0 Z5
X249
G1 Z-1.33 F150
G0 Z5
Y50.339
G1 Z-1.33 F150
G0 Z5
X186 Y133.45
G1 Z-1.33 F150
G0 Z5
Y185.45
G1 Z-1.33 F150
G0 Z5
X36
G1 Z-1.33 F150
G0 Z5
Y133.45
G1 Z-1.33 F150
G0 Z5
Z15
(When using Fusion for Personal Use, the feedrate of rapid)
(moves is reduced to match the feedrate of cutting moves,)
(which can increase machining time. Unrestricted rapid moves)
(are available with a Fusion Subscription.)

(2D Contour1)
G0 X167.075 Y5.45
G1 Z10 F150
Z0.62
Z-1
G3 X164.925 Y5.45 I-1.075 J0
X167.075 Y5.45 I1.075 J0
G1 Z5
X227.022 Y5.782
Z0.62
Z-1
G3 X224.978 Y5.118 I-1.022 J-0.332
X227.022 Y5.782 I1.022 J0.332
G1 Z5
X279.95 Y37.95
Z0.62
Z-1
Y50.9
X254.05
Y24
X279.95
Y37.95
Z5
X287.075 Y5.45
Z0.62
Z-1
G3 X284.925 Y5.45 I-1.075 J0
X287.075 Y5.45 I1.075 J0
G1 Z5
X327.075 Y93.45
Z0.62
Z-1
G3 X324.925 Y93.45 I-1.075 J0
X327.075 Y93.45 I1.075 J0
G1 Z5
X327.022 Y123.782
Z0.62
Z-1
G3 X324.978 Y123.118 I-1.022 J-0.332
X327.022 Y123.782 I1.022 J0.332
G1 Z5
X327.075 Y153.45
Z0.62
Z-1
G3 X324.925 Y153.45 I-1.075 J0
X327.075 Y153.45 I1.075 J0
G1 Z5
Y183.45
Z0.62
Z-1
G3 X324.925 Y183.45 I-1.075 J0
X327.075 Y183.45 I1.075 J0
G1 Z5
X287.075 Y220.45
Z0.62
Z-1
G3 X284.925 Y220.45 I-1.075 J0
X287.075 Y220.45 I1.075 J0
G1 Z5
X227.075
Z0.62
Z-1
G3 X224.925 Y220.45 I-1.075 J0
X227.075 Y220.45 I1.075 J0
G1 Z5
X167.075
Z0.62
Z-1
G3 X164.925 Y220.45 I-1.075 J0
X167.075 Y220.45 I1.075 J0
G1 Z5
X107.075
Z0.62
Z-1
G3 X104.925 Y220.45 I-1.075 J0
X107.075 Y220.45 I1.075 J0
G1 Z5
X27.075
Z0.62
Z-1
G3 X24.925 Y220.45 I-1.075 J0
X27.075 Y220.45 I1.075 J0
G1 Z5
X7.075 Y183.45
Z0.62
Z-1
G3 X4.925 Y183.45 I-1.075 J0
X7.075 Y183.45 I1.075 J0
G1 Z5
X7.022 Y153.782
Z0.62
Z-1
G3 X4.978 Y153.118 I-1.022 J-0.332
X7.022 Y153.782 I1.022 J0.332
G1 Z5
X7.075 Y123.45
Z0.62
Z-1
G3 X4.925 Y123.45 I-1.075 J0
X7.075 Y123.45 I1.075 J0
G1 Z5
Y93.45
Z0.62
Z-1
G3 X4.925 Y93.45 I-1.075 J0
X7.075 Y93.45 I1.075 J0
G1 Z5
X27.075 Y5.45
Z0.62
Z-1
G3 X24.925 Y5.45 I-1.075 J0
X27.075 Y5.45 I1.075 J0
G1 Z5
X107.022 Y5.782
Z0.62
Z-1
G3 X104.978 Y5.118 I-1.022 J-0.332
X107.022 Y5.782 I1.022 J0.332
G1 Z10
(When using Fusion for Personal Use, the feedrate of rapid)
(moves is reduced to match the feedrate of cutting moves,)
(which can increase machining time. Unrestricted rapid moves)
(are available with a Fusion Subscription.)

(2D Contour2)
G0 X-3.274 Y111.372
G1 Z10 F150
Z0.62
Z-0.69
X-3.269 Y111.378 Z-0.759
X-3.253 Y111.394 Z-0.825
X-3.226 Y111.42 Z-0.883
X-3.192 Y111.455 Z-0.932
X-3.15 Y111.496 Z-0.969
X-3.104 Y111.543 Z-0.992
X-3.055 Y111.592 Z-1
X-1.641 Y113.006
X-1.602 Y113.053
X-1.574 Y113.106
X-1.556 Y113.165
X-1.55 Y113.225
Y116.95
Z-0.225
Y128.05
Z-1
Y141.77
Z-0.225
Y152.87
Z-1
Y166.59
Z-0.225
Y177.69
Z-1
Y191.41
Z-0.225
Y202.51
Z-1
Y210.45
G2 X0 Y212 I1.55 J0
G1 X5.78
Z-0.225
X14.45
Y213.86
Z-1
Y226.45
G2 X14.6 Y227.115 I1.55 J0
G1 Z-0.225
G2 X16 Y228 I1.4 J-0.665
G1 X25.7
Z-1
X39.42
Z-0.225
X50.52
Z-1
X64.24
Z-0.225
X75.34
Z-1
X89.06
Z-0.225
X100.16
Z-1
X113.88
Z-0.225
X124.98
Z-1
X138.7
Z-0.225
X149.8
Z-1
X163.52
Z-0.225
X174.62
Z-1
X188.34
Z-0.225
X199.44
Z-1
X213.16
Z-0.225
X224.26
Z-1
X237.98
Z-0.225
X249.08
Z-1
X262.8
Z-0.225
X273.9
Z-1
X287.62
Z-0.225
X298.72
Z-1
X314.45
Z-0.225
X316
G2 X317.55 Y226.45 I0 J-1.55
G1 Y218.91
Z-1
Y212
X321.26
Z-0.225
X332
G2 X332.36 Y211.958 I0 J-1.55
G1 Z-1
G2 X333.55 Y210.45 I-0.36 J-1.508
G1 Y196.37
Z-0.225
Y185.27
Z-1
Y171.55
Z-0.225
Y160.45
Z-1
Y146.73
Z-0.225
Y135.63
Z-1
Y121.91
Z-0.225
Y110.81
Z-1
Y97.09
Z-0.225
Y85.99
Z-1
Y72.27
Z-0.225
Y61.17
Z-1
Y60.45
G2 X332 Y58.9 I-1.55 J0
G1 X319.41
Z-0.225
X317.55
Y52.35
Z-1
Y38.63
Z-0.225
Y27.53
Z-1
Y13.81
Z-0.225
Y2.71
Z-1
Y0
G2 X316 Y-1.55 I-1.55 J0
G1 X304.99
Z-0.225
X293.89
Z-1
X280.17
Z-0.225
X269.07
Z-1
X255.35
Z-0.225
X244.25
Z-1
X230.53
Z-0.225
X219.43
Z-1
X205.71
Z-0.225
X194.61
Z-1
X180.89
Z-0.225
X169.79
Z-1
X156.07
Z-0.225
X144.97
Z-1
X131.25
Z-0.225
X120.15
Z-1
X106.43
Z-0.225
X95.33
Z-1
X81.61
Z-0.225
X70.51
Z-1
X56.79
Z-0.225
X45.69
Z-1
X31.97
Z-0.225
X20.87
Z-1
X16
G2 X14.45 Y0 I0 J1.55
G1 Y8.85
Z-0.225
Y19.95
Z-1
Y33.67
Z-0.225
Y44.77
Z-1
Y57.04
Z-0.225
Y58.9
X6.86
Z-1
X0
G2 X-1.55 Y60.45 I0 J1.55
G1 Y67.31
Z-0.225
Y78.41
Z-1
Y92.13
Z-0.225
Y103.23
Z-1
Y113.225
X-1.556 Y113.285
X-1.574 Y113.344
X-1.602 Y113.397
X-1.641 Y113.444
X-3.055 Y114.858
X-3.104 Y114.907 Z-0.992
X-3.15 Y114.954 Z-0.969
X-3.192 Y114.995 Z-0.932
X-3.226 Y115.03 Z-0.883
X-3.253 Y115.056 Z-0.825
X-3.269 Y115.072 Z-0.759
X-3.274 Y115.078 Z-0.69
Z10

M9
M5
M30
