(pdu_bottom)
(Machine)
(  vendor: Autodesk)
(  model: Generic 3-axis)
(  description: This machine has XY axis on the Table and Z axis on the Head)
(T1 D=4.76 CR=0 - ZMIN=-1 - flat end mill)
G90 G94
G17
G21
(-Attention- Property Safe Retracts is set to Clearance Height.)
(Ensure the clearance height will clear the part and or fixtures.)
(Raise the Z-axis to a safe height before starting the program.)
(When using Fusion for Personal Use, the feedrate of rapid)
(moves is reduced to match the feedrate of cutting moves,)
(which can increase machining time. Unrestricted rapid moves)
(are available with a Fusion Subscription.)

(2D Contour2)
T1
S21000 M3
G17 G90 G94
G54
M8
G0 X-4.27 Y111.138
Z10
G1 Z0.952 F150
Z-0.524 F50
X-4.265 Y111.143 Z-0.607
X-4.25 Y111.158 Z-0.687
X-4.225 Y111.183 Z-0.762
X-4.191 Y111.216 Z-0.83
X-4.15 Y111.258 Z-0.889
X-4.102 Y111.306 Z-0.936
X-4.049 Y111.359 Z-0.971
X-3.992 Y111.416 Z-0.993
X-3.934 Y111.474 Z-1
X-3.567 Y111.841
Z0.19
X-2.519 Y112.888
G3 X-2.38 Y113.225 I-0.337 J0.337
G1 Y124.601 F150
Z-1 F50
Y150.354 F150
Z0.19
Y163.114
Z-1 F50
Y188.868 F150
Z0.19
Y201.628
Z-1 F50
Y210.45 F150
G2 X0 Y212.83 I2.38 J0
G1 X10.764
Z0.19
X13.62
Y224.142
Z-1 F50
Y226.45 F150
G2 X16 Y228.83 I2.38 J0
G1 X39.446
Z0.19
X52.206
Z-1 F50
X77.96 F150
Z0.19
X90.72
Z-1 F50
X116.473 F150
Z0.19
X129.233
Z-1 F50
X154.987 F150
Z0.19
X167.747
Z-1 F50
X193.501 F150
Z0.19
X206.261
Z-1 F50
X232.015 F150
Z0.19
X244.775
Z-1 F50
X270.529 F150
Z0.19
X283.289
Z-1 F50
X309.042 F150
Z0.19
X316
G2 X318.38 Y226.45 I0 J-2.38
G1 Y224.07
Z-1 F50
Y212.83 F150
X332
G2 X334.338 Y210.894 I0 J-2.38
G1 Z0.19
G2 X334.38 Y210.45 I-2.338 J-0.444
G1 Y198.134
Z-1 F50
Y172.38 F150
Z0.19
Y159.62
Z-1 F50
Y133.866 F150
Z0.19
Y121.106
Z-1 F50
Y95.352 F150
Z0.19
Y82.592
Z-1 F50
Y60.45 F150
G2 X332 Y58.07 I-2.38 J0
G1 X328.389
Z0.19
X318.38
Y55.214
Z-1 F50
Y34.325 F150
Z0.19
Y21.565
Z-1 F50
Y0 F150
G2 X316 Y-2.38 I-2.38 J0
G1 X311.811
Z0.19
X299.051
Z-1 F50
X273.297 F150
Z0.19
X260.537
Z-1 F50
X234.783 F150
Z0.19
X222.023
Z-1 F50
X196.27 F150
Z0.19
X183.51
Z-1 F50
X157.756 F150
Z0.19
X144.996
Z-1 F50
X119.242 F150
Z0.19
X106.482
Z-1 F50
X80.728 F150
Z0.19
X67.968
Z-1 F50
X42.215 F150
Z0.19
X29.455
Z-1 F50
X16 F150
G2 X13.62 Y0 I0 J2.38
G1 Y12.299
Z0.19
Y25.059
Z-1 F50
Y50.813 F150
Z0.19
Y58.07
X10.764
Z-1 F50
X0 F150
G2 X-2.38 Y60.45 I0 J2.38
G1 Y73.327
Z0.19
Y86.087
Z-1 F50
Y111.841 F150
Z0.19
Y113.225
G3 X-2.519 Y113.562 I-0.476 J0
G1 X-4.27 Y115.312
Z10

M9
M5
M30
