(rack_rail)
(Machine)
(  vendor: Autodesk)
(  model: Generic 3-axis)
(  description: This machine has XY axis on the Table and Z axis on the Head)
(T1 D=4.76 CR=0 - ZMIN=-1.5 - flat end mill)
G90 G94
G17
G21
(-Attention- Property Safe Retracts is set to Clearance Height.)
(Ensure the clearance height will clear the part and or fixtures.)
(Raise the Z-axis to a safe height before starting the program.)
(When using Fusion for Personal Use, the feedrate of rapid)
(moves is reduced to match the feedrate of cutting moves,)
(which can increase machining time. Unrestricted rapid moves)
(are available with a Fusion Subscription.)

(2D Contour1)
T1
S21000 M3
G17 G90 G94
G54
M8
G0 X4.242 Y174.334
Z6
G1 Z0.952 F150
Z-1 F50
X4.249 Y174.335 Z-1.087 F25
X4.271 Y174.339 Z-1.171
X4.308 Y174.346 Z-1.25
X4.357 Y174.354 Z-1.321
X4.418 Y174.365 Z-1.383
X4.488 Y174.377 Z-1.433
X4.566 Y174.391 Z-1.47
X4.649 Y174.406 Z-1.492
X4.734 Y174.421 Z-1.5
X5.227 Y174.508
G3 X5.64 Y175 I-0.087 J0.492
X3.9 Y175 I-0.87 J0 F150
X5.64 Y175 I0.87 J0
X5.227 Y175.492 I-0.5 J0
G1 X4.734 Y175.579
X4.649 Y175.594 Z-1.492
X4.566 Y175.609 Z-1.47
X4.488 Y175.623 Z-1.433
X4.418 Y175.635 Z-1.383
X4.357 Y175.646 Z-1.321
X4.308 Y175.654 Z-1.25
X4.271 Y175.661 Z-1.171
X4.249 Y175.665 Z-1.087
X4.242 Y175.666 Z-1
Z1
X58.922 Y174.334
Z0.952
Z-1 F50
X58.929 Y174.335 Z-1.087 F25
X58.952 Y174.339 Z-1.171
X58.988 Y174.346 Z-1.25
X59.037 Y174.354 Z-1.321
X59.098 Y174.365 Z-1.383
X59.168 Y174.377 Z-1.433
X59.246 Y174.391 Z-1.47
X59.329 Y174.406 Z-1.492
X59.414 Y174.421 Z-1.5
X59.907 Y174.508
G3 X60.32 Y175 I-0.087 J0.492
X58.58 Y175 I-0.87 J0 F150
X60.32 Y175 I0.87 J0
X59.907 Y175.492 I-0.5 J0
G1 X59.414 Y175.579
X59.329 Y175.594 Z-1.492
X59.246 Y175.609 Z-1.47
X59.168 Y175.623 Z-1.433
X59.098 Y175.635 Z-1.383
X59.037 Y175.646 Z-1.321
X58.988 Y175.654 Z-1.25
X58.952 Y175.661 Z-1.171
X58.929 Y175.665 Z-1.087
X58.922 Y175.666 Z-1
Z1
X59.292 Y249.165
Z0.952
Z-1 F50
X59.298 Y249.17 Z-1.087 F25
X59.316 Y249.183 Z-1.171
X59.345 Y249.206 Z-1.25
X59.385 Y249.236 Z-1.321
X59.433 Y249.274 Z-1.383
X59.49 Y249.318 Z-1.433
X59.552 Y249.366 Z-1.47
X59.619 Y249.417 Z-1.492
X59.688 Y249.471 Z-1.5
X60.083 Y249.776
G3 X60.22 Y250.404 I-0.306 J0.396
X58.68 Y249.596 I-0.77 J-0.404 F150
X60.22 Y250.404 I0.77 J0.404
X59.626 Y250.648 I-0.443 J-0.232
G1 X59.149 Y250.496
X59.067 Y250.47 Z-1.492
X58.986 Y250.444 Z-1.47
X58.911 Y250.42 Z-1.433
X58.843 Y250.399 Z-1.383
X58.784 Y250.38 Z-1.321
X58.737 Y250.365 Z-1.25
X58.702 Y250.354 Z-1.171
X58.68 Y250.347 Z-1.087
X58.673 Y250.344 Z-1
Z1
X4.143 Y249.334
Z0.952
Z-1 F50
X4.151 Y249.335 Z-1.087 F25
X4.173 Y249.339 Z-1.171
X4.209 Y249.346 Z-1.25
X4.258 Y249.354 Z-1.321
X4.319 Y249.365 Z-1.383
X4.389 Y249.377 Z-1.433
X4.467 Y249.391 Z-1.47
X4.55 Y249.406 Z-1.492
X4.635 Y249.421 Z-1.5
X5.128 Y249.508
G3 X5.541 Y250 I-0.087 J0.492
X3.801 Y250 I-0.87 J0 F150
X5.541 Y250 I0.87 J0
X5.128 Y250.492 I-0.5 J0
G1 X4.635 Y250.579
X4.55 Y250.594 Z-1.492
X4.467 Y250.609 Z-1.47
X4.389 Y250.623 Z-1.433
X4.319 Y250.635 Z-1.383
X4.258 Y250.646 Z-1.321
X4.209 Y250.654 Z-1.25
X4.173 Y250.661 Z-1.171
X4.151 Y250.665 Z-1.087
X4.143 Y250.666 Z-1
Z1
X4.044 Y324.334
Z0.952
Z-1 F50
X4.052 Y324.335 Z-1.087 F25
X4.074 Y324.339 Z-1.171
X4.11 Y324.346 Z-1.25
X4.16 Y324.354 Z-1.321
X4.22 Y324.365 Z-1.383
X4.291 Y324.377 Z-1.433
X4.368 Y324.391 Z-1.47
X4.451 Y324.406 Z-1.492
X4.537 Y324.421 Z-1.5
X5.029 Y324.508
G3 X5.442 Y325 I-0.087 J0.492
X3.702 Y325 I-0.87 J0 F150
X5.442 Y325 I0.87 J0
X5.029 Y325.492 I-0.5 J0
G1 X4.537 Y325.579
X4.451 Y325.594 Z-1.492
X4.368 Y325.609 Z-1.47
X4.291 Y325.623 Z-1.433
X4.22 Y325.635 Z-1.383
X4.16 Y325.646 Z-1.321
X4.11 Y325.654 Z-1.25
X4.074 Y325.661 Z-1.171
X4.052 Y325.665 Z-1.087
X4.044 Y325.666 Z-1
Z1
X58.922 Y324.334
Z0.952
Z-1 F50
X58.929 Y324.335 Z-1.087 F25
X58.952 Y324.339 Z-1.171
X58.988 Y324.346 Z-1.25
X59.037 Y324.354 Z-1.321
X59.098 Y324.365 Z-1.383
X59.168 Y324.377 Z-1.433
X59.246 Y324.391 Z-1.47
X59.329 Y324.406 Z-1.492
X59.414 Y324.421 Z-1.5
X59.907 Y324.508
G3 X60.32 Y325 I-0.087 J0.492
X58.58 Y325 I-0.87 J0 F150
X60.32 Y325 I0.87 J0
X59.907 Y325.492 I-0.5 J0
G1 X59.414 Y325.579
X59.329 Y325.594 Z-1.492
X59.246 Y325.609 Z-1.47
X59.168 Y325.623 Z-1.433
X59.098 Y325.635 Z-1.383
X59.037 Y325.646 Z-1.321
X58.988 Y325.654 Z-1.25
X58.952 Y325.661 Z-1.171
X58.929 Y325.665 Z-1.087
X58.922 Y325.666 Z-1
Z1
Y399.334
Z0.952
Z-1 F50
X58.929 Y399.335 Z-1.087 F25
X58.952 Y399.339 Z-1.171
X58.988 Y399.346 Z-1.25
X59.037 Y399.354 Z-1.321
X59.098 Y399.365 Z-1.383
X59.168 Y399.377 Z-1.433
X59.246 Y399.391 Z-1.47
X59.329 Y399.406 Z-1.492
X59.414 Y399.421 Z-1.5
X59.907 Y399.508
G3 X60.32 Y400 I-0.087 J0.492
X58.58 Y400 I-0.87 J0 F150
X60.32 Y400 I0.87 J0
X59.907 Y400.492 I-0.5 J0
G1 X59.414 Y400.579
X59.329 Y400.594 Z-1.492
X59.246 Y400.609 Z-1.47
X59.168 Y400.623 Z-1.433
X59.098 Y400.635 Z-1.383
X59.037 Y400.646 Z-1.321
X58.988 Y400.654 Z-1.25
X58.952 Y400.661 Z-1.171
X58.929 Y400.665 Z-1.087
X58.922 Y400.666 Z-1
Z1
X47.572 Y399.334
Z0.952
Z-1 F50
X47.579 Y399.335 Z-1.087 F25
X47.602 Y399.339 Z-1.171
X47.638 Y399.346 Z-1.25
X47.687 Y399.354 Z-1.321
X47.748 Y399.365 Z-1.383
X47.818 Y399.377 Z-1.433
X47.896 Y399.391 Z-1.47
X47.979 Y399.406 Z-1.492
X48.064 Y399.421 Z-1.5
X48.557 Y399.508
G3 X48.97 Y400 I-0.087 J0.492
X47.23 Y400 I-0.87 J0 F150
X48.97 Y400 I0.87 J0
X48.557 Y400.492 I-0.5 J0
G1 X48.064 Y400.579
X47.979 Y400.594 Z-1.492
X47.896 Y400.609 Z-1.47
X47.818 Y400.623 Z-1.433
X47.748 Y400.635 Z-1.383
X47.687 Y400.646 Z-1.321
X47.638 Y400.654 Z-1.25
X47.602 Y400.661 Z-1.171
X47.579 Y400.665 Z-1.087
X47.572 Y400.666 Z-1
Z1
X15.822 Y399.334
Z0.952
Z-1 F50
X15.829 Y399.335 Z-1.087 F25
X15.852 Y399.339 Z-1.171
X15.888 Y399.346 Z-1.25
X15.937 Y399.354 Z-1.321
X15.998 Y399.365 Z-1.383
X16.068 Y399.377 Z-1.433
X16.146 Y399.391 Z-1.47
X16.229 Y399.406 Z-1.492
X16.314 Y399.421 Z-1.5
X16.807 Y399.508
G3 X17.22 Y400 I-0.087 J0.492
X15.48 Y400 I-0.87 J0 F150
X17.22 Y400 I0.87 J0
X16.807 Y400.492 I-0.5 J0
G1 X16.314 Y400.579
X16.229 Y400.594 Z-1.492
X16.146 Y400.609 Z-1.47
X16.068 Y400.623 Z-1.433
X15.998 Y400.635 Z-1.383
X15.937 Y400.646 Z-1.321
X15.888 Y400.654 Z-1.25
X15.852 Y400.661 Z-1.171
X15.829 Y400.665 Z-1.087
X15.822 Y400.666 Z-1
Z1
X3.946 Y399.334
Z0.952
Z-1 F50
X3.953 Y399.335 Z-1.087 F25
X3.975 Y399.339 Z-1.171
X4.012 Y399.346 Z-1.25
X4.061 Y399.354 Z-1.321
X4.122 Y399.365 Z-1.383
X4.192 Y399.377 Z-1.433
X4.27 Y399.391 Z-1.47
X4.353 Y399.406 Z-1.492
X4.438 Y399.421 Z-1.5
X4.931 Y399.508
G3 X5.344 Y400 I-0.087 J0.492
X3.604 Y400 I-0.87 J0 F150
X5.344 Y400 I0.87 J0
X4.931 Y400.492 I-0.5 J0
G1 X4.438 Y400.579
X4.353 Y400.594 Z-1.492
X4.27 Y400.609 Z-1.47
X4.192 Y400.623 Z-1.433
X4.122 Y400.635 Z-1.383
X4.061 Y400.646 Z-1.321
X4.012 Y400.654 Z-1.25
X3.975 Y400.661 Z-1.171
X3.953 Y400.665 Z-1.087
X3.946 Y400.666 Z-1
Z1
X4.34 Y99.335
Z0.952
Z-1 F50
X4.348 Y99.336 Z-1.087 F25
X4.37 Y99.34 Z-1.171
X4.406 Y99.347 Z-1.25
X4.456 Y99.355 Z-1.321
X4.516 Y99.366 Z-1.383
X4.587 Y99.378 Z-1.433
X4.664 Y99.392 Z-1.47
X4.747 Y99.407 Z-1.492
X4.833 Y99.422 Z-1.5
X5.325 Y99.509
G3 X5.738 Y100.001 I-0.087 J0.492
X3.998 Y100.001 I-0.87 J0 F150
X5.738 Y100.001 I0.87 J0
X5.325 Y100.493 I-0.5 J0
G1 X4.833 Y100.58
X4.747 Y100.595 Z-1.492
X4.664 Y100.61 Z-1.47
X4.587 Y100.624 Z-1.433
X4.516 Y100.636 Z-1.383
X4.456 Y100.647 Z-1.321
X4.406 Y100.655 Z-1.25
X4.37 Y100.662 Z-1.171
X4.348 Y100.666 Z-1.087
X4.34 Y100.667 Z-1
Z1
X58.922 Y99.334
Z0.952
Z-1 F50
X58.929 Y99.335 Z-1.087 F25
X58.952 Y99.339 Z-1.171
X58.988 Y99.346 Z-1.25
X59.037 Y99.354 Z-1.321
X59.098 Y99.365 Z-1.383
X59.168 Y99.377 Z-1.433
X59.246 Y99.391 Z-1.47
X59.329 Y99.406 Z-1.492
X59.414 Y99.421 Z-1.5
X59.907 Y99.508
G3 X60.32 Y100 I-0.087 J0.492
X58.58 Y100 I-0.87 J0 F150
X60.32 Y100 I0.87 J0
X59.907 Y100.492 I-0.5 J0
G1 X59.414 Y100.579
X59.329 Y100.594 Z-1.492
X59.246 Y100.609 Z-1.47
X59.168 Y100.623 Z-1.433
X59.098 Y100.635 Z-1.383
X59.037 Y100.646 Z-1.321
X58.988 Y100.654 Z-1.25
X58.952 Y100.661 Z-1.171
X58.929 Y100.665 Z-1.087
X58.922 Y100.666 Z-1
Z1
Y24.334
Z0.952
Z-1 F50
X58.929 Y24.335 Z-1.087 F25
X58.952 Y24.339 Z-1.171
X58.988 Y24.346 Z-1.25
X59.037 Y24.354 Z-1.321
X59.098 Y24.365 Z-1.383
X59.168 Y24.377 Z-1.433
X59.246 Y24.391 Z-1.47
X59.329 Y24.406 Z-1.492
X59.414 Y24.421 Z-1.5
X59.907 Y24.508
G3 X60.32 Y25 I-0.087 J0.492
X58.58 Y25 I-0.87 J0 F150
X60.32 Y25 I0.87 J0
X59.907 Y25.492 I-0.5 J0
G1 X59.414 Y25.579
X59.329 Y25.594 Z-1.492
X59.246 Y25.609 Z-1.47
X59.168 Y25.623 Z-1.433
X59.098 Y25.635 Z-1.383
X59.037 Y25.646 Z-1.321
X58.988 Y25.654 Z-1.25
X58.952 Y25.661 Z-1.171
X58.929 Y25.665 Z-1.087
X58.922 Y25.666 Z-1
Z1
X4.439 Y24.335
Z0.952
Z-1 F50
X4.447 Y24.336 Z-1.087 F25
X4.469 Y24.34 Z-1.171
X4.505 Y24.346 Z-1.25
X4.554 Y24.355 Z-1.321
X4.615 Y24.366 Z-1.383
X4.685 Y24.378 Z-1.433
X4.763 Y24.392 Z-1.47
X4.846 Y24.406 Z-1.492
X4.932 Y24.421 Z-1.5
X5.424 Y24.508
G3 X5.837 Y25.001 I-0.087 J0.492
X4.097 Y25.001 I-0.87 J0 F150
X5.837 Y25.001 I0.87 J0
X5.424 Y25.493 I-0.5 J0
G1 X4.932 Y25.58
X4.846 Y25.595 Z-1.492
X4.763 Y25.61 Z-1.47
X4.685 Y25.623 Z-1.433
X4.615 Y25.636 Z-1.383
X4.554 Y25.646 Z-1.321
X4.505 Y25.655 Z-1.25
X4.469 Y25.662 Z-1.171
X4.447 Y25.665 Z-1.087
X4.439 Y25.667 Z-1
Z6
(When using Fusion for Personal Use, the feedrate of rapid)
(moves is reduced to match the feedrate of cutting moves,)
(which can increase machining time. Unrestricted rapid moves)
(are available with a Fusion Subscription.)

(2D Contour1 2)
G0 X47.572 Y226.082
G1 Z6 F150
Z0.952
Z-1 F50
X47.579 Y226.083 Z-1.087 F25
X47.602 Y226.087 Z-1.171
X47.638 Y226.094 Z-1.25
X47.687 Y226.102 Z-1.321
X47.748 Y226.113 Z-1.383
X47.818 Y226.125 Z-1.433
X47.896 Y226.139 Z-1.47
X47.979 Y226.154 Z-1.492
X48.064 Y226.169 Z-1.5
X48.557 Y226.256
G3 X48.97 Y226.748 I-0.087 J0.492
G1 Y227.618 F150
X47.23
Y132.378
X48.97
Y226.748
G3 X48.557 Y227.24 I-0.5 J0
G1 X48.064 Y227.327
X47.979 Y227.342 Z-1.492
X47.896 Y227.357 Z-1.47
X47.818 Y227.371 Z-1.433
X47.748 Y227.383 Z-1.383
X47.687 Y227.394 Z-1.321
X47.638 Y227.402 Z-1.25
X47.602 Y227.409 Z-1.171
X47.579 Y227.413 Z-1.087
X47.572 Y227.414 Z-1
Z1
Y346.082
Z0.952
Z-1 F50
X47.579 Y346.083 Z-1.087 F25
X47.602 Y346.087 Z-1.171
X47.638 Y346.094 Z-1.25
X47.687 Y346.102 Z-1.321
X47.748 Y346.113 Z-1.383
X47.818 Y346.125 Z-1.433
X47.896 Y346.139 Z-1.47
X47.979 Y346.154 Z-1.492
X48.064 Y346.169 Z-1.5
X48.557 Y346.256
G3 X48.97 Y346.748 I-0.087 J0.492
G1 Y347.618 F150
X47.23
Y252.378
X48.97
Y346.748
G3 X48.557 Y347.24 I-0.5 J0
G1 X48.064 Y347.327
X47.979 Y347.342 Z-1.492
X47.896 Y347.357 Z-1.47
X47.818 Y347.371 Z-1.433
X47.748 Y347.383 Z-1.383
X47.687 Y347.394 Z-1.321
X47.638 Y347.402 Z-1.25
X47.602 Y347.409 Z-1.171
X47.579 Y347.413 Z-1.087
X47.572 Y347.414 Z-1
Z1
X15.822 Y346.082
Z0.952
Z-1 F50
X15.829 Y346.083 Z-1.087 F25
X15.852 Y346.087 Z-1.171
X15.888 Y346.094 Z-1.25
X15.937 Y346.102 Z-1.321
X15.998 Y346.113 Z-1.383
X16.068 Y346.125 Z-1.433
X16.146 Y346.139 Z-1.47
X16.229 Y346.154 Z-1.492
X16.314 Y346.169 Z-1.5
X16.807 Y346.256
G3 X17.22 Y346.748 I-0.087 J0.492
G1 Y347.618 F150
X15.48
Y252.378
X17.22
Y346.748
G3 X16.807 Y347.24 I-0.5 J0
G1 X16.314 Y347.327
X16.229 Y347.342 Z-1.492
X16.146 Y347.357 Z-1.47
X16.068 Y347.371 Z-1.433
X15.998 Y347.383 Z-1.383
X15.937 Y347.394 Z-1.321
X15.888 Y347.402 Z-1.25
X15.852 Y347.409 Z-1.171
X15.829 Y347.413 Z-1.087
X15.822 Y347.414 Z-1
Z1
Y436.084
Z0.952
Z-1 F50
X15.829 Y436.085 Z-1.087 F25
X15.852 Y436.089 Z-1.171
X15.888 Y436.096 Z-1.25
X15.937 Y436.104 Z-1.321
X15.998 Y436.115 Z-1.383
X16.068 Y436.127 Z-1.433
X16.146 Y436.141 Z-1.47
X16.229 Y436.156 Z-1.492
X16.314 Y436.171 Z-1.5
X16.807 Y436.258
G3 X17.22 Y436.75 I-0.087 J0.492
G1 Y437.62 F150
X15.48
Y433.39
X17.22
Y436.75
G3 X16.807 Y437.242 I-0.5 J0
G1 X16.314 Y437.329
X16.229 Y437.344 Z-1.492
X16.146 Y437.359 Z-1.47
X16.068 Y437.373 Z-1.433
X15.998 Y437.385 Z-1.383
X15.937 Y437.396 Z-1.321
X15.888 Y437.404 Z-1.25
X15.852 Y437.411 Z-1.171
X15.829 Y437.415 Z-1.087
X15.822 Y437.416 Z-1
Z1
X31.656 Y436.131
Z0.952
Z-1 F50
X31.663 Y436.132 Z-1.087 F25
X31.685 Y436.136 Z-1.171
X31.722 Y436.142 Z-1.25
X31.771 Y436.151 Z-1.321
X31.832 Y436.162 Z-1.383
X31.902 Y436.174 Z-1.433
X31.98 Y436.188 Z-1.47
X32.063 Y436.202 Z-1.492
X32.148 Y436.217 Z-1.5
X32.64 Y436.304
G3 X33.054 Y436.797 I-0.087 J0.492
G1 Y437.646 F150
X31.355
Y433.39
X33.054
Y436.797
G3 X32.64 Y437.289 I-0.5 J0
G1 X32.148 Y437.376
X32.063 Y437.391 Z-1.492
X31.98 Y437.406 Z-1.47
X31.902 Y437.419 Z-1.433
X31.832 Y437.432 Z-1.383
X31.771 Y437.442 Z-1.321
X31.722 Y437.451 Z-1.25
X31.685 Y437.458 Z-1.171
X31.663 Y437.461 Z-1.087
X31.656 Y437.463 Z-1
Z1
X47.577 Y433.596
Z0.952
Z-1 F50
X47.584 Y433.598 Z-1.087 F25
X47.606 Y433.601 Z-1.171
X47.643 Y433.608 Z-1.25
X47.692 Y433.617 Z-1.321
X47.753 Y433.627 Z-1.383
X47.823 Y433.64 Z-1.433
X47.901 Y433.653 Z-1.47
X47.984 Y433.668 Z-1.492
X48.069 Y433.683 Z-1.5
X48.561 Y433.77
G3 X48.975 Y434.262 I-0.087 J0.492
G1 Y437.687 F150
X47.23
Y433.39
X48.975
Y434.262
G3 X48.561 Y434.755 I-0.5 J0
G1 X48.069 Y434.842
X47.984 Y434.857 Z-1.492
X47.901 Y434.871 Z-1.47
X47.823 Y434.885 Z-1.433
X47.753 Y434.897 Z-1.383
X47.692 Y434.908 Z-1.321
X47.643 Y434.917 Z-1.25
X47.606 Y434.923 Z-1.171
X47.584 Y434.927 Z-1.087
X47.577 Y434.928 Z-1
Z1
X15.822 Y132.582
Z0.952
Z-1 F50
X15.829 Y132.583 Z-1.087 F25
X15.852 Y132.587 Z-1.171
X15.888 Y132.594 Z-1.25
X15.937 Y132.602 Z-1.321
X15.998 Y132.613 Z-1.383
X16.068 Y132.625 Z-1.433
X16.146 Y132.639 Z-1.47
X16.229 Y132.654 Z-1.492
X16.314 Y132.669 Z-1.5
X16.807 Y132.756
G3 X17.22 Y133.248 I-0.087 J0.492
G1 Y227.618 F150
X15.48
Y132.378
X17.22
Y133.248
G3 X16.807 Y133.74 I-0.5 J0
G1 X16.314 Y133.827
X16.229 Y133.842 Z-1.492
X16.146 Y133.857 Z-1.47
X16.068 Y133.871 Z-1.433
X15.998 Y133.883 Z-1.383
X15.937 Y133.894 Z-1.321
X15.888 Y133.902 Z-1.25
X15.852 Y133.909 Z-1.171
X15.829 Y133.913 Z-1.087
X15.822 Y133.914 Z-1
Z1
Y12.582
Z0.952
Z-1 F50
X15.829 Y12.583 Z-1.087 F25
X15.852 Y12.587 Z-1.171
X15.888 Y12.593 Z-1.25
X15.937 Y12.602 Z-1.321
X15.998 Y12.613 Z-1.383
X16.068 Y12.625 Z-1.433
X16.146 Y12.639 Z-1.47
X16.229 Y12.653 Z-1.492
X16.314 Y12.668 Z-1.5
X16.807 Y12.755
G3 X17.22 Y13.248 I-0.087 J0.492
G1 Y107.618 F150
X15.48
Y12.378
X17.22
Y13.248
G3 X16.807 Y13.74 I-0.5 J0
G1 X16.314 Y13.827
X16.229 Y13.842 Z-1.492
X16.146 Y13.857 Z-1.47
X16.068 Y13.87 Z-1.433
X15.998 Y13.883 Z-1.383
X15.937 Y13.893 Z-1.321
X15.888 Y13.902 Z-1.25
X15.852 Y13.908 Z-1.171
X15.829 Y13.912 Z-1.087
X15.822 Y13.914 Z-1
Z1
X47.572 Y12.582
Z0.952
Z-1 F50
X47.579 Y12.583 Z-1.087 F25
X47.602 Y12.587 Z-1.171
X47.638 Y12.593 Z-1.25
X47.687 Y12.602 Z-1.321
X47.748 Y12.613 Z-1.383
X47.818 Y12.625 Z-1.433
X47.896 Y12.639 Z-1.47
X47.979 Y12.653 Z-1.492
X48.064 Y12.668 Z-1.5
X48.557 Y12.755
G3 X48.97 Y13.248 I-0.087 J0.492
G1 Y107.618 F150
X47.23
Y12.378
X48.97
Y13.248
G3 X48.557 Y13.74 I-0.5 J0
G1 X48.064 Y13.827
X47.979 Y13.842 Z-1.492
X47.896 Y13.857 Z-1.47
X47.818 Y13.87 Z-1.433
X47.748 Y13.883 Z-1.383
X47.687 Y13.893 Z-1.321
X47.638 Y13.902 Z-1.25
X47.602 Y13.908 Z-1.171
X47.579 Y13.912 Z-1.087
X47.572 Y13.914 Z-1
Z6
(When using Fusion for Personal Use, the feedrate of rapid)
(moves is reduced to match the feedrate of cutting moves,)
(which can increase machining time. Unrestricted rapid moves)
(are available with a Fusion Subscription.)

(2D Contour1 3)
G0 X67.132 Y412.624
G1 Z6 F150
Z0.952
Z-1 F50
X67.126 Y412.62 Z-1.087 F25
X67.106 Y412.609 Z-1.171
X67.074 Y412.59 Z-1.25
X67.031 Y412.565 Z-1.321
X66.977 Y412.535 Z-1.383
X66.915 Y412.499 Z-1.433
X66.847 Y412.46 Z-1.47
X66.774 Y412.418 Z-1.492
X66.698 Y412.375 Z-1.5
X66.264 Y412.127
G3 X66.042 Y411.524 I0.248 J-0.434
G2 X66.83 Y407 I-12.592 J-4.524 F150
G1 Y11
G2 X55.167 Y-2.269 I-13.38 J0
X54.45 Y-2.38 I-0.717 J2.269
G1 X10
G2 X9.283 Y-2.269 I0 J2.38
X-2.38 Y11 I1.717 J13.269
G1 Y407
G2 X7.62 Y419.946 I13.38 J0
G1 Y439
G2 X21 Y452.38 I13.38 J0
G1 X43.45
G2 X56.83 Y439 I0 J-13.38
G1 Y419.946
G2 X66.042 Y411.524 I-3.38 J-12.946
G3 X66.597 Y411.2 I0.471 J0.169
G1 X67.09 Y411.285
X67.176 Y411.3 Z-1.492
X67.258 Y411.314 Z-1.47
X67.336 Y411.328 Z-1.433
X67.407 Y411.34 Z-1.383
X67.467 Y411.35 Z-1.321
X67.517 Y411.359 Z-1.25
X67.553 Y411.365 Z-1.171
X67.575 Y411.369 Z-1.087
X67.583 Y411.37 Z-1
Z6

M9
M5
M30
