(siderail)
(Machine)
(  vendor: Autodesk)
(  model: Generic 3-axis)
(  description: This machine has XY axis on the Table and Z axis on the Head)
(T1 D=4.76 CR=0 - ZMIN=-1.5 - flat end mill)
G90 G94
G17
G21
(-Attention- Property Safe Retracts is set to Clearance Height.)
(Ensure the clearance height will clear the part and or fixtures.)
(Raise the Z-axis to a safe height before starting the program.)
(When using Fusion for Personal Use, the feedrate of rapid)
(moves is reduced to match the feedrate of cutting moves,)
(which can increase machining time. Unrestricted rapid moves)
(are available with a Fusion Subscription.)

( set G55 location for 2nd copy )
G10 L2 P2 X0 Y203 Z0

(2D Contour1)
T1
S21000 M3
G17 G90 G94
G54
M8
G0 X39.795 Y129.95
Z10
G1 Z0.952 F200
Z-1.25 F66.7
G18 G2 X40.045 Z-1.5 I0.25 K0 F25
G1 X40.195
X40.22 Y129.957
X40.238 Y129.975
X40.245 Y130
G17 G3 X39.755 Y130 I-0.245 J0 F200
X40.245 Y130 I0.245 J0
G1 Z5
X39.795 Y159.95
Z0.952
Z-1.25 F66.7
G18 G2 X40.045 Z-1.5 I0.25 K0 F25
G1 X40.195
X40.22 Y159.957
X40.238 Y159.975
X40.245 Y160
G17 G3 X39.755 Y160 I-0.245 J0 F200
X40.245 Y160 I0.245 J0
G1 Z5
X39.795 Y189.95
Z0.952
Z-1.25 F66.7
G18 G2 X40.045 Z-1.5 I0.25 K0 F25
G1 X40.195
X40.22 Y189.957
X40.238 Y189.975
X40.245 Y190
G17 G3 X39.755 Y190 I-0.245 J0 F200
X40.245 Y190 I0.245 J0
G1 Z5
X4.795 Y189.95
Z0.952
Z-1.25 F66.7
G18 G2 X5.045 Z-1.5 I0.25 K0 F25
G1 X5.195
X5.22 Y189.957
X5.238 Y189.975
X5.245 Y190
G17 G3 X4.755 Y190 I-0.245 J0 F200
X5.245 Y190 I0.245 J0
G1 Z5
X4.795 Y159.95
Z0.952
Z-1.25 F66.7
G18 G2 X5.045 Z-1.5 I0.25 K0 F25
G1 X5.195
X5.22 Y159.957
X5.238 Y159.975
X5.245 Y160
G17 G3 X4.755 Y160 I-0.245 J0 F200
X5.245 Y160 I0.245 J0
G1 Z5
X4.795 Y129.95
Z0.952
Z-1.25 F66.7
G18 G2 X5.045 Z-1.5 I0.25 K0 F25
G1 X5.195
X5.22 Y129.957
X5.238 Y129.975
X5.245 Y130
G17 G3 X4.755 Y130 I-0.245 J0 F200
X5.245 Y130 I0.245 J0
G1 Z5
X6.77 Y18.767
Z0.952
Z-1.25 F66.7
G18 G2 X7.02 Z-1.5 I0.25 K0 F25
G1 X7.17
X7.195 Y18.774
X7.213 Y18.792
X7.22 Y18.817
Y18.99 F200
Y18.997
G17 G3 X6.35 Y19.87 I-0.87 J0.003
X5.48 Y18.997 I0 J-0.87
G1 X5.475 Y18.842
Y9.933
G3 X7.215 Y9.933 I0.87 J0
G1 X7.22 Y10.08
Y18.817
Z5
X22.686 Y9.924
Z0.952
Z-1.25 F66.7
G18 G2 X22.936 Z-1.5 I0.25 K0 F25
G1 X23.086
X23.111 Y9.931
X23.13 Y9.949
X23.136 Y9.974
X23.134 Y10.044 F200
X23.125 Y10.113
G17 G2 X23.095 Y10.491 I2.35 J0.379
G1 Y18.99
Y18.997
G3 X22.157 Y19.867 I-0.87 J0.003
X21.366 Y18.862 I0.068 J-0.867
G2 X21.396 Y18.483 I-2.35 J-0.379
G1 Y9.974
G3 X23.136 Y9.974 I0.87 J0
G1 Z5
X38.52 Y9.951
Z0.952
Z-1.25 F66.7
X38.526 Z-1.306 F25
X38.545 Z-1.358
X38.575 Z-1.406
X38.614 Y9.952 Z-1.445
X38.662 Z-1.475
X38.715 Z-1.494
X38.77 Z-1.5
X38.92 Y9.953
X38.945 Y9.959
X38.963 Y9.978
X38.97 Y10.003
Y10.01 F200
Y18.99
Y18.997
G3 X38.1 Y19.87 I-0.87 J0.003
X37.23 Y18.997 I0 J-0.87
G1 Y18.99
Y10
G3 X38.101 Y9.13 I0.87 J0
X38.97 Y10.003 I-0.001 J0.87
G1 Z10
(When using Fusion for Personal Use, the feedrate of rapid)
(moves is reduced to match the feedrate of cutting moves,)
(which can increase machining time. Unrestricted rapid moves)
(are available with a Fusion Subscription.)

(2D Contour4)
G0 X-2.087 Y104.27
G1 Z10 F200
Z0.952
Z-0.074 F66.7
X-2.082 Y104.265 Z-0.157 F25
X-2.067 Y104.25 Z-0.237
X-2.042 Y104.225 Z-0.312
X-2.009 Y104.191 Z-0.38
X-1.967 Y104.15 Z-0.439
X-1.919 Y104.102 Z-0.486
X-1.866 Y104.049 Z-0.521
X-1.809 Y103.992 Z-0.543
X-1.751 Y103.934 Z-0.55
X-0.337 Y102.519
G3 X0 Y102.38 I0.337 J0.337
G1 X44.45 F200
G3 X44.787 Y102.519 I0 J0.476
G1 X46.201 Y103.934
X46.259 Y103.992 Z-0.543
X46.316 Y104.049 Z-0.521
X46.369 Y104.102 Z-0.486
X46.417 Y104.15 Z-0.439
X46.459 Y104.191 Z-0.38
X46.492 Y104.225 Z-0.312
X46.517 Y104.25 Z-0.237
X46.532 Y104.265 Z-0.157
X46.537 Y104.27 Z-0.074
Z10
(When using Fusion for Personal Use, the feedrate of rapid)
(moves is reduced to match the feedrate of cutting moves,)
(which can increase machining time. Unrestricted rapid moves)
(are available with a Fusion Subscription.)

(2D Contour2)
G0 X48.72 Y202.087
G1 Z10 F200
Z0.952
Z-1.024 F66.7
X48.715 Y202.082 Z-1.107 F25
X48.7 Y202.067 Z-1.187
X48.675 Y202.042 Z-1.262
X48.641 Y202.009 Z-1.33
X48.6 Y201.967 Z-1.389
X48.552 Y201.919 Z-1.436
X48.499 Y201.866 Z-1.471
X48.442 Y201.809 Z-1.493
X48.384 Y201.751 Z-1.5
X46.969 Y200.337
G3 X46.83 Y200 I0.337 J-0.337
G1 Y173.354 F200
Z-0.31
Y166.594
Z-1.5 F66.7
Y93.301 F200
Z-0.31
Y86.541
Z-1.5 F66.7
Y13.218 F200
Z-0.31
Y10
G2 X46.314 Y6.464 I-12.38 J0
G1 Z-1.5 F66.7
G2 X34.45 Y-2.38 I-11.864 J3.536 F200
G1 X10
G2 X-2.38 Y10 I0 J12.38
G1 Y30.938
Z-0.31
Y37.698
Z-1.5 F66.7
Y110.991 F200
Z-0.31
Y117.751
Z-1.5 F66.7
Y191.044 F200
Z-0.31
Y197.804
Z-1.5 F66.7
Y200 F200
G2 X0 Y202.38 I2.38 J0
G1 X44.45
G2 X46.83 Y200 I0 J-2.38
G3 X46.969 Y199.663 I0.476 J0
G1 X48.384 Y198.249
X48.442 Y198.191 Z-1.493
X48.499 Y198.134 Z-1.471
X48.552 Y198.081 Z-1.436
X48.6 Y198.033 Z-1.389
X48.641 Y197.991 Z-1.33
X48.675 Y197.958 Z-1.262
X48.7 Y197.933 Z-1.187
X48.715 Y197.918 Z-1.107
X48.72 Y197.913 Z-1.024
Z10
(When using Fusion for Personal Use, the feedrate of rapid)
(moves is reduced to match the feedrate of cutting moves,)
(which can increase machining time. Unrestricted rapid moves)
(are available with a Fusion Subscription.)

(2D Contour1)
G55
G0 X39.795 Y129.95
G1 Z10 F200
Z0.952
Z-1.25 F66.7
G18 G2 X40.045 Z-1.5 I0.25 K0 F25
G1 X40.195
X40.22 Y129.957
X40.238 Y129.975
X40.245 Y130
G17 G3 X39.755 Y130 I-0.245 J0 F200
X40.245 Y130 I0.245 J0
G1 Z5
X39.795 Y159.95
Z0.952
Z-1.25 F66.7
G18 G2 X40.045 Z-1.5 I0.25 K0 F25
G1 X40.195
X40.22 Y159.957
X40.238 Y159.975
X40.245 Y160
G17 G3 X39.755 Y160 I-0.245 J0 F200
X40.245 Y160 I0.245 J0
G1 Z5
X39.795 Y189.95
Z0.952
Z-1.25 F66.7
G18 G2 X40.045 Z-1.5 I0.25 K0 F25
G1 X40.195
X40.22 Y189.957
X40.238 Y189.975
X40.245 Y190
G17 G3 X39.755 Y190 I-0.245 J0 F200
X40.245 Y190 I0.245 J0
G1 Z5
X4.795 Y189.95
Z0.952
Z-1.25 F66.7
G18 G2 X5.045 Z-1.5 I0.25 K0 F25
G1 X5.195
X5.22 Y189.957
X5.238 Y189.975
X5.245 Y190
G17 G3 X4.755 Y190 I-0.245 J0 F200
X5.245 Y190 I0.245 J0
G1 Z5
X4.795 Y159.95
Z0.952
Z-1.25 F66.7
G18 G2 X5.045 Z-1.5 I0.25 K0 F25
G1 X5.195
X5.22 Y159.957
X5.238 Y159.975
X5.245 Y160
G17 G3 X4.755 Y160 I-0.245 J0 F200
X5.245 Y160 I0.245 J0
G1 Z5
X4.795 Y129.95
Z0.952
Z-1.25 F66.7
G18 G2 X5.045 Z-1.5 I0.25 K0 F25
G1 X5.195
X5.22 Y129.957
X5.238 Y129.975
X5.245 Y130
G17 G3 X4.755 Y130 I-0.245 J0 F200
X5.245 Y130 I0.245 J0
G1 Z5
X6.77 Y18.767
Z0.952
Z-1.25 F66.7
G18 G2 X7.02 Z-1.5 I0.25 K0 F25
G1 X7.17
X7.195 Y18.774
X7.213 Y18.792
X7.22 Y18.817
Y18.99 F200
Y18.997
G17 G3 X6.35 Y19.87 I-0.87 J0.003
X5.48 Y18.997 I0 J-0.87
G1 X5.475 Y18.842
Y9.933
G3 X7.215 Y9.933 I0.87 J0
G1 X7.22 Y10.08
Y18.817
Z5
X22.686 Y9.924
Z0.952
Z-1.25 F66.7
G18 G2 X22.936 Z-1.5 I0.25 K0 F25
G1 X23.086
X23.111 Y9.931
X23.13 Y9.949
X23.136 Y9.974
X23.134 Y10.044 F200
X23.125 Y10.113
G17 G2 X23.095 Y10.491 I2.35 J0.379
G1 Y18.99
Y18.997
G3 X22.157 Y19.867 I-0.87 J0.003
X21.366 Y18.862 I0.068 J-0.867
G2 X21.396 Y18.483 I-2.35 J-0.379
G1 Y9.974
G3 X23.136 Y9.974 I0.87 J0
G1 Z5
X38.52 Y9.951
Z0.952
Z-1.25 F66.7
X38.526 Z-1.306 F25
X38.545 Z-1.358
X38.575 Z-1.406
X38.614 Y9.952 Z-1.445
X38.662 Z-1.475
X38.715 Z-1.494
X38.77 Z-1.5
X38.92 Y9.953
X38.945 Y9.959
X38.963 Y9.978
X38.97 Y10.003
Y10.01 F200
Y18.99
Y18.997
G3 X38.1 Y19.87 I-0.87 J0.003
X37.23 Y18.997 I0 J-0.87
G1 Y18.99
Y10
G3 X38.101 Y9.13 I0.87 J0
X38.97 Y10.003 I-0.001 J0.87
G1 Z10
(When using Fusion for Personal Use, the feedrate of rapid)
(moves is reduced to match the feedrate of cutting moves,)
(which can increase machining time. Unrestricted rapid moves)
(are available with a Fusion Subscription.)

(2D Contour4)
G0 X-2.087 Y104.27
G1 Z10 F200
Z0.952
Z-0.074 F66.7
X-2.082 Y104.265 Z-0.157 F25
X-2.067 Y104.25 Z-0.237
X-2.042 Y104.225 Z-0.312
X-2.009 Y104.191 Z-0.38
X-1.967 Y104.15 Z-0.439
X-1.919 Y104.102 Z-0.486
X-1.866 Y104.049 Z-0.521
X-1.809 Y103.992 Z-0.543
X-1.751 Y103.934 Z-0.55
X-0.337 Y102.519
G3 X0 Y102.38 I0.337 J0.337
G1 X44.45 F200
G3 X44.787 Y102.519 I0 J0.476
G1 X46.201 Y103.934
X46.259 Y103.992 Z-0.543
X46.316 Y104.049 Z-0.521
X46.369 Y104.102 Z-0.486
X46.417 Y104.15 Z-0.439
X46.459 Y104.191 Z-0.38
X46.492 Y104.225 Z-0.312
X46.517 Y104.25 Z-0.237
X46.532 Y104.265 Z-0.157
X46.537 Y104.27 Z-0.074
Z10
(When using Fusion for Personal Use, the feedrate of rapid)
(moves is reduced to match the feedrate of cutting moves,)
(which can increase machining time. Unrestricted rapid moves)
(are available with a Fusion Subscription.)

(2D Contour2)
G0 X48.72 Y202.087
G1 Z10 F200
Z0.952
Z-1.024 F66.7
X48.715 Y202.082 Z-1.107 F25
X48.7 Y202.067 Z-1.187
X48.675 Y202.042 Z-1.262
X48.641 Y202.009 Z-1.33
X48.6 Y201.967 Z-1.389
X48.552 Y201.919 Z-1.436
X48.499 Y201.866 Z-1.471
X48.442 Y201.809 Z-1.493
X48.384 Y201.751 Z-1.5
X46.969 Y200.337
G3 X46.83 Y200 I0.337 J-0.337
G1 Y173.354 F200
Z-0.31
Y166.594
Z-1.5 F66.7
Y93.301 F200
Z-0.31
Y86.541
Z-1.5 F66.7
Y13.218 F200
Z-0.31
Y10
G2 X46.314 Y6.464 I-12.38 J0
G1 Z-1.5 F66.7
G2 X34.45 Y-2.38 I-11.864 J3.536 F200
G1 X10
G2 X-2.38 Y10 I0 J12.38
G1 Y30.938
Z-0.31
Y37.698
Z-1.5 F66.7
Y110.991 F200
Z-0.31
Y117.751
Z-1.5 F66.7
Y191.044 F200
Z-0.31
Y197.804
Z-1.5 F66.7
Y200 F200
G2 X0 Y202.38 I2.38 J0
G1 X44.45
G2 X46.83 Y200 I0 J-2.38
G3 X46.969 Y199.663 I0.476 J0
G1 X48.384 Y198.249
X48.442 Y198.191 Z-1.493
X48.499 Y198.134 Z-1.471
X48.552 Y198.081 Z-1.436
X48.6 Y198.033 Z-1.389
X48.641 Y197.991 Z-1.33
X48.675 Y197.958 Z-1.262
X48.7 Y197.933 Z-1.187
X48.715 Y197.918 Z-1.107
X48.72 Y197.913 Z-1.024
Z10

M9
M5
M30
