(13dia_spiral)
(Machine)
(  vendor: Autodesk)
(  model: GARAGE CNC)
(  description: GARAGE CNC)
(T3 D=1.5 CR=0 - ZMIN=-10 - flat end mill)
G90 G94
G17
G21
(-Attention- Property Safe Retracts is set to Clearance Height.)
(Ensure the clearance height will clear the part and or fixtures.)
(Raise the Z-axis to a safe height before starting the program.)
(When using Fusion 360 for Personal Use, the feedrate of)
(rapid moves is reduced to match the feedrate of cutting)
(moves, which can increase machining time. Unrestricted rapid)
(moves are available with a Fusion 360 Subscription.)

(2D Contour1)
T3
S24000 M3
G17 G90 G94
G54
M8
G0 X5.3 Y0.321
Z16
G1 Z6 F80
Z2.3 F150
Z0.85
X5.307 Z0.804
X5.329 Z0.762
X5.362 Z0.729
X5.404 Z0.707
X5.45 Z0.7
X5.6
X5.646 Y0.328
X5.688 Y0.349
X5.721 Y0.382
X5.743 Y0.424
X5.75 Y0.471
G3 X-5.75 Y0.471 I-5.75 J0 F80
X5.75 Y0.471 I5.75 J0
G1 X5.743 Y0.517
X5.721 Y0.559
X5.688 Y0.592
X5.646 Y0.613
X5.6 Y0.621
X5.45
X5.404 Z0.707
X5.362 Z0.729
X5.329 Z0.762
X5.307 Z0.804
X5.3 Z0.85
Z6
Y0.321
Z2 F150
Z0.55
X5.307 Z0.504
X5.329 Z0.462
X5.362 Z0.429
X5.404 Z0.407
X5.45 Z0.4
X5.6
X5.646 Y0.328
X5.688 Y0.349
X5.721 Y0.382
X5.743 Y0.424
X5.75 Y0.471
G3 X-5.75 Y0.471 I-5.75 J0 F80
X5.75 Y0.471 I5.75 J0
G1 X5.743 Y0.517
X5.721 Y0.559
X5.688 Y0.592
X5.646 Y0.613
X5.6 Y0.621
X5.45
X5.404 Z0.407
X5.362 Z0.429
X5.329 Z0.462
X5.307 Z0.504
X5.3 Z0.55
Z6
Y0.321
Z1.7 F150
Z0.25
X5.307 Z0.204
X5.329 Z0.162
X5.362 Z0.129
X5.404 Z0.107
X5.45 Z0.1
X5.6
X5.646 Y0.328
X5.688 Y0.349
X5.721 Y0.382
X5.743 Y0.424
X5.75 Y0.471
G3 X-5.75 Y0.471 I-5.75 J0 F80
X5.75 Y0.471 I5.75 J0
G1 X5.743 Y0.517
X5.721 Y0.559
X5.688 Y0.592
X5.646 Y0.613
X5.6 Y0.621
X5.45
X5.404 Z0.107
X5.362 Z0.129
X5.329 Z0.162
X5.307 Z0.204
X5.3 Z0.25
Z6
Y0.321
Z1.4 F150
Z-0.05
X5.307 Z-0.096
X5.329 Z-0.138
X5.362 Z-0.171
X5.404 Z-0.193
X5.45 Z-0.2
X5.6
X5.646 Y0.328
X5.688 Y0.349
X5.721 Y0.382
X5.743 Y0.424
X5.75 Y0.471
G3 X-5.75 Y0.471 I-5.75 J0 F80
X5.75 Y0.471 I5.75 J0
G1 X5.743 Y0.517
X5.721 Y0.559
X5.688 Y0.592
X5.646 Y0.613
X5.6 Y0.621
X5.45
X5.404 Z-0.193
X5.362 Z-0.171
X5.329 Z-0.138
X5.307 Z-0.096
X5.3 Z-0.05
Z6
Y0.321
Z1.1 F150
Z-0.35
X5.307 Z-0.396
X5.329 Z-0.438
X5.362 Z-0.471
X5.404 Z-0.493
X5.45 Z-0.5
X5.6
X5.646 Y0.328
X5.688 Y0.349
X5.721 Y0.382
X5.743 Y0.424
X5.75 Y0.471
G3 X-5.75 Y0.471 I-5.75 J0 F80
X5.75 Y0.471 I5.75 J0
G1 X5.743 Y0.517
X5.721 Y0.559
X5.688 Y0.592
X5.646 Y0.613
X5.6 Y0.621
X5.45
X5.404 Z-0.493
X5.362 Z-0.471
X5.329 Z-0.438
X5.307 Z-0.396
X5.3 Z-0.35
Z6
Y0.321
Z0.8 F150
Z-0.65
X5.307 Z-0.696
X5.329 Z-0.738
X5.362 Z-0.771
X5.404 Z-0.793
X5.45 Z-0.8
X5.6
X5.646 Y0.328
X5.688 Y0.349
X5.721 Y0.382
X5.743 Y0.424
X5.75 Y0.471
G3 X-5.75 Y0.471 I-5.75 J0 F80
X5.75 Y0.471 I5.75 J0
G1 X5.743 Y0.517
X5.721 Y0.559
X5.688 Y0.592
X5.646 Y0.613
X5.6 Y0.621
X5.45
X5.404 Z-0.793
X5.362 Z-0.771
X5.329 Z-0.738
X5.307 Z-0.696
X5.3 Z-0.65
Z6
Y0.321
Z0.5 F150
Z-0.95
X5.307 Z-0.996
X5.329 Z-1.038
X5.362 Z-1.071
X5.404 Z-1.093
X5.45 Z-1.1
X5.6
X5.646 Y0.328
X5.688 Y0.349
X5.721 Y0.382
X5.743 Y0.424
X5.75 Y0.471
G3 X-5.75 Y0.471 I-5.75 J0 F80
X5.75 Y0.471 I5.75 J0
G1 X5.743 Y0.517
X5.721 Y0.559
X5.688 Y0.592
X5.646 Y0.613
X5.6 Y0.621
X5.45
X5.404 Z-1.093
X5.362 Z-1.071
X5.329 Z-1.038
X5.307 Z-0.996
X5.3 Z-0.95
Z6
Y0.321
Z0.2 F150
Z-1.25
X5.307 Z-1.296
X5.329 Z-1.338
X5.362 Z-1.371
X5.404 Z-1.393
X5.45 Z-1.4
X5.6
X5.646 Y0.328
X5.688 Y0.349
X5.721 Y0.382
X5.743 Y0.424
X5.75 Y0.471
G3 X-5.75 Y0.471 I-5.75 J0 F80
X5.75 Y0.471 I5.75 J0
G1 X5.743 Y0.517
X5.721 Y0.559
X5.688 Y0.592
X5.646 Y0.613
X5.6 Y0.621
X5.45
X5.404 Z-1.393
X5.362 Z-1.371
X5.329 Z-1.338
X5.307 Z-1.296
X5.3 Z-1.25
Z6
Y0.321
Z-0.1 F150
Z-1.55
X5.307 Z-1.596
X5.329 Z-1.638
X5.362 Z-1.671
X5.404 Z-1.693
X5.45 Z-1.7
X5.6
X5.646 Y0.328
X5.688 Y0.349
X5.721 Y0.382
X5.743 Y0.424
X5.75 Y0.471
G3 X-5.75 Y0.471 I-5.75 J0 F80
X5.75 Y0.471 I5.75 J0
G1 X5.743 Y0.517
X5.721 Y0.559
X5.688 Y0.592
X5.646 Y0.613
X5.6 Y0.621
X5.45
X5.404 Z-1.693
X5.362 Z-1.671
X5.329 Z-1.638
X5.307 Z-1.596
X5.3 Z-1.55
Z6
Y0.321
Z-0.4 F150
Z-1.85
X5.307 Z-1.896
X5.329 Z-1.938
X5.362 Z-1.971
X5.404 Z-1.993
X5.45 Z-2
X5.6
X5.646 Y0.328
X5.688 Y0.349
X5.721 Y0.382
X5.743 Y0.424
X5.75 Y0.471
G3 X-5.75 Y0.471 I-5.75 J0 F80
X5.75 Y0.471 I5.75 J0
G1 X5.743 Y0.517
X5.721 Y0.559
X5.688 Y0.592
X5.646 Y0.613
X5.6 Y0.621
X5.45
X5.404 Z-1.993
X5.362 Z-1.971
X5.329 Z-1.938
X5.307 Z-1.896
X5.3 Z-1.85
Z6
Y0.321
Z-0.7 F150
Z-2.15
X5.307 Z-2.196
X5.329 Z-2.238
X5.362 Z-2.271
X5.404 Z-2.293
X5.45 Z-2.3
X5.6
X5.646 Y0.328
X5.688 Y0.349
X5.721 Y0.382
X5.743 Y0.424
X5.75 Y0.471
G3 X-5.75 Y0.471 I-5.75 J0 F80
X5.75 Y0.471 I5.75 J0
G1 X5.743 Y0.517
X5.721 Y0.559
X5.688 Y0.592
X5.646 Y0.613
X5.6 Y0.621
X5.45
X5.404 Z-2.293
X5.362 Z-2.271
X5.329 Z-2.238
X5.307 Z-2.196
X5.3 Z-2.15
Z6
Y0.321
Z-1 F150
Z-2.45
X5.307 Z-2.496
X5.329 Z-2.538
X5.362 Z-2.571
X5.404 Z-2.593
X5.45 Z-2.6
X5.6
X5.646 Y0.328
X5.688 Y0.349
X5.721 Y0.382
X5.743 Y0.424
X5.75 Y0.471
G3 X-5.75 Y0.471 I-5.75 J0 F80
X5.75 Y0.471 I5.75 J0
G1 X5.743 Y0.517
X5.721 Y0.559
X5.688 Y0.592
X5.646 Y0.613
X5.6 Y0.621
X5.45
X5.404 Z-2.593
X5.362 Z-2.571
X5.329 Z-2.538
X5.307 Z-2.496
X5.3 Z-2.45
Z6
Y0.321
Z-1.3 F150
Z-2.75
X5.307 Z-2.796
X5.329 Z-2.838
X5.362 Z-2.871
X5.404 Z-2.893
X5.45 Z-2.9
X5.6
X5.646 Y0.328
X5.688 Y0.349
X5.721 Y0.382
X5.743 Y0.424
X5.75 Y0.471
G3 X-5.75 Y0.471 I-5.75 J0 F80
X5.75 Y0.471 I5.75 J0
G1 X5.743 Y0.517
X5.721 Y0.559
X5.688 Y0.592
X5.646 Y0.613
X5.6 Y0.621
X5.45
X5.404 Z-2.893
X5.362 Z-2.871
X5.329 Z-2.838
X5.307 Z-2.796
X5.3 Z-2.75
Z6
Y0.321
Z-1.6 F150
Z-3.05
X5.307 Z-3.096
X5.329 Z-3.138
X5.362 Z-3.171
X5.404 Z-3.193
X5.45 Z-3.2
X5.6
X5.646 Y0.328
X5.688 Y0.349
X5.721 Y0.382
X5.743 Y0.424
X5.75 Y0.471
G3 X-5.75 Y0.471 I-5.75 J0 F80
X5.75 Y0.471 I5.75 J0
G1 X5.743 Y0.517
X5.721 Y0.559
X5.688 Y0.592
X5.646 Y0.613
X5.6 Y0.621
X5.45
X5.404 Z-3.193
X5.362 Z-3.171
X5.329 Z-3.138
X5.307 Z-3.096
X5.3 Z-3.05
Z6
Y0.321
Z-1.9 F150
Z-3.35
X5.307 Z-3.396
X5.329 Z-3.438
X5.362 Z-3.471
X5.404 Z-3.493
X5.45 Z-3.5
X5.6
X5.646 Y0.328
X5.688 Y0.349
X5.721 Y0.382
X5.743 Y0.424
X5.75 Y0.471
G3 X-5.75 Y0.471 I-5.75 J0 F80
X5.75 Y0.471 I5.75 J0
G1 X5.743 Y0.517
X5.721 Y0.559
X5.688 Y0.592
X5.646 Y0.613
X5.6 Y0.621
X5.45
X5.404 Z-3.493
X5.362 Z-3.471
X5.329 Z-3.438
X5.307 Z-3.396
X5.3 Z-3.35
Z6
Y0.321
Z-2.2 F150
Z-3.65
X5.307 Z-3.696
X5.329 Z-3.738
X5.362 Z-3.771
X5.404 Z-3.793
X5.45 Z-3.8
X5.6
X5.646 Y0.328
X5.688 Y0.349
X5.721 Y0.382
X5.743 Y0.424
X5.75 Y0.471
G3 X-5.75 Y0.471 I-5.75 J0 F80
X5.75 Y0.471 I5.75 J0
G1 X5.743 Y0.517
X5.721 Y0.559
X5.688 Y0.592
X5.646 Y0.613
X5.6 Y0.621
X5.45
X5.404 Z-3.793
X5.362 Z-3.771
X5.329 Z-3.738
X5.307 Z-3.696
X5.3 Z-3.65
Z6
Y0.321
Z-2.5 F150
Z-3.95
X5.307 Z-3.996
X5.329 Z-4.038
X5.362 Z-4.071
X5.404 Z-4.093
X5.45 Z-4.1
X5.6
X5.646 Y0.328
X5.688 Y0.349
X5.721 Y0.382
X5.743 Y0.424
X5.75 Y0.471
G3 X-5.75 Y0.471 I-5.75 J0 F80
X5.75 Y0.471 I5.75 J0
G1 X5.743 Y0.517
X5.721 Y0.559
X5.688 Y0.592
X5.646 Y0.613
X5.6 Y0.621
X5.45
X5.404 Z-4.093
X5.362 Z-4.071
X5.329 Z-4.038
X5.307 Z-3.996
X5.3 Z-3.95
Z6
Y0.321
Z-2.8 F150
Z-4.25
X5.307 Z-4.296
X5.329 Z-4.338
X5.362 Z-4.371
X5.404 Z-4.393
X5.45 Z-4.4
X5.6
X5.646 Y0.328
X5.688 Y0.349
X5.721 Y0.382
X5.743 Y0.424
X5.75 Y0.471
G3 X-5.75 Y0.471 I-5.75 J0 F80
X5.75 Y0.471 I5.75 J0
G1 X5.743 Y0.517
X5.721 Y0.559
X5.688 Y0.592
X5.646 Y0.613
X5.6 Y0.621
X5.45
X5.404 Z-4.393
X5.362 Z-4.371
X5.329 Z-4.338
X5.307 Z-4.296
X5.3 Z-4.25
Z6
Y0.321
Z-3.1 F150
Z-4.55
X5.307 Z-4.596
X5.329 Z-4.638
X5.362 Z-4.671
X5.404 Z-4.693
X5.45 Z-4.7
X5.6
X5.646 Y0.328
X5.688 Y0.349
X5.721 Y0.382
X5.743 Y0.424
X5.75 Y0.471
G3 X-5.75 Y0.471 I-5.75 J0 F80
X5.75 Y0.471 I5.75 J0
G1 X5.743 Y0.517
X5.721 Y0.559
X5.688 Y0.592
X5.646 Y0.613
X5.6 Y0.621
X5.45
X5.404 Z-4.693
X5.362 Z-4.671
X5.329 Z-4.638
X5.307 Z-4.596
X5.3 Z-4.55
Z6
Y0.321
Z-3.4 F150
Z-4.85
X5.307 Z-4.896
X5.329 Z-4.938
X5.362 Z-4.971
X5.404 Z-4.993
X5.45 Z-5
X5.6
X5.646 Y0.328
X5.688 Y0.349
X5.721 Y0.382
X5.743 Y0.424
X5.75 Y0.471
G3 X-5.75 Y0.471 I-5.75 J0 F80
X5.75 Y0.471 I5.75 J0
G1 X5.743 Y0.517
X5.721 Y0.559
X5.688 Y0.592
X5.646 Y0.613
X5.6 Y0.621
X5.45
X5.404 Z-4.993
X5.362 Z-4.971
X5.329 Z-4.938
X5.307 Z-4.896
X5.3 Z-4.85
Z6
Y0.321
Z-3.7 F150
Z-5.15
X5.307 Z-5.196
X5.329 Z-5.238
X5.362 Z-5.271
X5.404 Z-5.293
X5.45 Z-5.3
X5.6
X5.646 Y0.328
X5.688 Y0.349
X5.721 Y0.382
X5.743 Y0.424
X5.75 Y0.471
G3 X-5.75 Y0.471 I-5.75 J0 F80
X5.75 Y0.471 I5.75 J0
G1 X5.743 Y0.517
X5.721 Y0.559
X5.688 Y0.592
X5.646 Y0.613
X5.6 Y0.621
X5.45
X5.404 Z-5.293
X5.362 Z-5.271
X5.329 Z-5.238
X5.307 Z-5.196
X5.3 Z-5.15
Z6
Y0.321
Z-4 F150
Z-5.45
X5.307 Z-5.496
X5.329 Z-5.538
X5.362 Z-5.571
X5.404 Z-5.593
X5.45 Z-5.6
X5.6
X5.646 Y0.328
X5.688 Y0.349
X5.721 Y0.382
X5.743 Y0.424
X5.75 Y0.471
G3 X-5.75 Y0.471 I-5.75 J0 F80
X5.75 Y0.471 I5.75 J0
G1 X5.743 Y0.517
X5.721 Y0.559
X5.688 Y0.592
X5.646 Y0.613
X5.6 Y0.621
X5.45
X5.404 Z-5.593
X5.362 Z-5.571
X5.329 Z-5.538
X5.307 Z-5.496
X5.3 Z-5.45
Z6
Y0.321
Z-4.3 F150
Z-5.75
X5.307 Z-5.796
X5.329 Z-5.838
X5.362 Z-5.871
X5.404 Z-5.893
X5.45 Z-5.9
X5.6
X5.646 Y0.328
X5.688 Y0.349
X5.721 Y0.382
X5.743 Y0.424
X5.75 Y0.471
G3 X-5.75 Y0.471 I-5.75 J0 F80
X5.75 Y0.471 I5.75 J0
G1 X5.743 Y0.517
X5.721 Y0.559
X5.688 Y0.592
X5.646 Y0.613
X5.6 Y0.621
X5.45
X5.404 Z-5.893
X5.362 Z-5.871
X5.329 Z-5.838
X5.307 Z-5.796
X5.3 Z-5.75
Z6
Y0.321
Z-4.6 F150
Z-6.05
X5.307 Z-6.096
X5.329 Z-6.138
X5.362 Z-6.171
X5.404 Z-6.193
X5.45 Z-6.2
X5.6
X5.646 Y0.328
X5.688 Y0.349
X5.721 Y0.382
X5.743 Y0.424
X5.75 Y0.471
G3 X-5.75 Y0.471 I-5.75 J0 F80
X5.75 Y0.471 I5.75 J0
G1 X5.743 Y0.517
X5.721 Y0.559
X5.688 Y0.592
X5.646 Y0.613
X5.6 Y0.621
X5.45
X5.404 Z-6.193
X5.362 Z-6.171
X5.329 Z-6.138
X5.307 Z-6.096
X5.3 Z-6.05
Z6
Y0.321
Z-4.9 F150
Z-6.35
X5.307 Z-6.396
X5.329 Z-6.438
X5.362 Z-6.471
X5.404 Z-6.493
X5.45 Z-6.5
X5.6
X5.646 Y0.328
X5.688 Y0.349
X5.721 Y0.382
X5.743 Y0.424
X5.75 Y0.471
G3 X-5.75 Y0.471 I-5.75 J0 F80
X5.75 Y0.471 I5.75 J0
G1 X5.743 Y0.517
X5.721 Y0.559
X5.688 Y0.592
X5.646 Y0.613
X5.6 Y0.621
X5.45
X5.404 Z-6.493
X5.362 Z-6.471
X5.329 Z-6.438
X5.307 Z-6.396
X5.3 Z-6.35
Z6
Y0.321
Z-5.2 F150
Z-6.65
X5.307 Z-6.696
X5.329 Z-6.738
X5.362 Z-6.771
X5.404 Z-6.793
X5.45 Z-6.8
X5.6
X5.646 Y0.328
X5.688 Y0.349
X5.721 Y0.382
X5.743 Y0.424
X5.75 Y0.471
G3 X-5.75 Y0.471 I-5.75 J0 F80
X5.75 Y0.471 I5.75 J0
G1 X5.743 Y0.517
X5.721 Y0.559
X5.688 Y0.592
X5.646 Y0.613
X5.6 Y0.621
X5.45
X5.404 Z-6.793
X5.362 Z-6.771
X5.329 Z-6.738
X5.307 Z-6.696
X5.3 Z-6.65
Z6
Y0.321
Z-5.5 F150
Z-6.95
X5.307 Z-6.996
X5.329 Z-7.038
X5.362 Z-7.071
X5.404 Z-7.093
X5.45 Z-7.1
X5.6
X5.646 Y0.328
X5.688 Y0.349
X5.721 Y0.382
X5.743 Y0.424
X5.75 Y0.471
G3 X-5.75 Y0.471 I-5.75 J0 F80
X5.75 Y0.471 I5.75 J0
G1 X5.743 Y0.517
X5.721 Y0.559
X5.688 Y0.592
X5.646 Y0.613
X5.6 Y0.621
X5.45
X5.404 Z-7.093
X5.362 Z-7.071
X5.329 Z-7.038
X5.307 Z-6.996
X5.3 Z-6.95
Z6
Y0.321
Z-5.8 F150
Z-7.25
X5.307 Z-7.296
X5.329 Z-7.338
X5.362 Z-7.371
X5.404 Z-7.393
X5.45 Z-7.4
X5.6
X5.646 Y0.328
X5.688 Y0.349
X5.721 Y0.382
X5.743 Y0.424
X5.75 Y0.471
G3 X-5.75 Y0.471 I-5.75 J0 F80
X5.75 Y0.471 I5.75 J0
G1 X5.743 Y0.517
X5.721 Y0.559
X5.688 Y0.592
X5.646 Y0.613
X5.6 Y0.621
X5.45
X5.404 Z-7.393
X5.362 Z-7.371
X5.329 Z-7.338
X5.307 Z-7.296
X5.3 Z-7.25
Z6
Y0.321
Z-6.1 F150
Z-7.55
X5.307 Z-7.596
X5.329 Z-7.638
X5.362 Z-7.671
X5.404 Z-7.693
X5.45 Z-7.7
X5.6
X5.646 Y0.328
X5.688 Y0.349
X5.721 Y0.382
X5.743 Y0.424
X5.75 Y0.471
G3 X-5.75 Y0.471 I-5.75 J0 F80
X5.75 Y0.471 I5.75 J0
G1 X5.743 Y0.517
X5.721 Y0.559
X5.688 Y0.592
X5.646 Y0.613
X5.6 Y0.621
X5.45
X5.404 Z-7.693
X5.362 Z-7.671
X5.329 Z-7.638
X5.307 Z-7.596
X5.3 Z-7.55
Z6
Y0.321
Z-6.4 F150
Z-7.85
X5.307 Z-7.896
X5.329 Z-7.938
X5.362 Z-7.971
X5.404 Z-7.993
X5.45 Z-8
X5.6
X5.646 Y0.328
X5.688 Y0.349
X5.721 Y0.382
X5.743 Y0.424
X5.75 Y0.471
G3 X-5.75 Y0.471 I-5.75 J0 F80
X5.75 Y0.471 I5.75 J0
G1 X5.743 Y0.517
X5.721 Y0.559
X5.688 Y0.592
X5.646 Y0.613
X5.6 Y0.621
X5.45
X5.404 Z-7.993
X5.362 Z-7.971
X5.329 Z-7.938
X5.307 Z-7.896
X5.3 Z-7.85
Z6
Y0.321
Z-6.7 F150
Z-8.15
X5.307 Z-8.196
X5.329 Z-8.238
X5.362 Z-8.271
X5.404 Z-8.293
X5.45 Z-8.3
X5.6
X5.646 Y0.328
X5.688 Y0.349
X5.721 Y0.382
X5.743 Y0.424
X5.75 Y0.471
G3 X-5.75 Y0.471 I-5.75 J0 F80
X5.75 Y0.471 I5.75 J0
G1 X5.743 Y0.517
X5.721 Y0.559
X5.688 Y0.592
X5.646 Y0.613
X5.6 Y0.621
X5.45
X5.404 Z-8.293
X5.362 Z-8.271
X5.329 Z-8.238
X5.307 Z-8.196
X5.3 Z-8.15
Z6
Y0.321
Z-7 F150
Z-8.45
X5.307 Z-8.496
X5.329 Z-8.538
X5.362 Z-8.571
X5.404 Z-8.593
X5.45 Z-8.6
X5.6
X5.646 Y0.328
X5.688 Y0.349
X5.721 Y0.382
X5.743 Y0.424
X5.75 Y0.471
G3 X-5.75 Y0.471 I-5.75 J0 F80
X5.75 Y0.471 I5.75 J0
G1 X5.743 Y0.517
X5.721 Y0.559
X5.688 Y0.592
X5.646 Y0.613
X5.6 Y0.621
X5.45
X5.404 Z-8.593
X5.362 Z-8.571
X5.329 Z-8.538
X5.307 Z-8.496
X5.3 Z-8.45
Z6
Y0.321
Z-7.3 F150
Z-8.75
X5.307 Z-8.796
X5.329 Z-8.838
X5.362 Z-8.871
X5.404 Z-8.893
X5.45 Z-8.9
X5.6
X5.646 Y0.328
X5.688 Y0.349
X5.721 Y0.382
X5.743 Y0.424
X5.75 Y0.471
G3 X-5.75 Y0.471 I-5.75 J0 F80
X5.75 Y0.471 I5.75 J0
G1 X5.743 Y0.517
X5.721 Y0.559
X5.688 Y0.592
X5.646 Y0.613
X5.6 Y0.621
X5.45
X5.404 Z-8.893
X5.362 Z-8.871
X5.329 Z-8.838
X5.307 Z-8.796
X5.3 Z-8.75
Z6
Y0.321
Z-7.6 F150
Z-9.05
X5.307 Z-9.096
X5.329 Z-9.138
X5.362 Z-9.171
X5.404 Z-9.193
X5.45 Z-9.2
X5.6
X5.646 Y0.328
X5.688 Y0.349
X5.721 Y0.382
X5.743 Y0.424
X5.75 Y0.471
G3 X-5.75 Y0.471 I-5.75 J0 F80
X5.75 Y0.471 I5.75 J0
G1 X5.743 Y0.517
X5.721 Y0.559
X5.688 Y0.592
X5.646 Y0.613
X5.6 Y0.621
X5.45
X5.404 Z-9.193
X5.362 Z-9.171
X5.329 Z-9.138
X5.307 Z-9.096
X5.3 Z-9.05
Z6
Y0.321
Z-7.9 F150
Z-9.35
X5.307 Z-9.396
X5.329 Z-9.438
X5.362 Z-9.471
X5.404 Z-9.493
X5.45 Z-9.5
X5.6
X5.646 Y0.328
X5.688 Y0.349
X5.721 Y0.382
X5.743 Y0.424
X5.75 Y0.471
G3 X-5.75 Y0.471 I-5.75 J0 F80
X5.75 Y0.471 I5.75 J0
G1 X5.743 Y0.517
X5.721 Y0.559
X5.688 Y0.592
X5.646 Y0.613
X5.6 Y0.621
X5.45
X5.404 Z-9.493
X5.362 Z-9.471
X5.329 Z-9.438
X5.307 Z-9.396
X5.3 Z-9.35
Z6
Y0.321
Z-8.2 F150
Z-9.65
X5.307 Z-9.696
X5.329 Z-9.738
X5.362 Z-9.771
X5.404 Z-9.793
X5.45 Z-9.8
X5.6
X5.646 Y0.328
X5.688 Y0.349
X5.721 Y0.382
X5.743 Y0.424
X5.75 Y0.471
G3 X-5.75 Y0.471 I-5.75 J0 F80
X5.75 Y0.471 I5.75 J0
G1 X5.743 Y0.517
X5.721 Y0.559
X5.688 Y0.592
X5.646 Y0.613
X5.6 Y0.621
X5.45
X5.404 Z-9.793
X5.362 Z-9.771
X5.329 Z-9.738
X5.307 Z-9.696
X5.3 Z-9.65
Z6
Y0.321
Z-8.5 F150
Z-9.85
X5.307 Z-9.896
X5.329 Z-9.938
X5.362 Z-9.971
X5.404 Z-9.993
X5.45 Z-10
X5.6
X5.646 Y0.328
X5.688 Y0.349
X5.721 Y0.382
X5.743 Y0.424
X5.75 Y0.471
G3 X-5.75 Y0.471 I-5.75 J0 F80
X5.75 Y0.471 I5.75 J0
G1 X5.743 Y0.517
X5.721 Y0.559
X5.688 Y0.592
X5.646 Y0.613
X5.6 Y0.621
X5.45
X5.404 Z-9.993
X5.362 Z-9.971
X5.329 Z-9.938
X5.307 Z-9.896
X5.3 Z-9.85
Z16
M9
M5
M30
