(13dia_spiral)
(Machine)
(  vendor: Autodesk)
(  model: GARAGE CNC)
(  description: GARAGE CNC)
(T3 D=3.1 CR=0 - ZMIN=-10 - flat end mill)
G90 G94
G17
G21
(-Attention- Property Safe Retracts is set to Clearance Height.)
(Ensure the clearance height will clear the part and or fixtures.)
(Raise the Z-axis to a safe height before starting the program.)
(When using Fusion 360 for Personal Use, the feedrate of)
(rapid moves is reduced to match the feedrate of cutting)
(moves, which can increase machining time. Unrestricted rapid)
(moves are available with a Fusion 360 Subscription.)

(2D Contour1)
T3
S24000 M3
G17 G90 G94
G54
M8
G0 X4.12 Y0.161
Z16
G1 Z6 F300
Z2.3 F150
Z1.01
G18 G2 X4.43 Z0.7 I0.31 K0
G1 X4.74
G17 G3 X5.05 Y0.471 I0 J0.31
X-5.05 Y0.471 I-5.05 J0 F300
X5.05 Y0.471 I5.05 J0
X4.74 Y0.781 I-0.31 J0
G1 X4.43
G18 G3 X4.12 Z1.01 I0 K0.31
G1 Z6
Y0.161
Z2 F150
Z0.71
G2 X4.43 Z0.4 I0.31 K0
G1 X4.74
G17 G3 X5.05 Y0.471 I0 J0.31
X-5.05 Y0.471 I-5.05 J0 F300
X5.05 Y0.471 I5.05 J0
X4.74 Y0.781 I-0.31 J0
G1 X4.43
G18 G3 X4.12 Z0.71 I0 K0.31
G1 Z6
Y0.161
Z1.7 F150
Z0.41
G2 X4.43 Z0.1 I0.31 K0
G1 X4.74
G17 G3 X5.05 Y0.471 I0 J0.31
X-5.05 Y0.471 I-5.05 J0 F300
X5.05 Y0.471 I5.05 J0
X4.74 Y0.781 I-0.31 J0
G1 X4.43
G18 G3 X4.12 Z0.41 I0 K0.31
G1 Z6
Y0.161
Z1.4 F150
Z0.11
G2 X4.43 Z-0.2 I0.31 K0
G1 X4.74
G17 G3 X5.05 Y0.471 I0 J0.31
X-5.05 Y0.471 I-5.05 J0 F300
X5.05 Y0.471 I5.05 J0
X4.74 Y0.781 I-0.31 J0
G1 X4.43
G18 G3 X4.12 Z0.11 I0 K0.31
G1 Z6
Y0.161
Z1.1 F150
Z-0.19
G2 X4.43 Z-0.5 I0.31 K0
G1 X4.74
G17 G3 X5.05 Y0.471 I0 J0.31
X-5.05 Y0.471 I-5.05 J0 F300
X5.05 Y0.471 I5.05 J0
X4.74 Y0.781 I-0.31 J0
G1 X4.43
G18 G3 X4.12 Z-0.19 I0 K0.31
G1 Z6
Y0.161
Z0.8 F150
Z-0.49
G2 X4.43 Z-0.8 I0.31 K0
G1 X4.74
G17 G3 X5.05 Y0.471 I0 J0.31
X-5.05 Y0.471 I-5.05 J0 F300
X5.05 Y0.471 I5.05 J0
X4.74 Y0.781 I-0.31 J0
G1 X4.43
G18 G3 X4.12 Z-0.49 I0 K0.31
G1 Z6
Y0.161
Z0.5 F150
Z-0.79
G2 X4.43 Z-1.1 I0.31 K0
G1 X4.74
G17 G3 X5.05 Y0.471 I0 J0.31
X-5.05 Y0.471 I-5.05 J0 F300
X5.05 Y0.471 I5.05 J0
X4.74 Y0.781 I-0.31 J0
G1 X4.43
G18 G3 X4.12 Z-0.79 I0 K0.31
G1 Z6
Y0.161
Z0.2 F150
Z-1.09
G2 X4.43 Z-1.4 I0.31 K0
G1 X4.74
G17 G3 X5.05 Y0.471 I0 J0.31
X-5.05 Y0.471 I-5.05 J0 F300
X5.05 Y0.471 I5.05 J0
X4.74 Y0.781 I-0.31 J0
G1 X4.43
G18 G3 X4.12 Z-1.09 I0 K0.31
G1 Z6
Y0.161
Z-0.1 F150
Z-1.39
G2 X4.43 Z-1.7 I0.31 K0
G1 X4.74
G17 G3 X5.05 Y0.471 I0 J0.31
X-5.05 Y0.471 I-5.05 J0 F300
X5.05 Y0.471 I5.05 J0
X4.74 Y0.781 I-0.31 J0
G1 X4.43
G18 G3 X4.12 Z-1.39 I0 K0.31
G1 Z6
Y0.161
Z-0.4 F150
Z-1.69
G2 X4.43 Z-2 I0.31 K0
G1 X4.74
G17 G3 X5.05 Y0.471 I0 J0.31
X-5.05 Y0.471 I-5.05 J0 F300
X5.05 Y0.471 I5.05 J0
X4.74 Y0.781 I-0.31 J0
G1 X4.43
G18 G3 X4.12 Z-1.69 I0 K0.31
G1 Z6
Y0.161
Z-0.7 F150
Z-1.99
G2 X4.43 Z-2.3 I0.31 K0
G1 X4.74
G17 G3 X5.05 Y0.471 I0 J0.31
X-5.05 Y0.471 I-5.05 J0 F300
X5.05 Y0.471 I5.05 J0
X4.74 Y0.781 I-0.31 J0
G1 X4.43
G18 G3 X4.12 Z-1.99 I0 K0.31
G1 Z6
Y0.161
Z-1 F150
Z-2.29
G2 X4.43 Z-2.6 I0.31 K0
G1 X4.74
G17 G3 X5.05 Y0.471 I0 J0.31
X-5.05 Y0.471 I-5.05 J0 F300
X5.05 Y0.471 I5.05 J0
X4.74 Y0.781 I-0.31 J0
G1 X4.43
G18 G3 X4.12 Z-2.29 I0 K0.31
G1 Z6
Y0.161
Z-1.3 F150
Z-2.59
G2 X4.43 Z-2.9 I0.31 K0
G1 X4.74
G17 G3 X5.05 Y0.471 I0 J0.31
X-5.05 Y0.471 I-5.05 J0 F300
X5.05 Y0.471 I5.05 J0
X4.74 Y0.781 I-0.31 J0
G1 X4.43
G18 G3 X4.12 Z-2.59 I0 K0.31
G1 Z6
Y0.161
Z-1.6 F150
Z-2.89
G2 X4.43 Z-3.2 I0.31 K0
G1 X4.74
G17 G3 X5.05 Y0.471 I0 J0.31
X-5.05 Y0.471 I-5.05 J0 F300
X5.05 Y0.471 I5.05 J0
X4.74 Y0.781 I-0.31 J0
G1 X4.43
G18 G3 X4.12 Z-2.89 I0 K0.31
G1 Z6
Y0.161
Z-1.9 F150
Z-3.19
G2 X4.43 Z-3.5 I0.31 K0
G1 X4.74
G17 G3 X5.05 Y0.471 I0 J0.31
X-5.05 Y0.471 I-5.05 J0 F300
X5.05 Y0.471 I5.05 J0
X4.74 Y0.781 I-0.31 J0
G1 X4.43
G18 G3 X4.12 Z-3.19 I0 K0.31
G1 Z6
Y0.161
Z-2.2 F150
Z-3.49
G2 X4.43 Z-3.8 I0.31 K0
G1 X4.74
G17 G3 X5.05 Y0.471 I0 J0.31
X-5.05 Y0.471 I-5.05 J0 F300
X5.05 Y0.471 I5.05 J0
X4.74 Y0.781 I-0.31 J0
G1 X4.43
G18 G3 X4.12 Z-3.49 I0 K0.31
G1 Z6
Y0.161
Z-2.5 F150
Z-3.79
G2 X4.43 Z-4.1 I0.31 K0
G1 X4.74
G17 G3 X5.05 Y0.471 I0 J0.31
X-5.05 Y0.471 I-5.05 J0 F300
X5.05 Y0.471 I5.05 J0
X4.74 Y0.781 I-0.31 J0
G1 X4.43
G18 G3 X4.12 Z-3.79 I0 K0.31
G1 Z6
Y0.161
Z-2.8 F150
Z-4.09
G2 X4.43 Z-4.4 I0.31 K0
G1 X4.74
G17 G3 X5.05 Y0.471 I0 J0.31
X-5.05 Y0.471 I-5.05 J0 F300
X5.05 Y0.471 I5.05 J0
X4.74 Y0.781 I-0.31 J0
G1 X4.43
G18 G3 X4.12 Z-4.09 I0 K0.31
G1 Z6
Y0.161
Z-3.1 F150
Z-4.39
G2 X4.43 Z-4.7 I0.31 K0
G1 X4.74
G17 G3 X5.05 Y0.471 I0 J0.31
X-5.05 Y0.471 I-5.05 J0 F300
X5.05 Y0.471 I5.05 J0
X4.74 Y0.781 I-0.31 J0
G1 X4.43
G18 G3 X4.12 Z-4.39 I0 K0.31
G1 Z6
Y0.161
Z-3.4 F150
Z-4.69
G2 X4.43 Z-5 I0.31 K0
G1 X4.74
G17 G3 X5.05 Y0.471 I0 J0.31
X-5.05 Y0.471 I-5.05 J0 F300
X5.05 Y0.471 I5.05 J0
X4.74 Y0.781 I-0.31 J0
G1 X4.43
G18 G3 X4.12 Z-4.69 I0 K0.31
G1 Z6
Y0.161
Z-3.7 F150
Z-4.99
G2 X4.43 Z-5.3 I0.31 K0
G1 X4.74
G17 G3 X5.05 Y0.471 I0 J0.31
X-5.05 Y0.471 I-5.05 J0 F300
X5.05 Y0.471 I5.05 J0
X4.74 Y0.781 I-0.31 J0
G1 X4.43
G18 G3 X4.12 Z-4.99 I0 K0.31
G1 Z6
Y0.161
Z-4 F150
Z-5.29
G2 X4.43 Z-5.6 I0.31 K0
G1 X4.74
G17 G3 X5.05 Y0.471 I0 J0.31
X-5.05 Y0.471 I-5.05 J0 F300
X5.05 Y0.471 I5.05 J0
X4.74 Y0.781 I-0.31 J0
G1 X4.43
G18 G3 X4.12 Z-5.29 I0 K0.31
G1 Z6
Y0.161
Z-4.3 F150
Z-5.59
G2 X4.43 Z-5.9 I0.31 K0
G1 X4.74
G17 G3 X5.05 Y0.471 I0 J0.31
X-5.05 Y0.471 I-5.05 J0 F300
X5.05 Y0.471 I5.05 J0
X4.74 Y0.781 I-0.31 J0
G1 X4.43
G18 G3 X4.12 Z-5.59 I0 K0.31
G1 Z6
Y0.161
Z-4.6 F150
Z-5.89
G2 X4.43 Z-6.2 I0.31 K0
G1 X4.74
G17 G3 X5.05 Y0.471 I0 J0.31
X-5.05 Y0.471 I-5.05 J0 F300
X5.05 Y0.471 I5.05 J0
X4.74 Y0.781 I-0.31 J0
G1 X4.43
G18 G3 X4.12 Z-5.89 I0 K0.31
G1 Z6
Y0.161
Z-4.9 F150
Z-6.19
G2 X4.43 Z-6.5 I0.31 K0
G1 X4.74
G17 G3 X5.05 Y0.471 I0 J0.31
X-5.05 Y0.471 I-5.05 J0 F300
X5.05 Y0.471 I5.05 J0
X4.74 Y0.781 I-0.31 J0
G1 X4.43
G18 G3 X4.12 Z-6.19 I0 K0.31
G1 Z6
Y0.161
Z-5.2 F150
Z-6.49
G2 X4.43 Z-6.8 I0.31 K0
G1 X4.74
G17 G3 X5.05 Y0.471 I0 J0.31
X-5.05 Y0.471 I-5.05 J0 F300
X5.05 Y0.471 I5.05 J0
X4.74 Y0.781 I-0.31 J0
G1 X4.43
G18 G3 X4.12 Z-6.49 I0 K0.31
G1 Z6
Y0.161
Z-5.5 F150
Z-6.79
G2 X4.43 Z-7.1 I0.31 K0
G1 X4.74
G17 G3 X5.05 Y0.471 I0 J0.31
X-5.05 Y0.471 I-5.05 J0 F300
X5.05 Y0.471 I5.05 J0
X4.74 Y0.781 I-0.31 J0
G1 X4.43
G18 G3 X4.12 Z-6.79 I0 K0.31
G1 Z6
Y0.161
Z-5.8 F150
Z-7.09
G2 X4.43 Z-7.4 I0.31 K0
G1 X4.74
G17 G3 X5.05 Y0.471 I0 J0.31
X-5.05 Y0.471 I-5.05 J0 F300
X5.05 Y0.471 I5.05 J0
X4.74 Y0.781 I-0.31 J0
G1 X4.43
G18 G3 X4.12 Z-7.09 I0 K0.31
G1 Z6
Y0.161
Z-6.1 F150
Z-7.39
G2 X4.43 Z-7.7 I0.31 K0
G1 X4.74
G17 G3 X5.05 Y0.471 I0 J0.31
X-5.05 Y0.471 I-5.05 J0 F300
X5.05 Y0.471 I5.05 J0
X4.74 Y0.781 I-0.31 J0
G1 X4.43
G18 G3 X4.12 Z-7.39 I0 K0.31
G1 Z6
Y0.161
Z-6.4 F150
Z-7.69
G2 X4.43 Z-8 I0.31 K0
G1 X4.74
G17 G3 X5.05 Y0.471 I0 J0.31
X-5.05 Y0.471 I-5.05 J0 F300
X5.05 Y0.471 I5.05 J0
X4.74 Y0.781 I-0.31 J0
G1 X4.43
G18 G3 X4.12 Z-7.69 I0 K0.31
G1 Z6
Y0.161
Z-6.7 F150
Z-7.99
G2 X4.43 Z-8.3 I0.31 K0
G1 X4.74
G17 G3 X5.05 Y0.471 I0 J0.31
X-5.05 Y0.471 I-5.05 J0 F300
X5.05 Y0.471 I5.05 J0
X4.74 Y0.781 I-0.31 J0
G1 X4.43
G18 G3 X4.12 Z-7.99 I0 K0.31
G1 Z6
Y0.161
Z-7 F150
Z-8.29
G2 X4.43 Z-8.6 I0.31 K0
G1 X4.74
G17 G3 X5.05 Y0.471 I0 J0.31
X-5.05 Y0.471 I-5.05 J0 F300
X5.05 Y0.471 I5.05 J0
X4.74 Y0.781 I-0.31 J0
G1 X4.43
G18 G3 X4.12 Z-8.29 I0 K0.31
G1 Z6
Y0.161
Z-7.3 F150
Z-8.59
G2 X4.43 Z-8.9 I0.31 K0
G1 X4.74
G17 G3 X5.05 Y0.471 I0 J0.31
X-5.05 Y0.471 I-5.05 J0 F300
X5.05 Y0.471 I5.05 J0
X4.74 Y0.781 I-0.31 J0
G1 X4.43
G18 G3 X4.12 Z-8.59 I0 K0.31
G1 Z6
Y0.161
Z-7.6 F150
Z-8.89
G2 X4.43 Z-9.2 I0.31 K0
G1 X4.74
G17 G3 X5.05 Y0.471 I0 J0.31
X-5.05 Y0.471 I-5.05 J0 F300
X5.05 Y0.471 I5.05 J0
X4.74 Y0.781 I-0.31 J0
G1 X4.43
G18 G3 X4.12 Z-8.89 I0 K0.31
G1 Z6
Y0.161
Z-7.9 F150
Z-9.19
G2 X4.43 Z-9.5 I0.31 K0
G1 X4.74
G17 G3 X5.05 Y0.471 I0 J0.31
X-5.05 Y0.471 I-5.05 J0 F300
X5.05 Y0.471 I5.05 J0
X4.74 Y0.781 I-0.31 J0
G1 X4.43
G18 G3 X4.12 Z-9.19 I0 K0.31
G1 Z6
Y0.161
Z-8.2 F150
Z-9.49
G2 X4.43 Z-9.8 I0.31 K0
G1 X4.74
G17 G3 X5.05 Y0.471 I0 J0.31
X-5.05 Y0.471 I-5.05 J0 F300
X5.05 Y0.471 I5.05 J0
X4.74 Y0.781 I-0.31 J0
G1 X4.43
G18 G3 X4.12 Z-9.49 I0 K0.31
G1 Z6
Y0.161
Z-8.5 F150
Z-9.69
G2 X4.43 Z-10 I0.31 K0
G1 X4.74
G17 G3 X5.05 Y0.471 I0 J0.31
X-5.05 Y0.471 I-5.05 J0 F300
X5.05 Y0.471 I5.05 J0
X4.74 Y0.781 I-0.31 J0
G1 X4.43
G18 G3 X4.12 Z-9.69 I0 K0.31
G1 Z16
G17
M9
M5
M30
