(1001)
(Machine)
(  vendor: Autodesk)
(  model: Generic 3-axis)
(  description: This machine has XYZ axis on the Head)
(T3 D=3.1 CR=0 - ZMIN=-1 - flat end mill)
G90 G94
G17
G21
(-Attention- Property Safe Retracts is set to Clearance Height.)
(Ensure the clearance height will clear the part and or fixtures.)
(Raise the Z-axis to a safe height before starting the program.)
(When using Fusion 360 for Personal Use, the feedrate of)
(rapid moves is reduced to match the feedrate of cutting)
(moves, which can increase machining time. Unrestricted rapid)
(moves are available with a Fusion 360 Subscription.)

(Trace2)
T3
S24000 M3
G17 G90 G94
G54
M8
G0 X-24.227 Y-4.975
Z15
G1 Z4 F300
Z0 F150
X-19.227 Y-4.974 F300
X-18.164 Y0.026
X-21.021
X-21.478 Y-2.117
X-23.621 Y-2.118
X-23.969 Y-1.985
X-24.133 Y-1.912
X-24.284 Y-1.831
X-24.418 Y-1.741
X-24.531 Y-1.638
X-24.619 Y-1.52
X-24.681 Y-1.387
X-24.721 Y-1.241
X-24.74 Y-1.082
X-24.742 Y-0.913
X-24.729 Y-0.736
X-24.705 Y-0.552
X-24.672 Y-0.362
X-24.592 Y0.025
X-24.493 Y0.428
X-24.379 Y0.815
X-24.31 Y0.997
X-24.232 Y1.17
X-24.141 Y1.331
X-24.037 Y1.478
X-23.917 Y1.61
X-23.779 Y1.724
X-23.625 Y1.822
X-23.458 Y1.907
X-23.279 Y1.982
X-23.093 Y2.048
X-22.707 Y2.168
X-19.136 Y2.169
X-17.101 Y5.027
X-22.101 Y5.025
X-23.135 Y4.811
X-23.637 Y4.687
X-24.12 Y4.543
X-24.353 Y4.46
X-24.58 Y4.37
X-24.798 Y4.272
X-25.008 Y4.164
X-25.209 Y4.046
X-25.4 Y3.916
X-25.58 Y3.775
X-25.75 Y3.621
X-25.908 Y3.455
X-26.056 Y3.277
X-26.195 Y3.089
X-26.325 Y2.891
X-26.448 Y2.684
X-26.562 Y2.469
X-26.772 Y2.016
X-26.96 Y1.539
X-27.132 Y1.044
X-27.449 Y0.024
X-27.575 Y-0.979
X-27.617 Y-1.466
X-27.636 Y-1.936
X-27.633 Y-2.163
X-27.622 Y-2.383
X-27.601 Y-2.596
X-27.569 Y-2.801
X-27.524 Y-2.998
X-27.467 Y-3.185
X-27.396 Y-3.363
X-27.31 Y-3.529
X-27.207 Y-3.684
X-27.088 Y-3.827
X-26.952 Y-3.959
X-26.802 Y-4.079
X-26.637 Y-4.189
X-26.459 Y-4.29
X-26.269 Y-4.382
X-26.069 Y-4.467
X-25.859 Y-4.546
X-25.641 Y-4.618
X-25.185 Y-4.748
X-24.711 Y-4.865
X-24.227 Y-4.975
Z4
Z5
X-17.863 Y-4.974
Z4
Z0 F150
X-15.005 Y-4.973 F300
X-14.092 Y-0.687
X-11.97 Y-4.972
X-8.398 Y-4.971
X-10.206 Y-1.729
X-9.773 Y-1.441
X-9.359 Y-1.139
X-9.166 Y-0.977
X-8.985 Y-0.806
X-8.819 Y-0.624
X-8.671 Y-0.43
X-8.54 Y-0.222
X-8.425 Y-0.003
X-8.322 Y0.226
X-8.23 Y0.462
X-8.071 Y0.953
X-7.928 Y1.457
X-7.878 Y2.224
X-7.868 Y2.594
X-7.878 Y2.95
X-7.913 Y3.285
X-7.942 Y3.443
X-7.979 Y3.595
X-8.027 Y3.738
X-8.085 Y3.874
X-8.153 Y4
X-8.234 Y4.118
X-8.328 Y4.225
X-8.433 Y4.322
X-8.55 Y4.41
X-8.678 Y4.49
X-8.815 Y4.562
X-8.961 Y4.627
X-9.277 Y4.739
X-9.619 Y4.829
X-9.981 Y4.904
X-10.736 Y5.028
X-15.736 Y5.027
X-16.343 Y2.17
X-11.343 Y2.171
X-11.192 Y2.146
X-11.051 Y2.113
X-10.932 Y2.063
X-10.883 Y2.029
X-10.843 Y1.988
X-10.814 Y1.94
X-10.793 Y1.884
X-10.774 Y1.755
Y1.61
X-10.786 Y1.457
X-10.841 Y1.303
X-10.903 Y1.157
X-10.978 Y1.028
X-11.073 Y0.924
X-11.193 Y0.849
X-11.334 Y0.8
X-11.488 Y0.767
X-11.65 Y0.742
X-16.65 Y0.741
X-17.863 Y-4.974
Z4
Z5
X-6.753 Y-2.471
Z4
Z0 F150
X-8.177 Y-4.971 F300
X-5.141
X-2 Y0.566
X-1.213 Y-4.97
X1.823 Y-4.969
X0.378 Y5.031
X-2.479 Y5.03
X-6.753 Y-2.471
Z4
Z5
X2.36 Y-2.043
Z4
Z0 F150
X2.43 Y-2.258 F300
X2.515 Y-2.471
X2.612 Y-2.681
X2.834 Y-3.095
X3.076 Y-3.504
X3.413 Y-3.832
X3.758 Y-4.14
X3.936 Y-4.281
X4.12 Y-4.411
X4.311 Y-4.526
X4.509 Y-4.625
X4.715 Y-4.707
X4.929 Y-4.773
X5.148 Y-4.825
X5.373 Y-4.867
X5.833 Y-4.926
X6.302 Y-4.968
X9.159 Y-4.967
X11.194 Y-2.11
X6.908 Y-2.111
X6.51 Y-2.067
X6.32 Y-2.026
X6.14 Y-1.963
X5.973 Y-1.871
X5.818 Y-1.755
X5.526 Y-1.482
X5.326 Y-1.13
X5.248 Y-0.949
X5.196 Y-0.763
X5.174 Y-0.57
X5.177 Y-0.372
X5.222 Y0.032
X5.367 Y0.468
X5.456 Y0.676
X5.564 Y0.872
X5.694 Y1.054
X5.843 Y1.224
X6.172 Y1.546
X6.546 Y1.804
X6.74 Y1.916
X6.941 Y2.008
X7.152 Y2.075
X7.371 Y2.12
X7.821 Y2.175
X10.679 Y2.176
X12.714 Y5.034
X8.428 Y5.033
X7.899 Y4.977
X7.376 Y4.905
X7.119 Y4.858
X6.865 Y4.8
X6.617 Y4.73
X6.374 Y4.645
X6.136 Y4.545
X5.904 Y4.431
X5.677 Y4.305
X5.452 Y4.169
X5.012 Y3.876
X4.578 Y3.567
X4.188 Y3.196
X3.813 Y2.815
X3.635 Y2.618
X3.466 Y2.417
X3.307 Y2.208
X3.161 Y1.992
X3.029 Y1.767
X2.91 Y1.534
X2.802 Y1.294
X2.703 Y1.048
X2.527 Y0.544
X2.365 Y0.031
X2.304 Y-0.442
X2.262 Y-0.912
X2.253 Y-1.144
X2.257 Y-1.373
X2.274 Y-1.6
X2.308 Y-1.823
X2.36 Y-2.043
Z4
Z5
X11.851 Y-2.11
Z4
Z0 F150
X11.245 Y-4.967 F300
X17.673 Y-4.965
X19.708 Y-2.108
X11.851 Y-2.11
Z4
Z5
X12.001 Y-1.395
Z4
Z0 F150
X18.429 Y-1.394 F300
X20.464 Y1.464
X12.607 Y1.462
X12.001 Y-1.395
Z4
Z5
X12.764 Y2.176
Z4
Z0 F150
X19.193 Y2.178 F300
X21.228 Y5.036
X13.371 Y5.034
X12.764 Y2.176
Z4
Z5
X27.135 Y9.275
Z4
Z0 F150
X28.581 Y8.489 F300
X30.016 Y7.685
X30.311 Y7.538
X30.598 Y7.379
X31.16 Y7.04
X31.718 Y6.695
X32 Y6.529
X32.288 Y6.371
X32.426 Y6.281
X32.572 Y6.197
X32.881 Y6.043
X33.522 Y5.751
X33.827 Y5.588
X33.969 Y5.498
X34.102 Y5.399
X34.225 Y5.291
X34.335 Y5.171
X34.431 Y5.04
X34.512 Y4.893
X34.438 Y4.83
X34.383 Y4.77
X34.344 Y4.712
X34.321 Y4.657
X34.311 Y4.604
X34.313 Y4.552
X34.347 Y4.451
X34.41 Y4.35
X34.488 Y4.248
X34.569 Y4.14
X34.641 Y4.024
X35.342 Y3.53
X36.038 Y3.024
X36.737 Y2.527
X37.449 Y2.055
X37.468 Y2.018
X37.486 Y1.992
X37.52 Y1.968
X37.551 Y1.973
X37.581 Y1.999
X37.641 Y2.078
X37.672 Y2.113
X37.706 Y2.132
X37.751 Y2.088
X37.793 Y2.056
X37.831 Y2.034
X37.866 Y2.023
X37.928 Y2.026
X37.984 Y2.06
X38.036 Y2.118
X38.089 Y2.194
X38.209 Y2.379
X38.333 Y2.642
X38.473 Y2.898
X38.758 Y3.404
X38.885 Y3.662
X38.988 Y3.928
X39.028 Y4.065
X39.059 Y4.206
X39.079 Y4.35
X39.087 Y4.499
X39.201 Y4.709
X39.315 Y4.935
X39.554 Y5.397
X39.68 Y5.613
X39.814 Y5.807
X39.957 Y5.968
X40.032 Y6.033
X40.11 Y6.086
X40.204 Y6.082
X40.314 Y6.102
X40.431 Y6.145
X40.544 Y6.208
X40.643 Y6.289
X40.717 Y6.384
X40.742 Y6.436
X40.756 Y6.492
X40.76 Y6.549
X40.751 Y6.61
X40.847 Y6.574
X40.918 Y6.562
X40.969 Y6.571
X41.002 Y6.596
X41.021 Y6.636
X41.03 Y6.688
X41.029 Y6.814
X41.027 Y6.95
X41.034 Y7.015
X41.051 Y7.075
X41.081 Y7.125
X41.127 Y7.163
X41.194 Y7.187
X41.284 Y7.193
X41.223 Y7.162
X41.173 Y7.134
X41.103 Y7.083
X41.068 Y7.04
X41.062 Y7.004
X41.082 Y6.977
X41.12 Y6.958
X41.173 Y6.947
X41.233 Y6.945
X41.359 Y6.965
X41.414 Y6.988
X41.456 Y7.02
X41.479 Y7.061
X41.48 Y7.11
X41.451 Y7.169
X41.389 Y7.237
X41.558 Y7.299
X41.712 Y7.365
X41.853 Y7.438
X41.982 Y7.522
X42.099 Y7.621
X42.206 Y7.74
X42.304 Y7.881
X42.394 Y8.05
X42.067 Y8.46
X41.749 Y8.878
X41.121 Y9.722
X41.183 Y11.544
X41.223 Y13.367
X41.243 Y15.19
X41.249 Y17.014
X42.015 Y17.988
X42.387 Y18.484
X42.74 Y18.993
X42.836 Y19.077
X42.91 Y19.154
X42.962 Y19.223
X42.993 Y19.287
X43.007 Y19.343
X43.002 Y19.393
X42.983 Y19.436
X42.949 Y19.473
X42.903 Y19.503
X42.846 Y19.526
X42.779 Y19.543
X42.704 Y19.553
X42.537 Y19.554
X42.356 Y19.529
X42.232 Y19.49
X42.111 Y19.467
X41.993 Y19.458
X41.878 Y19.462
X41.766 Y19.479
X41.657 Y19.507
X41.445 Y19.592
X41.243 Y19.708
X41.049 Y19.847
X40.683 Y20.157
X40.312 Y20.014
X39.952 Y19.848
X39.241 Y19.493
X39.157 Y19.461
X39.078 Y19.406
X39.006 Y19.333
X38.938 Y19.246
X38.813 Y19.045
X38.698 Y18.837
X38.642 Y18.742
X38.586 Y18.657
X38.53 Y18.588
X38.473 Y18.538
X38.413 Y18.513
X38.351 Y18.515
X38.285 Y18.549
X38.214 Y18.621
X37.865 Y18.692
X37.512 Y18.735
X37.157 Y18.757
X36.801 Y18.766
X36.089 Y18.779
X35.734 Y18.8
X35.381 Y18.841
X34.896 Y19.161
X34.416 Y19.499
X33.461 Y20.183
X33.283 Y20.328
X33.19 Y20.389
X33.093 Y20.438
X32.992 Y20.475
X32.886 Y20.497
X32.774 Y20.502
X32.655 Y20.488
X32.445 Y20.501
X32.231 Y20.5
X31.8 Y20.494
X31.59 Y20.51
X31.387 Y20.55
X31.288 Y20.583
X31.193 Y20.626
X31.1 Y20.68
X31.011 Y20.747
X30.762 Y20.8
X30.505 Y20.829
X30.244 Y20.839
X29.98 Y20.837
X29.45 Y20.822
X29.187
X28.928 Y20.834
X28.655 Y20.83
X28.375 Y20.841
X28.1 Y20.839
X27.969 Y20.824
X27.842 Y20.797
X27.787 Y20.725
X27.719 Y20.653
X27.56 Y20.511
X27.389 Y20.369
X27.229 Y20.226
X27.162 Y20.154
X27.107 Y20.081
X27.066 Y20.008
X27.044 Y19.934
X27.042 Y19.86
X27.064 Y19.784
X27.114 Y19.707
X27.193 Y19.629
X27.221 Y19.536
X27.259 Y19.452
X27.362 Y19.305
X27.485 Y19.178
X27.616 Y19.059
X27.739 Y18.935
X27.84 Y18.797
X27.878 Y18.718
X27.904 Y18.63
X27.918 Y18.533
X27.917 Y18.425
X27.898 Y18.329
X27.893 Y18.238
X27.899 Y18.153
X27.916 Y18.072
X27.977 Y17.922
X28.065 Y17.782
X28.281 Y17.511
X28.389 Y17.37
X28.483 Y17.218
X28.587 Y17.018
X28.661 Y16.81
X28.717 Y16.597
X28.764 Y16.381
X28.865 Y15.945
X28.938 Y15.731
X29.039 Y15.522
X29.044 Y15.422
X29.038 Y15.325
X29.001 Y15.134
X28.939 Y14.95
X28.862 Y14.771
X28.701 Y14.427
X28.638 Y14.26
X28.599 Y14.095
X28.475 Y14.047
X28.368 Y13.984
X28.276 Y13.907
X28.197 Y13.82
X28.128 Y13.724
X28.066 Y13.62
X27.955 Y13.402
X27.845 Y13.18
X27.715 Y12.972
X27.637 Y12.879
X27.546 Y12.795
X27.441 Y12.723
X27.318 Y12.664
X27.255 Y12.517
X27.204 Y12.365
X27.123 Y12.057
X27.05 Y11.76
X27.008 Y11.623
X26.958 Y11.496
X27.023 Y11.449
X27.083 Y11.392
X27.191 Y11.258
X27.382 Y10.964
X27.475 Y10.835
X27.524 Y10.782
X27.576 Y10.739
X27.63 Y10.708
X27.688 Y10.692
X27.751 Y10.691
X27.819 Y10.708
X27.805 Y10.769
X27.801 Y10.821
X27.807 Y10.865
X27.822 Y10.902
X27.878 Y10.959
X27.963 Y11
X28.07 Y11.031
X28.194 Y11.06
X28.33 Y11.095
X28.471 Y11.144
X28.585 Y11.054
X28.667 Y10.979
X28.72 Y10.916
X28.745 Y10.866
X28.747 Y10.825
X28.728 Y10.793
X28.691 Y10.769
X28.639 Y10.75
X28.502 Y10.724
X28.34 Y10.705
X28.177 Y10.681
X28.103 Y10.663
X28.037 Y10.64
X28.042 Y10.535
X28.032 Y10.461
X28.008 Y10.414
X27.972 Y10.391
X27.926 Y10.386
X27.873 Y10.397
X27.752 Y10.447
X27.627 Y10.509
X27.568 Y10.535
X27.514 Y10.551
X27.467 Y10.553
X27.43 Y10.539
X27.405 Y10.503
X27.393 Y10.442
X27.295 Y10.368
X27.228 Y10.294
X27.188 Y10.218
X27.171 Y10.142
X27.172 Y10.066
X27.187 Y9.99
X27.241 Y9.838
X27.297 Y9.689
X27.316 Y9.616
X27.322 Y9.544
X27.311 Y9.474
X27.279 Y9.406
X27.222 Y9.339
X27.135 Y9.275
Z4
Z5
X38.927 Y-0.133
Z4
Z0 F150
X38.59 Y-0.198 F300
X38.419 Y-0.243
X38.242 Y-0.297
X38.029 Y-0.372
X37.806 Y-0.462
X37.358 Y-0.674
X37.142 Y-0.791
X36.941 Y-0.911
X36.758 Y-1.031
X36.6 Y-1.149
X36.547 Y-1.193
X36.485 Y-1.246
X36.342 Y-1.378
X36.179 Y-1.534
X36.009 Y-1.703
X35.841 Y-1.874
X35.687 Y-2.037
X35.557 Y-2.18
X35.504 Y-2.24
X35.461 Y-2.292
X35.34 Y-2.456
X35.224 Y-2.632
X35.113 Y-2.819
X35.009 Y-3.014
X34.822 Y-3.425
X34.667 Y-3.852
X34.548 Y-4.282
X34.503 Y-4.494
X34.468 Y-4.702
X34.445 Y-4.905
X34.433 Y-5.1
Y-5.287
X34.445 Y-5.463
X34.475 Y-5.678
X34.513 Y-5.878
X34.561 Y-6.064
X34.62 Y-6.239
X34.689 Y-6.403
X34.77 Y-6.557
X34.863 Y-6.705
X34.968 Y-6.846
X35.043 Y-6.936
X35.103 Y-7.001
X35.149 Y-7.041
X35.183 Y-7.055
X35.206 Y-7.044
X35.218 Y-7.008
X35.223 Y-6.947
X35.219 Y-6.799
X35.22 Y-6.722
X35.223 Y-6.632
X35.228 Y-6.53
X35.245 Y-6.301
X35.268 Y-6.049
X35.295 Y-5.791
X35.326 Y-5.543
X35.358 Y-5.32
X35.374 Y-5.223
X35.39 Y-5.138
X35.446 Y-4.898
X35.516 Y-4.662
X35.599 Y-4.43
X35.694 Y-4.204
X35.801 Y-3.983
X35.92 Y-3.768
X36.05 Y-3.56
X36.191 Y-3.36
X36.342 Y-3.168
X36.504 Y-2.985
X36.674 Y-2.811
X36.853 Y-2.647
X37.041 Y-2.494
X37.236 Y-2.352
X37.439 Y-2.222
X37.65 Y-2.105
X37.921 Y-1.982
X38.207 Y-1.886
X38.509 Y-1.817
X38.823 Y-1.776
X39.15 Y-1.762
X39.486 Y-1.776
X39.832 Y-1.818
X40.185 Y-1.887
X40.453 Y-1.96
X40.713 Y-2.049
X40.963 Y-2.155
X41.204 Y-2.277
X41.435 Y-2.415
X41.655 Y-2.568
X41.864 Y-2.735
X42.061 Y-2.916
X42.246 Y-3.111
X42.419 Y-3.318
X42.578 Y-3.538
X42.723 Y-3.77
X42.854 Y-4.014
X42.971 Y-4.268
X43.072 Y-4.533
X43.157 Y-4.807
X43.217 Y-5.035
X43.266 Y-5.241
X43.304 Y-5.43
X43.333 Y-5.608
X43.361 Y-5.951
X43.364 Y-6.126
X43.359 Y-6.312
X43.331 Y-6.662
X43.275 Y-6.991
X43.188 Y-7.304
X43.069 Y-7.609
X42.914 Y-7.91
X42.821 Y-8.062
X42.72 Y-8.215
X42.607 Y-8.371
X42.484 Y-8.529
X42.35 Y-8.691
X42.205 Y-8.858
X42.13 Y-8.94
X42.045 Y-9.027
X41.951 Y-9.121
X41.845 Y-9.223
X41.728 Y-9.331
X41.6 Y-9.447
X41.461 Y-9.571
X41.31 Y-9.702
X41.146 Y-9.842
X40.97 Y-9.991
X40.781 Y-10.148
X40.579 Y-10.315
X40.364 Y-10.491
X40.134 Y-10.676
X39.891 Y-10.872
X39.501 Y-11.182
X39.379 Y-11.281
X39.157 Y-11.463
X38.956 Y-11.633
X38.765 Y-11.801
X38.575 Y-11.976
X38.372 Y-12.169
X38.264 Y-12.274
X38.148 Y-12.388
X38.024 Y-12.511
X37.891 Y-12.644
X37.733 Y-12.803
X37.591 Y-12.948
X37.462 Y-13.08
X37.345 Y-13.201
X37.24 Y-13.313
X37.145 Y-13.417
X36.979 Y-13.609
X36.836 Y-13.79
X36.707 Y-13.971
X36.579 Y-14.167
X36.442 Y-14.391
X36.402 Y-14.46
X36.356 Y-14.542
X36.253 Y-14.735
X36.141 Y-14.955
X36.026 Y-15.186
X35.915 Y-15.417
X35.816 Y-15.631
X35.772 Y-15.728
X35.734 Y-15.815
X35.703 Y-15.892
X35.678 Y-15.955
X35.646 Y-16.051
X35.614 Y-16.162
X35.582 Y-16.288
X35.551 Y-16.425
X35.491 Y-16.729
X35.436 Y-17.056
X35.389 Y-17.393
X35.353 Y-17.723
X35.329 Y-18.029
X35.322 Y-18.169
X35.32 Y-18.298
X35.321 Y-18.411
X35.324 Y-18.501
X35.328 Y-18.56
X35.33 Y-18.575
X35.333 Y-18.578
X35.338 Y-18.568
X35.349 Y-18.546
X35.365 Y-18.513
X35.385 Y-18.47
X35.435 Y-18.361
X35.493 Y-18.231
X35.648 Y-17.905
X35.83 Y-17.567
X35.935 Y-17.388
X36.05 Y-17.198
X36.178 Y-16.996
X36.32 Y-16.778
X36.437 Y-16.602
X36.548 Y-16.438
X36.759 Y-16.139
X36.961 Y-15.873
X37.163 Y-15.629
X37.373 Y-15.397
X37.599 Y-15.168
X37.85 Y-14.932
X37.988 Y-14.808
X38.136 Y-14.678
X38.348 Y-14.493
X38.445 Y-14.407
X38.52 Y-14.342
X38.562 Y-14.307
X38.626 Y-14.257
X38.71 Y-14.194
X38.811 Y-14.121
X38.924 Y-14.039
X39.047 Y-13.951
X39.31 Y-13.767
X40.36 Y-13.042
X40.452 Y-12.978
X40.559 Y-12.905
X40.804 Y-12.74
X41.063 Y-12.566
X41.305 Y-12.404
X41.541 Y-12.245
X41.758 Y-12.09
X42.159 Y-11.778
X42.352 Y-11.611
X42.549 Y-11.432
X42.754 Y-11.235
X42.973 Y-11.016
X43.199 Y-10.783
X43.407 Y-10.564
X43.597 Y-10.355
X43.771 Y-10.156
X43.93 Y-9.962
X44.077 Y-9.774
X44.211 Y-9.587
X44.336 Y-9.401
X44.559 Y-9.02
X44.757 Y-8.613
X44.851 Y-8.395
X44.942 Y-8.163
X45.033 Y-7.916
X45.125 Y-7.652
X45.215 Y-7.339
X45.284 Y-7
X45.33 Y-6.64
X45.355 Y-6.266
X45.357 Y-5.882
X45.337 Y-5.496
X45.295 Y-5.112
X45.229 Y-4.737
X45.203 Y-4.622
X45.169 Y-4.498
X45.084 Y-4.228
X44.979 Y-3.937
X44.856 Y-3.636
X44.723 Y-3.336
X44.581 Y-3.046
X44.437 Y-2.777
X44.293 Y-2.539
X44.171 Y-2.359
X44.039 Y-2.183
X43.748 Y-1.844
X43.427 Y-1.525
X43.079 Y-1.231
X42.71 Y-0.965
X42.326 Y-0.733
X41.932 Y-0.537
X41.733 Y-0.454
X41.533 Y-0.383
X41.305 Y-0.312
X41.081 Y-0.251
X40.632 Y-0.16
X40.403 Y-0.129
X40.169 Y-0.107
X39.928 Y-0.093
X39.678 Y-0.088
X39.472 Y-0.09
X39.28 Y-0.098
X39.1 Y-0.112
X38.927 Y-0.133
Z4
Z5
X33.895 Y-4.727
Z4
Z0 F150
X33.797 Y-4.557 F300
X33.747 Y-4.472
X33.705 Y-4.402
X33.628 Y-4.29
X33.537 Y-4.183
X33.478 Y-4.119
X33.404 Y-4.042
X33.262 Y-3.907
X33.111 Y-3.785
X32.949 Y-3.675
X32.775 Y-3.577
X32.587 Y-3.489
X32.384 Y-3.412
X32.165 Y-3.345
X31.928 Y-3.286
X31.77 Y-3.257
X31.593 Y-3.235
X31.403 Y-3.221
X31.204 Y-3.215
X30.805 Y-3.226
X30.616 Y-3.242
X30.442 Y-3.267
X30.172 Y-3.327
X29.899 Y-3.41
X29.628 Y-3.516
X29.36 Y-3.643
X29.097 Y-3.791
X28.844 Y-3.957
X28.601 Y-4.14
X28.372 Y-4.34
X28.28 Y-4.431
X28.188 Y-4.533
X28.006 Y-4.764
X27.83 Y-5.023
X27.667 Y-5.304
X27.518 Y-5.596
X27.39 Y-5.894
X27.287 Y-6.188
X27.212 Y-6.47
X27.198 Y-6.55
X27.185 Y-6.64
X27.165 Y-6.845
X27.153 Y-7.075
X27.149 Y-7.318
X27.153 Y-7.565
X27.164 Y-7.804
X27.184 Y-8.026
X27.212 Y-8.22
X27.26 Y-8.47
X27.31 Y-8.687
X27.364 Y-8.878
X27.427 Y-9.055
X27.503 Y-9.225
X27.594 Y-9.399
X27.706 Y-9.586
X27.842 Y-9.795
X28.031 Y-10.067
X28.221 Y-10.312
X28.42 Y-10.536
X28.636 Y-10.748
X28.878 Y-10.956
X29.154 Y-11.167
X29.307 Y-11.276
X29.472 Y-11.388
X29.65 Y-11.506
X29.842 Y-11.629
X30.046 Y-11.758
X30.24 Y-11.881
X30.462 Y-12.023
X30.549 Y-12.079
X30.601 Y-12.113
X30.728 Y-12.194
X31.014 Y-12.374
X31.207 Y-12.495
X31.388 Y-12.609
X31.557 Y-12.716
X31.715 Y-12.816
X31.861 Y-12.91
X31.997 Y-12.998
X32.123 Y-13.08
X32.239 Y-13.156
X32.346 Y-13.227
X32.443 Y-13.293
X32.612 Y-13.41
X32.75 Y-13.509
X32.859 Y-13.593
X33.118 Y-13.807
X33.351 Y-14.016
X33.561 Y-14.222
X33.748 Y-14.424
X33.913 Y-14.626
X34.058 Y-14.828
X34.183 Y-15.032
X34.291 Y-15.238
X34.359 Y-15.386
X34.415 Y-15.521
X34.498 Y-15.775
X34.549 Y-16.03
X34.564 Y-16.169
X34.575 Y-16.32
X34.595 Y-16.667
X34.659 Y-16.542
X34.691 Y-16.472
X34.732 Y-16.373
X34.819 Y-16.143
X34.848 Y-16.056
X34.87 Y-15.979
X34.899 Y-15.829
X34.907 Y-15.741
X34.911 Y-15.636
X34.914 Y-15.505
Y-15.343
Y-15.186
X34.911 Y-15.055
X34.906 Y-14.945
X34.898 Y-14.85
X34.87 Y-14.674
X34.848 Y-14.582
X34.821 Y-14.478
X34.74 Y-14.221
X34.642 Y-13.979
X34.523 Y-13.744
X34.378 Y-13.512
X34.204 Y-13.276
X33.996 Y-13.03
X33.878 Y-12.901
X33.75 Y-12.767
X33.611 Y-12.628
X33.461 Y-12.483
X33.068 Y-12.119
X32.855 Y-11.932
X32.614 Y-11.729
X32.48 Y-11.618
X32.334 Y-11.499
X32.175 Y-11.371
X32.002 Y-11.232
X31.813 Y-11.082
X31.606 Y-10.918
X31.38 Y-10.741
X31.134 Y-10.548
X30.924 Y-10.378
X30.704 Y-10.189
X30.26 Y-9.783
X30.051 Y-9.579
X29.859 Y-9.384
X29.693 Y-9.204
X29.621 Y-9.121
X29.559 Y-9.046
X29.457 Y-8.91
X29.36 Y-8.765
X29.187 Y-8.459
X29.114 Y-8.303
X29.052 Y-8.148
X29.001 Y-7.999
X28.965 Y-7.856
X28.942 Y-7.719
X28.928 Y-7.56
X28.921 Y-7.387
X28.923 Y-7.207
X28.932 Y-7.027
X28.948 Y-6.853
X28.972 Y-6.695
X29.002 Y-6.557
X29.042 Y-6.432
X29.094 Y-6.293
X29.23 Y-5.991
X29.387 Y-5.697
X29.467 Y-5.567
X29.545 Y-5.454
X29.727 Y-5.23
X29.931 Y-5.019
X30.152 Y-4.823
X30.389 Y-4.646
X30.637 Y-4.488
X30.893 Y-4.352
X31.155 Y-4.241
X31.419 Y-4.156
X31.567 Y-4.122
X31.722 Y-4.098
X31.892 Y-4.083
X32.082 Y-4.077
X32.302 Y-4.081
X32.511 Y-4.1
X32.711 Y-4.135
X32.904 Y-4.186
X33.093 Y-4.253
X33.28 Y-4.337
X33.466 Y-4.439
X33.654 Y-4.56
X33.895 Y-4.727
Z4
Z5
X-38.778 Y-0.173
Z4
Z0 F150
Y0.173 F300
X-38.818 Y0.516
X-38.896 Y0.853
X-39.012 Y1.179
X-39.165 Y1.489
X-39.352 Y1.78
X-39.57 Y2.047
X-39.818 Y2.288
X-40.092 Y2.499
X-40.388 Y2.678
X-40.703 Y2.821
X-41.031 Y2.928
X-41.37 Y2.997
X-41.715 Y3.027
X-42.06 Y3.017
X-42.402 Y2.967
X-42.737 Y2.88
X-43.059 Y2.754
X-43.365 Y2.593
X-43.65 Y2.398
X-43.911 Y2.171
X-44.145 Y1.917
X-44.348 Y1.637
X-44.518 Y1.336
X-44.653 Y1.017
X-44.75 Y0.686
X-44.809 Y0.345
X-44.829 Y0
X-44.809 Y-0.345
X-44.75 Y-0.686
X-44.653 Y-1.017
X-44.518 Y-1.336
X-44.348 Y-1.637
X-44.145 Y-1.917
X-43.911 Y-2.171
X-43.65 Y-2.398
X-43.365 Y-2.593
X-43.059 Y-2.754
X-42.737 Y-2.88
X-42.402 Y-2.967
X-42.06 Y-3.017
X-41.715 Y-3.027
X-41.37 Y-2.997
X-41.031 Y-2.928
X-40.703 Y-2.821
X-40.388 Y-2.678
X-40.092 Y-2.499
X-39.818 Y-2.288
X-39.57 Y-2.047
X-39.352 Y-1.78
X-39.165 Y-1.489
X-39.012 Y-1.179
X-38.896 Y-0.853
X-38.818 Y-0.516
X-38.778 Y-0.173
Z4
Z5
X-24.227 Y-4.975
Z4
Z-0.25 F150
X-19.227 Y-4.974 F300
X-18.164 Y0.026
X-21.021
X-21.478 Y-2.117
X-23.621 Y-2.118
X-23.969 Y-1.985
X-24.133 Y-1.912
X-24.284 Y-1.831
X-24.418 Y-1.741
X-24.531 Y-1.638
X-24.619 Y-1.52
X-24.681 Y-1.387
X-24.721 Y-1.241
X-24.74 Y-1.082
X-24.742 Y-0.913
X-24.729 Y-0.736
X-24.705 Y-0.552
X-24.672 Y-0.362
X-24.592 Y0.025
X-24.493 Y0.428
X-24.379 Y0.815
X-24.31 Y0.997
X-24.232 Y1.17
X-24.141 Y1.331
X-24.037 Y1.478
X-23.917 Y1.61
X-23.779 Y1.724
X-23.625 Y1.822
X-23.458 Y1.907
X-23.279 Y1.982
X-23.093 Y2.048
X-22.707 Y2.168
X-19.136 Y2.169
X-17.101 Y5.027
X-22.101 Y5.025
X-23.135 Y4.811
X-23.637 Y4.687
X-24.12 Y4.543
X-24.353 Y4.46
X-24.58 Y4.37
X-24.798 Y4.272
X-25.008 Y4.164
X-25.209 Y4.046
X-25.4 Y3.916
X-25.58 Y3.775
X-25.75 Y3.621
X-25.908 Y3.455
X-26.056 Y3.277
X-26.195 Y3.089
X-26.325 Y2.891
X-26.448 Y2.684
X-26.562 Y2.469
X-26.772 Y2.016
X-26.96 Y1.539
X-27.132 Y1.044
X-27.449 Y0.024
X-27.575 Y-0.979
X-27.617 Y-1.466
X-27.636 Y-1.936
X-27.633 Y-2.163
X-27.622 Y-2.383
X-27.601 Y-2.596
X-27.569 Y-2.801
X-27.524 Y-2.998
X-27.467 Y-3.185
X-27.396 Y-3.363
X-27.31 Y-3.529
X-27.207 Y-3.684
X-27.088 Y-3.827
X-26.952 Y-3.959
X-26.802 Y-4.079
X-26.637 Y-4.189
X-26.459 Y-4.29
X-26.269 Y-4.382
X-26.069 Y-4.467
X-25.859 Y-4.546
X-25.641 Y-4.618
X-25.185 Y-4.748
X-24.711 Y-4.865
X-24.227 Y-4.975
Z4
Z5
X-17.863 Y-4.974
Z4
Z-0.25 F150
X-15.005 Y-4.973 F300
X-14.092 Y-0.687
X-11.97 Y-4.972
X-8.398 Y-4.971
X-10.206 Y-1.729
X-9.773 Y-1.441
X-9.359 Y-1.139
X-9.166 Y-0.977
X-8.985 Y-0.806
X-8.819 Y-0.624
X-8.671 Y-0.43
X-8.54 Y-0.222
X-8.425 Y-0.003
X-8.322 Y0.226
X-8.23 Y0.462
X-8.071 Y0.953
X-7.928 Y1.457
X-7.878 Y2.224
X-7.868 Y2.594
X-7.878 Y2.95
X-7.913 Y3.285
X-7.942 Y3.443
X-7.979 Y3.595
X-8.027 Y3.738
X-8.085 Y3.874
X-8.153 Y4
X-8.234 Y4.118
X-8.328 Y4.225
X-8.433 Y4.322
X-8.55 Y4.41
X-8.678 Y4.49
X-8.815 Y4.562
X-8.961 Y4.627
X-9.277 Y4.739
X-9.619 Y4.829
X-9.981 Y4.904
X-10.736 Y5.028
X-15.736 Y5.027
X-16.343 Y2.17
X-11.343 Y2.171
X-11.192 Y2.146
X-11.051 Y2.113
X-10.932 Y2.063
X-10.883 Y2.029
X-10.843 Y1.988
X-10.814 Y1.94
X-10.793 Y1.884
X-10.774 Y1.755
Y1.61
X-10.786 Y1.457
X-10.841 Y1.303
X-10.903 Y1.157
X-10.978 Y1.028
X-11.073 Y0.924
X-11.193 Y0.849
X-11.334 Y0.8
X-11.488 Y0.767
X-11.65 Y0.742
X-16.65 Y0.741
X-17.863 Y-4.974
Z4
Z5
X-6.753 Y-2.471
Z4
Z-0.25 F150
X-8.177 Y-4.971 F300
X-5.141
X-2 Y0.566
X-1.213 Y-4.97
X1.823 Y-4.969
X0.378 Y5.031
X-2.479 Y5.03
X-6.753 Y-2.471
Z4
Z5
X2.36 Y-2.043
Z4
Z-0.25 F150
X2.43 Y-2.258 F300
X2.515 Y-2.471
X2.612 Y-2.681
X2.834 Y-3.095
X3.076 Y-3.504
X3.413 Y-3.832
X3.758 Y-4.14
X3.936 Y-4.281
X4.12 Y-4.411
X4.311 Y-4.526
X4.509 Y-4.625
X4.715 Y-4.707
X4.929 Y-4.773
X5.148 Y-4.825
X5.373 Y-4.867
X5.833 Y-4.926
X6.302 Y-4.968
X9.159 Y-4.967
X11.194 Y-2.11
X6.908 Y-2.111
X6.51 Y-2.067
X6.32 Y-2.026
X6.14 Y-1.963
X5.973 Y-1.871
X5.818 Y-1.755
X5.526 Y-1.482
X5.326 Y-1.13
X5.248 Y-0.949
X5.196 Y-0.763
X5.174 Y-0.57
X5.177 Y-0.372
X5.222 Y0.032
X5.367 Y0.468
X5.456 Y0.676
X5.564 Y0.872
X5.694 Y1.054
X5.843 Y1.224
X6.172 Y1.546
X6.546 Y1.804
X6.74 Y1.916
X6.941 Y2.008
X7.152 Y2.075
X7.371 Y2.12
X7.821 Y2.175
X10.679 Y2.176
X12.714 Y5.034
X8.428 Y5.033
X7.899 Y4.977
X7.376 Y4.905
X7.119 Y4.858
X6.865 Y4.8
X6.617 Y4.73
X6.374 Y4.645
X6.136 Y4.545
X5.904 Y4.431
X5.677 Y4.305
X5.452 Y4.169
X5.012 Y3.876
X4.578 Y3.567
X4.188 Y3.196
X3.813 Y2.815
X3.635 Y2.618
X3.466 Y2.417
X3.307 Y2.208
X3.161 Y1.992
X3.029 Y1.767
X2.91 Y1.534
X2.802 Y1.294
X2.703 Y1.048
X2.527 Y0.544
X2.365 Y0.031
X2.304 Y-0.442
X2.262 Y-0.912
X2.253 Y-1.144
X2.257 Y-1.373
X2.274 Y-1.6
X2.308 Y-1.823
X2.36 Y-2.043
Z4
Z5
X11.851 Y-2.11
Z4
Z-0.25 F150
X11.245 Y-4.967 F300
X17.673 Y-4.965
X19.708 Y-2.108
X11.851 Y-2.11
Z4
Z5
X12.001 Y-1.395
Z4
Z-0.25 F150
X18.429 Y-1.394 F300
X20.464 Y1.464
X12.607 Y1.462
X12.001 Y-1.395
Z4
Z5
X12.764 Y2.176
Z4
Z-0.25 F150
X19.193 Y2.178 F300
X21.228 Y5.036
X13.371 Y5.034
X12.764 Y2.176
Z4
Z5
X27.135 Y9.275
Z4
Z-0.25 F150
X28.581 Y8.489 F300
X30.016 Y7.685
X30.311 Y7.538
X30.598 Y7.379
X31.16 Y7.04
X31.718 Y6.695
X32 Y6.529
X32.288 Y6.371
X32.426 Y6.281
X32.572 Y6.197
X32.881 Y6.043
X33.522 Y5.751
X33.827 Y5.588
X33.969 Y5.498
X34.102 Y5.399
X34.225 Y5.291
X34.335 Y5.171
X34.431 Y5.04
X34.512 Y4.893
X34.438 Y4.83
X34.383 Y4.77
X34.344 Y4.712
X34.321 Y4.657
X34.311 Y4.604
X34.313 Y4.552
X34.347 Y4.451
X34.41 Y4.35
X34.488 Y4.248
X34.569 Y4.14
X34.641 Y4.024
X35.342 Y3.53
X36.038 Y3.024
X36.737 Y2.527
X37.449 Y2.055
X37.468 Y2.018
X37.486 Y1.992
X37.52 Y1.968
X37.551 Y1.973
X37.581 Y1.999
X37.641 Y2.078
X37.672 Y2.113
X37.706 Y2.132
X37.751 Y2.088
X37.793 Y2.056
X37.831 Y2.034
X37.866 Y2.023
X37.928 Y2.026
X37.984 Y2.06
X38.036 Y2.118
X38.089 Y2.194
X38.209 Y2.379
X38.333 Y2.642
X38.473 Y2.898
X38.758 Y3.404
X38.885 Y3.662
X38.988 Y3.928
X39.028 Y4.065
X39.059 Y4.206
X39.079 Y4.35
X39.087 Y4.499
X39.201 Y4.709
X39.315 Y4.935
X39.554 Y5.397
X39.68 Y5.613
X39.814 Y5.807
X39.957 Y5.968
X40.032 Y6.033
X40.11 Y6.086
X40.204 Y6.082
X40.314 Y6.102
X40.431 Y6.145
X40.544 Y6.208
X40.643 Y6.289
X40.717 Y6.384
X40.742 Y6.436
X40.756 Y6.492
X40.76 Y6.549
X40.751 Y6.61
X40.847 Y6.574
X40.918 Y6.562
X40.969 Y6.571
X41.002 Y6.596
X41.021 Y6.636
X41.03 Y6.688
X41.029 Y6.814
X41.027 Y6.95
X41.034 Y7.015
X41.051 Y7.075
X41.081 Y7.125
X41.127 Y7.163
X41.194 Y7.187
X41.284 Y7.193
X41.223 Y7.162
X41.173 Y7.134
X41.103 Y7.083
X41.068 Y7.04
X41.062 Y7.004
X41.082 Y6.977
X41.12 Y6.958
X41.173 Y6.947
X41.233 Y6.945
X41.359 Y6.965
X41.414 Y6.988
X41.456 Y7.02
X41.479 Y7.061
X41.48 Y7.11
X41.451 Y7.169
X41.389 Y7.237
X41.558 Y7.299
X41.712 Y7.365
X41.853 Y7.438
X41.982 Y7.522
X42.099 Y7.621
X42.206 Y7.74
X42.304 Y7.881
X42.394 Y8.05
X42.067 Y8.46
X41.749 Y8.878
X41.121 Y9.722
X41.183 Y11.544
X41.223 Y13.367
X41.243 Y15.19
X41.249 Y17.014
X42.015 Y17.988
X42.387 Y18.484
X42.74 Y18.993
X42.836 Y19.077
X42.91 Y19.154
X42.962 Y19.223
X42.993 Y19.287
X43.007 Y19.343
X43.002 Y19.393
X42.983 Y19.436
X42.949 Y19.473
X42.903 Y19.503
X42.846 Y19.526
X42.779 Y19.543
X42.704 Y19.553
X42.537 Y19.554
X42.356 Y19.529
X42.232 Y19.49
X42.111 Y19.467
X41.993 Y19.458
X41.878 Y19.462
X41.766 Y19.479
X41.657 Y19.507
X41.445 Y19.592
X41.243 Y19.708
X41.049 Y19.847
X40.683 Y20.157
X40.312 Y20.014
X39.952 Y19.848
X39.241 Y19.493
X39.157 Y19.461
X39.078 Y19.406
X39.006 Y19.333
X38.938 Y19.246
X38.813 Y19.045
X38.698 Y18.837
X38.642 Y18.742
X38.586 Y18.657
X38.53 Y18.588
X38.473 Y18.538
X38.413 Y18.513
X38.351 Y18.515
X38.285 Y18.549
X38.214 Y18.621
X37.865 Y18.692
X37.512 Y18.735
X37.157 Y18.757
X36.801 Y18.766
X36.089 Y18.779
X35.734 Y18.8
X35.381 Y18.841
X34.896 Y19.161
X34.416 Y19.499
X33.461 Y20.183
X33.283 Y20.328
X33.19 Y20.389
X33.093 Y20.438
X32.992 Y20.475
X32.886 Y20.497
X32.774 Y20.502
X32.655 Y20.488
X32.445 Y20.501
X32.231 Y20.5
X31.8 Y20.494
X31.59 Y20.51
X31.387 Y20.55
X31.288 Y20.583
X31.193 Y20.626
X31.1 Y20.68
X31.011 Y20.747
X30.762 Y20.8
X30.505 Y20.829
X30.244 Y20.839
X29.98 Y20.837
X29.45 Y20.822
X29.187
X28.928 Y20.834
X28.655 Y20.83
X28.375 Y20.841
X28.1 Y20.839
X27.969 Y20.824
X27.842 Y20.797
X27.787 Y20.725
X27.719 Y20.653
X27.56 Y20.511
X27.389 Y20.369
X27.229 Y20.226
X27.162 Y20.154
X27.107 Y20.081
X27.066 Y20.008
X27.044 Y19.934
X27.042 Y19.86
X27.064 Y19.784
X27.114 Y19.707
X27.193 Y19.629
X27.221 Y19.536
X27.259 Y19.452
X27.362 Y19.305
X27.485 Y19.178
X27.616 Y19.059
X27.739 Y18.935
X27.84 Y18.797
X27.878 Y18.718
X27.904 Y18.63
X27.918 Y18.533
X27.917 Y18.425
X27.898 Y18.329
X27.893 Y18.238
X27.899 Y18.153
X27.916 Y18.072
X27.977 Y17.922
X28.065 Y17.782
X28.281 Y17.511
X28.389 Y17.37
X28.483 Y17.218
X28.587 Y17.018
X28.661 Y16.81
X28.717 Y16.597
X28.764 Y16.381
X28.865 Y15.945
X28.938 Y15.731
X29.039 Y15.522
X29.044 Y15.422
X29.038 Y15.325
X29.001 Y15.134
X28.939 Y14.95
X28.862 Y14.771
X28.701 Y14.427
X28.638 Y14.26
X28.599 Y14.095
X28.475 Y14.047
X28.368 Y13.984
X28.276 Y13.907
X28.197 Y13.82
X28.128 Y13.724
X28.066 Y13.62
X27.955 Y13.402
X27.845 Y13.18
X27.715 Y12.972
X27.637 Y12.879
X27.546 Y12.795
X27.441 Y12.723
X27.318 Y12.664
X27.255 Y12.517
X27.204 Y12.365
X27.123 Y12.057
X27.05 Y11.76
X27.008 Y11.623
X26.958 Y11.496
X27.023 Y11.449
X27.083 Y11.392
X27.191 Y11.258
X27.382 Y10.964
X27.475 Y10.835
X27.524 Y10.782
X27.576 Y10.739
X27.63 Y10.708
X27.688 Y10.692
X27.751 Y10.691
X27.819 Y10.708
X27.805 Y10.769
X27.801 Y10.821
X27.807 Y10.865
X27.822 Y10.902
X27.878 Y10.959
X27.963 Y11
X28.07 Y11.031
X28.194 Y11.06
X28.33 Y11.095
X28.471 Y11.144
X28.585 Y11.054
X28.667 Y10.979
X28.72 Y10.916
X28.745 Y10.866
X28.747 Y10.825
X28.728 Y10.793
X28.691 Y10.769
X28.639 Y10.75
X28.502 Y10.724
X28.34 Y10.705
X28.177 Y10.681
X28.103 Y10.663
X28.037 Y10.64
X28.042 Y10.535
X28.032 Y10.461
X28.008 Y10.414
X27.972 Y10.391
X27.926 Y10.386
X27.873 Y10.397
X27.752 Y10.447
X27.627 Y10.509
X27.568 Y10.535
X27.514 Y10.551
X27.467 Y10.553
X27.43 Y10.539
X27.405 Y10.503
X27.393 Y10.442
X27.295 Y10.368
X27.228 Y10.294
X27.188 Y10.218
X27.171 Y10.142
X27.172 Y10.066
X27.187 Y9.99
X27.241 Y9.838
X27.297 Y9.689
X27.316 Y9.616
X27.322 Y9.544
X27.311 Y9.474
X27.279 Y9.406
X27.222 Y9.339
X27.135 Y9.275
Z4
Z5
X38.927 Y-0.133
Z4
Z-0.25 F150
X38.59 Y-0.198 F300
X38.419 Y-0.243
X38.242 Y-0.297
X38.029 Y-0.372
X37.806 Y-0.462
X37.358 Y-0.674
X37.142 Y-0.791
X36.941 Y-0.911
X36.758 Y-1.031
X36.6 Y-1.149
X36.547 Y-1.193
X36.485 Y-1.246
X36.342 Y-1.378
X36.179 Y-1.534
X36.009 Y-1.703
X35.841 Y-1.874
X35.687 Y-2.037
X35.557 Y-2.18
X35.504 Y-2.24
X35.461 Y-2.292
X35.34 Y-2.456
X35.224 Y-2.632
X35.113 Y-2.819
X35.009 Y-3.014
X34.822 Y-3.425
X34.667 Y-3.852
X34.548 Y-4.282
X34.503 Y-4.494
X34.468 Y-4.702
X34.445 Y-4.905
X34.433 Y-5.1
Y-5.287
X34.445 Y-5.463
X34.475 Y-5.678
X34.513 Y-5.878
X34.561 Y-6.064
X34.62 Y-6.239
X34.689 Y-6.403
X34.77 Y-6.557
X34.863 Y-6.705
X34.968 Y-6.846
X35.043 Y-6.936
X35.103 Y-7.001
X35.149 Y-7.041
X35.183 Y-7.055
X35.206 Y-7.044
X35.218 Y-7.008
X35.223 Y-6.947
X35.219 Y-6.799
X35.22 Y-6.722
X35.223 Y-6.632
X35.228 Y-6.53
X35.245 Y-6.301
X35.268 Y-6.049
X35.295 Y-5.791
X35.326 Y-5.543
X35.358 Y-5.32
X35.374 Y-5.223
X35.39 Y-5.138
X35.446 Y-4.898
X35.516 Y-4.662
X35.599 Y-4.43
X35.694 Y-4.204
X35.801 Y-3.983
X35.92 Y-3.768
X36.05 Y-3.56
X36.191 Y-3.36
X36.342 Y-3.168
X36.504 Y-2.985
X36.674 Y-2.811
X36.853 Y-2.647
X37.041 Y-2.494
X37.236 Y-2.352
X37.439 Y-2.222
X37.65 Y-2.105
X37.921 Y-1.982
X38.207 Y-1.886
X38.509 Y-1.817
X38.823 Y-1.776
X39.15 Y-1.762
X39.486 Y-1.776
X39.832 Y-1.818
X40.185 Y-1.887
X40.453 Y-1.96
X40.713 Y-2.049
X40.963 Y-2.155
X41.204 Y-2.277
X41.435 Y-2.415
X41.655 Y-2.568
X41.864 Y-2.735
X42.061 Y-2.916
X42.246 Y-3.111
X42.419 Y-3.318
X42.578 Y-3.538
X42.723 Y-3.77
X42.854 Y-4.014
X42.971 Y-4.268
X43.072 Y-4.533
X43.157 Y-4.807
X43.217 Y-5.035
X43.266 Y-5.241
X43.304 Y-5.43
X43.333 Y-5.608
X43.361 Y-5.951
X43.364 Y-6.126
X43.359 Y-6.312
X43.331 Y-6.662
X43.275 Y-6.991
X43.188 Y-7.304
X43.069 Y-7.609
X42.914 Y-7.91
X42.821 Y-8.062
X42.72 Y-8.215
X42.607 Y-8.371
X42.484 Y-8.529
X42.35 Y-8.691
X42.205 Y-8.858
X42.13 Y-8.94
X42.045 Y-9.027
X41.951 Y-9.121
X41.845 Y-9.223
X41.728 Y-9.331
X41.6 Y-9.447
X41.461 Y-9.571
X41.31 Y-9.702
X41.146 Y-9.842
X40.97 Y-9.991
X40.781 Y-10.148
X40.579 Y-10.315
X40.364 Y-10.491
X40.134 Y-10.676
X39.891 Y-10.872
X39.501 Y-11.182
X39.379 Y-11.281
X39.157 Y-11.463
X38.956 Y-11.633
X38.765 Y-11.801
X38.575 Y-11.976
X38.372 Y-12.169
X38.264 Y-12.274
X38.148 Y-12.388
X38.024 Y-12.511
X37.891 Y-12.644
X37.733 Y-12.803
X37.591 Y-12.948
X37.462 Y-13.08
X37.345 Y-13.201
X37.24 Y-13.313
X37.145 Y-13.417
X36.979 Y-13.609
X36.836 Y-13.79
X36.707 Y-13.971
X36.579 Y-14.167
X36.442 Y-14.391
X36.402 Y-14.46
X36.356 Y-14.542
X36.253 Y-14.735
X36.141 Y-14.955
X36.026 Y-15.186
X35.915 Y-15.417
X35.816 Y-15.631
X35.772 Y-15.728
X35.734 Y-15.815
X35.703 Y-15.892
X35.678 Y-15.955
X35.646 Y-16.051
X35.614 Y-16.162
X35.582 Y-16.288
X35.551 Y-16.425
X35.491 Y-16.729
X35.436 Y-17.056
X35.389 Y-17.393
X35.353 Y-17.723
X35.329 Y-18.029
X35.322 Y-18.169
X35.32 Y-18.298
X35.321 Y-18.411
X35.324 Y-18.501
X35.328 Y-18.56
X35.33 Y-18.575
X35.333 Y-18.578
X35.338 Y-18.568
X35.349 Y-18.546
X35.365 Y-18.513
X35.385 Y-18.47
X35.435 Y-18.361
X35.493 Y-18.231
X35.648 Y-17.905
X35.83 Y-17.567
X35.935 Y-17.388
X36.05 Y-17.198
X36.178 Y-16.996
X36.32 Y-16.778
X36.437 Y-16.602
X36.548 Y-16.438
X36.759 Y-16.139
X36.961 Y-15.873
X37.163 Y-15.629
X37.373 Y-15.397
X37.599 Y-15.168
X37.85 Y-14.932
X37.988 Y-14.808
X38.136 Y-14.678
X38.348 Y-14.493
X38.445 Y-14.407
X38.52 Y-14.342
X38.562 Y-14.307
X38.626 Y-14.257
X38.71 Y-14.194
X38.811 Y-14.121
X38.924 Y-14.039
X39.047 Y-13.951
X39.31 Y-13.767
X40.36 Y-13.042
X40.452 Y-12.978
X40.559 Y-12.905
X40.804 Y-12.74
X41.063 Y-12.566
X41.305 Y-12.404
X41.541 Y-12.245
X41.758 Y-12.09
X42.159 Y-11.778
X42.352 Y-11.611
X42.549 Y-11.432
X42.754 Y-11.235
X42.973 Y-11.016
X43.199 Y-10.783
X43.407 Y-10.564
X43.597 Y-10.355
X43.771 Y-10.156
X43.93 Y-9.962
X44.077 Y-9.774
X44.211 Y-9.587
X44.336 Y-9.401
X44.559 Y-9.02
X44.757 Y-8.613
X44.851 Y-8.395
X44.942 Y-8.163
X45.033 Y-7.916
X45.125 Y-7.652
X45.215 Y-7.339
X45.284 Y-7
X45.33 Y-6.64
X45.355 Y-6.266
X45.357 Y-5.882
X45.337 Y-5.496
X45.295 Y-5.112
X45.229 Y-4.737
X45.203 Y-4.622
X45.169 Y-4.498
X45.084 Y-4.228
X44.979 Y-3.937
X44.856 Y-3.636
X44.723 Y-3.336
X44.581 Y-3.046
X44.437 Y-2.777
X44.293 Y-2.539
X44.171 Y-2.359
X44.039 Y-2.183
X43.748 Y-1.844
X43.427 Y-1.525
X43.079 Y-1.231
X42.71 Y-0.965
X42.326 Y-0.733
X41.932 Y-0.537
X41.733 Y-0.454
X41.533 Y-0.383
X41.305 Y-0.312
X41.081 Y-0.251
X40.632 Y-0.16
X40.403 Y-0.129
X40.169 Y-0.107
X39.928 Y-0.093
X39.678 Y-0.088
X39.472 Y-0.09
X39.28 Y-0.098
X39.1 Y-0.112
X38.927 Y-0.133
Z4
Z5
X33.895 Y-4.727
Z4
Z-0.25 F150
X33.797 Y-4.557 F300
X33.747 Y-4.472
X33.705 Y-4.402
X33.628 Y-4.29
X33.537 Y-4.183
X33.478 Y-4.119
X33.404 Y-4.042
X33.262 Y-3.907
X33.111 Y-3.785
X32.949 Y-3.675
X32.775 Y-3.577
X32.587 Y-3.489
X32.384 Y-3.412
X32.165 Y-3.345
X31.928 Y-3.286
X31.77 Y-3.257
X31.593 Y-3.235
X31.403 Y-3.221
X31.204 Y-3.215
X30.805 Y-3.226
X30.616 Y-3.242
X30.442 Y-3.267
X30.172 Y-3.327
X29.899 Y-3.41
X29.628 Y-3.516
X29.36 Y-3.643
X29.097 Y-3.791
X28.844 Y-3.957
X28.601 Y-4.14
X28.372 Y-4.34
X28.28 Y-4.431
X28.188 Y-4.533
X28.006 Y-4.764
X27.83 Y-5.023
X27.667 Y-5.304
X27.518 Y-5.596
X27.39 Y-5.894
X27.287 Y-6.188
X27.212 Y-6.47
X27.198 Y-6.55
X27.185 Y-6.64
X27.165 Y-6.845
X27.153 Y-7.075
X27.149 Y-7.318
X27.153 Y-7.565
X27.164 Y-7.804
X27.184 Y-8.026
X27.212 Y-8.22
X27.26 Y-8.47
X27.31 Y-8.687
X27.364 Y-8.878
X27.427 Y-9.055
X27.503 Y-9.225
X27.594 Y-9.399
X27.706 Y-9.586
X27.842 Y-9.795
X28.031 Y-10.067
X28.221 Y-10.312
X28.42 Y-10.536
X28.636 Y-10.748
X28.878 Y-10.956
X29.154 Y-11.167
X29.307 Y-11.276
X29.472 Y-11.388
X29.65 Y-11.506
X29.842 Y-11.629
X30.046 Y-11.758
X30.24 Y-11.881
X30.462 Y-12.023
X30.549 Y-12.079
X30.601 Y-12.113
X30.728 Y-12.194
X31.014 Y-12.374
X31.207 Y-12.495
X31.388 Y-12.609
X31.557 Y-12.716
X31.715 Y-12.816
X31.861 Y-12.91
X31.997 Y-12.998
X32.123 Y-13.08
X32.239 Y-13.156
X32.346 Y-13.227
X32.443 Y-13.293
X32.612 Y-13.41
X32.75 Y-13.509
X32.859 Y-13.593
X33.118 Y-13.807
X33.351 Y-14.016
X33.561 Y-14.222
X33.748 Y-14.424
X33.913 Y-14.626
X34.058 Y-14.828
X34.183 Y-15.032
X34.291 Y-15.238
X34.359 Y-15.386
X34.415 Y-15.521
X34.498 Y-15.775
X34.549 Y-16.03
X34.564 Y-16.169
X34.575 Y-16.32
X34.595 Y-16.667
X34.659 Y-16.542
X34.691 Y-16.472
X34.732 Y-16.373
X34.819 Y-16.143
X34.848 Y-16.056
X34.87 Y-15.979
X34.899 Y-15.829
X34.907 Y-15.741
X34.911 Y-15.636
X34.914 Y-15.505
Y-15.343
Y-15.186
X34.911 Y-15.055
X34.906 Y-14.945
X34.898 Y-14.85
X34.87 Y-14.674
X34.848 Y-14.582
X34.821 Y-14.478
X34.74 Y-14.221
X34.642 Y-13.979
X34.523 Y-13.744
X34.378 Y-13.512
X34.204 Y-13.276
X33.996 Y-13.03
X33.878 Y-12.901
X33.75 Y-12.767
X33.611 Y-12.628
X33.461 Y-12.483
X33.068 Y-12.119
X32.855 Y-11.932
X32.614 Y-11.729
X32.48 Y-11.618
X32.334 Y-11.499
X32.175 Y-11.371
X32.002 Y-11.232
X31.813 Y-11.082
X31.606 Y-10.918
X31.38 Y-10.741
X31.134 Y-10.548
X30.924 Y-10.378
X30.704 Y-10.189
X30.26 Y-9.783
X30.051 Y-9.579
X29.859 Y-9.384
X29.693 Y-9.204
X29.621 Y-9.121
X29.559 Y-9.046
X29.457 Y-8.91
X29.36 Y-8.765
X29.187 Y-8.459
X29.114 Y-8.303
X29.052 Y-8.148
X29.001 Y-7.999
X28.965 Y-7.856
X28.942 Y-7.719
X28.928 Y-7.56
X28.921 Y-7.387
X28.923 Y-7.207
X28.932 Y-7.027
X28.948 Y-6.853
X28.972 Y-6.695
X29.002 Y-6.557
X29.042 Y-6.432
X29.094 Y-6.293
X29.23 Y-5.991
X29.387 Y-5.697
X29.467 Y-5.567
X29.545 Y-5.454
X29.727 Y-5.23
X29.931 Y-5.019
X30.152 Y-4.823
X30.389 Y-4.646
X30.637 Y-4.488
X30.893 Y-4.352
X31.155 Y-4.241
X31.419 Y-4.156
X31.567 Y-4.122
X31.722 Y-4.098
X31.892 Y-4.083
X32.082 Y-4.077
X32.302 Y-4.081
X32.511 Y-4.1
X32.711 Y-4.135
X32.904 Y-4.186
X33.093 Y-4.253
X33.28 Y-4.337
X33.466 Y-4.439
X33.654 Y-4.56
X33.895 Y-4.727
Z4
Z5
X-38.778 Y-0.173
Z4
Z-0.25 F150
Y0.173 F300
X-38.818 Y0.516
X-38.896 Y0.853
X-39.012 Y1.179
X-39.165 Y1.489
X-39.352 Y1.78
X-39.57 Y2.047
X-39.818 Y2.288
X-40.092 Y2.499
X-40.388 Y2.678
X-40.703 Y2.821
X-41.031 Y2.928
X-41.37 Y2.997
X-41.715 Y3.027
X-42.06 Y3.017
X-42.402 Y2.967
X-42.737 Y2.88
X-43.059 Y2.754
X-43.365 Y2.593
X-43.65 Y2.398
X-43.911 Y2.171
X-44.145 Y1.917
X-44.348 Y1.637
X-44.518 Y1.336
X-44.653 Y1.017
X-44.75 Y0.686
X-44.809 Y0.345
X-44.829 Y0
X-44.809 Y-0.345
X-44.75 Y-0.686
X-44.653 Y-1.017
X-44.518 Y-1.336
X-44.348 Y-1.637
X-44.145 Y-1.917
X-43.911 Y-2.171
X-43.65 Y-2.398
X-43.365 Y-2.593
X-43.059 Y-2.754
X-42.737 Y-2.88
X-42.402 Y-2.967
X-42.06 Y-3.017
X-41.715 Y-3.027
X-41.37 Y-2.997
X-41.031 Y-2.928
X-40.703 Y-2.821
X-40.388 Y-2.678
X-40.092 Y-2.499
X-39.818 Y-2.288
X-39.57 Y-2.047
X-39.352 Y-1.78
X-39.165 Y-1.489
X-39.012 Y-1.179
X-38.896 Y-0.853
X-38.818 Y-0.516
X-38.778 Y-0.173
Z4
Z5
X-24.227 Y-4.975
Z4
Z-0.5 F150
X-19.227 Y-4.974 F300
X-18.164 Y0.026
X-21.021
X-21.478 Y-2.117
X-23.621 Y-2.118
X-23.969 Y-1.985
X-24.133 Y-1.912
X-24.284 Y-1.831
X-24.418 Y-1.741
X-24.531 Y-1.638
X-24.619 Y-1.52
X-24.681 Y-1.387
X-24.721 Y-1.241
X-24.74 Y-1.082
X-24.742 Y-0.913
X-24.729 Y-0.736
X-24.705 Y-0.552
X-24.672 Y-0.362
X-24.592 Y0.025
X-24.493 Y0.428
X-24.379 Y0.815
X-24.31 Y0.997
X-24.232 Y1.17
X-24.141 Y1.331
X-24.037 Y1.478
X-23.917 Y1.61
X-23.779 Y1.724
X-23.625 Y1.822
X-23.458 Y1.907
X-23.279 Y1.982
X-23.093 Y2.048
X-22.707 Y2.168
X-19.136 Y2.169
X-17.101 Y5.027
X-22.101 Y5.025
X-23.135 Y4.811
X-23.637 Y4.687
X-24.12 Y4.543
X-24.353 Y4.46
X-24.58 Y4.37
X-24.798 Y4.272
X-25.008 Y4.164
X-25.209 Y4.046
X-25.4 Y3.916
X-25.58 Y3.775
X-25.75 Y3.621
X-25.908 Y3.455
X-26.056 Y3.277
X-26.195 Y3.089
X-26.325 Y2.891
X-26.448 Y2.684
X-26.562 Y2.469
X-26.772 Y2.016
X-26.96 Y1.539
X-27.132 Y1.044
X-27.449 Y0.024
X-27.575 Y-0.979
X-27.617 Y-1.466
X-27.636 Y-1.936
X-27.633 Y-2.163
X-27.622 Y-2.383
X-27.601 Y-2.596
X-27.569 Y-2.801
X-27.524 Y-2.998
X-27.467 Y-3.185
X-27.396 Y-3.363
X-27.31 Y-3.529
X-27.207 Y-3.684
X-27.088 Y-3.827
X-26.952 Y-3.959
X-26.802 Y-4.079
X-26.637 Y-4.189
X-26.459 Y-4.29
X-26.269 Y-4.382
X-26.069 Y-4.467
X-25.859 Y-4.546
X-25.641 Y-4.618
X-25.185 Y-4.748
X-24.711 Y-4.865
X-24.227 Y-4.975
Z4
Z5
X-17.863 Y-4.974
Z4
Z-0.5 F150
X-15.005 Y-4.973 F300
X-14.092 Y-0.687
X-11.97 Y-4.972
X-8.398 Y-4.971
X-10.206 Y-1.729
X-9.773 Y-1.441
X-9.359 Y-1.139
X-9.166 Y-0.977
X-8.985 Y-0.806
X-8.819 Y-0.624
X-8.671 Y-0.43
X-8.54 Y-0.222
X-8.425 Y-0.003
X-8.322 Y0.226
X-8.23 Y0.462
X-8.071 Y0.953
X-7.928 Y1.457
X-7.878 Y2.224
X-7.868 Y2.594
X-7.878 Y2.95
X-7.913 Y3.285
X-7.942 Y3.443
X-7.979 Y3.595
X-8.027 Y3.738
X-8.085 Y3.874
X-8.153 Y4
X-8.234 Y4.118
X-8.328 Y4.225
X-8.433 Y4.322
X-8.55 Y4.41
X-8.678 Y4.49
X-8.815 Y4.562
X-8.961 Y4.627
X-9.277 Y4.739
X-9.619 Y4.829
X-9.981 Y4.904
X-10.736 Y5.028
X-15.736 Y5.027
X-16.343 Y2.17
X-11.343 Y2.171
X-11.192 Y2.146
X-11.051 Y2.113
X-10.932 Y2.063
X-10.883 Y2.029
X-10.843 Y1.988
X-10.814 Y1.94
X-10.793 Y1.884
X-10.774 Y1.755
Y1.61
X-10.786 Y1.457
X-10.841 Y1.303
X-10.903 Y1.157
X-10.978 Y1.028
X-11.073 Y0.924
X-11.193 Y0.849
X-11.334 Y0.8
X-11.488 Y0.767
X-11.65 Y0.742
X-16.65 Y0.741
X-17.863 Y-4.974
Z4
Z5
X-6.753 Y-2.471
Z4
Z-0.5 F150
X-8.177 Y-4.971 F300
X-5.141
X-2 Y0.566
X-1.213 Y-4.97
X1.823 Y-4.969
X0.378 Y5.031
X-2.479 Y5.03
X-6.753 Y-2.471
Z4
Z5
X2.36 Y-2.043
Z4
Z-0.5 F150
X2.43 Y-2.258 F300
X2.515 Y-2.471
X2.612 Y-2.681
X2.834 Y-3.095
X3.076 Y-3.504
X3.413 Y-3.832
X3.758 Y-4.14
X3.936 Y-4.281
X4.12 Y-4.411
X4.311 Y-4.526
X4.509 Y-4.625
X4.715 Y-4.707
X4.929 Y-4.773
X5.148 Y-4.825
X5.373 Y-4.867
X5.833 Y-4.926
X6.302 Y-4.968
X9.159 Y-4.967
X11.194 Y-2.11
X6.908 Y-2.111
X6.51 Y-2.067
X6.32 Y-2.026
X6.14 Y-1.963
X5.973 Y-1.871
X5.818 Y-1.755
X5.526 Y-1.482
X5.326 Y-1.13
X5.248 Y-0.949
X5.196 Y-0.763
X5.174 Y-0.57
X5.177 Y-0.372
X5.222 Y0.032
X5.367 Y0.468
X5.456 Y0.676
X5.564 Y0.872
X5.694 Y1.054
X5.843 Y1.224
X6.172 Y1.546
X6.546 Y1.804
X6.74 Y1.916
X6.941 Y2.008
X7.152 Y2.075
X7.371 Y2.12
X7.821 Y2.175
X10.679 Y2.176
X12.714 Y5.034
X8.428 Y5.033
X7.899 Y4.977
X7.376 Y4.905
X7.119 Y4.858
X6.865 Y4.8
X6.617 Y4.73
X6.374 Y4.645
X6.136 Y4.545
X5.904 Y4.431
X5.677 Y4.305
X5.452 Y4.169
X5.012 Y3.876
X4.578 Y3.567
X4.188 Y3.196
X3.813 Y2.815
X3.635 Y2.618
X3.466 Y2.417
X3.307 Y2.208
X3.161 Y1.992
X3.029 Y1.767
X2.91 Y1.534
X2.802 Y1.294
X2.703 Y1.048
X2.527 Y0.544
X2.365 Y0.031
X2.304 Y-0.442
X2.262 Y-0.912
X2.253 Y-1.144
X2.257 Y-1.373
X2.274 Y-1.6
X2.308 Y-1.823
X2.36 Y-2.043
Z4
Z5
X11.851 Y-2.11
Z4
Z-0.5 F150
X11.245 Y-4.967 F300
X17.673 Y-4.965
X19.708 Y-2.108
X11.851 Y-2.11
Z4
Z5
X12.001 Y-1.395
Z4
Z-0.5 F150
X18.429 Y-1.394 F300
X20.464 Y1.464
X12.607 Y1.462
X12.001 Y-1.395
Z4
Z5
X12.764 Y2.176
Z4
Z-0.5 F150
X19.193 Y2.178 F300
X21.228 Y5.036
X13.371 Y5.034
X12.764 Y2.176
Z4
Z5
X27.135 Y9.275
Z4
Z-0.5 F150
X28.581 Y8.489 F300
X30.016 Y7.685
X30.311 Y7.538
X30.598 Y7.379
X31.16 Y7.04
X31.718 Y6.695
X32 Y6.529
X32.288 Y6.371
X32.426 Y6.281
X32.572 Y6.197
X32.881 Y6.043
X33.522 Y5.751
X33.827 Y5.588
X33.969 Y5.498
X34.102 Y5.399
X34.225 Y5.291
X34.335 Y5.171
X34.431 Y5.04
X34.512 Y4.893
X34.438 Y4.83
X34.383 Y4.77
X34.344 Y4.712
X34.321 Y4.657
X34.311 Y4.604
X34.313 Y4.552
X34.347 Y4.451
X34.41 Y4.35
X34.488 Y4.248
X34.569 Y4.14
X34.641 Y4.024
X35.342 Y3.53
X36.038 Y3.024
X36.737 Y2.527
X37.449 Y2.055
X37.468 Y2.018
X37.486 Y1.992
X37.52 Y1.968
X37.551 Y1.973
X37.581 Y1.999
X37.641 Y2.078
X37.672 Y2.113
X37.706 Y2.132
X37.751 Y2.088
X37.793 Y2.056
X37.831 Y2.034
X37.866 Y2.023
X37.928 Y2.026
X37.984 Y2.06
X38.036 Y2.118
X38.089 Y2.194
X38.209 Y2.379
X38.333 Y2.642
X38.473 Y2.898
X38.758 Y3.404
X38.885 Y3.662
X38.988 Y3.928
X39.028 Y4.065
X39.059 Y4.206
X39.079 Y4.35
X39.087 Y4.499
X39.201 Y4.709
X39.315 Y4.935
X39.554 Y5.397
X39.68 Y5.613
X39.814 Y5.807
X39.957 Y5.968
X40.032 Y6.033
X40.11 Y6.086
X40.204 Y6.082
X40.314 Y6.102
X40.431 Y6.145
X40.544 Y6.208
X40.643 Y6.289
X40.717 Y6.384
X40.742 Y6.436
X40.756 Y6.492
X40.76 Y6.549
X40.751 Y6.61
X40.847 Y6.574
X40.918 Y6.562
X40.969 Y6.571
X41.002 Y6.596
X41.021 Y6.636
X41.03 Y6.688
X41.029 Y6.814
X41.027 Y6.95
X41.034 Y7.015
X41.051 Y7.075
X41.081 Y7.125
X41.127 Y7.163
X41.194 Y7.187
X41.284 Y7.193
X41.223 Y7.162
X41.173 Y7.134
X41.103 Y7.083
X41.068 Y7.04
X41.062 Y7.004
X41.082 Y6.977
X41.12 Y6.958
X41.173 Y6.947
X41.233 Y6.945
X41.359 Y6.965
X41.414 Y6.988
X41.456 Y7.02
X41.479 Y7.061
X41.48 Y7.11
X41.451 Y7.169
X41.389 Y7.237
X41.558 Y7.299
X41.712 Y7.365
X41.853 Y7.438
X41.982 Y7.522
X42.099 Y7.621
X42.206 Y7.74
X42.304 Y7.881
X42.394 Y8.05
X42.067 Y8.46
X41.749 Y8.878
X41.121 Y9.722
X41.183 Y11.544
X41.223 Y13.367
X41.243 Y15.19
X41.249 Y17.014
X42.015 Y17.988
X42.387 Y18.484
X42.74 Y18.993
X42.836 Y19.077
X42.91 Y19.154
X42.962 Y19.223
X42.993 Y19.287
X43.007 Y19.343
X43.002 Y19.393
X42.983 Y19.436
X42.949 Y19.473
X42.903 Y19.503
X42.846 Y19.526
X42.779 Y19.543
X42.704 Y19.553
X42.537 Y19.554
X42.356 Y19.529
X42.232 Y19.49
X42.111 Y19.467
X41.993 Y19.458
X41.878 Y19.462
X41.766 Y19.479
X41.657 Y19.507
X41.445 Y19.592
X41.243 Y19.708
X41.049 Y19.847
X40.683 Y20.157
X40.312 Y20.014
X39.952 Y19.848
X39.241 Y19.493
X39.157 Y19.461
X39.078 Y19.406
X39.006 Y19.333
X38.938 Y19.246
X38.813 Y19.045
X38.698 Y18.837
X38.642 Y18.742
X38.586 Y18.657
X38.53 Y18.588
X38.473 Y18.538
X38.413 Y18.513
X38.351 Y18.515
X38.285 Y18.549
X38.214 Y18.621
X37.865 Y18.692
X37.512 Y18.735
X37.157 Y18.757
X36.801 Y18.766
X36.089 Y18.779
X35.734 Y18.8
X35.381 Y18.841
X34.896 Y19.161
X34.416 Y19.499
X33.461 Y20.183
X33.283 Y20.328
X33.19 Y20.389
X33.093 Y20.438
X32.992 Y20.475
X32.886 Y20.497
X32.774 Y20.502
X32.655 Y20.488
X32.445 Y20.501
X32.231 Y20.5
X31.8 Y20.494
X31.59 Y20.51
X31.387 Y20.55
X31.288 Y20.583
X31.193 Y20.626
X31.1 Y20.68
X31.011 Y20.747
X30.762 Y20.8
X30.505 Y20.829
X30.244 Y20.839
X29.98 Y20.837
X29.45 Y20.822
X29.187
X28.928 Y20.834
X28.655 Y20.83
X28.375 Y20.841
X28.1 Y20.839
X27.969 Y20.824
X27.842 Y20.797
X27.787 Y20.725
X27.719 Y20.653
X27.56 Y20.511
X27.389 Y20.369
X27.229 Y20.226
X27.162 Y20.154
X27.107 Y20.081
X27.066 Y20.008
X27.044 Y19.934
X27.042 Y19.86
X27.064 Y19.784
X27.114 Y19.707
X27.193 Y19.629
X27.221 Y19.536
X27.259 Y19.452
X27.362 Y19.305
X27.485 Y19.178
X27.616 Y19.059
X27.739 Y18.935
X27.84 Y18.797
X27.878 Y18.718
X27.904 Y18.63
X27.918 Y18.533
X27.917 Y18.425
X27.898 Y18.329
X27.893 Y18.238
X27.899 Y18.153
X27.916 Y18.072
X27.977 Y17.922
X28.065 Y17.782
X28.281 Y17.511
X28.389 Y17.37
X28.483 Y17.218
X28.587 Y17.018
X28.661 Y16.81
X28.717 Y16.597
X28.764 Y16.381
X28.865 Y15.945
X28.938 Y15.731
X29.039 Y15.522
X29.044 Y15.422
X29.038 Y15.325
X29.001 Y15.134
X28.939 Y14.95
X28.862 Y14.771
X28.701 Y14.427
X28.638 Y14.26
X28.599 Y14.095
X28.475 Y14.047
X28.368 Y13.984
X28.276 Y13.907
X28.197 Y13.82
X28.128 Y13.724
X28.066 Y13.62
X27.955 Y13.402
X27.845 Y13.18
X27.715 Y12.972
X27.637 Y12.879
X27.546 Y12.795
X27.441 Y12.723
X27.318 Y12.664
X27.255 Y12.517
X27.204 Y12.365
X27.123 Y12.057
X27.05 Y11.76
X27.008 Y11.623
X26.958 Y11.496
X27.023 Y11.449
X27.083 Y11.392
X27.191 Y11.258
X27.382 Y10.964
X27.475 Y10.835
X27.524 Y10.782
X27.576 Y10.739
X27.63 Y10.708
X27.688 Y10.692
X27.751 Y10.691
X27.819 Y10.708
X27.805 Y10.769
X27.801 Y10.821
X27.807 Y10.865
X27.822 Y10.902
X27.878 Y10.959
X27.963 Y11
X28.07 Y11.031
X28.194 Y11.06
X28.33 Y11.095
X28.471 Y11.144
X28.585 Y11.054
X28.667 Y10.979
X28.72 Y10.916
X28.745 Y10.866
X28.747 Y10.825
X28.728 Y10.793
X28.691 Y10.769
X28.639 Y10.75
X28.502 Y10.724
X28.34 Y10.705
X28.177 Y10.681
X28.103 Y10.663
X28.037 Y10.64
X28.042 Y10.535
X28.032 Y10.461
X28.008 Y10.414
X27.972 Y10.391
X27.926 Y10.386
X27.873 Y10.397
X27.752 Y10.447
X27.627 Y10.509
X27.568 Y10.535
X27.514 Y10.551
X27.467 Y10.553
X27.43 Y10.539
X27.405 Y10.503
X27.393 Y10.442
X27.295 Y10.368
X27.228 Y10.294
X27.188 Y10.218
X27.171 Y10.142
X27.172 Y10.066
X27.187 Y9.99
X27.241 Y9.838
X27.297 Y9.689
X27.316 Y9.616
X27.322 Y9.544
X27.311 Y9.474
X27.279 Y9.406
X27.222 Y9.339
X27.135 Y9.275
Z4
Z5
X38.927 Y-0.133
Z4
Z-0.5 F150
X38.59 Y-0.198 F300
X38.419 Y-0.243
X38.242 Y-0.297
X38.029 Y-0.372
X37.806 Y-0.462
X37.358 Y-0.674
X37.142 Y-0.791
X36.941 Y-0.911
X36.758 Y-1.031
X36.6 Y-1.149
X36.547 Y-1.193
X36.485 Y-1.246
X36.342 Y-1.378
X36.179 Y-1.534
X36.009 Y-1.703
X35.841 Y-1.874
X35.687 Y-2.037
X35.557 Y-2.18
X35.504 Y-2.24
X35.461 Y-2.292
X35.34 Y-2.456
X35.224 Y-2.632
X35.113 Y-2.819
X35.009 Y-3.014
X34.822 Y-3.425
X34.667 Y-3.852
X34.548 Y-4.282
X34.503 Y-4.494
X34.468 Y-4.702
X34.445 Y-4.905
X34.433 Y-5.1
Y-5.287
X34.445 Y-5.463
X34.475 Y-5.678
X34.513 Y-5.878
X34.561 Y-6.064
X34.62 Y-6.239
X34.689 Y-6.403
X34.77 Y-6.557
X34.863 Y-6.705
X34.968 Y-6.846
X35.043 Y-6.936
X35.103 Y-7.001
X35.149 Y-7.041
X35.183 Y-7.055
X35.206 Y-7.044
X35.218 Y-7.008
X35.223 Y-6.947
X35.219 Y-6.799
X35.22 Y-6.722
X35.223 Y-6.632
X35.228 Y-6.53
X35.245 Y-6.301
X35.268 Y-6.049
X35.295 Y-5.791
X35.326 Y-5.543
X35.358 Y-5.32
X35.374 Y-5.223
X35.39 Y-5.138
X35.446 Y-4.898
X35.516 Y-4.662
X35.599 Y-4.43
X35.694 Y-4.204
X35.801 Y-3.983
X35.92 Y-3.768
X36.05 Y-3.56
X36.191 Y-3.36
X36.342 Y-3.168
X36.504 Y-2.985
X36.674 Y-2.811
X36.853 Y-2.647
X37.041 Y-2.494
X37.236 Y-2.352
X37.439 Y-2.222
X37.65 Y-2.105
X37.921 Y-1.982
X38.207 Y-1.886
X38.509 Y-1.817
X38.823 Y-1.776
X39.15 Y-1.762
X39.486 Y-1.776
X39.832 Y-1.818
X40.185 Y-1.887
X40.453 Y-1.96
X40.713 Y-2.049
X40.963 Y-2.155
X41.204 Y-2.277
X41.435 Y-2.415
X41.655 Y-2.568
X41.864 Y-2.735
X42.061 Y-2.916
X42.246 Y-3.111
X42.419 Y-3.318
X42.578 Y-3.538
X42.723 Y-3.77
X42.854 Y-4.014
X42.971 Y-4.268
X43.072 Y-4.533
X43.157 Y-4.807
X43.217 Y-5.035
X43.266 Y-5.241
X43.304 Y-5.43
X43.333 Y-5.608
X43.361 Y-5.951
X43.364 Y-6.126
X43.359 Y-6.312
X43.331 Y-6.662
X43.275 Y-6.991
X43.188 Y-7.304
X43.069 Y-7.609
X42.914 Y-7.91
X42.821 Y-8.062
X42.72 Y-8.215
X42.607 Y-8.371
X42.484 Y-8.529
X42.35 Y-8.691
X42.205 Y-8.858
X42.13 Y-8.94
X42.045 Y-9.027
X41.951 Y-9.121
X41.845 Y-9.223
X41.728 Y-9.331
X41.6 Y-9.447
X41.461 Y-9.571
X41.31 Y-9.702
X41.146 Y-9.842
X40.97 Y-9.991
X40.781 Y-10.148
X40.579 Y-10.315
X40.364 Y-10.491
X40.134 Y-10.676
X39.891 Y-10.872
X39.501 Y-11.182
X39.379 Y-11.281
X39.157 Y-11.463
X38.956 Y-11.633
X38.765 Y-11.801
X38.575 Y-11.976
X38.372 Y-12.169
X38.264 Y-12.274
X38.148 Y-12.388
X38.024 Y-12.511
X37.891 Y-12.644
X37.733 Y-12.803
X37.591 Y-12.948
X37.462 Y-13.08
X37.345 Y-13.201
X37.24 Y-13.313
X37.145 Y-13.417
X36.979 Y-13.609
X36.836 Y-13.79
X36.707 Y-13.971
X36.579 Y-14.167
X36.442 Y-14.391
X36.402 Y-14.46
X36.356 Y-14.542
X36.253 Y-14.735
X36.141 Y-14.955
X36.026 Y-15.186
X35.915 Y-15.417
X35.816 Y-15.631
X35.772 Y-15.728
X35.734 Y-15.815
X35.703 Y-15.892
X35.678 Y-15.955
X35.646 Y-16.051
X35.614 Y-16.162
X35.582 Y-16.288
X35.551 Y-16.425
X35.491 Y-16.729
X35.436 Y-17.056
X35.389 Y-17.393
X35.353 Y-17.723
X35.329 Y-18.029
X35.322 Y-18.169
X35.32 Y-18.298
X35.321 Y-18.411
X35.324 Y-18.501
X35.328 Y-18.56
X35.33 Y-18.575
X35.333 Y-18.578
X35.338 Y-18.568
X35.349 Y-18.546
X35.365 Y-18.513
X35.385 Y-18.47
X35.435 Y-18.361
X35.493 Y-18.231
X35.648 Y-17.905
X35.83 Y-17.567
X35.935 Y-17.388
X36.05 Y-17.198
X36.178 Y-16.996
X36.32 Y-16.778
X36.437 Y-16.602
X36.548 Y-16.438
X36.759 Y-16.139
X36.961 Y-15.873
X37.163 Y-15.629
X37.373 Y-15.397
X37.599 Y-15.168
X37.85 Y-14.932
X37.988 Y-14.808
X38.136 Y-14.678
X38.348 Y-14.493
X38.445 Y-14.407
X38.52 Y-14.342
X38.562 Y-14.307
X38.626 Y-14.257
X38.71 Y-14.194
X38.811 Y-14.121
X38.924 Y-14.039
X39.047 Y-13.951
X39.31 Y-13.767
X40.36 Y-13.042
X40.452 Y-12.978
X40.559 Y-12.905
X40.804 Y-12.74
X41.063 Y-12.566
X41.305 Y-12.404
X41.541 Y-12.245
X41.758 Y-12.09
X42.159 Y-11.778
X42.352 Y-11.611
X42.549 Y-11.432
X42.754 Y-11.235
X42.973 Y-11.016
X43.199 Y-10.783
X43.407 Y-10.564
X43.597 Y-10.355
X43.771 Y-10.156
X43.93 Y-9.962
X44.077 Y-9.774
X44.211 Y-9.587
X44.336 Y-9.401
X44.559 Y-9.02
X44.757 Y-8.613
X44.851 Y-8.395
X44.942 Y-8.163
X45.033 Y-7.916
X45.125 Y-7.652
X45.215 Y-7.339
X45.284 Y-7
X45.33 Y-6.64
X45.355 Y-6.266
X45.357 Y-5.882
X45.337 Y-5.496
X45.295 Y-5.112
X45.229 Y-4.737
X45.203 Y-4.622
X45.169 Y-4.498
X45.084 Y-4.228
X44.979 Y-3.937
X44.856 Y-3.636
X44.723 Y-3.336
X44.581 Y-3.046
X44.437 Y-2.777
X44.293 Y-2.539
X44.171 Y-2.359
X44.039 Y-2.183
X43.748 Y-1.844
X43.427 Y-1.525
X43.079 Y-1.231
X42.71 Y-0.965
X42.326 Y-0.733
X41.932 Y-0.537
X41.733 Y-0.454
X41.533 Y-0.383
X41.305 Y-0.312
X41.081 Y-0.251
X40.632 Y-0.16
X40.403 Y-0.129
X40.169 Y-0.107
X39.928 Y-0.093
X39.678 Y-0.088
X39.472 Y-0.09
X39.28 Y-0.098
X39.1 Y-0.112
X38.927 Y-0.133
Z4
Z5
X33.895 Y-4.727
Z4
Z-0.5 F150
X33.797 Y-4.557 F300
X33.747 Y-4.472
X33.705 Y-4.402
X33.628 Y-4.29
X33.537 Y-4.183
X33.478 Y-4.119
X33.404 Y-4.042
X33.262 Y-3.907
X33.111 Y-3.785
X32.949 Y-3.675
X32.775 Y-3.577
X32.587 Y-3.489
X32.384 Y-3.412
X32.165 Y-3.345
X31.928 Y-3.286
X31.77 Y-3.257
X31.593 Y-3.235
X31.403 Y-3.221
X31.204 Y-3.215
X30.805 Y-3.226
X30.616 Y-3.242
X30.442 Y-3.267
X30.172 Y-3.327
X29.899 Y-3.41
X29.628 Y-3.516
X29.36 Y-3.643
X29.097 Y-3.791
X28.844 Y-3.957
X28.601 Y-4.14
X28.372 Y-4.34
X28.28 Y-4.431
X28.188 Y-4.533
X28.006 Y-4.764
X27.83 Y-5.023
X27.667 Y-5.304
X27.518 Y-5.596
X27.39 Y-5.894
X27.287 Y-6.188
X27.212 Y-6.47
X27.198 Y-6.55
X27.185 Y-6.64
X27.165 Y-6.845
X27.153 Y-7.075
X27.149 Y-7.318
X27.153 Y-7.565
X27.164 Y-7.804
X27.184 Y-8.026
X27.212 Y-8.22
X27.26 Y-8.47
X27.31 Y-8.687
X27.364 Y-8.878
X27.427 Y-9.055
X27.503 Y-9.225
X27.594 Y-9.399
X27.706 Y-9.586
X27.842 Y-9.795
X28.031 Y-10.067
X28.221 Y-10.312
X28.42 Y-10.536
X28.636 Y-10.748
X28.878 Y-10.956
X29.154 Y-11.167
X29.307 Y-11.276
X29.472 Y-11.388
X29.65 Y-11.506
X29.842 Y-11.629
X30.046 Y-11.758
X30.24 Y-11.881
X30.462 Y-12.023
X30.549 Y-12.079
X30.601 Y-12.113
X30.728 Y-12.194
X31.014 Y-12.374
X31.207 Y-12.495
X31.388 Y-12.609
X31.557 Y-12.716
X31.715 Y-12.816
X31.861 Y-12.91
X31.997 Y-12.998
X32.123 Y-13.08
X32.239 Y-13.156
X32.346 Y-13.227
X32.443 Y-13.293
X32.612 Y-13.41
X32.75 Y-13.509
X32.859 Y-13.593
X33.118 Y-13.807
X33.351 Y-14.016
X33.561 Y-14.222
X33.748 Y-14.424
X33.913 Y-14.626
X34.058 Y-14.828
X34.183 Y-15.032
X34.291 Y-15.238
X34.359 Y-15.386
X34.415 Y-15.521
X34.498 Y-15.775
X34.549 Y-16.03
X34.564 Y-16.169
X34.575 Y-16.32
X34.595 Y-16.667
X34.659 Y-16.542
X34.691 Y-16.472
X34.732 Y-16.373
X34.819 Y-16.143
X34.848 Y-16.056
X34.87 Y-15.979
X34.899 Y-15.829
X34.907 Y-15.741
X34.911 Y-15.636
X34.914 Y-15.505
Y-15.343
Y-15.186
X34.911 Y-15.055
X34.906 Y-14.945
X34.898 Y-14.85
X34.87 Y-14.674
X34.848 Y-14.582
X34.821 Y-14.478
X34.74 Y-14.221
X34.642 Y-13.979
X34.523 Y-13.744
X34.378 Y-13.512
X34.204 Y-13.276
X33.996 Y-13.03
X33.878 Y-12.901
X33.75 Y-12.767
X33.611 Y-12.628
X33.461 Y-12.483
X33.068 Y-12.119
X32.855 Y-11.932
X32.614 Y-11.729
X32.48 Y-11.618
X32.334 Y-11.499
X32.175 Y-11.371
X32.002 Y-11.232
X31.813 Y-11.082
X31.606 Y-10.918
X31.38 Y-10.741
X31.134 Y-10.548
X30.924 Y-10.378
X30.704 Y-10.189
X30.26 Y-9.783
X30.051 Y-9.579
X29.859 Y-9.384
X29.693 Y-9.204
X29.621 Y-9.121
X29.559 Y-9.046
X29.457 Y-8.91
X29.36 Y-8.765
X29.187 Y-8.459
X29.114 Y-8.303
X29.052 Y-8.148
X29.001 Y-7.999
X28.965 Y-7.856
X28.942 Y-7.719
X28.928 Y-7.56
X28.921 Y-7.387
X28.923 Y-7.207
X28.932 Y-7.027
X28.948 Y-6.853
X28.972 Y-6.695
X29.002 Y-6.557
X29.042 Y-6.432
X29.094 Y-6.293
X29.23 Y-5.991
X29.387 Y-5.697
X29.467 Y-5.567
X29.545 Y-5.454
X29.727 Y-5.23
X29.931 Y-5.019
X30.152 Y-4.823
X30.389 Y-4.646
X30.637 Y-4.488
X30.893 Y-4.352
X31.155 Y-4.241
X31.419 Y-4.156
X31.567 Y-4.122
X31.722 Y-4.098
X31.892 Y-4.083
X32.082 Y-4.077
X32.302 Y-4.081
X32.511 Y-4.1
X32.711 Y-4.135
X32.904 Y-4.186
X33.093 Y-4.253
X33.28 Y-4.337
X33.466 Y-4.439
X33.654 Y-4.56
X33.895 Y-4.727
Z4
Z5
X-38.778 Y-0.173
Z4
Z-0.5 F150
Y0.173 F300
X-38.818 Y0.516
X-38.896 Y0.853
X-39.012 Y1.179
X-39.165 Y1.489
X-39.352 Y1.78
X-39.57 Y2.047
X-39.818 Y2.288
X-40.092 Y2.499
X-40.388 Y2.678
X-40.703 Y2.821
X-41.031 Y2.928
X-41.37 Y2.997
X-41.715 Y3.027
X-42.06 Y3.017
X-42.402 Y2.967
X-42.737 Y2.88
X-43.059 Y2.754
X-43.365 Y2.593
X-43.65 Y2.398
X-43.911 Y2.171
X-44.145 Y1.917
X-44.348 Y1.637
X-44.518 Y1.336
X-44.653 Y1.017
X-44.75 Y0.686
X-44.809 Y0.345
X-44.829 Y0
X-44.809 Y-0.345
X-44.75 Y-0.686
X-44.653 Y-1.017
X-44.518 Y-1.336
X-44.348 Y-1.637
X-44.145 Y-1.917
X-43.911 Y-2.171
X-43.65 Y-2.398
X-43.365 Y-2.593
X-43.059 Y-2.754
X-42.737 Y-2.88
X-42.402 Y-2.967
X-42.06 Y-3.017
X-41.715 Y-3.027
X-41.37 Y-2.997
X-41.031 Y-2.928
X-40.703 Y-2.821
X-40.388 Y-2.678
X-40.092 Y-2.499
X-39.818 Y-2.288
X-39.57 Y-2.047
X-39.352 Y-1.78
X-39.165 Y-1.489
X-39.012 Y-1.179
X-38.896 Y-0.853
X-38.818 Y-0.516
X-38.778 Y-0.173
Z4
Z5
X-24.227 Y-4.975
Z4
Z-0.75 F150
X-19.227 Y-4.974 F300
X-18.164 Y0.026
X-21.021
X-21.478 Y-2.117
X-23.621 Y-2.118
X-23.969 Y-1.985
X-24.133 Y-1.912
X-24.284 Y-1.831
X-24.418 Y-1.741
X-24.531 Y-1.638
X-24.619 Y-1.52
X-24.681 Y-1.387
X-24.721 Y-1.241
X-24.74 Y-1.082
X-24.742 Y-0.913
X-24.729 Y-0.736
X-24.705 Y-0.552
X-24.672 Y-0.362
X-24.592 Y0.025
X-24.493 Y0.428
X-24.379 Y0.815
X-24.31 Y0.997
X-24.232 Y1.17
X-24.141 Y1.331
X-24.037 Y1.478
X-23.917 Y1.61
X-23.779 Y1.724
X-23.625 Y1.822
X-23.458 Y1.907
X-23.279 Y1.982
X-23.093 Y2.048
X-22.707 Y2.168
X-19.136 Y2.169
X-17.101 Y5.027
X-22.101 Y5.025
X-23.135 Y4.811
X-23.637 Y4.687
X-24.12 Y4.543
X-24.353 Y4.46
X-24.58 Y4.37
X-24.798 Y4.272
X-25.008 Y4.164
X-25.209 Y4.046
X-25.4 Y3.916
X-25.58 Y3.775
X-25.75 Y3.621
X-25.908 Y3.455
X-26.056 Y3.277
X-26.195 Y3.089
X-26.325 Y2.891
X-26.448 Y2.684
X-26.562 Y2.469
X-26.772 Y2.016
X-26.96 Y1.539
X-27.132 Y1.044
X-27.449 Y0.024
X-27.575 Y-0.979
X-27.617 Y-1.466
X-27.636 Y-1.936
X-27.633 Y-2.163
X-27.622 Y-2.383
X-27.601 Y-2.596
X-27.569 Y-2.801
X-27.524 Y-2.998
X-27.467 Y-3.185
X-27.396 Y-3.363
X-27.31 Y-3.529
X-27.207 Y-3.684
X-27.088 Y-3.827
X-26.952 Y-3.959
X-26.802 Y-4.079
X-26.637 Y-4.189
X-26.459 Y-4.29
X-26.269 Y-4.382
X-26.069 Y-4.467
X-25.859 Y-4.546
X-25.641 Y-4.618
X-25.185 Y-4.748
X-24.711 Y-4.865
X-24.227 Y-4.975
Z4
Z5
X-17.863 Y-4.974
Z4
Z-0.75 F150
X-15.005 Y-4.973 F300
X-14.092 Y-0.687
X-11.97 Y-4.972
X-8.398 Y-4.971
X-10.206 Y-1.729
X-9.773 Y-1.441
X-9.359 Y-1.139
X-9.166 Y-0.977
X-8.985 Y-0.806
X-8.819 Y-0.624
X-8.671 Y-0.43
X-8.54 Y-0.222
X-8.425 Y-0.003
X-8.322 Y0.226
X-8.23 Y0.462
X-8.071 Y0.953
X-7.928 Y1.457
X-7.878 Y2.224
X-7.868 Y2.594
X-7.878 Y2.95
X-7.913 Y3.285
X-7.942 Y3.443
X-7.979 Y3.595
X-8.027 Y3.738
X-8.085 Y3.874
X-8.153 Y4
X-8.234 Y4.118
X-8.328 Y4.225
X-8.433 Y4.322
X-8.55 Y4.41
X-8.678 Y4.49
X-8.815 Y4.562
X-8.961 Y4.627
X-9.277 Y4.739
X-9.619 Y4.829
X-9.981 Y4.904
X-10.736 Y5.028
X-15.736 Y5.027
X-16.343 Y2.17
X-11.343 Y2.171
X-11.192 Y2.146
X-11.051 Y2.113
X-10.932 Y2.063
X-10.883 Y2.029
X-10.843 Y1.988
X-10.814 Y1.94
X-10.793 Y1.884
X-10.774 Y1.755
Y1.61
X-10.786 Y1.457
X-10.841 Y1.303
X-10.903 Y1.157
X-10.978 Y1.028
X-11.073 Y0.924
X-11.193 Y0.849
X-11.334 Y0.8
X-11.488 Y0.767
X-11.65 Y0.742
X-16.65 Y0.741
X-17.863 Y-4.974
Z4
Z5
X-6.753 Y-2.471
Z4
Z-0.75 F150
X-8.177 Y-4.971 F300
X-5.141
X-2 Y0.566
X-1.213 Y-4.97
X1.823 Y-4.969
X0.378 Y5.031
X-2.479 Y5.03
X-6.753 Y-2.471
Z4
Z5
X2.36 Y-2.043
Z4
Z-0.75 F150
X2.43 Y-2.258 F300
X2.515 Y-2.471
X2.612 Y-2.681
X2.834 Y-3.095
X3.076 Y-3.504
X3.413 Y-3.832
X3.758 Y-4.14
X3.936 Y-4.281
X4.12 Y-4.411
X4.311 Y-4.526
X4.509 Y-4.625
X4.715 Y-4.707
X4.929 Y-4.773
X5.148 Y-4.825
X5.373 Y-4.867
X5.833 Y-4.926
X6.302 Y-4.968
X9.159 Y-4.967
X11.194 Y-2.11
X6.908 Y-2.111
X6.51 Y-2.067
X6.32 Y-2.026
X6.14 Y-1.963
X5.973 Y-1.871
X5.818 Y-1.755
X5.526 Y-1.482
X5.326 Y-1.13
X5.248 Y-0.949
X5.196 Y-0.763
X5.174 Y-0.57
X5.177 Y-0.372
X5.222 Y0.032
X5.367 Y0.468
X5.456 Y0.676
X5.564 Y0.872
X5.694 Y1.054
X5.843 Y1.224
X6.172 Y1.546
X6.546 Y1.804
X6.74 Y1.916
X6.941 Y2.008
X7.152 Y2.075
X7.371 Y2.12
X7.821 Y2.175
X10.679 Y2.176
X12.714 Y5.034
X8.428 Y5.033
X7.899 Y4.977
X7.376 Y4.905
X7.119 Y4.858
X6.865 Y4.8
X6.617 Y4.73
X6.374 Y4.645
X6.136 Y4.545
X5.904 Y4.431
X5.677 Y4.305
X5.452 Y4.169
X5.012 Y3.876
X4.578 Y3.567
X4.188 Y3.196
X3.813 Y2.815
X3.635 Y2.618
X3.466 Y2.417
X3.307 Y2.208
X3.161 Y1.992
X3.029 Y1.767
X2.91 Y1.534
X2.802 Y1.294
X2.703 Y1.048
X2.527 Y0.544
X2.365 Y0.031
X2.304 Y-0.442
X2.262 Y-0.912
X2.253 Y-1.144
X2.257 Y-1.373
X2.274 Y-1.6
X2.308 Y-1.823
X2.36 Y-2.043
Z4
Z5
X11.851 Y-2.11
Z4
Z-0.75 F150
X11.245 Y-4.967 F300
X17.673 Y-4.965
X19.708 Y-2.108
X11.851 Y-2.11
Z4
Z5
X12.001 Y-1.395
Z4
Z-0.75 F150
X18.429 Y-1.394 F300
X20.464 Y1.464
X12.607 Y1.462
X12.001 Y-1.395
Z4
Z5
X12.764 Y2.176
Z4
Z-0.75 F150
X19.193 Y2.178 F300
X21.228 Y5.036
X13.371 Y5.034
X12.764 Y2.176
Z4
Z5
X27.135 Y9.275
Z4
Z-0.75 F150
X28.581 Y8.489 F300
X30.016 Y7.685
X30.311 Y7.538
X30.598 Y7.379
X31.16 Y7.04
X31.718 Y6.695
X32 Y6.529
X32.288 Y6.371
X32.426 Y6.281
X32.572 Y6.197
X32.881 Y6.043
X33.522 Y5.751
X33.827 Y5.588
X33.969 Y5.498
X34.102 Y5.399
X34.225 Y5.291
X34.335 Y5.171
X34.431 Y5.04
X34.512 Y4.893
X34.438 Y4.83
X34.383 Y4.77
X34.344 Y4.712
X34.321 Y4.657
X34.311 Y4.604
X34.313 Y4.552
X34.347 Y4.451
X34.41 Y4.35
X34.488 Y4.248
X34.569 Y4.14
X34.641 Y4.024
X35.342 Y3.53
X36.038 Y3.024
X36.737 Y2.527
X37.449 Y2.055
X37.468 Y2.018
X37.486 Y1.992
X37.52 Y1.968
X37.551 Y1.973
X37.581 Y1.999
X37.641 Y2.078
X37.672 Y2.113
X37.706 Y2.132
X37.751 Y2.088
X37.793 Y2.056
X37.831 Y2.034
X37.866 Y2.023
X37.928 Y2.026
X37.984 Y2.06
X38.036 Y2.118
X38.089 Y2.194
X38.209 Y2.379
X38.333 Y2.642
X38.473 Y2.898
X38.758 Y3.404
X38.885 Y3.662
X38.988 Y3.928
X39.028 Y4.065
X39.059 Y4.206
X39.079 Y4.35
X39.087 Y4.499
X39.201 Y4.709
X39.315 Y4.935
X39.554 Y5.397
X39.68 Y5.613
X39.814 Y5.807
X39.957 Y5.968
X40.032 Y6.033
X40.11 Y6.086
X40.204 Y6.082
X40.314 Y6.102
X40.431 Y6.145
X40.544 Y6.208
X40.643 Y6.289
X40.717 Y6.384
X40.742 Y6.436
X40.756 Y6.492
X40.76 Y6.549
X40.751 Y6.61
X40.847 Y6.574
X40.918 Y6.562
X40.969 Y6.571
X41.002 Y6.596
X41.021 Y6.636
X41.03 Y6.688
X41.029 Y6.814
X41.027 Y6.95
X41.034 Y7.015
X41.051 Y7.075
X41.081 Y7.125
X41.127 Y7.163
X41.194 Y7.187
X41.284 Y7.193
X41.223 Y7.162
X41.173 Y7.134
X41.103 Y7.083
X41.068 Y7.04
X41.062 Y7.004
X41.082 Y6.977
X41.12 Y6.958
X41.173 Y6.947
X41.233 Y6.945
X41.359 Y6.965
X41.414 Y6.988
X41.456 Y7.02
X41.479 Y7.061
X41.48 Y7.11
X41.451 Y7.169
X41.389 Y7.237
X41.558 Y7.299
X41.712 Y7.365
X41.853 Y7.438
X41.982 Y7.522
X42.099 Y7.621
X42.206 Y7.74
X42.304 Y7.881
X42.394 Y8.05
X42.067 Y8.46
X41.749 Y8.878
X41.121 Y9.722
X41.183 Y11.544
X41.223 Y13.367
X41.243 Y15.19
X41.249 Y17.014
X42.015 Y17.988
X42.387 Y18.484
X42.74 Y18.993
X42.836 Y19.077
X42.91 Y19.154
X42.962 Y19.223
X42.993 Y19.287
X43.007 Y19.343
X43.002 Y19.393
X42.983 Y19.436
X42.949 Y19.473
X42.903 Y19.503
X42.846 Y19.526
X42.779 Y19.543
X42.704 Y19.553
X42.537 Y19.554
X42.356 Y19.529
X42.232 Y19.49
X42.111 Y19.467
X41.993 Y19.458
X41.878 Y19.462
X41.766 Y19.479
X41.657 Y19.507
X41.445 Y19.592
X41.243 Y19.708
X41.049 Y19.847
X40.683 Y20.157
X40.312 Y20.014
X39.952 Y19.848
X39.241 Y19.493
X39.157 Y19.461
X39.078 Y19.406
X39.006 Y19.333
X38.938 Y19.246
X38.813 Y19.045
X38.698 Y18.837
X38.642 Y18.742
X38.586 Y18.657
X38.53 Y18.588
X38.473 Y18.538
X38.413 Y18.513
X38.351 Y18.515
X38.285 Y18.549
X38.214 Y18.621
X37.865 Y18.692
X37.512 Y18.735
X37.157 Y18.757
X36.801 Y18.766
X36.089 Y18.779
X35.734 Y18.8
X35.381 Y18.841
X34.896 Y19.161
X34.416 Y19.499
X33.461 Y20.183
X33.283 Y20.328
X33.19 Y20.389
X33.093 Y20.438
X32.992 Y20.475
X32.886 Y20.497
X32.774 Y20.502
X32.655 Y20.488
X32.445 Y20.501
X32.231 Y20.5
X31.8 Y20.494
X31.59 Y20.51
X31.387 Y20.55
X31.288 Y20.583
X31.193 Y20.626
X31.1 Y20.68
X31.011 Y20.747
X30.762 Y20.8
X30.505 Y20.829
X30.244 Y20.839
X29.98 Y20.837
X29.45 Y20.822
X29.187
X28.928 Y20.834
X28.655 Y20.83
X28.375 Y20.841
X28.1 Y20.839
X27.969 Y20.824
X27.842 Y20.797
X27.787 Y20.725
X27.719 Y20.653
X27.56 Y20.511
X27.389 Y20.369
X27.229 Y20.226
X27.162 Y20.154
X27.107 Y20.081
X27.066 Y20.008
X27.044 Y19.934
X27.042 Y19.86
X27.064 Y19.784
X27.114 Y19.707
X27.193 Y19.629
X27.221 Y19.536
X27.259 Y19.452
X27.362 Y19.305
X27.485 Y19.178
X27.616 Y19.059
X27.739 Y18.935
X27.84 Y18.797
X27.878 Y18.718
X27.904 Y18.63
X27.918 Y18.533
X27.917 Y18.425
X27.898 Y18.329
X27.893 Y18.238
X27.899 Y18.153
X27.916 Y18.072
X27.977 Y17.922
X28.065 Y17.782
X28.281 Y17.511
X28.389 Y17.37
X28.483 Y17.218
X28.587 Y17.018
X28.661 Y16.81
X28.717 Y16.597
X28.764 Y16.381
X28.865 Y15.945
X28.938 Y15.731
X29.039 Y15.522
X29.044 Y15.422
X29.038 Y15.325
X29.001 Y15.134
X28.939 Y14.95
X28.862 Y14.771
X28.701 Y14.427
X28.638 Y14.26
X28.599 Y14.095
X28.475 Y14.047
X28.368 Y13.984
X28.276 Y13.907
X28.197 Y13.82
X28.128 Y13.724
X28.066 Y13.62
X27.955 Y13.402
X27.845 Y13.18
X27.715 Y12.972
X27.637 Y12.879
X27.546 Y12.795
X27.441 Y12.723
X27.318 Y12.664
X27.255 Y12.517
X27.204 Y12.365
X27.123 Y12.057
X27.05 Y11.76
X27.008 Y11.623
X26.958 Y11.496
X27.023 Y11.449
X27.083 Y11.392
X27.191 Y11.258
X27.382 Y10.964
X27.475 Y10.835
X27.524 Y10.782
X27.576 Y10.739
X27.63 Y10.708
X27.688 Y10.692
X27.751 Y10.691
X27.819 Y10.708
X27.805 Y10.769
X27.801 Y10.821
X27.807 Y10.865
X27.822 Y10.902
X27.878 Y10.959
X27.963 Y11
X28.07 Y11.031
X28.194 Y11.06
X28.33 Y11.095
X28.471 Y11.144
X28.585 Y11.054
X28.667 Y10.979
X28.72 Y10.916
X28.745 Y10.866
X28.747 Y10.825
X28.728 Y10.793
X28.691 Y10.769
X28.639 Y10.75
X28.502 Y10.724
X28.34 Y10.705
X28.177 Y10.681
X28.103 Y10.663
X28.037 Y10.64
X28.042 Y10.535
X28.032 Y10.461
X28.008 Y10.414
X27.972 Y10.391
X27.926 Y10.386
X27.873 Y10.397
X27.752 Y10.447
X27.627 Y10.509
X27.568 Y10.535
X27.514 Y10.551
X27.467 Y10.553
X27.43 Y10.539
X27.405 Y10.503
X27.393 Y10.442
X27.295 Y10.368
X27.228 Y10.294
X27.188 Y10.218
X27.171 Y10.142
X27.172 Y10.066
X27.187 Y9.99
X27.241 Y9.838
X27.297 Y9.689
X27.316 Y9.616
X27.322 Y9.544
X27.311 Y9.474
X27.279 Y9.406
X27.222 Y9.339
X27.135 Y9.275
Z4
Z5
X38.927 Y-0.133
Z4
Z-0.75 F150
X38.59 Y-0.198 F300
X38.419 Y-0.243
X38.242 Y-0.297
X38.029 Y-0.372
X37.806 Y-0.462
X37.358 Y-0.674
X37.142 Y-0.791
X36.941 Y-0.911
X36.758 Y-1.031
X36.6 Y-1.149
X36.547 Y-1.193
X36.485 Y-1.246
X36.342 Y-1.378
X36.179 Y-1.534
X36.009 Y-1.703
X35.841 Y-1.874
X35.687 Y-2.037
X35.557 Y-2.18
X35.504 Y-2.24
X35.461 Y-2.292
X35.34 Y-2.456
X35.224 Y-2.632
X35.113 Y-2.819
X35.009 Y-3.014
X34.822 Y-3.425
X34.667 Y-3.852
X34.548 Y-4.282
X34.503 Y-4.494
X34.468 Y-4.702
X34.445 Y-4.905
X34.433 Y-5.1
Y-5.287
X34.445 Y-5.463
X34.475 Y-5.678
X34.513 Y-5.878
X34.561 Y-6.064
X34.62 Y-6.239
X34.689 Y-6.403
X34.77 Y-6.557
X34.863 Y-6.705
X34.968 Y-6.846
X35.043 Y-6.936
X35.103 Y-7.001
X35.149 Y-7.041
X35.183 Y-7.055
X35.206 Y-7.044
X35.218 Y-7.008
X35.223 Y-6.947
X35.219 Y-6.799
X35.22 Y-6.722
X35.223 Y-6.632
X35.228 Y-6.53
X35.245 Y-6.301
X35.268 Y-6.049
X35.295 Y-5.791
X35.326 Y-5.543
X35.358 Y-5.32
X35.374 Y-5.223
X35.39 Y-5.138
X35.446 Y-4.898
X35.516 Y-4.662
X35.599 Y-4.43
X35.694 Y-4.204
X35.801 Y-3.983
X35.92 Y-3.768
X36.05 Y-3.56
X36.191 Y-3.36
X36.342 Y-3.168
X36.504 Y-2.985
X36.674 Y-2.811
X36.853 Y-2.647
X37.041 Y-2.494
X37.236 Y-2.352
X37.439 Y-2.222
X37.65 Y-2.105
X37.921 Y-1.982
X38.207 Y-1.886
X38.509 Y-1.817
X38.823 Y-1.776
X39.15 Y-1.762
X39.486 Y-1.776
X39.832 Y-1.818
X40.185 Y-1.887
X40.453 Y-1.96
X40.713 Y-2.049
X40.963 Y-2.155
X41.204 Y-2.277
X41.435 Y-2.415
X41.655 Y-2.568
X41.864 Y-2.735
X42.061 Y-2.916
X42.246 Y-3.111
X42.419 Y-3.318
X42.578 Y-3.538
X42.723 Y-3.77
X42.854 Y-4.014
X42.971 Y-4.268
X43.072 Y-4.533
X43.157 Y-4.807
X43.217 Y-5.035
X43.266 Y-5.241
X43.304 Y-5.43
X43.333 Y-5.608
X43.361 Y-5.951
X43.364 Y-6.126
X43.359 Y-6.312
X43.331 Y-6.662
X43.275 Y-6.991
X43.188 Y-7.304
X43.069 Y-7.609
X42.914 Y-7.91
X42.821 Y-8.062
X42.72 Y-8.215
X42.607 Y-8.371
X42.484 Y-8.529
X42.35 Y-8.691
X42.205 Y-8.858
X42.13 Y-8.94
X42.045 Y-9.027
X41.951 Y-9.121
X41.845 Y-9.223
X41.728 Y-9.331
X41.6 Y-9.447
X41.461 Y-9.571
X41.31 Y-9.702
X41.146 Y-9.842
X40.97 Y-9.991
X40.781 Y-10.148
X40.579 Y-10.315
X40.364 Y-10.491
X40.134 Y-10.676
X39.891 Y-10.872
X39.501 Y-11.182
X39.379 Y-11.281
X39.157 Y-11.463
X38.956 Y-11.633
X38.765 Y-11.801
X38.575 Y-11.976
X38.372 Y-12.169
X38.264 Y-12.274
X38.148 Y-12.388
X38.024 Y-12.511
X37.891 Y-12.644
X37.733 Y-12.803
X37.591 Y-12.948
X37.462 Y-13.08
X37.345 Y-13.201
X37.24 Y-13.313
X37.145 Y-13.417
X36.979 Y-13.609
X36.836 Y-13.79
X36.707 Y-13.971
X36.579 Y-14.167
X36.442 Y-14.391
X36.402 Y-14.46
X36.356 Y-14.542
X36.253 Y-14.735
X36.141 Y-14.955
X36.026 Y-15.186
X35.915 Y-15.417
X35.816 Y-15.631
X35.772 Y-15.728
X35.734 Y-15.815
X35.703 Y-15.892
X35.678 Y-15.955
X35.646 Y-16.051
X35.614 Y-16.162
X35.582 Y-16.288
X35.551 Y-16.425
X35.491 Y-16.729
X35.436 Y-17.056
X35.389 Y-17.393
X35.353 Y-17.723
X35.329 Y-18.029
X35.322 Y-18.169
X35.32 Y-18.298
X35.321 Y-18.411
X35.324 Y-18.501
X35.328 Y-18.56
X35.33 Y-18.575
X35.333 Y-18.578
X35.338 Y-18.568
X35.349 Y-18.546
X35.365 Y-18.513
X35.385 Y-18.47
X35.435 Y-18.361
X35.493 Y-18.231
X35.648 Y-17.905
X35.83 Y-17.567
X35.935 Y-17.388
X36.05 Y-17.198
X36.178 Y-16.996
X36.32 Y-16.778
X36.437 Y-16.602
X36.548 Y-16.438
X36.759 Y-16.139
X36.961 Y-15.873
X37.163 Y-15.629
X37.373 Y-15.397
X37.599 Y-15.168
X37.85 Y-14.932
X37.988 Y-14.808
X38.136 Y-14.678
X38.348 Y-14.493
X38.445 Y-14.407
X38.52 Y-14.342
X38.562 Y-14.307
X38.626 Y-14.257
X38.71 Y-14.194
X38.811 Y-14.121
X38.924 Y-14.039
X39.047 Y-13.951
X39.31 Y-13.767
X40.36 Y-13.042
X40.452 Y-12.978
X40.559 Y-12.905
X40.804 Y-12.74
X41.063 Y-12.566
X41.305 Y-12.404
X41.541 Y-12.245
X41.758 Y-12.09
X42.159 Y-11.778
X42.352 Y-11.611
X42.549 Y-11.432
X42.754 Y-11.235
X42.973 Y-11.016
X43.199 Y-10.783
X43.407 Y-10.564
X43.597 Y-10.355
X43.771 Y-10.156
X43.93 Y-9.962
X44.077 Y-9.774
X44.211 Y-9.587
X44.336 Y-9.401
X44.559 Y-9.02
X44.757 Y-8.613
X44.851 Y-8.395
X44.942 Y-8.163
X45.033 Y-7.916
X45.125 Y-7.652
X45.215 Y-7.339
X45.284 Y-7
X45.33 Y-6.64
X45.355 Y-6.266
X45.357 Y-5.882
X45.337 Y-5.496
X45.295 Y-5.112
X45.229 Y-4.737
X45.203 Y-4.622
X45.169 Y-4.498
X45.084 Y-4.228
X44.979 Y-3.937
X44.856 Y-3.636
X44.723 Y-3.336
X44.581 Y-3.046
X44.437 Y-2.777
X44.293 Y-2.539
X44.171 Y-2.359
X44.039 Y-2.183
X43.748 Y-1.844
X43.427 Y-1.525
X43.079 Y-1.231
X42.71 Y-0.965
X42.326 Y-0.733
X41.932 Y-0.537
X41.733 Y-0.454
X41.533 Y-0.383
X41.305 Y-0.312
X41.081 Y-0.251
X40.632 Y-0.16
X40.403 Y-0.129
X40.169 Y-0.107
X39.928 Y-0.093
X39.678 Y-0.088
X39.472 Y-0.09
X39.28 Y-0.098
X39.1 Y-0.112
X38.927 Y-0.133
Z4
Z5
X33.895 Y-4.727
Z4
Z-0.75 F150
X33.797 Y-4.557 F300
X33.747 Y-4.472
X33.705 Y-4.402
X33.628 Y-4.29
X33.537 Y-4.183
X33.478 Y-4.119
X33.404 Y-4.042
X33.262 Y-3.907
X33.111 Y-3.785
X32.949 Y-3.675
X32.775 Y-3.577
X32.587 Y-3.489
X32.384 Y-3.412
X32.165 Y-3.345
X31.928 Y-3.286
X31.77 Y-3.257
X31.593 Y-3.235
X31.403 Y-3.221
X31.204 Y-3.215
X30.805 Y-3.226
X30.616 Y-3.242
X30.442 Y-3.267
X30.172 Y-3.327
X29.899 Y-3.41
X29.628 Y-3.516
X29.36 Y-3.643
X29.097 Y-3.791
X28.844 Y-3.957
X28.601 Y-4.14
X28.372 Y-4.34
X28.28 Y-4.431
X28.188 Y-4.533
X28.006 Y-4.764
X27.83 Y-5.023
X27.667 Y-5.304
X27.518 Y-5.596
X27.39 Y-5.894
X27.287 Y-6.188
X27.212 Y-6.47
X27.198 Y-6.55
X27.185 Y-6.64
X27.165 Y-6.845
X27.153 Y-7.075
X27.149 Y-7.318
X27.153 Y-7.565
X27.164 Y-7.804
X27.184 Y-8.026
X27.212 Y-8.22
X27.26 Y-8.47
X27.31 Y-8.687
X27.364 Y-8.878
X27.427 Y-9.055
X27.503 Y-9.225
X27.594 Y-9.399
X27.706 Y-9.586
X27.842 Y-9.795
X28.031 Y-10.067
X28.221 Y-10.312
X28.42 Y-10.536
X28.636 Y-10.748
X28.878 Y-10.956
X29.154 Y-11.167
X29.307 Y-11.276
X29.472 Y-11.388
X29.65 Y-11.506
X29.842 Y-11.629
X30.046 Y-11.758
X30.24 Y-11.881
X30.462 Y-12.023
X30.549 Y-12.079
X30.601 Y-12.113
X30.728 Y-12.194
X31.014 Y-12.374
X31.207 Y-12.495
X31.388 Y-12.609
X31.557 Y-12.716
X31.715 Y-12.816
X31.861 Y-12.91
X31.997 Y-12.998
X32.123 Y-13.08
X32.239 Y-13.156
X32.346 Y-13.227
X32.443 Y-13.293
X32.612 Y-13.41
X32.75 Y-13.509
X32.859 Y-13.593
X33.118 Y-13.807
X33.351 Y-14.016
X33.561 Y-14.222
X33.748 Y-14.424
X33.913 Y-14.626
X34.058 Y-14.828
X34.183 Y-15.032
X34.291 Y-15.238
X34.359 Y-15.386
X34.415 Y-15.521
X34.498 Y-15.775
X34.549 Y-16.03
X34.564 Y-16.169
X34.575 Y-16.32
X34.595 Y-16.667
X34.659 Y-16.542
X34.691 Y-16.472
X34.732 Y-16.373
X34.819 Y-16.143
X34.848 Y-16.056
X34.87 Y-15.979
X34.899 Y-15.829
X34.907 Y-15.741
X34.911 Y-15.636
X34.914 Y-15.505
Y-15.343
Y-15.186
X34.911 Y-15.055
X34.906 Y-14.945
X34.898 Y-14.85
X34.87 Y-14.674
X34.848 Y-14.582
X34.821 Y-14.478
X34.74 Y-14.221
X34.642 Y-13.979
X34.523 Y-13.744
X34.378 Y-13.512
X34.204 Y-13.276
X33.996 Y-13.03
X33.878 Y-12.901
X33.75 Y-12.767
X33.611 Y-12.628
X33.461 Y-12.483
X33.068 Y-12.119
X32.855 Y-11.932
X32.614 Y-11.729
X32.48 Y-11.618
X32.334 Y-11.499
X32.175 Y-11.371
X32.002 Y-11.232
X31.813 Y-11.082
X31.606 Y-10.918
X31.38 Y-10.741
X31.134 Y-10.548
X30.924 Y-10.378
X30.704 Y-10.189
X30.26 Y-9.783
X30.051 Y-9.579
X29.859 Y-9.384
X29.693 Y-9.204
X29.621 Y-9.121
X29.559 Y-9.046
X29.457 Y-8.91
X29.36 Y-8.765
X29.187 Y-8.459
X29.114 Y-8.303
X29.052 Y-8.148
X29.001 Y-7.999
X28.965 Y-7.856
X28.942 Y-7.719
X28.928 Y-7.56
X28.921 Y-7.387
X28.923 Y-7.207
X28.932 Y-7.027
X28.948 Y-6.853
X28.972 Y-6.695
X29.002 Y-6.557
X29.042 Y-6.432
X29.094 Y-6.293
X29.23 Y-5.991
X29.387 Y-5.697
X29.467 Y-5.567
X29.545 Y-5.454
X29.727 Y-5.23
X29.931 Y-5.019
X30.152 Y-4.823
X30.389 Y-4.646
X30.637 Y-4.488
X30.893 Y-4.352
X31.155 Y-4.241
X31.419 Y-4.156
X31.567 Y-4.122
X31.722 Y-4.098
X31.892 Y-4.083
X32.082 Y-4.077
X32.302 Y-4.081
X32.511 Y-4.1
X32.711 Y-4.135
X32.904 Y-4.186
X33.093 Y-4.253
X33.28 Y-4.337
X33.466 Y-4.439
X33.654 Y-4.56
X33.895 Y-4.727
Z4
Z5
X-38.778 Y-0.173
Z4
Z-0.75 F150
Y0.173 F300
X-38.818 Y0.516
X-38.896 Y0.853
X-39.012 Y1.179
X-39.165 Y1.489
X-39.352 Y1.78
X-39.57 Y2.047
X-39.818 Y2.288
X-40.092 Y2.499
X-40.388 Y2.678
X-40.703 Y2.821
X-41.031 Y2.928
X-41.37 Y2.997
X-41.715 Y3.027
X-42.06 Y3.017
X-42.402 Y2.967
X-42.737 Y2.88
X-43.059 Y2.754
X-43.365 Y2.593
X-43.65 Y2.398
X-43.911 Y2.171
X-44.145 Y1.917
X-44.348 Y1.637
X-44.518 Y1.336
X-44.653 Y1.017
X-44.75 Y0.686
X-44.809 Y0.345
X-44.829 Y0
X-44.809 Y-0.345
X-44.75 Y-0.686
X-44.653 Y-1.017
X-44.518 Y-1.336
X-44.348 Y-1.637
X-44.145 Y-1.917
X-43.911 Y-2.171
X-43.65 Y-2.398
X-43.365 Y-2.593
X-43.059 Y-2.754
X-42.737 Y-2.88
X-42.402 Y-2.967
X-42.06 Y-3.017
X-41.715 Y-3.027
X-41.37 Y-2.997
X-41.031 Y-2.928
X-40.703 Y-2.821
X-40.388 Y-2.678
X-40.092 Y-2.499
X-39.818 Y-2.288
X-39.57 Y-2.047
X-39.352 Y-1.78
X-39.165 Y-1.489
X-39.012 Y-1.179
X-38.896 Y-0.853
X-38.818 Y-0.516
X-38.778 Y-0.173
Z4
Z5
X-24.227 Y-4.975
Z4
Z-1 F150
X-19.227 Y-4.974 F300
X-18.164 Y0.026
X-21.021
X-21.478 Y-2.117
X-23.621 Y-2.118
X-23.969 Y-1.985
X-24.133 Y-1.912
X-24.284 Y-1.831
X-24.418 Y-1.741
X-24.531 Y-1.638
X-24.619 Y-1.52
X-24.681 Y-1.387
X-24.721 Y-1.241
X-24.74 Y-1.082
X-24.742 Y-0.913
X-24.729 Y-0.736
X-24.705 Y-0.552
X-24.672 Y-0.362
X-24.592 Y0.025
X-24.493 Y0.428
X-24.379 Y0.815
X-24.31 Y0.997
X-24.232 Y1.17
X-24.141 Y1.331
X-24.037 Y1.478
X-23.917 Y1.61
X-23.779 Y1.724
X-23.625 Y1.822
X-23.458 Y1.907
X-23.279 Y1.982
X-23.093 Y2.048
X-22.707 Y2.168
X-19.136 Y2.169
X-17.101 Y5.027
X-22.101 Y5.025
X-23.135 Y4.811
X-23.637 Y4.687
X-24.12 Y4.543
X-24.353 Y4.46
X-24.58 Y4.37
X-24.798 Y4.272
X-25.008 Y4.164
X-25.209 Y4.046
X-25.4 Y3.916
X-25.58 Y3.775
X-25.75 Y3.621
X-25.908 Y3.455
X-26.056 Y3.277
X-26.195 Y3.089
X-26.325 Y2.891
X-26.448 Y2.684
X-26.562 Y2.469
X-26.772 Y2.016
X-26.96 Y1.539
X-27.132 Y1.044
X-27.449 Y0.024
X-27.575 Y-0.979
X-27.617 Y-1.466
X-27.636 Y-1.936
X-27.633 Y-2.163
X-27.622 Y-2.383
X-27.601 Y-2.596
X-27.569 Y-2.801
X-27.524 Y-2.998
X-27.467 Y-3.185
X-27.396 Y-3.363
X-27.31 Y-3.529
X-27.207 Y-3.684
X-27.088 Y-3.827
X-26.952 Y-3.959
X-26.802 Y-4.079
X-26.637 Y-4.189
X-26.459 Y-4.29
X-26.269 Y-4.382
X-26.069 Y-4.467
X-25.859 Y-4.546
X-25.641 Y-4.618
X-25.185 Y-4.748
X-24.711 Y-4.865
X-24.227 Y-4.975
Z4
Z5
X-17.863 Y-4.974
Z4
Z-1 F150
X-15.005 Y-4.973 F300
X-14.092 Y-0.687
X-11.97 Y-4.972
X-8.398 Y-4.971
X-10.206 Y-1.729
X-9.773 Y-1.441
X-9.359 Y-1.139
X-9.166 Y-0.977
X-8.985 Y-0.806
X-8.819 Y-0.624
X-8.671 Y-0.43
X-8.54 Y-0.222
X-8.425 Y-0.003
X-8.322 Y0.226
X-8.23 Y0.462
X-8.071 Y0.953
X-7.928 Y1.457
X-7.878 Y2.224
X-7.868 Y2.594
X-7.878 Y2.95
X-7.913 Y3.285
X-7.942 Y3.443
X-7.979 Y3.595
X-8.027 Y3.738
X-8.085 Y3.874
X-8.153 Y4
X-8.234 Y4.118
X-8.328 Y4.225
X-8.433 Y4.322
X-8.55 Y4.41
X-8.678 Y4.49
X-8.815 Y4.562
X-8.961 Y4.627
X-9.277 Y4.739
X-9.619 Y4.829
X-9.981 Y4.904
X-10.736 Y5.028
X-15.736 Y5.027
X-16.343 Y2.17
X-11.343 Y2.171
X-11.192 Y2.146
X-11.051 Y2.113
X-10.932 Y2.063
X-10.883 Y2.029
X-10.843 Y1.988
X-10.814 Y1.94
X-10.793 Y1.884
X-10.774 Y1.755
Y1.61
X-10.786 Y1.457
X-10.841 Y1.303
X-10.903 Y1.157
X-10.978 Y1.028
X-11.073 Y0.924
X-11.193 Y0.849
X-11.334 Y0.8
X-11.488 Y0.767
X-11.65 Y0.742
X-16.65 Y0.741
X-17.863 Y-4.974
Z4
Z5
X-6.753 Y-2.471
Z4
Z-1 F150
X-8.177 Y-4.971 F300
X-5.141
X-2 Y0.566
X-1.213 Y-4.97
X1.823 Y-4.969
X0.378 Y5.031
X-2.479 Y5.03
X-6.753 Y-2.471
Z4
Z5
X2.36 Y-2.043
Z4
Z-1 F150
X2.43 Y-2.258 F300
X2.515 Y-2.471
X2.612 Y-2.681
X2.834 Y-3.095
X3.076 Y-3.504
X3.413 Y-3.832
X3.758 Y-4.14
X3.936 Y-4.281
X4.12 Y-4.411
X4.311 Y-4.526
X4.509 Y-4.625
X4.715 Y-4.707
X4.929 Y-4.773
X5.148 Y-4.825
X5.373 Y-4.867
X5.833 Y-4.926
X6.302 Y-4.968
X9.159 Y-4.967
X11.194 Y-2.11
X6.908 Y-2.111
X6.51 Y-2.067
X6.32 Y-2.026
X6.14 Y-1.963
X5.973 Y-1.871
X5.818 Y-1.755
X5.526 Y-1.482
X5.326 Y-1.13
X5.248 Y-0.949
X5.196 Y-0.763
X5.174 Y-0.57
X5.177 Y-0.372
X5.222 Y0.032
X5.367 Y0.468
X5.456 Y0.676
X5.564 Y0.872
X5.694 Y1.054
X5.843 Y1.224
X6.172 Y1.546
X6.546 Y1.804
X6.74 Y1.916
X6.941 Y2.008
X7.152 Y2.075
X7.371 Y2.12
X7.821 Y2.175
X10.679 Y2.176
X12.714 Y5.034
X8.428 Y5.033
X7.899 Y4.977
X7.376 Y4.905
X7.119 Y4.858
X6.865 Y4.8
X6.617 Y4.73
X6.374 Y4.645
X6.136 Y4.545
X5.904 Y4.431
X5.677 Y4.305
X5.452 Y4.169
X5.012 Y3.876
X4.578 Y3.567
X4.188 Y3.196
X3.813 Y2.815
X3.635 Y2.618
X3.466 Y2.417
X3.307 Y2.208
X3.161 Y1.992
X3.029 Y1.767
X2.91 Y1.534
X2.802 Y1.294
X2.703 Y1.048
X2.527 Y0.544
X2.365 Y0.031
X2.304 Y-0.442
X2.262 Y-0.912
X2.253 Y-1.144
X2.257 Y-1.373
X2.274 Y-1.6
X2.308 Y-1.823
X2.36 Y-2.043
Z4
Z5
X11.851 Y-2.11
Z4
Z-1 F150
X11.245 Y-4.967 F300
X17.673 Y-4.965
X19.708 Y-2.108
X11.851 Y-2.11
Z4
Z5
X12.001 Y-1.395
Z4
Z-1 F150
X18.429 Y-1.394 F300
X20.464 Y1.464
X12.607 Y1.462
X12.001 Y-1.395
Z4
Z5
X12.764 Y2.176
Z4
Z-1 F150
X19.193 Y2.178 F300
X21.228 Y5.036
X13.371 Y5.034
X12.764 Y2.176
Z4
Z5
X27.135 Y9.275
Z4
Z-1 F150
X28.581 Y8.489 F300
X30.016 Y7.685
X30.311 Y7.538
X30.598 Y7.379
X31.16 Y7.04
X31.718 Y6.695
X32 Y6.529
X32.288 Y6.371
X32.426 Y6.281
X32.572 Y6.197
X32.881 Y6.043
X33.522 Y5.751
X33.827 Y5.588
X33.969 Y5.498
X34.102 Y5.399
X34.225 Y5.291
X34.335 Y5.171
X34.431 Y5.04
X34.512 Y4.893
X34.438 Y4.83
X34.383 Y4.77
X34.344 Y4.712
X34.321 Y4.657
X34.311 Y4.604
X34.313 Y4.552
X34.347 Y4.451
X34.41 Y4.35
X34.488 Y4.248
X34.569 Y4.14
X34.641 Y4.024
X35.342 Y3.53
X36.038 Y3.024
X36.737 Y2.527
X37.449 Y2.055
X37.468 Y2.018
X37.486 Y1.992
X37.52 Y1.968
X37.551 Y1.973
X37.581 Y1.999
X37.641 Y2.078
X37.672 Y2.113
X37.706 Y2.132
X37.751 Y2.088
X37.793 Y2.056
X37.831 Y2.034
X37.866 Y2.023
X37.928 Y2.026
X37.984 Y2.06
X38.036 Y2.118
X38.089 Y2.194
X38.209 Y2.379
X38.333 Y2.642
X38.473 Y2.898
X38.758 Y3.404
X38.885 Y3.662
X38.988 Y3.928
X39.028 Y4.065
X39.059 Y4.206
X39.079 Y4.35
X39.087 Y4.499
X39.201 Y4.709
X39.315 Y4.935
X39.554 Y5.397
X39.68 Y5.613
X39.814 Y5.807
X39.957 Y5.968
X40.032 Y6.033
X40.11 Y6.086
X40.204 Y6.082
X40.314 Y6.102
X40.431 Y6.145
X40.544 Y6.208
X40.643 Y6.289
X40.717 Y6.384
X40.742 Y6.436
X40.756 Y6.492
X40.76 Y6.549
X40.751 Y6.61
X40.847 Y6.574
X40.918 Y6.562
X40.969 Y6.571
X41.002 Y6.596
X41.021 Y6.636
X41.03 Y6.688
X41.029 Y6.814
X41.027 Y6.95
X41.034 Y7.015
X41.051 Y7.075
X41.081 Y7.125
X41.127 Y7.163
X41.194 Y7.187
X41.284 Y7.193
X41.223 Y7.162
X41.173 Y7.134
X41.103 Y7.083
X41.068 Y7.04
X41.062 Y7.004
X41.082 Y6.977
X41.12 Y6.958
X41.173 Y6.947
X41.233 Y6.945
X41.359 Y6.965
X41.414 Y6.988
X41.456 Y7.02
X41.479 Y7.061
X41.48 Y7.11
X41.451 Y7.169
X41.389 Y7.237
X41.558 Y7.299
X41.712 Y7.365
X41.853 Y7.438
X41.982 Y7.522
X42.099 Y7.621
X42.206 Y7.74
X42.304 Y7.881
X42.394 Y8.05
X42.067 Y8.46
X41.749 Y8.878
X41.121 Y9.722
X41.183 Y11.544
X41.223 Y13.367
X41.243 Y15.19
X41.249 Y17.014
X42.015 Y17.988
X42.387 Y18.484
X42.74 Y18.993
X42.836 Y19.077
X42.91 Y19.154
X42.962 Y19.223
X42.993 Y19.287
X43.007 Y19.343
X43.002 Y19.393
X42.983 Y19.436
X42.949 Y19.473
X42.903 Y19.503
X42.846 Y19.526
X42.779 Y19.543
X42.704 Y19.553
X42.537 Y19.554
X42.356 Y19.529
X42.232 Y19.49
X42.111 Y19.467
X41.993 Y19.458
X41.878 Y19.462
X41.766 Y19.479
X41.657 Y19.507
X41.445 Y19.592
X41.243 Y19.708
X41.049 Y19.847
X40.683 Y20.157
X40.312 Y20.014
X39.952 Y19.848
X39.241 Y19.493
X39.157 Y19.461
X39.078 Y19.406
X39.006 Y19.333
X38.938 Y19.246
X38.813 Y19.045
X38.698 Y18.837
X38.642 Y18.742
X38.586 Y18.657
X38.53 Y18.588
X38.473 Y18.538
X38.413 Y18.513
X38.351 Y18.515
X38.285 Y18.549
X38.214 Y18.621
X37.865 Y18.692
X37.512 Y18.735
X37.157 Y18.757
X36.801 Y18.766
X36.089 Y18.779
X35.734 Y18.8
X35.381 Y18.841
X34.896 Y19.161
X34.416 Y19.499
X33.461 Y20.183
X33.283 Y20.328
X33.19 Y20.389
X33.093 Y20.438
X32.992 Y20.475
X32.886 Y20.497
X32.774 Y20.502
X32.655 Y20.488
X32.445 Y20.501
X32.231 Y20.5
X31.8 Y20.494
X31.59 Y20.51
X31.387 Y20.55
X31.288 Y20.583
X31.193 Y20.626
X31.1 Y20.68
X31.011 Y20.747
X30.762 Y20.8
X30.505 Y20.829
X30.244 Y20.839
X29.98 Y20.837
X29.45 Y20.822
X29.187
X28.928 Y20.834
X28.655 Y20.83
X28.375 Y20.841
X28.1 Y20.839
X27.969 Y20.824
X27.842 Y20.797
X27.787 Y20.725
X27.719 Y20.653
X27.56 Y20.511
X27.389 Y20.369
X27.229 Y20.226
X27.162 Y20.154
X27.107 Y20.081
X27.066 Y20.008
X27.044 Y19.934
X27.042 Y19.86
X27.064 Y19.784
X27.114 Y19.707
X27.193 Y19.629
X27.221 Y19.536
X27.259 Y19.452
X27.362 Y19.305
X27.485 Y19.178
X27.616 Y19.059
X27.739 Y18.935
X27.84 Y18.797
X27.878 Y18.718
X27.904 Y18.63
X27.918 Y18.533
X27.917 Y18.425
X27.898 Y18.329
X27.893 Y18.238
X27.899 Y18.153
X27.916 Y18.072
X27.977 Y17.922
X28.065 Y17.782
X28.281 Y17.511
X28.389 Y17.37
X28.483 Y17.218
X28.587 Y17.018
X28.661 Y16.81
X28.717 Y16.597
X28.764 Y16.381
X28.865 Y15.945
X28.938 Y15.731
X29.039 Y15.522
X29.044 Y15.422
X29.038 Y15.325
X29.001 Y15.134
X28.939 Y14.95
X28.862 Y14.771
X28.701 Y14.427
X28.638 Y14.26
X28.599 Y14.095
X28.475 Y14.047
X28.368 Y13.984
X28.276 Y13.907
X28.197 Y13.82
X28.128 Y13.724
X28.066 Y13.62
X27.955 Y13.402
X27.845 Y13.18
X27.715 Y12.972
X27.637 Y12.879
X27.546 Y12.795
X27.441 Y12.723
X27.318 Y12.664
X27.255 Y12.517
X27.204 Y12.365
X27.123 Y12.057
X27.05 Y11.76
X27.008 Y11.623
X26.958 Y11.496
X27.023 Y11.449
X27.083 Y11.392
X27.191 Y11.258
X27.382 Y10.964
X27.475 Y10.835
X27.524 Y10.782
X27.576 Y10.739
X27.63 Y10.708
X27.688 Y10.692
X27.751 Y10.691
X27.819 Y10.708
X27.805 Y10.769
X27.801 Y10.821
X27.807 Y10.865
X27.822 Y10.902
X27.878 Y10.959
X27.963 Y11
X28.07 Y11.031
X28.194 Y11.06
X28.33 Y11.095
X28.471 Y11.144
X28.585 Y11.054
X28.667 Y10.979
X28.72 Y10.916
X28.745 Y10.866
X28.747 Y10.825
X28.728 Y10.793
X28.691 Y10.769
X28.639 Y10.75
X28.502 Y10.724
X28.34 Y10.705
X28.177 Y10.681
X28.103 Y10.663
X28.037 Y10.64
X28.042 Y10.535
X28.032 Y10.461
X28.008 Y10.414
X27.972 Y10.391
X27.926 Y10.386
X27.873 Y10.397
X27.752 Y10.447
X27.627 Y10.509
X27.568 Y10.535
X27.514 Y10.551
X27.467 Y10.553
X27.43 Y10.539
X27.405 Y10.503
X27.393 Y10.442
X27.295 Y10.368
X27.228 Y10.294
X27.188 Y10.218
X27.171 Y10.142
X27.172 Y10.066
X27.187 Y9.99
X27.241 Y9.838
X27.297 Y9.689
X27.316 Y9.616
X27.322 Y9.544
X27.311 Y9.474
X27.279 Y9.406
X27.222 Y9.339
X27.135 Y9.275
Z4
Z5
X38.927 Y-0.133
Z4
Z-1 F150
X38.59 Y-0.198 F300
X38.419 Y-0.243
X38.242 Y-0.297
X38.029 Y-0.372
X37.806 Y-0.462
X37.358 Y-0.674
X37.142 Y-0.791
X36.941 Y-0.911
X36.758 Y-1.031
X36.6 Y-1.149
X36.547 Y-1.193
X36.485 Y-1.246
X36.342 Y-1.378
X36.179 Y-1.534
X36.009 Y-1.703
X35.841 Y-1.874
X35.687 Y-2.037
X35.557 Y-2.18
X35.504 Y-2.24
X35.461 Y-2.292
X35.34 Y-2.456
X35.224 Y-2.632
X35.113 Y-2.819
X35.009 Y-3.014
X34.822 Y-3.425
X34.667 Y-3.852
X34.548 Y-4.282
X34.503 Y-4.494
X34.468 Y-4.702
X34.445 Y-4.905
X34.433 Y-5.1
Y-5.287
X34.445 Y-5.463
X34.475 Y-5.678
X34.513 Y-5.878
X34.561 Y-6.064
X34.62 Y-6.239
X34.689 Y-6.403
X34.77 Y-6.557
X34.863 Y-6.705
X34.968 Y-6.846
X35.043 Y-6.936
X35.103 Y-7.001
X35.149 Y-7.041
X35.183 Y-7.055
X35.206 Y-7.044
X35.218 Y-7.008
X35.223 Y-6.947
X35.219 Y-6.799
X35.22 Y-6.722
X35.223 Y-6.632
X35.228 Y-6.53
X35.245 Y-6.301
X35.268 Y-6.049
X35.295 Y-5.791
X35.326 Y-5.543
X35.358 Y-5.32
X35.374 Y-5.223
X35.39 Y-5.138
X35.446 Y-4.898
X35.516 Y-4.662
X35.599 Y-4.43
X35.694 Y-4.204
X35.801 Y-3.983
X35.92 Y-3.768
X36.05 Y-3.56
X36.191 Y-3.36
X36.342 Y-3.168
X36.504 Y-2.985
X36.674 Y-2.811
X36.853 Y-2.647
X37.041 Y-2.494
X37.236 Y-2.352
X37.439 Y-2.222
X37.65 Y-2.105
X37.921 Y-1.982
X38.207 Y-1.886
X38.509 Y-1.817
X38.823 Y-1.776
X39.15 Y-1.762
X39.486 Y-1.776
X39.832 Y-1.818
X40.185 Y-1.887
X40.453 Y-1.96
X40.713 Y-2.049
X40.963 Y-2.155
X41.204 Y-2.277
X41.435 Y-2.415
X41.655 Y-2.568
X41.864 Y-2.735
X42.061 Y-2.916
X42.246 Y-3.111
X42.419 Y-3.318
X42.578 Y-3.538
X42.723 Y-3.77
X42.854 Y-4.014
X42.971 Y-4.268
X43.072 Y-4.533
X43.157 Y-4.807
X43.217 Y-5.035
X43.266 Y-5.241
X43.304 Y-5.43
X43.333 Y-5.608
X43.361 Y-5.951
X43.364 Y-6.126
X43.359 Y-6.312
X43.331 Y-6.662
X43.275 Y-6.991
X43.188 Y-7.304
X43.069 Y-7.609
X42.914 Y-7.91
X42.821 Y-8.062
X42.72 Y-8.215
X42.607 Y-8.371
X42.484 Y-8.529
X42.35 Y-8.691
X42.205 Y-8.858
X42.13 Y-8.94
X42.045 Y-9.027
X41.951 Y-9.121
X41.845 Y-9.223
X41.728 Y-9.331
X41.6 Y-9.447
X41.461 Y-9.571
X41.31 Y-9.702
X41.146 Y-9.842
X40.97 Y-9.991
X40.781 Y-10.148
X40.579 Y-10.315
X40.364 Y-10.491
X40.134 Y-10.676
X39.891 Y-10.872
X39.501 Y-11.182
X39.379 Y-11.281
X39.157 Y-11.463
X38.956 Y-11.633
X38.765 Y-11.801
X38.575 Y-11.976
X38.372 Y-12.169
X38.264 Y-12.274
X38.148 Y-12.388
X38.024 Y-12.511
X37.891 Y-12.644
X37.733 Y-12.803
X37.591 Y-12.948
X37.462 Y-13.08
X37.345 Y-13.201
X37.24 Y-13.313
X37.145 Y-13.417
X36.979 Y-13.609
X36.836 Y-13.79
X36.707 Y-13.971
X36.579 Y-14.167
X36.442 Y-14.391
X36.402 Y-14.46
X36.356 Y-14.542
X36.253 Y-14.735
X36.141 Y-14.955
X36.026 Y-15.186
X35.915 Y-15.417
X35.816 Y-15.631
X35.772 Y-15.728
X35.734 Y-15.815
X35.703 Y-15.892
X35.678 Y-15.955
X35.646 Y-16.051
X35.614 Y-16.162
X35.582 Y-16.288
X35.551 Y-16.425
X35.491 Y-16.729
X35.436 Y-17.056
X35.389 Y-17.393
X35.353 Y-17.723
X35.329 Y-18.029
X35.322 Y-18.169
X35.32 Y-18.298
X35.321 Y-18.411
X35.324 Y-18.501
X35.328 Y-18.56
X35.33 Y-18.575
X35.333 Y-18.578
X35.338 Y-18.568
X35.349 Y-18.546
X35.365 Y-18.513
X35.385 Y-18.47
X35.435 Y-18.361
X35.493 Y-18.231
X35.648 Y-17.905
X35.83 Y-17.567
X35.935 Y-17.388
X36.05 Y-17.198
X36.178 Y-16.996
X36.32 Y-16.778
X36.437 Y-16.602
X36.548 Y-16.438
X36.759 Y-16.139
X36.961 Y-15.873
X37.163 Y-15.629
X37.373 Y-15.397
X37.599 Y-15.168
X37.85 Y-14.932
X37.988 Y-14.808
X38.136 Y-14.678
X38.348 Y-14.493
X38.445 Y-14.407
X38.52 Y-14.342
X38.562 Y-14.307
X38.626 Y-14.257
X38.71 Y-14.194
X38.811 Y-14.121
X38.924 Y-14.039
X39.047 Y-13.951
X39.31 Y-13.767
X40.36 Y-13.042
X40.452 Y-12.978
X40.559 Y-12.905
X40.804 Y-12.74
X41.063 Y-12.566
X41.305 Y-12.404
X41.541 Y-12.245
X41.758 Y-12.09
X42.159 Y-11.778
X42.352 Y-11.611
X42.549 Y-11.432
X42.754 Y-11.235
X42.973 Y-11.016
X43.199 Y-10.783
X43.407 Y-10.564
X43.597 Y-10.355
X43.771 Y-10.156
X43.93 Y-9.962
X44.077 Y-9.774
X44.211 Y-9.587
X44.336 Y-9.401
X44.559 Y-9.02
X44.757 Y-8.613
X44.851 Y-8.395
X44.942 Y-8.163
X45.033 Y-7.916
X45.125 Y-7.652
X45.215 Y-7.339
X45.284 Y-7
X45.33 Y-6.64
X45.355 Y-6.266
X45.357 Y-5.882
X45.337 Y-5.496
X45.295 Y-5.112
X45.229 Y-4.737
X45.203 Y-4.622
X45.169 Y-4.498
X45.084 Y-4.228
X44.979 Y-3.937
X44.856 Y-3.636
X44.723 Y-3.336
X44.581 Y-3.046
X44.437 Y-2.777
X44.293 Y-2.539
X44.171 Y-2.359
X44.039 Y-2.183
X43.748 Y-1.844
X43.427 Y-1.525
X43.079 Y-1.231
X42.71 Y-0.965
X42.326 Y-0.733
X41.932 Y-0.537
X41.733 Y-0.454
X41.533 Y-0.383
X41.305 Y-0.312
X41.081 Y-0.251
X40.632 Y-0.16
X40.403 Y-0.129
X40.169 Y-0.107
X39.928 Y-0.093
X39.678 Y-0.088
X39.472 Y-0.09
X39.28 Y-0.098
X39.1 Y-0.112
X38.927 Y-0.133
Z4
Z5
X33.895 Y-4.727
Z4
Z-1 F150
X33.797 Y-4.557 F300
X33.747 Y-4.472
X33.705 Y-4.402
X33.628 Y-4.29
X33.537 Y-4.183
X33.478 Y-4.119
X33.404 Y-4.042
X33.262 Y-3.907
X33.111 Y-3.785
X32.949 Y-3.675
X32.775 Y-3.577
X32.587 Y-3.489
X32.384 Y-3.412
X32.165 Y-3.345
X31.928 Y-3.286
X31.77 Y-3.257
X31.593 Y-3.235
X31.403 Y-3.221
X31.204 Y-3.215
X30.805 Y-3.226
X30.616 Y-3.242
X30.442 Y-3.267
X30.172 Y-3.327
X29.899 Y-3.41
X29.628 Y-3.516
X29.36 Y-3.643
X29.097 Y-3.791
X28.844 Y-3.957
X28.601 Y-4.14
X28.372 Y-4.34
X28.28 Y-4.431
X28.188 Y-4.533
X28.006 Y-4.764
X27.83 Y-5.023
X27.667 Y-5.304
X27.518 Y-5.596
X27.39 Y-5.894
X27.287 Y-6.188
X27.212 Y-6.47
X27.198 Y-6.55
X27.185 Y-6.64
X27.165 Y-6.845
X27.153 Y-7.075
X27.149 Y-7.318
X27.153 Y-7.565
X27.164 Y-7.804
X27.184 Y-8.026
X27.212 Y-8.22
X27.26 Y-8.47
X27.31 Y-8.687
X27.364 Y-8.878
X27.427 Y-9.055
X27.503 Y-9.225
X27.594 Y-9.399
X27.706 Y-9.586
X27.842 Y-9.795
X28.031 Y-10.067
X28.221 Y-10.312
X28.42 Y-10.536
X28.636 Y-10.748
X28.878 Y-10.956
X29.154 Y-11.167
X29.307 Y-11.276
X29.472 Y-11.388
X29.65 Y-11.506
X29.842 Y-11.629
X30.046 Y-11.758
X30.24 Y-11.881
X30.462 Y-12.023
X30.549 Y-12.079
X30.601 Y-12.113
X30.728 Y-12.194
X31.014 Y-12.374
X31.207 Y-12.495
X31.388 Y-12.609
X31.557 Y-12.716
X31.715 Y-12.816
X31.861 Y-12.91
X31.997 Y-12.998
X32.123 Y-13.08
X32.239 Y-13.156
X32.346 Y-13.227
X32.443 Y-13.293
X32.612 Y-13.41
X32.75 Y-13.509
X32.859 Y-13.593
X33.118 Y-13.807
X33.351 Y-14.016
X33.561 Y-14.222
X33.748 Y-14.424
X33.913 Y-14.626
X34.058 Y-14.828
X34.183 Y-15.032
X34.291 Y-15.238
X34.359 Y-15.386
X34.415 Y-15.521
X34.498 Y-15.775
X34.549 Y-16.03
X34.564 Y-16.169
X34.575 Y-16.32
X34.595 Y-16.667
X34.659 Y-16.542
X34.691 Y-16.472
X34.732 Y-16.373
X34.819 Y-16.143
X34.848 Y-16.056
X34.87 Y-15.979
X34.899 Y-15.829
X34.907 Y-15.741
X34.911 Y-15.636
X34.914 Y-15.505
Y-15.343
Y-15.186
X34.911 Y-15.055
X34.906 Y-14.945
X34.898 Y-14.85
X34.87 Y-14.674
X34.848 Y-14.582
X34.821 Y-14.478
X34.74 Y-14.221
X34.642 Y-13.979
X34.523 Y-13.744
X34.378 Y-13.512
X34.204 Y-13.276
X33.996 Y-13.03
X33.878 Y-12.901
X33.75 Y-12.767
X33.611 Y-12.628
X33.461 Y-12.483
X33.068 Y-12.119
X32.855 Y-11.932
X32.614 Y-11.729
X32.48 Y-11.618
X32.334 Y-11.499
X32.175 Y-11.371
X32.002 Y-11.232
X31.813 Y-11.082
X31.606 Y-10.918
X31.38 Y-10.741
X31.134 Y-10.548
X30.924 Y-10.378
X30.704 Y-10.189
X30.26 Y-9.783
X30.051 Y-9.579
X29.859 Y-9.384
X29.693 Y-9.204
X29.621 Y-9.121
X29.559 Y-9.046
X29.457 Y-8.91
X29.36 Y-8.765
X29.187 Y-8.459
X29.114 Y-8.303
X29.052 Y-8.148
X29.001 Y-7.999
X28.965 Y-7.856
X28.942 Y-7.719
X28.928 Y-7.56
X28.921 Y-7.387
X28.923 Y-7.207
X28.932 Y-7.027
X28.948 Y-6.853
X28.972 Y-6.695
X29.002 Y-6.557
X29.042 Y-6.432
X29.094 Y-6.293
X29.23 Y-5.991
X29.387 Y-5.697
X29.467 Y-5.567
X29.545 Y-5.454
X29.727 Y-5.23
X29.931 Y-5.019
X30.152 Y-4.823
X30.389 Y-4.646
X30.637 Y-4.488
X30.893 Y-4.352
X31.155 Y-4.241
X31.419 Y-4.156
X31.567 Y-4.122
X31.722 Y-4.098
X31.892 Y-4.083
X32.082 Y-4.077
X32.302 Y-4.081
X32.511 Y-4.1
X32.711 Y-4.135
X32.904 Y-4.186
X33.093 Y-4.253
X33.28 Y-4.337
X33.466 Y-4.439
X33.654 Y-4.56
X33.895 Y-4.727
Z4
Z5
X-38.778 Y-0.173
Z4
Z-1 F150
Y0.173 F300
X-38.818 Y0.516
X-38.896 Y0.853
X-39.012 Y1.179
X-39.165 Y1.489
X-39.352 Y1.78
X-39.57 Y2.047
X-39.818 Y2.288
X-40.092 Y2.499
X-40.388 Y2.678
X-40.703 Y2.821
X-41.031 Y2.928
X-41.37 Y2.997
X-41.715 Y3.027
X-42.06 Y3.017
X-42.402 Y2.967
X-42.737 Y2.88
X-43.059 Y2.754
X-43.365 Y2.593
X-43.65 Y2.398
X-43.911 Y2.171
X-44.145 Y1.917
X-44.348 Y1.637
X-44.518 Y1.336
X-44.653 Y1.017
X-44.75 Y0.686
X-44.809 Y0.345
X-44.829 Y0
X-44.809 Y-0.345
X-44.75 Y-0.686
X-44.653 Y-1.017
X-44.518 Y-1.336
X-44.348 Y-1.637
X-44.145 Y-1.917
X-43.911 Y-2.171
X-43.65 Y-2.398
X-43.365 Y-2.593
X-43.059 Y-2.754
X-42.737 Y-2.88
X-42.402 Y-2.967
X-42.06 Y-3.017
X-41.715 Y-3.027
X-41.37 Y-2.997
X-41.031 Y-2.928
X-40.703 Y-2.821
X-40.388 Y-2.678
X-40.092 Y-2.499
X-39.818 Y-2.288
X-39.57 Y-2.047
X-39.352 Y-1.78
X-39.165 Y-1.489
X-39.012 Y-1.179
X-38.896 Y-0.853
X-38.818 Y-0.516
X-38.778 Y-0.173
Z4
Z15
(When using Fusion 360 for Personal Use, the feedrate of)
(rapid moves is reduced to match the feedrate of cutting)
(moves, which can increase machining time. Unrestricted rapid)
(moves are available with a Fusion 360 Subscription.)

(Trace3)
G0 X37.472 Y-25
G1 Z15 F300
Z4
Z0.2 F150
X-22.457 F300
X-23.138 Y-24.981
X-23.817 Y-24.923
X-24.491 Y-24.826
X-25.159 Y-24.692
X-25.818 Y-24.52
X-26.467 Y-24.31
X-27.102 Y-24.064
X-27.722 Y-23.783
X-28.326 Y-23.467
X-28.911 Y-23.117
X-29.474 Y-22.734
X-30.015 Y-22.32
X-30.532 Y-21.876
X-31.023 Y-21.403
X-31.486 Y-20.904
X-31.92 Y-20.378
X-38.857 Y-14.356
X-39.582 Y-14.114
X-40.294 Y-13.834
X-40.991 Y-13.519
X-41.671 Y-13.169
X-42.332 Y-12.785
X-42.972 Y-12.367
X-43.591 Y-11.917
X-44.186 Y-11.437
X-44.756 Y-10.927
X-45.299 Y-10.388
X-45.813 Y-9.823
X-46.299 Y-9.232
X-46.753 Y-8.617
X-47.176 Y-7.98
X-47.566 Y-7.322
X-47.922 Y-6.645
X-48.243 Y-5.951
X-48.528 Y-5.241
X-48.776 Y-4.518
X-48.988 Y-3.783
X-49.161 Y-3.038
X-49.297 Y-2.286
X-49.394 Y-1.527
X-49.453 Y-0.764
X-49.472 Y0
X-49.453 Y0.764
X-49.394 Y1.527
X-49.297 Y2.286
X-49.161 Y3.038
X-48.988 Y3.783
X-48.776 Y4.518
X-48.528 Y5.241
X-48.243 Y5.951
X-47.922 Y6.645
X-47.566 Y7.322
X-47.176 Y7.98
X-46.753 Y8.617
X-46.299 Y9.232
X-45.813 Y9.823
X-45.299 Y10.388
X-44.756 Y10.927
X-44.186 Y11.437
X-43.591 Y11.917
X-42.972 Y12.367
X-42.332 Y12.785
X-41.671 Y13.169
X-40.991 Y13.519
X-40.294 Y13.834
X-39.582 Y14.114
X-38.857 Y14.356
X-31.92 Y20.378
X-31.486 Y20.904
X-31.023 Y21.403
X-30.532 Y21.876
X-30.015 Y22.32
X-29.474 Y22.734
X-28.911 Y23.117
X-28.326 Y23.467
X-27.722 Y23.783
X-27.102 Y24.064
X-26.467 Y24.31
X-25.818 Y24.52
X-25.159 Y24.692
X-24.491 Y24.826
X-23.817 Y24.923
X-23.138 Y24.981
X-22.457 Y25
X37.472
X38.145 Y24.981
X38.816 Y24.924
X39.482 Y24.83
X40.142 Y24.699
X40.794 Y24.531
X41.435 Y24.327
X42.064 Y24.087
X42.679 Y23.812
X43.277 Y23.503
X43.856 Y23.161
X44.416 Y22.787
X44.954 Y22.382
X45.468 Y21.948
X45.957 Y21.485
X46.42 Y20.996
X46.854 Y20.482
X47.259 Y19.944
X47.633 Y19.384
X47.975 Y18.805
X48.284 Y18.207
X48.559 Y17.592
X48.799 Y16.963
X49.003 Y16.322
X49.171 Y15.67
X49.303 Y15.01
X49.397 Y14.344
X49.453 Y13.673
X49.472 Y13
Y-13
X49.453 Y-13.673
X49.397 Y-14.344
X49.303 Y-15.01
X49.171 Y-15.67
X49.003 Y-16.322
X48.799 Y-16.963
X48.559 Y-17.592
X48.284 Y-18.207
X47.975 Y-18.805
X47.633 Y-19.384
X47.259 Y-19.944
X46.854 Y-20.482
X46.42 Y-20.996
X45.957 Y-21.485
X45.468 Y-21.948
X44.954 Y-22.382
X44.416 Y-22.787
X43.856 Y-23.161
X43.277 Y-23.503
X42.679 Y-23.812
X42.064 Y-24.087
X41.435 Y-24.327
X40.794 Y-24.531
X40.142 Y-24.699
X39.482 Y-24.83
X38.816 Y-24.924
X38.145 Y-24.981
X37.472 Y-25
Z-0.1 F150
X-22.457 F300
X-23.138 Y-24.981
X-23.817 Y-24.923
X-24.491 Y-24.826
X-25.159 Y-24.692
X-25.818 Y-24.52
X-26.467 Y-24.31
X-27.102 Y-24.064
X-27.722 Y-23.783
X-28.326 Y-23.467
X-28.911 Y-23.117
X-29.474 Y-22.734
X-30.015 Y-22.32
X-30.532 Y-21.876
X-31.023 Y-21.403
X-31.486 Y-20.904
X-31.92 Y-20.378
X-38.857 Y-14.356
X-39.582 Y-14.114
X-40.294 Y-13.834
X-40.991 Y-13.519
X-41.671 Y-13.169
X-42.332 Y-12.785
X-42.972 Y-12.367
X-43.591 Y-11.917
X-44.186 Y-11.437
X-44.756 Y-10.927
X-45.299 Y-10.388
X-45.813 Y-9.823
X-46.299 Y-9.232
X-46.753 Y-8.617
X-47.176 Y-7.98
X-47.566 Y-7.322
X-47.922 Y-6.645
X-48.243 Y-5.951
X-48.528 Y-5.241
X-48.776 Y-4.518
X-48.988 Y-3.783
X-49.161 Y-3.038
X-49.297 Y-2.286
X-49.394 Y-1.527
X-49.453 Y-0.764
X-49.472 Y0
X-49.453 Y0.764
X-49.394 Y1.527
X-49.297 Y2.286
X-49.161 Y3.038
X-48.988 Y3.783
X-48.776 Y4.518
X-48.528 Y5.241
X-48.243 Y5.951
X-47.922 Y6.645
X-47.566 Y7.322
X-47.176 Y7.98
X-46.753 Y8.617
X-46.299 Y9.232
X-45.813 Y9.823
X-45.299 Y10.388
X-44.756 Y10.927
X-44.186 Y11.437
X-43.591 Y11.917
X-42.972 Y12.367
X-42.332 Y12.785
X-41.671 Y13.169
X-40.991 Y13.519
X-40.294 Y13.834
X-39.582 Y14.114
X-38.857 Y14.356
X-31.92 Y20.378
X-31.486 Y20.904
X-31.023 Y21.403
X-30.532 Y21.876
X-30.015 Y22.32
X-29.474 Y22.734
X-28.911 Y23.117
X-28.326 Y23.467
X-27.722 Y23.783
X-27.102 Y24.064
X-26.467 Y24.31
X-25.818 Y24.52
X-25.159 Y24.692
X-24.491 Y24.826
X-23.817 Y24.923
X-23.138 Y24.981
X-22.457 Y25
X37.472
X38.145 Y24.981
X38.816 Y24.924
X39.482 Y24.83
X40.142 Y24.699
X40.794 Y24.531
X41.435 Y24.327
X42.064 Y24.087
X42.679 Y23.812
X43.277 Y23.503
X43.856 Y23.161
X44.416 Y22.787
X44.954 Y22.382
X45.468 Y21.948
X45.957 Y21.485
X46.42 Y20.996
X46.854 Y20.482
X47.259 Y19.944
X47.633 Y19.384
X47.975 Y18.805
X48.284 Y18.207
X48.559 Y17.592
X48.799 Y16.963
X49.003 Y16.322
X49.171 Y15.67
X49.303 Y15.01
X49.397 Y14.344
X49.453 Y13.673
X49.472 Y13
Y-13
X49.453 Y-13.673
X49.397 Y-14.344
X49.303 Y-15.01
X49.171 Y-15.67
X49.003 Y-16.322
X48.799 Y-16.963
X48.559 Y-17.592
X48.284 Y-18.207
X47.975 Y-18.805
X47.633 Y-19.384
X47.259 Y-19.944
X46.854 Y-20.482
X46.42 Y-20.996
X45.957 Y-21.485
X45.468 Y-21.948
X44.954 Y-22.382
X44.416 Y-22.787
X43.856 Y-23.161
X43.277 Y-23.503
X42.679 Y-23.812
X42.064 Y-24.087
X41.435 Y-24.327
X40.794 Y-24.531
X40.142 Y-24.699
X39.482 Y-24.83
X38.816 Y-24.924
X38.145 Y-24.981
X37.472 Y-25
Z-0.4 F150
X-22.457 F300
X-23.138 Y-24.981
X-23.817 Y-24.923
X-24.491 Y-24.826
X-25.159 Y-24.692
X-25.818 Y-24.52
X-26.467 Y-24.31
X-27.102 Y-24.064
X-27.722 Y-23.783
