(1001)
(Machine)
(  vendor: Autodesk)
(  model: Generic 3-axis)
(  description: This machine has XYZ axis on the Head)
(T3 D=3.1 CR=0 - ZMIN=0 - flat end mill)
G90 G94
G17
G21
(-Attention- Property Safe Retracts is set to Clearance Height.)
(Ensure the clearance height will clear the part and or fixtures.)
(Raise the Z-axis to a safe height before starting the program.)
(When using Fusion 360 for Personal Use, the feedrate of)
(rapid moves is reduced to match the feedrate of cutting)
(moves, which can increase machining time. Unrestricted rapid)
(moves are available with a Fusion 360 Subscription.)

(Trace2)
T3
S24000 M3
G17 G90 G94
G54
M8
G0 X-37.877 Y-14.988
Z15
G1 Z5 F300
Z0.75 F150
X-35.377 Y-14.987 F300
X-34.846 Y-12.487
X-36.274
X-36.503 Y-13.559
X-37.574
X-37.749 Y-13.492
X-37.906 Y-13.416
X-37.973 Y-13.37
X-38.03 Y-13.319
X-38.074 Y-13.26
X-38.105 Y-13.194
X-38.124 Y-13.12
X-38.134 Y-13.041
X-38.129 Y-12.868
X-38.1 Y-12.681
X-38.06 Y-12.488
X-38.011 Y-12.286
X-37.953 Y-12.093
X-37.88 Y-11.915
X-37.783 Y-11.761
X-37.722 Y-11.695
X-37.653 Y-11.638
X-37.493 Y-11.546
X-37.311 Y-11.476
X-37.118 Y-11.416
X-35.332 Y-11.415
X-34.314 Y-9.987
X-36.814
X-37.331 Y-10.094
X-37.582 Y-10.156
X-37.824 Y-10.229
X-38.054 Y-10.315
X-38.268 Y-10.418
X-38.464 Y-10.542
X-38.639 Y-10.69
X-38.792 Y-10.861
X-38.927 Y-11.054
X-39.045 Y-11.266
X-39.15 Y-11.492
X-39.244 Y-11.73
X-39.33 Y-11.978
X-39.489 Y-12.488
X-39.551 Y-12.989
X-39.573 Y-13.233
X-39.582 Y-13.468
X-39.575 Y-13.691
X-39.548 Y-13.901
X-39.498 Y-14.093
X-39.419 Y-14.265
X-39.368 Y-14.342
X-39.308 Y-14.414
X-39.165 Y-14.539
X-38.993 Y-14.645
X-38.798 Y-14.734
X-38.584 Y-14.809
X-38.357 Y-14.874
X-37.877 Y-14.988
Z5
X-34.695 Y-14.987
Z0.75 F150
X-33.267 Y-14.986 F300
X-32.81 Y-12.844
X-31.749 Y-14.986
X-29.963
X-30.867 Y-13.365
X-30.65 Y-13.221
X-30.443 Y-13.069
X-30.257 Y-12.903
X-30.174 Y-12.812
X-30.1 Y-12.715
X-29.976 Y-12.502
X-29.879 Y-12.269
X-29.799 Y-12.023
X-29.728 Y-11.771
X-29.703 Y-11.388
X-29.698 Y-11.203
X-29.703 Y-11.025
X-29.72 Y-10.858
X-29.754 Y-10.703
X-29.806 Y-10.563
X-29.881 Y-10.441
X-29.981 Y-10.339
X-30.103 Y-10.255
X-30.245 Y-10.186
X-30.403 Y-10.131
X-30.574 Y-10.085
X-30.754 Y-10.048
X-31.132 Y-9.986
X-33.632 Y-9.987
X-33.935 Y-11.415
X-31.435
X-31.29 Y-11.444
X-31.23 Y-11.469
X-31.186 Y-11.506
X-31.16 Y-11.558
X-31.151 Y-11.623
X-31.157 Y-11.772
X-31.215 Y-11.921
X-31.253 Y-11.986
X-31.301 Y-12.038
X-31.361 Y-12.075
X-31.431 Y-12.1
X-31.589 Y-12.129
X-34.089 Y-12.13
X-34.695 Y-14.987
Z5
X-29.14 Y-13.736
Z0.75 F150
X-29.852 Y-14.986 F300
X-28.335 Y-14.985
X-26.764 Y-12.217
X-26.37 Y-14.985
X-24.852 Y-14.984
X-25.575 Y-9.985
X-27.004
X-29.14 Y-13.736
Z5
X-24.61 Y-13.412
Z0.75 F150
X-24.549 Y-13.629 F300
X-24.458 Y-13.84
X-24.347 Y-14.047
X-24.226 Y-14.252
X-24.058 Y-14.416
X-23.885 Y-14.57
X-23.704 Y-14.705
X-23.509 Y-14.813
X-23.3 Y-14.886
X-23.078 Y-14.934
X-22.613 Y-14.984
X-21.185
X-20.167 Y-13.555
X-22.31
X-22.509 Y-13.534
X-22.604 Y-13.513
X-22.694 Y-13.481
X-22.777 Y-13.436
X-22.855 Y-13.377
X-23.001 Y-13.241
X-23.101 Y-13.065
X-23.14 Y-12.974
X-23.166 Y-12.881
X-23.177 Y-12.785
X-23.176 Y-12.686
X-23.153 Y-12.484
X-23.08 Y-12.266
X-23.036 Y-12.162
X-22.982 Y-12.064
X-22.917 Y-11.973
X-22.842 Y-11.888
X-22.678 Y-11.727
X-22.491 Y-11.598
X-22.394 Y-11.542
X-22.293 Y-11.496
X-22.188 Y-11.462
X-22.079 Y-11.44
X-21.853 Y-11.412
X-20.425
X-19.407 Y-9.983
X-21.55 Y-9.984
X-22.076 Y-10.047
X-22.331 Y-10.1
X-22.577 Y-10.178
X-22.812 Y-10.285
X-23.038 Y-10.415
X-23.475 Y-10.716
X-23.858 Y-11.093
X-24.031 Y-11.292
X-24.183 Y-11.504
X-24.309 Y-11.733
X-24.412 Y-11.976
X-24.582 Y-12.484
X-24.633 Y-12.956
X-24.635 Y-13.187
X-24.61 Y-13.412
Z5
X-19.838 Y-13.555
Z0.75 F150
X-20.142 Y-14.983 F300
X-16.927
X-15.91 Y-13.554
X-19.838 Y-13.555
Z5
X-19.764 Y-13.198
Z0.75 F150
X-16.549 Y-13.197 F300
X-15.532 Y-11.768
X-19.46 Y-11.769
X-19.764 Y-13.198
Z5
X-19.382 Y-11.412
Z0.75 F150
X-16.168 Y-11.411 F300
X-15.15 Y-9.982
X-19.079 Y-9.983
X-19.382 Y-11.412
Z5
X-12.196 Y-7.863
Z0.75 F150
X-11.474 Y-8.255 F300
X-10.756 Y-8.657
X-10.465 Y-8.81
X-10.184 Y-8.98
X-9.905 Y-9.153
X-9.62 Y-9.315
X-9.478 Y-9.402
X-9.323 Y-9.478
X-9.003 Y-9.625
X-8.851 Y-9.706
X-8.713 Y-9.8
X-8.596 Y-9.914
X-8.548 Y-9.98
X-8.508 Y-10.053
X-8.573 Y-10.115
X-8.603 Y-10.172
X-8.607 Y-10.224
X-8.59 Y-10.275
X-8.52 Y-10.376
X-8.444 Y-10.488
X-7.745 Y-10.988
X-7.396 Y-11.237
X-7.039 Y-11.472
X-7.021 Y-11.504
X-7.004 Y-11.516
X-6.989 Y-11.513
X-6.974 Y-11.5
X-6.944 Y-11.461
X-6.911 Y-11.434
X-6.868 Y-11.472
X-6.831 Y-11.489
X-6.8 Y-11.487
X-6.772 Y-11.47
X-6.719 Y-11.403
X-6.66 Y-11.311
X-6.528 Y-11.051
X-6.385 Y-10.798
X-6.321 Y-10.669
X-6.27 Y-10.536
X-6.234 Y-10.397
X-6.22 Y-10.25
X-6.106 Y-10.033
X-5.987 Y-9.802
X-5.924 Y-9.693
X-5.857 Y-9.597
X-5.785 Y-9.516
X-5.709 Y-9.457
X-5.662 Y-9.459
X-5.607 Y-9.449
X-5.548 Y-9.427
X-5.492 Y-9.396
X-5.443 Y-9.356
X-5.406 Y-9.308
X-5.386 Y-9.254
X-5.389 Y-9.195
X-5.341 Y-9.213
X-5.305 Y-9.219
X-5.28 Y-9.215
X-5.263 Y-9.202
X-5.249 Y-9.156
Y-9.093
X-5.25 Y-9.025
X-5.239 Y-8.963
X-5.224 Y-8.938
X-5.2 Y-8.918
X-5.167 Y-8.907
X-5.122 Y-8.904
X-5.177 Y-8.933
X-5.213 Y-8.959
X-5.23 Y-8.98
X-5.233 Y-8.998
X-5.223 Y-9.011
X-5.204 Y-9.021
X-5.147 Y-9.028
X-5.084 Y-9.018
X-5.036 Y-8.99
X-5.024 Y-8.97
Y-8.945
X-5.038 Y-8.916
X-5.07 Y-8.882
X-4.908 Y-8.817
X-4.773 Y-8.739
X-4.714 Y-8.689
X-4.661 Y-8.63
X-4.612 Y-8.559
X-4.567 Y-8.475
X-4.89 Y-8.061
X-5.203 Y-7.639
X-5.172 Y-6.728
X-5.153 Y-5.817
X-5.14 Y-3.993
X-4.756 Y-3.506
X-4.571 Y-3.258
X-4.394 Y-3.003
X-4.346 Y-2.962
X-4.309 Y-2.923
X-4.283 Y-2.888
X-4.267 Y-2.857
X-4.263 Y-2.804
X-4.289 Y-2.764
X-4.341 Y-2.737
X-4.412 Y-2.724
X-4.496 Y-2.723
X-4.586 Y-2.735
X-4.708 Y-2.767
X-4.825 Y-2.769
X-4.936 Y-2.747
X-5.041 Y-2.704
X-5.142 Y-2.646
X-5.239 Y-2.576
X-5.423 Y-2.421
X-5.608 Y-2.493
X-5.788 Y-2.576
X-6.143 Y-2.754
X-6.186 Y-2.77
X-6.225 Y-2.797
X-6.295 Y-2.877
X-6.415 Y-3.081
X-6.471 Y-3.171
X-6.528 Y-3.231
X-6.557 Y-3.244
X-6.589 Y-3.243
X-6.622 Y-3.225
X-6.657 Y-3.19
X-6.832 Y-3.154
X-7.008 Y-3.133
X-7.363 Y-3.117
X-7.72 Y-3.11
X-7.897 Y-3.1
X-8.073 Y-3.079
X-8.556 Y-2.751
X-9.033 Y-2.408
X-9.122 Y-2.336
X-9.217 Y-2.281
X-9.321 Y-2.252
X-9.377 Y-2.249
X-9.436 Y-2.256
X-9.649 Y-2.25
X-9.864 Y-2.253
X-9.969 Y-2.245
X-10.071 Y-2.225
X-10.168 Y-2.187
X-10.258 Y-2.126
X-10.383 Y-2.1
X-10.511 Y-2.086
X-10.774 Y-2.082
X-11.039 Y-2.089
X-11.3 Y-2.083
X-11.576 Y-2.08
X-11.714 Y-2.081
X-11.843 Y-2.102
X-11.905 Y-2.173
X-11.984 Y-2.245
X-12.149 Y-2.387
X-12.211 Y-2.459
X-12.242 Y-2.533
X-12.243 Y-2.57
X-12.232 Y-2.608
X-12.207 Y-2.646
X-12.167 Y-2.685
X-12.134 Y-2.774
X-12.083 Y-2.847
X-11.956 Y-2.971
X-11.894 Y-3.032
X-11.844 Y-3.102
X-11.812 Y-3.185
X-11.805 Y-3.288
X-11.818 Y-3.381
X-11.806 Y-3.464
X-11.776 Y-3.539
X-11.732 Y-3.609
X-11.623 Y-3.744
X-11.522 Y-3.891
X-11.471 Y-3.991
X-11.433 Y-4.095
X-11.382 Y-4.31
X-11.332 Y-4.527
X-11.295 Y-4.634
X-11.244 Y-4.739
X-11.245 Y-4.838
X-11.264 Y-4.933
X-11.333 Y-5.115
X-11.413 Y-5.287
X-11.445 Y-5.37
X-11.464 Y-5.452
X-11.526 Y-5.477
X-11.58 Y-5.508
X-11.665 Y-5.59
X-11.731 Y-5.69
X-11.786 Y-5.799
X-11.841 Y-5.91
X-11.906 Y-6.014
X-11.991 Y-6.103
X-12.043 Y-6.139
X-12.105 Y-6.168
X-12.162 Y-6.318
X-12.202 Y-6.472
X-12.239 Y-6.62
X-12.285 Y-6.752
X-12.222 Y-6.804
X-12.168 Y-6.871
X-12.073 Y-7.018
X-12.026 Y-7.082
X-11.976 Y-7.13
X-11.92 Y-7.154
X-11.854 Y-7.146
X-11.864 Y-7.089
X-11.853 Y-7.049
X-11.825 Y-7.02
X-11.783 Y-7
X-11.667 Y-6.97
X-11.529 Y-6.928
X-11.471 Y-6.973
X-11.43 Y-7.011
X-11.404 Y-7.042
X-11.391 Y-7.067
X-11.39 Y-7.088
X-11.4 Y-7.103
X-11.444 Y-7.125
X-11.513 Y-7.138
X-11.594 Y-7.147
X-11.675 Y-7.159
X-11.746 Y-7.18
X-11.743 Y-7.233
X-11.748 Y-7.27
X-11.76 Y-7.293
X-11.778 Y-7.305
X-11.828 Y-7.302
X-11.888 Y-7.276
X-11.951 Y-7.245
X-12.007 Y-7.225
X-12.049 Y-7.231
X-12.062 Y-7.248
X-12.067 Y-7.279
X-12.116 Y-7.316
X-12.15 Y-7.353
X-12.17 Y-7.391
X-12.178 Y-7.429
X-12.17 Y-7.505
X-12.144 Y-7.581
X-12.115 Y-7.655
X-12.103 Y-7.728
X-12.108 Y-7.763
X-12.124 Y-7.797
X-12.153 Y-7.83
X-12.196 Y-7.863
Z5
X-6.301 Y-12.566
Z0.75 F150
X-6.469 Y-12.599 F300
X-6.643 Y-12.648
X-6.861 Y-12.731
X-7.085 Y-12.837
X-7.294 Y-12.955
X-7.385 Y-13.016
X-7.464 Y-13.074
X-7.521 Y-13.123
X-7.593 Y-13.189
X-7.76 Y-13.352
X-7.921 Y-13.518
X-7.986 Y-13.59
X-8.033 Y-13.646
X-8.152 Y-13.816
X-8.259 Y-14.007
X-8.353 Y-14.212
X-8.43 Y-14.426
X-8.49 Y-14.641
X-8.53 Y-14.851
X-8.548 Y-15.05
X-8.541 Y-15.232
X-8.507 Y-15.439
X-8.454 Y-15.619
X-8.379 Y-15.779
X-8.28 Y-15.923
X-8.242 Y-15.968
X-8.213 Y-16.001
X-8.189 Y-16.02
X-8.173 Y-16.027
X-8.161 Y-16.022
X-8.155 Y-16.004
X-8.152 Y-15.973
X-8.154 Y-15.93
Y-15.861
X-8.15 Y-15.765
X-8.142 Y-15.65
X-8.13 Y-15.525
X-8.101 Y-15.271
X-8.085 Y-15.16
X-8.069 Y-15.069
X-8.006 Y-14.831
X-7.917 Y-14.602
X-7.804 Y-14.384
X-7.668 Y-14.18
X-7.512 Y-13.993
X-7.337 Y-13.824
X-7.146 Y-13.676
X-6.939 Y-13.552
X-6.804 Y-13.491
X-6.66 Y-13.443
X-6.51 Y-13.409
X-6.352 Y-13.388
X-6.189 Y-13.381
X-6.021 Y-13.388
X-5.848 Y-13.409
X-5.671 Y-13.444
X-5.408 Y-13.525
X-5.162 Y-13.639
X-4.937 Y-13.784
X-4.733 Y-13.958
X-4.555 Y-14.159
X-4.402 Y-14.385
X-4.279 Y-14.634
X-4.186 Y-14.904
X-4.155 Y-15.018
X-4.131 Y-15.121
X-4.098 Y-15.304
X-4.083 Y-15.475
X-4.084 Y-15.656
X-4.099 Y-15.831
X-4.127 Y-15.995
X-4.17 Y-16.152
X-4.229 Y-16.304
X-4.307 Y-16.455
X-4.404 Y-16.608
X-4.522 Y-16.765
X-4.662 Y-16.929
X-4.741 Y-17.014
X-4.842 Y-17.111
X-4.964 Y-17.223
X-5.109 Y-17.351
X-5.279 Y-17.495
X-5.474 Y-17.657
X-5.697 Y-17.838
X-6.074 Y-18.14
X-6.185 Y-18.231
X-6.381 Y-18.4
X-6.477 Y-18.488
X-6.578 Y-18.584
X-6.69 Y-18.694
X-6.818 Y-18.822
X-6.897 Y-18.902
X-6.969 Y-18.974
X-7.091 Y-19.101
X-7.191 Y-19.209
X-7.274 Y-19.305
X-7.411 Y-19.486
X-7.475 Y-19.584
X-7.543 Y-19.695
X-7.586 Y-19.771
X-7.637 Y-19.868
X-7.751 Y-20.093
X-7.856 Y-20.315
X-7.897 Y-20.408
X-7.925 Y-20.478
X-7.957 Y-20.581
X-7.989 Y-20.713
X-8.019 Y-20.864
X-8.046 Y-21.028
X-8.088 Y-21.361
X-8.1 Y-21.515
X-8.104 Y-21.649
X-8.103 Y-21.705
X-8.102 Y-21.751
X-8.1 Y-21.78
X-8.098 Y-21.789
X-8.089 Y-21.773
X-8.071 Y-21.735
X-8.047 Y-21.681
X-8.017 Y-21.615
X-7.94 Y-21.452
X-7.849 Y-21.284
X-7.739 Y-21.099
X-7.675 Y-20.998
X-7.604 Y-20.889
X-7.49 Y-20.719
X-7.384 Y-20.57
X-7.283 Y-20.437
X-7.182 Y-20.315
X-6.964 Y-20.084
X-6.839 Y-19.966
X-6.696 Y-19.839
X-6.59 Y-19.746
X-6.504 Y-19.671
X-6.483 Y-19.654
X-6.451 Y-19.629
X-6.359 Y-19.56
X-6.24 Y-19.476
X-6.109 Y-19.384
X-5.584 Y-19.021
X-5.484 Y-18.953
X-5.362 Y-18.87
X-5.233 Y-18.783
X-5.111 Y-18.702
X-4.885 Y-18.545
X-4.685 Y-18.389
X-4.489 Y-18.216
X-4.387 Y-18.117
X-4.277 Y-18.008
X-4.164 Y-17.892
X-4.061 Y-17.782
X-3.879 Y-17.578
X-3.726 Y-17.387
X-3.596 Y-17.201
X-3.485 Y-17.01
X-3.385 Y-16.807
X-3.293 Y-16.581
X-3.201 Y-16.326
X-3.156 Y-16.17
X-3.122 Y-16
X-3.099 Y-15.82
X-3.087 Y-15.633
X-3.085 Y-15.441
X-3.095 Y-15.248
X-3.117 Y-15.056
X-3.149 Y-14.869
X-3.179 Y-14.749
X-3.222 Y-14.614
X-3.336 Y-14.318
X-3.473 Y-14.023
X-3.546 Y-13.889
X-3.617 Y-13.77
X-3.745 Y-13.592
X-3.89 Y-13.422
X-4.051 Y-13.262
X-4.225 Y-13.115
X-4.409 Y-12.983
X-4.601 Y-12.866
X-4.798 Y-12.769
X-4.998 Y-12.691
X-5.224 Y-12.626
X-5.448 Y-12.58
X-5.679 Y-12.553
X-5.925 Y-12.544
X-6.124 Y-12.549
X-6.301 Y-12.566
Z5
X-8.816 Y-14.863
Z0.75 F150
X-8.865 Y-14.778 F300
X-8.911 Y-14.701
X-8.95 Y-14.645
X-8.995 Y-14.591
X-9.062 Y-14.521
X-9.208 Y-14.392
X-9.376 Y-14.288
X-9.572 Y-14.206
X-9.8 Y-14.143
X-9.879 Y-14.128
X-9.967 Y-14.118
X-10.162 Y-14.108
X-10.361 Y-14.113
X-10.543 Y-14.134
X-10.678 Y-14.163
X-10.814 Y-14.205
X-10.95 Y-14.258
X-11.084 Y-14.322
X-11.215 Y-14.395
X-11.342 Y-14.478
X-11.463 Y-14.57
X-11.578 Y-14.67
X-11.67 Y-14.767
X-11.761 Y-14.882
X-11.849 Y-15.012
X-11.931 Y-15.152
X-12.005 Y-15.298
X-12.069 Y-15.447
X-12.12 Y-15.594
X-12.158 Y-15.735
X-12.172 Y-15.82
X-12.182 Y-15.922
X-12.19 Y-16.159
X-12.182 Y-16.402
X-12.172 Y-16.513
X-12.158 Y-16.61
X-12.134 Y-16.735
X-12.109 Y-16.843
X-12.05 Y-17.027
X-11.967 Y-17.199
X-11.911 Y-17.293
X-11.843 Y-17.398
X-11.748 Y-17.534
X-11.653 Y-17.656
X-11.554 Y-17.768
X-11.446 Y-17.874
X-11.325 Y-17.978
X-11.187 Y-18.083
X-11.028 Y-18.194
X-10.843 Y-18.314
X-10.644 Y-18.441
X-10.51 Y-18.526
X-10.463 Y-18.556
X-10.4 Y-18.597
X-10.07 Y-18.805
X-9.907 Y-18.908
X-9.765 Y-18.999
X-9.644 Y-19.078
X-9.542 Y-19.146
X-9.458 Y-19.205
X-9.389 Y-19.254
X-9.335 Y-19.296
X-9.205 Y-19.403
X-9.088 Y-19.508
X-8.984 Y-19.611
X-8.89 Y-19.712
X-8.808 Y-19.813
X-8.735 Y-19.914
X-8.618 Y-20.119
X-8.557 Y-20.261
X-8.515 Y-20.387
X-8.49 Y-20.515
X-8.476 Y-20.66
X-8.467 Y-20.834
X-8.435 Y-20.771
X-8.418 Y-20.736
X-8.398 Y-20.687
X-8.355 Y-20.571
X-8.329 Y-20.49
X-8.314 Y-20.414
X-8.308 Y-20.318
X-8.307 Y-20.253
Y-20.171
Y-20.093
X-8.308 Y-20.028
X-8.315 Y-19.925
X-8.329 Y-19.837
X-8.354 Y-19.739
X-8.394 Y-19.611
X-8.443 Y-19.489
X-8.502 Y-19.372
X-8.575 Y-19.256
X-8.662 Y-19.138
X-8.766 Y-19.015
X-8.889 Y-18.884
X-9.033 Y-18.742
X-9.23 Y-18.56
X-9.336 Y-18.466
X-9.457 Y-18.365
X-9.597 Y-18.25
X-9.763 Y-18.116
X-9.858 Y-18.041
X-10.074 Y-17.87
X-10.197 Y-17.774
X-10.302 Y-17.689
X-10.412 Y-17.594
X-10.634 Y-17.392
X-10.834 Y-17.192
X-10.917 Y-17.102
X-10.985 Y-17.023
X-11.084 Y-16.882
X-11.17 Y-16.729
X-11.238 Y-16.574
X-11.282 Y-16.428
X-11.293 Y-16.36
X-11.3 Y-16.28
X-11.303 Y-16.103
X-11.29 Y-15.927
X-11.278 Y-15.847
X-11.263 Y-15.779
X-11.217 Y-15.646
X-11.149 Y-15.496
X-11.07 Y-15.349
X-10.992 Y-15.227
X-10.901 Y-15.115
X-10.799 Y-15.009
X-10.688 Y-14.912
X-10.569 Y-14.823
X-10.446 Y-14.744
X-10.317 Y-14.676
X-10.186 Y-14.62
X-10.054 Y-14.578
X-9.903 Y-14.549
X-9.818 Y-14.542
X-9.723 Y-14.538
X-9.509 Y-14.55
X-9.312 Y-14.593
X-9.124 Y-14.668
X-8.937 Y-14.78
X-8.816 Y-14.863
Z5
X-45.155 Y-12.622
Z0.75 F150
Y-12.378 F300
X-45.195 Y-12.138
X-45.272 Y-11.907
X-45.385 Y-11.691
X-45.531 Y-11.496
X-45.707 Y-11.327
X-45.908 Y-11.189
X-46.128 Y-11.085
X-46.362 Y-11.017
X-46.604 Y-10.987
X-46.847 Y-10.997
X-47.086 Y-11.046
X-47.313 Y-11.132
X-47.525 Y-11.254
X-47.713 Y-11.408
X-47.875 Y-11.59
X-48.005 Y-11.797
X-48.1 Y-12.021
X-48.159 Y-12.257
X-48.178 Y-12.5
X-48.159 Y-12.743
X-48.1 Y-12.979
X-48.005 Y-13.203
X-47.875 Y-13.41
X-47.713 Y-13.592
X-47.525 Y-13.746
X-47.313 Y-13.868
X-47.086 Y-13.954
X-46.847 Y-14.003
X-46.604 Y-14.013
X-46.362 Y-13.983
X-46.128 Y-13.915
X-45.908 Y-13.811
X-45.707 Y-13.673
X-45.531 Y-13.504
X-45.385 Y-13.309
X-45.272 Y-13.093
X-45.195 Y-12.862
X-45.155 Y-12.622
Z5
X-37.877 Y-14.988
Z0.5 F150
X-35.377 Y-14.987 F300
X-34.846 Y-12.487
X-36.274
X-36.503 Y-13.559
X-37.574
X-37.749 Y-13.492
X-37.906 Y-13.416
X-37.973 Y-13.37
X-38.03 Y-13.319
X-38.074 Y-13.26
X-38.105 Y-13.194
X-38.124 Y-13.12
X-38.134 Y-13.041
X-38.129 Y-12.868
X-38.1 Y-12.681
X-38.06 Y-12.488
X-38.011 Y-12.286
X-37.953 Y-12.093
X-37.88 Y-11.915
X-37.783 Y-11.761
X-37.722 Y-11.695
X-37.653 Y-11.638
X-37.493 Y-11.546
X-37.311 Y-11.476
X-37.118 Y-11.416
X-35.332 Y-11.415
X-34.314 Y-9.987
X-36.814
X-37.331 Y-10.094
X-37.582 Y-10.156
X-37.824 Y-10.229
X-38.054 Y-10.315
X-38.268 Y-10.418
X-38.464 Y-10.542
X-38.639 Y-10.69
X-38.792 Y-10.861
X-38.927 Y-11.054
X-39.045 Y-11.266
X-39.15 Y-11.492
X-39.244 Y-11.73
X-39.33 Y-11.978
X-39.489 Y-12.488
X-39.551 Y-12.989
X-39.573 Y-13.233
X-39.582 Y-13.468
X-39.575 Y-13.691
X-39.548 Y-13.901
X-39.498 Y-14.093
X-39.419 Y-14.265
X-39.368 Y-14.342
X-39.308 Y-14.414
X-39.165 Y-14.539
X-38.993 Y-14.645
X-38.798 Y-14.734
X-38.584 Y-14.809
X-38.357 Y-14.874
X-37.877 Y-14.988
Z5
X-34.695 Y-14.987
Z0.5 F150
X-33.267 Y-14.986 F300
X-32.81 Y-12.844
X-31.749 Y-14.986
X-29.963
X-30.867 Y-13.365
X-30.65 Y-13.221
X-30.443 Y-13.069
X-30.257 Y-12.903
X-30.174 Y-12.812
X-30.1 Y-12.715
X-29.976 Y-12.502
X-29.879 Y-12.269
X-29.799 Y-12.023
X-29.728 Y-11.771
X-29.703 Y-11.388
X-29.698 Y-11.203
X-29.703 Y-11.025
X-29.72 Y-10.858
X-29.754 Y-10.703
X-29.806 Y-10.563
X-29.881 Y-10.441
X-29.981 Y-10.339
X-30.103 Y-10.255
X-30.245 Y-10.186
X-30.403 Y-10.131
X-30.574 Y-10.085
X-30.754 Y-10.048
X-31.132 Y-9.986
X-33.632 Y-9.987
X-33.935 Y-11.415
X-31.435
X-31.29 Y-11.444
X-31.23 Y-11.469
X-31.186 Y-11.506
X-31.16 Y-11.558
X-31.151 Y-11.623
X-31.157 Y-11.772
X-31.215 Y-11.921
X-31.253 Y-11.986
X-31.301 Y-12.038
X-31.361 Y-12.075
X-31.431 Y-12.1
X-31.589 Y-12.129
X-34.089 Y-12.13
X-34.695 Y-14.987
Z5
X-29.14 Y-13.736
Z0.5 F150
X-29.852 Y-14.986 F300
X-28.335 Y-14.985
X-26.764 Y-12.217
X-26.37 Y-14.985
X-24.852 Y-14.984
X-25.575 Y-9.985
X-27.004
X-29.14 Y-13.736
Z5
X-24.61 Y-13.412
Z0.5 F150
X-24.549 Y-13.629 F300
X-24.458 Y-13.84
X-24.347 Y-14.047
X-24.226 Y-14.252
X-24.058 Y-14.416
X-23.885 Y-14.57
X-23.704 Y-14.705
X-23.509 Y-14.813
X-23.3 Y-14.886
X-23.078 Y-14.934
X-22.613 Y-14.984
X-21.185
X-20.167 Y-13.555
X-22.31
X-22.509 Y-13.534
X-22.604 Y-13.513
X-22.694 Y-13.481
X-22.777 Y-13.436
X-22.855 Y-13.377
X-23.001 Y-13.241
X-23.101 Y-13.065
X-23.14 Y-12.974
X-23.166 Y-12.881
X-23.177 Y-12.785
X-23.176 Y-12.686
X-23.153 Y-12.484
X-23.08 Y-12.266
X-23.036 Y-12.162
X-22.982 Y-12.064
X-22.917 Y-11.973
X-22.842 Y-11.888
X-22.678 Y-11.727
X-22.491 Y-11.598
X-22.394 Y-11.542
X-22.293 Y-11.496
X-22.188 Y-11.462
X-22.079 Y-11.44
X-21.853 Y-11.412
X-20.425
X-19.407 Y-9.983
X-21.55 Y-9.984
X-22.076 Y-10.047
X-22.331 Y-10.1
X-22.577 Y-10.178
X-22.812 Y-10.285
X-23.038 Y-10.415
X-23.475 Y-10.716
X-23.858 Y-11.093
X-24.031 Y-11.292
X-24.183 Y-11.504
X-24.309 Y-11.733
X-24.412 Y-11.976
X-24.582 Y-12.484
X-24.633 Y-12.956
X-24.635 Y-13.187
X-24.61 Y-13.412
Z5
X-19.838 Y-13.555
Z0.5 F150
X-20.142 Y-14.983 F300
X-16.927
X-15.91 Y-13.554
X-19.838 Y-13.555
Z5
X-19.764 Y-13.198
Z0.5 F150
X-16.549 Y-13.197 F300
X-15.532 Y-11.768
X-19.46 Y-11.769
X-19.764 Y-13.198
Z5
X-19.382 Y-11.412
Z0.5 F150
X-16.168 Y-11.411 F300
X-15.15 Y-9.982
X-19.079 Y-9.983
X-19.382 Y-11.412
Z5
X-12.196 Y-7.863
Z0.5 F150
X-11.474 Y-8.255 F300
X-10.756 Y-8.657
X-10.465 Y-8.81
X-10.184 Y-8.98
X-9.905 Y-9.153
X-9.62 Y-9.315
X-9.478 Y-9.402
X-9.323 Y-9.478
X-9.003 Y-9.625
X-8.851 Y-9.706
X-8.713 Y-9.8
X-8.596 Y-9.914
X-8.548 Y-9.98
X-8.508 Y-10.053
X-8.573 Y-10.115
X-8.603 Y-10.172
X-8.607 Y-10.224
X-8.59 Y-10.275
X-8.52 Y-10.376
X-8.444 Y-10.488
X-7.745 Y-10.988
X-7.396 Y-11.237
X-7.039 Y-11.472
X-7.021 Y-11.504
X-7.004 Y-11.516
X-6.989 Y-11.513
X-6.974 Y-11.5
X-6.944 Y-11.461
X-6.911 Y-11.434
X-6.868 Y-11.472
X-6.831 Y-11.489
X-6.8 Y-11.487
X-6.772 Y-11.47
X-6.719 Y-11.403
X-6.66 Y-11.311
X-6.528 Y-11.051
X-6.385 Y-10.798
X-6.321 Y-10.669
X-6.27 Y-10.536
X-6.234 Y-10.397
X-6.22 Y-10.25
X-6.106 Y-10.033
X-5.987 Y-9.802
X-5.924 Y-9.693
X-5.857 Y-9.597
X-5.785 Y-9.516
X-5.709 Y-9.457
X-5.662 Y-9.459
X-5.607 Y-9.449
X-5.548 Y-9.427
X-5.492 Y-9.396
X-5.443 Y-9.356
X-5.406 Y-9.308
X-5.386 Y-9.254
X-5.389 Y-9.195
X-5.341 Y-9.213
X-5.305 Y-9.219
X-5.28 Y-9.215
X-5.263 Y-9.202
X-5.249 Y-9.156
Y-9.093
X-5.25 Y-9.025
X-5.239 Y-8.963
X-5.224 Y-8.938
X-5.2 Y-8.918
X-5.167 Y-8.907
X-5.122 Y-8.904
X-5.177 Y-8.933
X-5.213 Y-8.959
X-5.23 Y-8.98
X-5.233 Y-8.998
X-5.223 Y-9.011
X-5.204 Y-9.021
X-5.147 Y-9.028
X-5.084 Y-9.018
X-5.036 Y-8.99
X-5.024 Y-8.97
Y-8.945
X-5.038 Y-8.916
X-5.07 Y-8.882
X-4.908 Y-8.817
X-4.773 Y-8.739
X-4.714 Y-8.689
X-4.661 Y-8.63
X-4.612 Y-8.559
X-4.567 Y-8.475
X-4.89 Y-8.061
X-5.203 Y-7.639
X-5.172 Y-6.728
X-5.153 Y-5.817
X-5.14 Y-3.993
X-4.756 Y-3.506
X-4.571 Y-3.258
X-4.394 Y-3.003
X-4.346 Y-2.962
X-4.309 Y-2.923
X-4.283 Y-2.888
X-4.267 Y-2.857
X-4.263 Y-2.804
X-4.289 Y-2.764
X-4.341 Y-2.737
X-4.412 Y-2.724
X-4.496 Y-2.723
X-4.586 Y-2.735
X-4.708 Y-2.767
X-4.825 Y-2.769
X-4.936 Y-2.747
X-5.041 Y-2.704
X-5.142 Y-2.646
X-5.239 Y-2.576
X-5.423 Y-2.421
X-5.608 Y-2.493
X-5.788 Y-2.576
X-6.143 Y-2.754
X-6.186 Y-2.77
X-6.225 Y-2.797
X-6.295 Y-2.877
X-6.415 Y-3.081
X-6.471 Y-3.171
X-6.528 Y-3.231
X-6.557 Y-3.244
X-6.589 Y-3.243
X-6.622 Y-3.225
X-6.657 Y-3.19
X-6.832 Y-3.154
X-7.008 Y-3.133
X-7.363 Y-3.117
X-7.72 Y-3.11
X-7.897 Y-3.1
X-8.073 Y-3.079
X-8.556 Y-2.751
X-9.033 Y-2.408
X-9.122 Y-2.336
X-9.217 Y-2.281
X-9.321 Y-2.252
X-9.377 Y-2.249
X-9.436 Y-2.256
X-9.649 Y-2.25
X-9.864 Y-2.253
X-9.969 Y-2.245
X-10.071 Y-2.225
X-10.168 Y-2.187
X-10.258 Y-2.126
X-10.383 Y-2.1
X-10.511 Y-2.086
X-10.774 Y-2.082
X-11.039 Y-2.089
X-11.3 Y-2.083
X-11.576 Y-2.08
X-11.714 Y-2.081
X-11.843 Y-2.102
X-11.905 Y-2.173
X-11.984 Y-2.245
X-12.149 Y-2.387
X-12.211 Y-2.459
X-12.242 Y-2.533
X-12.243 Y-2.57
X-12.232 Y-2.608
X-12.207 Y-2.646
X-12.167 Y-2.685
X-12.134 Y-2.774
X-12.083 Y-2.847
X-11.956 Y-2.971
X-11.894 Y-3.032
X-11.844 Y-3.102
X-11.812 Y-3.185
X-11.805 Y-3.288
X-11.818 Y-3.381
X-11.806 Y-3.464
X-11.776 Y-3.539
X-11.732 Y-3.609
X-11.623 Y-3.744
X-11.522 Y-3.891
X-11.471 Y-3.991
X-11.433 Y-4.095
X-11.382 Y-4.31
X-11.332 Y-4.527
X-11.295 Y-4.634
X-11.244 Y-4.739
X-11.245 Y-4.838
X-11.264 Y-4.933
X-11.333 Y-5.115
X-11.413 Y-5.287
X-11.445 Y-5.37
X-11.464 Y-5.452
X-11.526 Y-5.477
X-11.58 Y-5.508
X-11.665 Y-5.59
X-11.731 Y-5.69
X-11.786 Y-5.799
X-11.841 Y-5.91
X-11.906 Y-6.014
X-11.991 Y-6.103
X-12.043 Y-6.139
X-12.105 Y-6.168
X-12.162 Y-6.318
X-12.202 Y-6.472
X-12.239 Y-6.62
X-12.285 Y-6.752
X-12.222 Y-6.804
X-12.168 Y-6.871
X-12.073 Y-7.018
X-12.026 Y-7.082
X-11.976 Y-7.13
X-11.92 Y-7.154
X-11.854 Y-7.146
X-11.864 Y-7.089
X-11.853 Y-7.049
X-11.825 Y-7.02
X-11.783 Y-7
X-11.667 Y-6.97
X-11.529 Y-6.928
X-11.471 Y-6.973
X-11.43 Y-7.011
X-11.404 Y-7.042
X-11.391 Y-7.067
X-11.39 Y-7.088
X-11.4 Y-7.103
X-11.444 Y-7.125
X-11.513 Y-7.138
X-11.594 Y-7.147
X-11.675 Y-7.159
X-11.746 Y-7.18
X-11.743 Y-7.233
X-11.748 Y-7.27
X-11.76 Y-7.293
X-11.778 Y-7.305
X-11.828 Y-7.302
X-11.888 Y-7.276
X-11.951 Y-7.245
X-12.007 Y-7.225
X-12.049 Y-7.231
X-12.062 Y-7.248
X-12.067 Y-7.279
X-12.116 Y-7.316
X-12.15 Y-7.353
X-12.17 Y-7.391
X-12.178 Y-7.429
X-12.17 Y-7.505
X-12.144 Y-7.581
X-12.115 Y-7.655
X-12.103 Y-7.728
X-12.108 Y-7.763
X-12.124 Y-7.797
X-12.153 Y-7.83
X-12.196 Y-7.863
Z5
X-6.301 Y-12.566
Z0.5 F150
X-6.469 Y-12.599 F300
X-6.643 Y-12.648
X-6.861 Y-12.731
X-7.085 Y-12.837
X-7.294 Y-12.955
X-7.385 Y-13.016
X-7.464 Y-13.074
X-7.521 Y-13.123
X-7.593 Y-13.189
X-7.76 Y-13.352
X-7.921 Y-13.518
X-7.986 Y-13.59
X-8.033 Y-13.646
X-8.152 Y-13.816
X-8.259 Y-14.007
X-8.353 Y-14.212
X-8.43 Y-14.426
X-8.49 Y-14.641
X-8.53 Y-14.851
X-8.548 Y-15.05
X-8.541 Y-15.232
X-8.507 Y-15.439
X-8.454 Y-15.619
X-8.379 Y-15.779
X-8.28 Y-15.923
X-8.242 Y-15.968
X-8.213 Y-16.001
X-8.189 Y-16.02
X-8.173 Y-16.027
X-8.161 Y-16.022
X-8.155 Y-16.004
X-8.152 Y-15.973
X-8.154 Y-15.93
Y-15.861
X-8.15 Y-15.765
X-8.142 Y-15.65
X-8.13 Y-15.525
X-8.101 Y-15.271
X-8.085 Y-15.16
X-8.069 Y-15.069
X-8.006 Y-14.831
X-7.917 Y-14.602
X-7.804 Y-14.384
X-7.668 Y-14.18
X-7.512 Y-13.993
X-7.337 Y-13.824
X-7.146 Y-13.676
X-6.939 Y-13.552
X-6.804 Y-13.491
X-6.66 Y-13.443
X-6.51 Y-13.409
X-6.352 Y-13.388
X-6.189 Y-13.381
X-6.021 Y-13.388
X-5.848 Y-13.409
X-5.671 Y-13.444
X-5.408 Y-13.525
X-5.162 Y-13.639
X-4.937 Y-13.784
X-4.733 Y-13.958
X-4.555 Y-14.159
X-4.402 Y-14.385
X-4.279 Y-14.634
X-4.186 Y-14.904
X-4.155 Y-15.018
X-4.131 Y-15.121
X-4.098 Y-15.304
X-4.083 Y-15.475
X-4.084 Y-15.656
X-4.099 Y-15.831
X-4.127 Y-15.995
X-4.17 Y-16.152
X-4.229 Y-16.304
X-4.307 Y-16.455
X-4.404 Y-16.608
X-4.522 Y-16.765
X-4.662 Y-16.929
X-4.741 Y-17.014
X-4.842 Y-17.111
X-4.964 Y-17.223
X-5.109 Y-17.351
X-5.279 Y-17.495
X-5.474 Y-17.657
X-5.697 Y-17.838
X-6.074 Y-18.14
X-6.185 Y-18.231
X-6.381 Y-18.4
X-6.477 Y-18.488
X-6.578 Y-18.584
X-6.69 Y-18.694
X-6.818 Y-18.822
X-6.897 Y-18.902
X-6.969 Y-18.974
X-7.091 Y-19.101
X-7.191 Y-19.209
X-7.274 Y-19.305
X-7.411 Y-19.486
X-7.475 Y-19.584
X-7.543 Y-19.695
X-7.586 Y-19.771
X-7.637 Y-19.868
X-7.751 Y-20.093
X-7.856 Y-20.315
X-7.897 Y-20.408
X-7.925 Y-20.478
X-7.957 Y-20.581
X-7.989 Y-20.713
X-8.019 Y-20.864
X-8.046 Y-21.028
X-8.088 Y-21.361
X-8.1 Y-21.515
X-8.104 Y-21.649
X-8.103 Y-21.705
X-8.102 Y-21.751
X-8.1 Y-21.78
X-8.098 Y-21.789
X-8.089 Y-21.773
X-8.071 Y-21.735
X-8.047 Y-21.681
X-8.017 Y-21.615
X-7.94 Y-21.452
X-7.849 Y-21.284
X-7.739 Y-21.099
X-7.675 Y-20.998
X-7.604 Y-20.889
X-7.49 Y-20.719
X-7.384 Y-20.57
X-7.283 Y-20.437
X-7.182 Y-20.315
X-6.964 Y-20.084
X-6.839 Y-19.966
X-6.696 Y-19.839
X-6.59 Y-19.746
X-6.504 Y-19.671
X-6.483 Y-19.654
X-6.451 Y-19.629
X-6.359 Y-19.56
X-6.24 Y-19.476
X-6.109 Y-19.384
X-5.584 Y-19.021
X-5.484 Y-18.953
X-5.362 Y-18.87
X-5.233 Y-18.783
X-5.111 Y-18.702
X-4.885 Y-18.545
X-4.685 Y-18.389
X-4.489 Y-18.216
X-4.387 Y-18.117
X-4.277 Y-18.008
X-4.164 Y-17.892
X-4.061 Y-17.782
X-3.879 Y-17.578
X-3.726 Y-17.387
X-3.596 Y-17.201
X-3.485 Y-17.01
X-3.385 Y-16.807
X-3.293 Y-16.581
X-3.201 Y-16.326
X-3.156 Y-16.17
X-3.122 Y-16
X-3.099 Y-15.82
X-3.087 Y-15.633
X-3.085 Y-15.441
X-3.095 Y-15.248
X-3.117 Y-15.056
X-3.149 Y-14.869
X-3.179 Y-14.749
X-3.222 Y-14.614
X-3.336 Y-14.318
X-3.473 Y-14.023
X-3.546 Y-13.889
X-3.617 Y-13.77
X-3.745 Y-13.592
X-3.89 Y-13.422
X-4.051 Y-13.262
X-4.225 Y-13.115
X-4.409 Y-12.983
X-4.601 Y-12.866
X-4.798 Y-12.769
X-4.998 Y-12.691
X-5.224 Y-12.626
X-5.448 Y-12.58
X-5.679 Y-12.553
X-5.925 Y-12.544
X-6.124 Y-12.549
X-6.301 Y-12.566
Z5
X-8.816 Y-14.863
Z0.5 F150
X-8.865 Y-14.778 F300
X-8.911 Y-14.701
X-8.95 Y-14.645
X-8.995 Y-14.591
X-9.062 Y-14.521
X-9.208 Y-14.392
X-9.376 Y-14.288
X-9.572 Y-14.206
X-9.8 Y-14.143
X-9.879 Y-14.128
X-9.967 Y-14.118
X-10.162 Y-14.108
X-10.361 Y-14.113
X-10.543 Y-14.134
X-10.678 Y-14.163
X-10.814 Y-14.205
X-10.95 Y-14.258
X-11.084 Y-14.322
X-11.215 Y-14.395
X-11.342 Y-14.478
X-11.463 Y-14.57
X-11.578 Y-14.67
X-11.67 Y-14.767
X-11.761 Y-14.882
X-11.849 Y-15.012
X-11.931 Y-15.152
X-12.005 Y-15.298
X-12.069 Y-15.447
X-12.12 Y-15.594
X-12.158 Y-15.735
X-12.172 Y-15.82
X-12.182 Y-15.922
X-12.19 Y-16.159
X-12.182 Y-16.402
X-12.172 Y-16.513
X-12.158 Y-16.61
X-12.134 Y-16.735
X-12.109 Y-16.843
X-12.05 Y-17.027
X-11.967 Y-17.199
X-11.911 Y-17.293
X-11.843 Y-17.398
X-11.748 Y-17.534
X-11.653 Y-17.656
X-11.554 Y-17.768
X-11.446 Y-17.874
X-11.325 Y-17.978
X-11.187 Y-18.083
X-11.028 Y-18.194
X-10.843 Y-18.314
X-10.644 Y-18.441
X-10.51 Y-18.526
X-10.463 Y-18.556
X-10.4 Y-18.597
X-10.07 Y-18.805
X-9.907 Y-18.908
X-9.765 Y-18.999
X-9.644 Y-19.078
X-9.542 Y-19.146
X-9.458 Y-19.205
X-9.389 Y-19.254
X-9.335 Y-19.296
X-9.205 Y-19.403
X-9.088 Y-19.508
X-8.984 Y-19.611
X-8.89 Y-19.712
X-8.808 Y-19.813
X-8.735 Y-19.914
X-8.618 Y-20.119
X-8.557 Y-20.261
X-8.515 Y-20.387
X-8.49 Y-20.515
X-8.476 Y-20.66
X-8.467 Y-20.834
X-8.435 Y-20.771
X-8.418 Y-20.736
X-8.398 Y-20.687
X-8.355 Y-20.571
X-8.329 Y-20.49
X-8.314 Y-20.414
X-8.308 Y-20.318
X-8.307 Y-20.253
Y-20.171
Y-20.093
X-8.308 Y-20.028
X-8.315 Y-19.925
X-8.329 Y-19.837
X-8.354 Y-19.739
X-8.394 Y-19.611
X-8.443 Y-19.489
X-8.502 Y-19.372
X-8.575 Y-19.256
X-8.662 Y-19.138
X-8.766 Y-19.015
X-8.889 Y-18.884
X-9.033 Y-18.742
X-9.23 Y-18.56
X-9.336 Y-18.466
X-9.457 Y-18.365
X-9.597 Y-18.25
X-9.763 Y-18.116
X-9.858 Y-18.041
X-10.074 Y-17.87
X-10.197 Y-17.774
X-10.302 Y-17.689
X-10.412 Y-17.594
X-10.634 Y-17.392
X-10.834 Y-17.192
X-10.917 Y-17.102
X-10.985 Y-17.023
X-11.084 Y-16.882
X-11.17 Y-16.729
X-11.238 Y-16.574
X-11.282 Y-16.428
X-11.293 Y-16.36
X-11.3 Y-16.28
X-11.303 Y-16.103
X-11.29 Y-15.927
X-11.278 Y-15.847
X-11.263 Y-15.779
X-11.217 Y-15.646
X-11.149 Y-15.496
X-11.07 Y-15.349
X-10.992 Y-15.227
X-10.901 Y-15.115
X-10.799 Y-15.009
X-10.688 Y-14.912
X-10.569 Y-14.823
X-10.446 Y-14.744
X-10.317 Y-14.676
X-10.186 Y-14.62
X-10.054 Y-14.578
X-9.903 Y-14.549
X-9.818 Y-14.542
X-9.723 Y-14.538
X-9.509 Y-14.55
X-9.312 Y-14.593
X-9.124 Y-14.668
X-8.937 Y-14.78
X-8.816 Y-14.863
Z5
X-45.155 Y-12.622
Z0.5 F150
Y-12.378 F300
X-45.195 Y-12.138
X-45.272 Y-11.907
X-45.385 Y-11.691
X-45.531 Y-11.496
X-45.707 Y-11.327
X-45.908 Y-11.189
X-46.128 Y-11.085
X-46.362 Y-11.017
X-46.604 Y-10.987
X-46.847 Y-10.997
X-47.086 Y-11.046
X-47.313 Y-11.132
X-47.525 Y-11.254
X-47.713 Y-11.408
X-47.875 Y-11.59
X-48.005 Y-11.797
X-48.1 Y-12.021
X-48.159 Y-12.257
X-48.178 Y-12.5
X-48.159 Y-12.743
X-48.1 Y-12.979
X-48.005 Y-13.203
X-47.875 Y-13.41
X-47.713 Y-13.592
X-47.525 Y-13.746
X-47.313 Y-13.868
X-47.086 Y-13.954
X-46.847 Y-14.003
X-46.604 Y-14.013
X-46.362 Y-13.983
X-46.128 Y-13.915
X-45.908 Y-13.811
X-45.707 Y-13.673
X-45.531 Y-13.504
X-45.385 Y-13.309
X-45.272 Y-13.093
X-45.195 Y-12.862
X-45.155 Y-12.622
Z5
X-37.877 Y-14.988
Z0.25 F150
X-35.377 Y-14.987 F300
X-34.846 Y-12.487
X-36.274
X-36.503 Y-13.559
X-37.574
X-37.749 Y-13.492
X-37.906 Y-13.416
X-37.973 Y-13.37
X-38.03 Y-13.319
X-38.074 Y-13.26
X-38.105 Y-13.194
X-38.124 Y-13.12
X-38.134 Y-13.041
X-38.129 Y-12.868
X-38.1 Y-12.681
X-38.06 Y-12.488
X-38.011 Y-12.286
X-37.953 Y-12.093
X-37.88 Y-11.915
X-37.783 Y-11.761
X-37.722 Y-11.695
X-37.653 Y-11.638
X-37.493 Y-11.546
X-37.311 Y-11.476
X-37.118 Y-11.416
X-35.332 Y-11.415
X-34.314 Y-9.987
X-36.814
X-37.331 Y-10.094
X-37.582 Y-10.156
X-37.824 Y-10.229
X-38.054 Y-10.315
X-38.268 Y-10.418
X-38.464 Y-10.542
X-38.639 Y-10.69
X-38.792 Y-10.861
X-38.927 Y-11.054
X-39.045 Y-11.266
X-39.15 Y-11.492
X-39.244 Y-11.73
X-39.33 Y-11.978
X-39.489 Y-12.488
X-39.551 Y-12.989
X-39.573 Y-13.233
X-39.582 Y-13.468
X-39.575 Y-13.691
X-39.548 Y-13.901
X-39.498 Y-14.093
X-39.419 Y-14.265
X-39.368 Y-14.342
X-39.308 Y-14.414
X-39.165 Y-14.539
X-38.993 Y-14.645
X-38.798 Y-14.734
X-38.584 Y-14.809
X-38.357 Y-14.874
X-37.877 Y-14.988
Z5
X-34.695 Y-14.987
Z0.25 F150
X-33.267 Y-14.986 F300
X-32.81 Y-12.844
X-31.749 Y-14.986
X-29.963
X-30.867 Y-13.365
X-30.65 Y-13.221
X-30.443 Y-13.069
X-30.257 Y-12.903
X-30.174 Y-12.812
X-30.1 Y-12.715
X-29.976 Y-12.502
X-29.879 Y-12.269
X-29.799 Y-12.023
X-29.728 Y-11.771
X-29.703 Y-11.388
X-29.698 Y-11.203
X-29.703 Y-11.025
X-29.72 Y-10.858
X-29.754 Y-10.703
X-29.806 Y-10.563
X-29.881 Y-10.441
X-29.981 Y-10.339
X-30.103 Y-10.255
X-30.245 Y-10.186
X-30.403 Y-10.131
X-30.574 Y-10.085
X-30.754 Y-10.048
X-31.132 Y-9.986
X-33.632 Y-9.987
X-33.935 Y-11.415
X-31.435
X-31.29 Y-11.444
X-31.23 Y-11.469
X-31.186 Y-11.506
X-31.16 Y-11.558
X-31.151 Y-11.623
X-31.157 Y-11.772
X-31.215 Y-11.921
X-31.253 Y-11.986
X-31.301 Y-12.038
X-31.361 Y-12.075
X-31.431 Y-12.1
X-31.589 Y-12.129
X-34.089 Y-12.13
X-34.695 Y-14.987
Z5
X-29.14 Y-13.736
Z0.25 F150
X-29.852 Y-14.986 F300
X-28.335 Y-14.985
X-26.764 Y-12.217
X-26.37 Y-14.985
X-24.852 Y-14.984
X-25.575 Y-9.985
X-27.004
X-29.14 Y-13.736
Z5
X-24.61 Y-13.412
Z0.25 F150
X-24.549 Y-13.629 F300
X-24.458 Y-13.84
X-24.347 Y-14.047
X-24.226 Y-14.252
X-24.058 Y-14.416
X-23.885 Y-14.57
X-23.704 Y-14.705
X-23.509 Y-14.813
X-23.3 Y-14.886
X-23.078 Y-14.934
X-22.613 Y-14.984
X-21.185
X-20.167 Y-13.555
X-22.31
X-22.509 Y-13.534
X-22.604 Y-13.513
X-22.694 Y-13.481
X-22.777 Y-13.436
X-22.855 Y-13.377
X-23.001 Y-13.241
X-23.101 Y-13.065
X-23.14 Y-12.974
X-23.166 Y-12.881
X-23.177 Y-12.785
X-23.176 Y-12.686
X-23.153 Y-12.484
X-23.08 Y-12.266
X-23.036 Y-12.162
X-22.982 Y-12.064
X-22.917 Y-11.973
X-22.842 Y-11.888
X-22.678 Y-11.727
X-22.491 Y-11.598
X-22.394 Y-11.542
X-22.293 Y-11.496
X-22.188 Y-11.462
X-22.079 Y-11.44
X-21.853 Y-11.412
X-20.425
X-19.407 Y-9.983
X-21.55 Y-9.984
X-22.076 Y-10.047
X-22.331 Y-10.1
X-22.577 Y-10.178
X-22.812 Y-10.285
X-23.038 Y-10.415
X-23.475 Y-10.716
X-23.858 Y-11.093
X-24.031 Y-11.292
X-24.183 Y-11.504
X-24.309 Y-11.733
X-24.412 Y-11.976
X-24.582 Y-12.484
X-24.633 Y-12.956
X-24.635 Y-13.187
X-24.61 Y-13.412
Z5
X-19.838 Y-13.555
Z0.25 F150
X-20.142 Y-14.983 F300
X-16.927
X-15.91 Y-13.554
X-19.838 Y-13.555
Z5
X-19.764 Y-13.198
Z0.25 F150
X-16.549 Y-13.197 F300
X-15.532 Y-11.768
X-19.46 Y-11.769
X-19.764 Y-13.198
Z5
X-19.382 Y-11.412
Z0.25 F150
X-16.168 Y-11.411 F300
X-15.15 Y-9.982
X-19.079 Y-9.983
X-19.382 Y-11.412
Z5
X-12.196 Y-7.863
Z0.25 F150
X-11.474 Y-8.255 F300
X-10.756 Y-8.657
X-10.465 Y-8.81
X-10.184 Y-8.98
X-9.905 Y-9.153
X-9.62 Y-9.315
X-9.478 Y-9.402
X-9.323 Y-9.478
X-9.003 Y-9.625
X-8.851 Y-9.706
X-8.713 Y-9.8
X-8.596 Y-9.914
X-8.548 Y-9.98
X-8.508 Y-10.053
X-8.573 Y-10.115
X-8.603 Y-10.172
X-8.607 Y-10.224
X-8.59 Y-10.275
X-8.52 Y-10.376
X-8.444 Y-10.488
X-7.745 Y-10.988
X-7.396 Y-11.237
X-7.039 Y-11.472
X-7.021 Y-11.504
X-7.004 Y-11.516
X-6.989 Y-11.513
X-6.974 Y-11.5
X-6.944 Y-11.461
X-6.911 Y-11.434
X-6.868 Y-11.472
X-6.831 Y-11.489
X-6.8 Y-11.487
X-6.772 Y-11.47
X-6.719 Y-11.403
X-6.66 Y-11.311
X-6.528 Y-11.051
X-6.385 Y-10.798
X-6.321 Y-10.669
X-6.27 Y-10.536
X-6.234 Y-10.397
X-6.22 Y-10.25
X-6.106 Y-10.033
X-5.987 Y-9.802
X-5.924 Y-9.693
X-5.857 Y-9.597
X-5.785 Y-9.516
X-5.709 Y-9.457
X-5.662 Y-9.459
X-5.607 Y-9.449
X-5.548 Y-9.427
X-5.492 Y-9.396
X-5.443 Y-9.356
X-5.406 Y-9.308
X-5.386 Y-9.254
X-5.389 Y-9.195
X-5.341 Y-9.213
X-5.305 Y-9.219
X-5.28 Y-9.215
X-5.263 Y-9.202
X-5.249 Y-9.156
Y-9.093
X-5.25 Y-9.025
X-5.239 Y-8.963
X-5.224 Y-8.938
X-5.2 Y-8.918
X-5.167 Y-8.907
X-5.122 Y-8.904
X-5.177 Y-8.933
X-5.213 Y-8.959
X-5.23 Y-8.98
X-5.233 Y-8.998
X-5.223 Y-9.011
X-5.204 Y-9.021
X-5.147 Y-9.028
X-5.084 Y-9.018
X-5.036 Y-8.99
X-5.024 Y-8.97
Y-8.945
X-5.038 Y-8.916
X-5.07 Y-8.882
X-4.908 Y-8.817
X-4.773 Y-8.739
X-4.714 Y-8.689
X-4.661 Y-8.63
X-4.612 Y-8.559
X-4.567 Y-8.475
X-4.89 Y-8.061
X-5.203 Y-7.639
X-5.172 Y-6.728
X-5.153 Y-5.817
X-5.14 Y-3.993
X-4.756 Y-3.506
X-4.571 Y-3.258
X-4.394 Y-3.003
X-4.346 Y-2.962
X-4.309 Y-2.923
X-4.283 Y-2.888
X-4.267 Y-2.857
X-4.263 Y-2.804
X-4.289 Y-2.764
X-4.341 Y-2.737
X-4.412 Y-2.724
X-4.496 Y-2.723
X-4.586 Y-2.735
X-4.708 Y-2.767
X-4.825 Y-2.769
X-4.936 Y-2.747
X-5.041 Y-2.704
X-5.142 Y-2.646
X-5.239 Y-2.576
X-5.423 Y-2.421
X-5.608 Y-2.493
X-5.788 Y-2.576
X-6.143 Y-2.754
X-6.186 Y-2.77
X-6.225 Y-2.797
X-6.295 Y-2.877
X-6.415 Y-3.081
X-6.471 Y-3.171
X-6.528 Y-3.231
X-6.557 Y-3.244
X-6.589 Y-3.243
X-6.622 Y-3.225
X-6.657 Y-3.19
X-6.832 Y-3.154
X-7.008 Y-3.133
X-7.363 Y-3.117
X-7.72 Y-3.11
X-7.897 Y-3.1
X-8.073 Y-3.079
X-8.556 Y-2.751
X-9.033 Y-2.408
X-9.122 Y-2.336
X-9.217 Y-2.281
X-9.321 Y-2.252
X-9.377 Y-2.249
X-9.436 Y-2.256
X-9.649 Y-2.25
X-9.864 Y-2.253
X-9.969 Y-2.245
X-10.071 Y-2.225
X-10.168 Y-2.187
X-10.258 Y-2.126
X-10.383 Y-2.1
X-10.511 Y-2.086
X-10.774 Y-2.082
X-11.039 Y-2.089
X-11.3 Y-2.083
X-11.576 Y-2.08
X-11.714 Y-2.081
X-11.843 Y-2.102
X-11.905 Y-2.173
X-11.984 Y-2.245
X-12.149 Y-2.387
X-12.211 Y-2.459
X-12.242 Y-2.533
X-12.243 Y-2.57
X-12.232 Y-2.608
X-12.207 Y-2.646
X-12.167 Y-2.685
X-12.134 Y-2.774
X-12.083 Y-2.847
X-11.956 Y-2.971
X-11.894 Y-3.032
X-11.844 Y-3.102
X-11.812 Y-3.185
X-11.805 Y-3.288
X-11.818 Y-3.381
X-11.806 Y-3.464
X-11.776 Y-3.539
X-11.732 Y-3.609
X-11.623 Y-3.744
X-11.522 Y-3.891
X-11.471 Y-3.991
X-11.433 Y-4.095
X-11.382 Y-4.31
X-11.332 Y-4.527
X-11.295 Y-4.634
X-11.244 Y-4.739
X-11.245 Y-4.838
X-11.264 Y-4.933
X-11.333 Y-5.115
X-11.413 Y-5.287
X-11.445 Y-5.37
X-11.464 Y-5.452
X-11.526 Y-5.477
X-11.58 Y-5.508
X-11.665 Y-5.59
X-11.731 Y-5.69
X-11.786 Y-5.799
X-11.841 Y-5.91
X-11.906 Y-6.014
X-11.991 Y-6.103
X-12.043 Y-6.139
X-12.105 Y-6.168
X-12.162 Y-6.318
X-12.202 Y-6.472
X-12.239 Y-6.62
X-12.285 Y-6.752
X-12.222 Y-6.804
X-12.168 Y-6.871
X-12.073 Y-7.018
X-12.026 Y-7.082
X-11.976 Y-7.13
X-11.92 Y-7.154
X-11.854 Y-7.146
X-11.864 Y-7.089
X-11.853 Y-7.049
X-11.825 Y-7.02
X-11.783 Y-7
X-11.667 Y-6.97
X-11.529 Y-6.928
X-11.471 Y-6.973
X-11.43 Y-7.011
X-11.404 Y-7.042
X-11.391 Y-7.067
X-11.39 Y-7.088
X-11.4 Y-7.103
X-11.444 Y-7.125
X-11.513 Y-7.138
X-11.594 Y-7.147
X-11.675 Y-7.159
X-11.746 Y-7.18
X-11.743 Y-7.233
X-11.748 Y-7.27
X-11.76 Y-7.293
X-11.778 Y-7.305
X-11.828 Y-7.302
X-11.888 Y-7.276
X-11.951 Y-7.245
X-12.007 Y-7.225
X-12.049 Y-7.231
X-12.062 Y-7.248
X-12.067 Y-7.279
X-12.116 Y-7.316
X-12.15 Y-7.353
X-12.17 Y-7.391
X-12.178 Y-7.429
X-12.17 Y-7.505
X-12.144 Y-7.581
X-12.115 Y-7.655
X-12.103 Y-7.728
X-12.108 Y-7.763
X-12.124 Y-7.797
X-12.153 Y-7.83
X-12.196 Y-7.863
Z5
X-6.301 Y-12.566
Z0.25 F150
X-6.469 Y-12.599 F300
X-6.643 Y-12.648
X-6.861 Y-12.731
X-7.085 Y-12.837
X-7.294 Y-12.955
X-7.385 Y-13.016
X-7.464 Y-13.074
X-7.521 Y-13.123
X-7.593 Y-13.189
X-7.76 Y-13.352
X-7.921 Y-13.518
X-7.986 Y-13.59
X-8.033 Y-13.646
X-8.152 Y-13.816
X-8.259 Y-14.007
X-8.353 Y-14.212
X-8.43 Y-14.426
X-8.49 Y-14.641
X-8.53 Y-14.851
X-8.548 Y-15.05
X-8.541 Y-15.232
X-8.507 Y-15.439
X-8.454 Y-15.619
X-8.379 Y-15.779
X-8.28 Y-15.923
X-8.242 Y-15.968
X-8.213 Y-16.001
X-8.189 Y-16.02
X-8.173 Y-16.027
X-8.161 Y-16.022
X-8.155 Y-16.004
X-8.152 Y-15.973
X-8.154 Y-15.93
Y-15.861
X-8.15 Y-15.765
X-8.142 Y-15.65
X-8.13 Y-15.525
X-8.101 Y-15.271
X-8.085 Y-15.16
X-8.069 Y-15.069
X-8.006 Y-14.831
X-7.917 Y-14.602
X-7.804 Y-14.384
X-7.668 Y-14.18
X-7.512 Y-13.993
X-7.337 Y-13.824
X-7.146 Y-13.676
X-6.939 Y-13.552
X-6.804 Y-13.491
X-6.66 Y-13.443
X-6.51 Y-13.409
X-6.352 Y-13.388
X-6.189 Y-13.381
X-6.021 Y-13.388
X-5.848 Y-13.409
X-5.671 Y-13.444
X-5.408 Y-13.525
X-5.162 Y-13.639
X-4.937 Y-13.784
X-4.733 Y-13.958
X-4.555 Y-14.159
X-4.402 Y-14.385
X-4.279 Y-14.634
X-4.186 Y-14.904
X-4.155 Y-15.018
X-4.131 Y-15.121
X-4.098 Y-15.304
X-4.083 Y-15.475
X-4.084 Y-15.656
X-4.099 Y-15.831
X-4.127 Y-15.995
X-4.17 Y-16.152
X-4.229 Y-16.304
X-4.307 Y-16.455
X-4.404 Y-16.608
X-4.522 Y-16.765
X-4.662 Y-16.929
X-4.741 Y-17.014
X-4.842 Y-17.111
X-4.964 Y-17.223
X-5.109 Y-17.351
X-5.279 Y-17.495
X-5.474 Y-17.657
X-5.697 Y-17.838
X-6.074 Y-18.14
X-6.185 Y-18.231
X-6.381 Y-18.4
X-6.477 Y-18.488
X-6.578 Y-18.584
X-6.69 Y-18.694
X-6.818 Y-18.822
X-6.897 Y-18.902
X-6.969 Y-18.974
X-7.091 Y-19.101
X-7.191 Y-19.209
X-7.274 Y-19.305
X-7.411 Y-19.486
X-7.475 Y-19.584
X-7.543 Y-19.695
X-7.586 Y-19.771
X-7.637 Y-19.868
X-7.751 Y-20.093
X-7.856 Y-20.315
X-7.897 Y-20.408
X-7.925 Y-20.478
X-7.957 Y-20.581
X-7.989 Y-20.713
X-8.019 Y-20.864
X-8.046 Y-21.028
X-8.088 Y-21.361
X-8.1 Y-21.515
X-8.104 Y-21.649
X-8.103 Y-21.705
X-8.102 Y-21.751
X-8.1 Y-21.78
X-8.098 Y-21.789
X-8.089 Y-21.773
X-8.071 Y-21.735
X-8.047 Y-21.681
X-8.017 Y-21.615
X-7.94 Y-21.452
X-7.849 Y-21.284
X-7.739 Y-21.099
X-7.675 Y-20.998
X-7.604 Y-20.889
X-7.49 Y-20.719
X-7.384 Y-20.57
X-7.283 Y-20.437
X-7.182 Y-20.315
X-6.964 Y-20.084
X-6.839 Y-19.966
X-6.696 Y-19.839
X-6.59 Y-19.746
X-6.504 Y-19.671
X-6.483 Y-19.654
X-6.451 Y-19.629
X-6.359 Y-19.56
X-6.24 Y-19.476
X-6.109 Y-19.384
X-5.584 Y-19.021
X-5.484 Y-18.953
X-5.362 Y-18.87
X-5.233 Y-18.783
X-5.111 Y-18.702
X-4.885 Y-18.545
X-4.685 Y-18.389
X-4.489 Y-18.216
X-4.387 Y-18.117
X-4.277 Y-18.008
X-4.164 Y-17.892
X-4.061 Y-17.782
X-3.879 Y-17.578
X-3.726 Y-17.387
X-3.596 Y-17.201
X-3.485 Y-17.01
X-3.385 Y-16.807
X-3.293 Y-16.581
X-3.201 Y-16.326
X-3.156 Y-16.17
X-3.122 Y-16
X-3.099 Y-15.82
X-3.087 Y-15.633
X-3.085 Y-15.441
X-3.095 Y-15.248
X-3.117 Y-15.056
X-3.149 Y-14.869
X-3.179 Y-14.749
X-3.222 Y-14.614
X-3.336 Y-14.318
X-3.473 Y-14.023
X-3.546 Y-13.889
X-3.617 Y-13.77
X-3.745 Y-13.592
X-3.89 Y-13.422
X-4.051 Y-13.262
X-4.225 Y-13.115
X-4.409 Y-12.983
X-4.601 Y-12.866
X-4.798 Y-12.769
X-4.998 Y-12.691
X-5.224 Y-12.626
X-5.448 Y-12.58
X-5.679 Y-12.553
X-5.925 Y-12.544
X-6.124 Y-12.549
X-6.301 Y-12.566
Z5
X-8.816 Y-14.863
Z0.25 F150
X-8.865 Y-14.778 F300
X-8.911 Y-14.701
X-8.95 Y-14.645
X-8.995 Y-14.591
X-9.062 Y-14.521
X-9.208 Y-14.392
X-9.376 Y-14.288
X-9.572 Y-14.206
X-9.8 Y-14.143
X-9.879 Y-14.128
X-9.967 Y-14.118
X-10.162 Y-14.108
X-10.361 Y-14.113
X-10.543 Y-14.134
X-10.678 Y-14.163
X-10.814 Y-14.205
X-10.95 Y-14.258
X-11.084 Y-14.322
X-11.215 Y-14.395
X-11.342 Y-14.478
X-11.463 Y-14.57
X-11.578 Y-14.67
X-11.67 Y-14.767
X-11.761 Y-14.882
X-11.849 Y-15.012
X-11.931 Y-15.152
X-12.005 Y-15.298
X-12.069 Y-15.447
X-12.12 Y-15.594
X-12.158 Y-15.735
X-12.172 Y-15.82
X-12.182 Y-15.922
X-12.19 Y-16.159
X-12.182 Y-16.402
X-12.172 Y-16.513
X-12.158 Y-16.61
X-12.134 Y-16.735
X-12.109 Y-16.843
X-12.05 Y-17.027
X-11.967 Y-17.199
X-11.911 Y-17.293
X-11.843 Y-17.398
X-11.748 Y-17.534
X-11.653 Y-17.656
X-11.554 Y-17.768
X-11.446 Y-17.874
X-11.325 Y-17.978
X-11.187 Y-18.083
X-11.028 Y-18.194
X-10.843 Y-18.314
X-10.644 Y-18.441
X-10.51 Y-18.526
X-10.463 Y-18.556
X-10.4 Y-18.597
X-10.07 Y-18.805
X-9.907 Y-18.908
X-9.765 Y-18.999
X-9.644 Y-19.078
X-9.542 Y-19.146
X-9.458 Y-19.205
X-9.389 Y-19.254
X-9.335 Y-19.296
X-9.205 Y-19.403
X-9.088 Y-19.508
X-8.984 Y-19.611
X-8.89 Y-19.712
X-8.808 Y-19.813
X-8.735 Y-19.914
X-8.618 Y-20.119
X-8.557 Y-20.261
X-8.515 Y-20.387
X-8.49 Y-20.515
X-8.476 Y-20.66
X-8.467 Y-20.834
X-8.435 Y-20.771
X-8.418 Y-20.736
X-8.398 Y-20.687
X-8.355 Y-20.571
X-8.329 Y-20.49
X-8.314 Y-20.414
X-8.308 Y-20.318
X-8.307 Y-20.253
Y-20.171
Y-20.093
X-8.308 Y-20.028
X-8.315 Y-19.925
X-8.329 Y-19.837
X-8.354 Y-19.739
X-8.394 Y-19.611
X-8.443 Y-19.489
X-8.502 Y-19.372
X-8.575 Y-19.256
X-8.662 Y-19.138
X-8.766 Y-19.015
X-8.889 Y-18.884
X-9.033 Y-18.742
X-9.23 Y-18.56
X-9.336 Y-18.466
X-9.457 Y-18.365
X-9.597 Y-18.25
X-9.763 Y-18.116
X-9.858 Y-18.041
X-10.074 Y-17.87
X-10.197 Y-17.774
X-10.302 Y-17.689
X-10.412 Y-17.594
X-10.634 Y-17.392
X-10.834 Y-17.192
X-10.917 Y-17.102
X-10.985 Y-17.023
X-11.084 Y-16.882
X-11.17 Y-16.729
X-11.238 Y-16.574
X-11.282 Y-16.428
X-11.293 Y-16.36
X-11.3 Y-16.28
X-11.303 Y-16.103
X-11.29 Y-15.927
X-11.278 Y-15.847
X-11.263 Y-15.779
X-11.217 Y-15.646
X-11.149 Y-15.496
X-11.07 Y-15.349
X-10.992 Y-15.227
X-10.901 Y-15.115
X-10.799 Y-15.009
X-10.688 Y-14.912
X-10.569 Y-14.823
X-10.446 Y-14.744
X-10.317 Y-14.676
X-10.186 Y-14.62
X-10.054 Y-14.578
X-9.903 Y-14.549
X-9.818 Y-14.542
X-9.723 Y-14.538
X-9.509 Y-14.55
X-9.312 Y-14.593
X-9.124 Y-14.668
X-8.937 Y-14.78
X-8.816 Y-14.863
Z5
X-45.155 Y-12.622
Z0.25 F150
Y-12.378 F300
X-45.195 Y-12.138
X-45.272 Y-11.907
X-45.385 Y-11.691
X-45.531 Y-11.496
X-45.707 Y-11.327
X-45.908 Y-11.189
X-46.128 Y-11.085
X-46.362 Y-11.017
X-46.604 Y-10.987
X-46.847 Y-10.997
X-47.086 Y-11.046
X-47.313 Y-11.132
X-47.525 Y-11.254
X-47.713 Y-11.408
X-47.875 Y-11.59
X-48.005 Y-11.797
X-48.1 Y-12.021
X-48.159 Y-12.257
X-48.178 Y-12.5
X-48.159 Y-12.743
X-48.1 Y-12.979
X-48.005 Y-13.203
X-47.875 Y-13.41
X-47.713 Y-13.592
X-47.525 Y-13.746
X-47.313 Y-13.868
X-47.086 Y-13.954
X-46.847 Y-14.003
X-46.604 Y-14.013
X-46.362 Y-13.983
X-46.128 Y-13.915
X-45.908 Y-13.811
X-45.707 Y-13.673
X-45.531 Y-13.504
X-45.385 Y-13.309
X-45.272 Y-13.093
X-45.195 Y-12.862
X-45.155 Y-12.622
Z5
X-37.877 Y-14.988
Z0 F150
X-35.377 Y-14.987 F300
X-34.846 Y-12.487
X-36.274
X-36.503 Y-13.559
X-37.574
X-37.749 Y-13.492
X-37.906 Y-13.416
X-37.973 Y-13.37
X-38.03 Y-13.319
X-38.074 Y-13.26
X-38.105 Y-13.194
X-38.124 Y-13.12
X-38.134 Y-13.041
X-38.129 Y-12.868
X-38.1 Y-12.681
X-38.06 Y-12.488
X-38.011 Y-12.286
X-37.953 Y-12.093
X-37.88 Y-11.915
X-37.783 Y-11.761
X-37.722 Y-11.695
X-37.653 Y-11.638
X-37.493 Y-11.546
X-37.311 Y-11.476
X-37.118 Y-11.416
X-35.332 Y-11.415
X-34.314 Y-9.987
X-36.814
X-37.331 Y-10.094
X-37.582 Y-10.156
X-37.824 Y-10.229
X-38.054 Y-10.315
X-38.268 Y-10.418
X-38.464 Y-10.542
X-38.639 Y-10.69
X-38.792 Y-10.861
X-38.927 Y-11.054
X-39.045 Y-11.266
X-39.15 Y-11.492
X-39.244 Y-11.73
X-39.33 Y-11.978
X-39.489 Y-12.488
X-39.551 Y-12.989
X-39.573 Y-13.233
X-39.582 Y-13.468
X-39.575 Y-13.691
X-39.548 Y-13.901
X-39.498 Y-14.093
X-39.419 Y-14.265
X-39.368 Y-14.342
X-39.308 Y-14.414
X-39.165 Y-14.539
X-38.993 Y-14.645
X-38.798 Y-14.734
X-38.584 Y-14.809
X-38.357 Y-14.874
X-37.877 Y-14.988
Z5
X-34.695 Y-14.987
Z0 F150
X-33.267 Y-14.986 F300
X-32.81 Y-12.844
X-31.749 Y-14.986
X-29.963
X-30.867 Y-13.365
X-30.65 Y-13.221
X-30.443 Y-13.069
X-30.257 Y-12.903
X-30.174 Y-12.812
X-30.1 Y-12.715
X-29.976 Y-12.502
X-29.879 Y-12.269
X-29.799 Y-12.023
X-29.728 Y-11.771
X-29.703 Y-11.388
X-29.698 Y-11.203
X-29.703 Y-11.025
X-29.72 Y-10.858
X-29.754 Y-10.703
X-29.806 Y-10.563
X-29.881 Y-10.441
X-29.981 Y-10.339
X-30.103 Y-10.255
X-30.245 Y-10.186
X-30.403 Y-10.131
X-30.574 Y-10.085
X-30.754 Y-10.048
X-31.132 Y-9.986
X-33.632 Y-9.987
X-33.935 Y-11.415
X-31.435
X-31.29 Y-11.444
X-31.23 Y-11.469
X-31.186 Y-11.506
X-31.16 Y-11.558
X-31.151 Y-11.623
X-31.157 Y-11.772
X-31.215 Y-11.921
X-31.253 Y-11.986
X-31.301 Y-12.038
X-31.361 Y-12.075
X-31.431 Y-12.1
X-31.589 Y-12.129
X-34.089 Y-12.13
X-34.695 Y-14.987
Z5
X-29.14 Y-13.736
Z0 F150
X-29.852 Y-14.986 F300
X-28.335 Y-14.985
X-26.764 Y-12.217
X-26.37 Y-14.985
X-24.852 Y-14.984
X-25.575 Y-9.985
X-27.004
X-29.14 Y-13.736
Z5
X-24.61 Y-13.412
Z0 F150
X-24.549 Y-13.629 F300
X-24.458 Y-13.84
X-24.347 Y-14.047
X-24.226 Y-14.252
X-24.058 Y-14.416
X-23.885 Y-14.57
X-23.704 Y-14.705
X-23.509 Y-14.813
X-23.3 Y-14.886
X-23.078 Y-14.934
X-22.613 Y-14.984
X-21.185
X-20.167 Y-13.555
X-22.31
X-22.509 Y-13.534
X-22.604 Y-13.513
X-22.694 Y-13.481
X-22.777 Y-13.436
X-22.855 Y-13.377
X-23.001 Y-13.241
X-23.101 Y-13.065
X-23.14 Y-12.974
X-23.166 Y-12.881
X-23.177 Y-12.785
X-23.176 Y-12.686
X-23.153 Y-12.484
X-23.08 Y-12.266
X-23.036 Y-12.162
X-22.982 Y-12.064
X-22.917 Y-11.973
X-22.842 Y-11.888
X-22.678 Y-11.727
X-22.491 Y-11.598
X-22.394 Y-11.542
X-22.293 Y-11.496
X-22.188 Y-11.462
X-22.079 Y-11.44
X-21.853 Y-11.412
X-20.425
X-19.407 Y-9.983
X-21.55 Y-9.984
X-22.076 Y-10.047
X-22.331 Y-10.1
X-22.577 Y-10.178
X-22.812 Y-10.285
X-23.038 Y-10.415
X-23.475 Y-10.716
X-23.858 Y-11.093
X-24.031 Y-11.292
X-24.183 Y-11.504
X-24.309 Y-11.733
X-24.412 Y-11.976
X-24.582 Y-12.484
X-24.633 Y-12.956
X-24.635 Y-13.187
X-24.61 Y-13.412
Z5
X-19.838 Y-13.555
Z0 F150
X-20.142 Y-14.983 F300
X-16.927
X-15.91 Y-13.554
X-19.838 Y-13.555
Z5
X-19.764 Y-13.198
Z0 F150
X-16.549 Y-13.197 F300
X-15.532 Y-11.768
X-19.46 Y-11.769
X-19.764 Y-13.198
Z5
X-19.382 Y-11.412
Z0 F150
X-16.168 Y-11.411 F300
X-15.15 Y-9.982
X-19.079 Y-9.983
X-19.382 Y-11.412
Z5
X-12.196 Y-7.863
Z0 F150
X-11.474 Y-8.255 F300
X-10.756 Y-8.657
X-10.465 Y-8.81
X-10.184 Y-8.98
X-9.905 Y-9.153
X-9.62 Y-9.315
X-9.478 Y-9.402
X-9.323 Y-9.478
X-9.003 Y-9.625
X-8.851 Y-9.706
X-8.713 Y-9.8
X-8.596 Y-9.914
X-8.548 Y-9.98
X-8.508 Y-10.053
X-8.573 Y-10.115
X-8.603 Y-10.172
X-8.607 Y-10.224
X-8.59 Y-10.275
X-8.52 Y-10.376
X-8.444 Y-10.488
X-7.745 Y-10.988
X-7.396 Y-11.237
X-7.039 Y-11.472
X-7.021 Y-11.504
X-7.004 Y-11.516
X-6.989 Y-11.513
X-6.974 Y-11.5
X-6.944 Y-11.461
X-6.911 Y-11.434
X-6.868 Y-11.472
X-6.831 Y-11.489
X-6.8 Y-11.487
X-6.772 Y-11.47
X-6.719 Y-11.403
X-6.66 Y-11.311
X-6.528 Y-11.051
X-6.385 Y-10.798
X-6.321 Y-10.669
X-6.27 Y-10.536
X-6.234 Y-10.397
X-6.22 Y-10.25
X-6.106 Y-10.033
X-5.987 Y-9.802
X-5.924 Y-9.693
X-5.857 Y-9.597
X-5.785 Y-9.516
X-5.709 Y-9.457
X-5.662 Y-9.459
X-5.607 Y-9.449
X-5.548 Y-9.427
X-5.492 Y-9.396
X-5.443 Y-9.356
X-5.406 Y-9.308
X-5.386 Y-9.254
X-5.389 Y-9.195
X-5.341 Y-9.213
X-5.305 Y-9.219
X-5.28 Y-9.215
X-5.263 Y-9.202
X-5.249 Y-9.156
Y-9.093
X-5.25 Y-9.025
X-5.239 Y-8.963
X-5.224 Y-8.938
X-5.2 Y-8.918
X-5.167 Y-8.907
X-5.122 Y-8.904
X-5.177 Y-8.933
X-5.213 Y-8.959
X-5.23 Y-8.98
X-5.233 Y-8.998
X-5.223 Y-9.011
X-5.204 Y-9.021
X-5.147 Y-9.028
X-5.084 Y-9.018
X-5.036 Y-8.99
X-5.024 Y-8.97
Y-8.945
X-5.038 Y-8.916
X-5.07 Y-8.882
X-4.908 Y-8.817
X-4.773 Y-8.739
X-4.714 Y-8.689
X-4.661 Y-8.63
X-4.612 Y-8.559
X-4.567 Y-8.475
X-4.89 Y-8.061
X-5.203 Y-7.639
X-5.172 Y-6.728
X-5.153 Y-5.817
X-5.14 Y-3.993
X-4.756 Y-3.506
X-4.571 Y-3.258
X-4.394 Y-3.003
X-4.346 Y-2.962
X-4.309 Y-2.923
X-4.283 Y-2.888
X-4.267 Y-2.857
X-4.263 Y-2.804
X-4.289 Y-2.764
X-4.341 Y-2.737
X-4.412 Y-2.724
X-4.496 Y-2.723
X-4.586 Y-2.735
X-4.708 Y-2.767
X-4.825 Y-2.769
X-4.936 Y-2.747
X-5.041 Y-2.704
X-5.142 Y-2.646
X-5.239 Y-2.576
X-5.423 Y-2.421
X-5.608 Y-2.493
X-5.788 Y-2.576
X-6.143 Y-2.754
X-6.186 Y-2.77
X-6.225 Y-2.797
X-6.295 Y-2.877
X-6.415 Y-3.081
X-6.471 Y-3.171
X-6.528 Y-3.231
X-6.557 Y-3.244
X-6.589 Y-3.243
X-6.622 Y-3.225
X-6.657 Y-3.19
X-6.832 Y-3.154
X-7.008 Y-3.133
X-7.363 Y-3.117
X-7.72 Y-3.11
X-7.897 Y-3.1
X-8.073 Y-3.079
X-8.556 Y-2.751
X-9.033 Y-2.408
X-9.122 Y-2.336
X-9.217 Y-2.281
X-9.321 Y-2.252
X-9.377 Y-2.249
X-9.436 Y-2.256
X-9.649 Y-2.25
X-9.864 Y-2.253
X-9.969 Y-2.245
X-10.071 Y-2.225
X-10.168 Y-2.187
X-10.258 Y-2.126
X-10.383 Y-2.1
X-10.511 Y-2.086
X-10.774 Y-2.082
X-11.039 Y-2.089
X-11.3 Y-2.083
X-11.576 Y-2.08
X-11.714 Y-2.081
X-11.843 Y-2.102
X-11.905 Y-2.173
X-11.984 Y-2.245
X-12.149 Y-2.387
X-12.211 Y-2.459
X-12.242 Y-2.533
X-12.243 Y-2.57
X-12.232 Y-2.608
X-12.207 Y-2.646
X-12.167 Y-2.685
X-12.134 Y-2.774
X-12.083 Y-2.847
X-11.956 Y-2.971
X-11.894 Y-3.032
X-11.844 Y-3.102
X-11.812 Y-3.185
X-11.805 Y-3.288
X-11.818 Y-3.381
X-11.806 Y-3.464
X-11.776 Y-3.539
X-11.732 Y-3.609
X-11.623 Y-3.744
X-11.522 Y-3.891
X-11.471 Y-3.991
X-11.433 Y-4.095
X-11.382 Y-4.31
X-11.332 Y-4.527
X-11.295 Y-4.634
X-11.244 Y-4.739
X-11.245 Y-4.838
X-11.264 Y-4.933
X-11.333 Y-5.115
X-11.413 Y-5.287
X-11.445 Y-5.37
X-11.464 Y-5.452
X-11.526 Y-5.477
X-11.58 Y-5.508
X-11.665 Y-5.59
X-11.731 Y-5.69
X-11.786 Y-5.799
X-11.841 Y-5.91
X-11.906 Y-6.014
X-11.991 Y-6.103
X-12.043 Y-6.139
X-12.105 Y-6.168
X-12.162 Y-6.318
X-12.202 Y-6.472
X-12.239 Y-6.62
X-12.285 Y-6.752
X-12.222 Y-6.804
X-12.168 Y-6.871
X-12.073 Y-7.018
X-12.026 Y-7.082
X-11.976 Y-7.13
X-11.92 Y-7.154
X-11.854 Y-7.146
X-11.864 Y-7.089
X-11.853 Y-7.049
X-11.825 Y-7.02
X-11.783 Y-7
X-11.667 Y-6.97
X-11.529 Y-6.928
X-11.471 Y-6.973
X-11.43 Y-7.011
X-11.404 Y-7.042
X-11.391 Y-7.067
X-11.39 Y-7.088
X-11.4 Y-7.103
X-11.444 Y-7.125
X-11.513 Y-7.138
X-11.594 Y-7.147
X-11.675 Y-7.159
X-11.746 Y-7.18
X-11.743 Y-7.233
X-11.748 Y-7.27
X-11.76 Y-7.293
X-11.778 Y-7.305
X-11.828 Y-7.302
X-11.888 Y-7.276
X-11.951 Y-7.245
X-12.007 Y-7.225
X-12.049 Y-7.231
X-12.062 Y-7.248
X-12.067 Y-7.279
X-12.116 Y-7.316
X-12.15 Y-7.353
X-12.17 Y-7.391
X-12.178 Y-7.429
X-12.17 Y-7.505
X-12.144 Y-7.581
X-12.115 Y-7.655
X-12.103 Y-7.728
X-12.108 Y-7.763
X-12.124 Y-7.797
X-12.153 Y-7.83
X-12.196 Y-7.863
Z5
X-6.301 Y-12.566
Z0 F150
X-6.469 Y-12.599 F300
X-6.643 Y-12.648
X-6.861 Y-12.731
X-7.085 Y-12.837
X-7.294 Y-12.955
X-7.385 Y-13.016
X-7.464 Y-13.074
X-7.521 Y-13.123
X-7.593 Y-13.189
X-7.76 Y-13.352
X-7.921 Y-13.518
X-7.986 Y-13.59
X-8.033 Y-13.646
X-8.152 Y-13.816
X-8.259 Y-14.007
X-8.353 Y-14.212
X-8.43 Y-14.426
X-8.49 Y-14.641
X-8.53 Y-14.851
X-8.548 Y-15.05
X-8.541 Y-15.232
X-8.507 Y-15.439
X-8.454 Y-15.619
X-8.379 Y-15.779
X-8.28 Y-15.923
X-8.242 Y-15.968
X-8.213 Y-16.001
X-8.189 Y-16.02
X-8.173 Y-16.027
X-8.161 Y-16.022
X-8.155 Y-16.004
X-8.152 Y-15.973
X-8.154 Y-15.93
Y-15.861
X-8.15 Y-15.765
X-8.142 Y-15.65
X-8.13 Y-15.525
X-8.101 Y-15.271
X-8.085 Y-15.16
X-8.069 Y-15.069
X-8.006 Y-14.831
X-7.917 Y-14.602
X-7.804 Y-14.384
X-7.668 Y-14.18
X-7.512 Y-13.993
X-7.337 Y-13.824
X-7.146 Y-13.676
X-6.939 Y-13.552
X-6.804 Y-13.491
X-6.66 Y-13.443
X-6.51 Y-13.409
X-6.352 Y-13.388
X-6.189 Y-13.381
X-6.021 Y-13.388
X-5.848 Y-13.409
X-5.671 Y-13.444
X-5.408 Y-13.525
X-5.162 Y-13.639
X-4.937 Y-13.784
X-4.733 Y-13.958
X-4.555 Y-14.159
X-4.402 Y-14.385
X-4.279 Y-14.634
X-4.186 Y-14.904
X-4.155 Y-15.018
X-4.131 Y-15.121
X-4.098 Y-15.304
X-4.083 Y-15.475
X-4.084 Y-15.656
X-4.099 Y-15.831
X-4.127 Y-15.995
X-4.17 Y-16.152
X-4.229 Y-16.304
X-4.307 Y-16.455
X-4.404 Y-16.608
X-4.522 Y-16.765
X-4.662 Y-16.929
X-4.741 Y-17.014
X-4.842 Y-17.111
X-4.964 Y-17.223
X-5.109 Y-17.351
X-5.279 Y-17.495
X-5.474 Y-17.657
X-5.697 Y-17.838
X-6.074 Y-18.14
X-6.185 Y-18.231
X-6.381 Y-18.4
X-6.477 Y-18.488
X-6.578 Y-18.584
X-6.69 Y-18.694
X-6.818 Y-18.822
X-6.897 Y-18.902
X-6.969 Y-18.974
X-7.091 Y-19.101
X-7.191 Y-19.209
X-7.274 Y-19.305
X-7.411 Y-19.486
X-7.475 Y-19.584
X-7.543 Y-19.695
X-7.586 Y-19.771
X-7.637 Y-19.868
X-7.751 Y-20.093
X-7.856 Y-20.315
X-7.897 Y-20.408
X-7.925 Y-20.478
X-7.957 Y-20.581
X-7.989 Y-20.713
X-8.019 Y-20.864
X-8.046 Y-21.028
X-8.088 Y-21.361
X-8.1 Y-21.515
X-8.104 Y-21.649
X-8.103 Y-21.705
X-8.102 Y-21.751
X-8.1 Y-21.78
X-8.098 Y-21.789
X-8.089 Y-21.773
X-8.071 Y-21.735
X-8.047 Y-21.681
X-8.017 Y-21.615
X-7.94 Y-21.452
X-7.849 Y-21.284
X-7.739 Y-21.099
X-7.675 Y-20.998
X-7.604 Y-20.889
X-7.49 Y-20.719
X-7.384 Y-20.57
X-7.283 Y-20.437
X-7.182 Y-20.315
X-6.964 Y-20.084
X-6.839 Y-19.966
X-6.696 Y-19.839
X-6.59 Y-19.746
X-6.504 Y-19.671
X-6.483 Y-19.654
X-6.451 Y-19.629
X-6.359 Y-19.56
X-6.24 Y-19.476
X-6.109 Y-19.384
X-5.584 Y-19.021
X-5.484 Y-18.953
X-5.362 Y-18.87
X-5.233 Y-18.783
X-5.111 Y-18.702
X-4.885 Y-18.545
X-4.685 Y-18.389
X-4.489 Y-18.216
X-4.387 Y-18.117
X-4.277 Y-18.008
X-4.164 Y-17.892
X-4.061 Y-17.782
X-3.879 Y-17.578
X-3.726 Y-17.387
X-3.596 Y-17.201
X-3.485 Y-17.01
X-3.385 Y-16.807
X-3.293 Y-16.581
X-3.201 Y-16.326
X-3.156 Y-16.17
X-3.122 Y-16
X-3.099 Y-15.82
X-3.087 Y-15.633
X-3.085 Y-15.441
X-3.095 Y-15.248
X-3.117 Y-15.056
X-3.149 Y-14.869
X-3.179 Y-14.749
X-3.222 Y-14.614
X-3.336 Y-14.318
X-3.473 Y-14.023
X-3.546 Y-13.889
X-3.617 Y-13.77
X-3.745 Y-13.592
X-3.89 Y-13.422
X-4.051 Y-13.262
X-4.225 Y-13.115
X-4.409 Y-12.983
X-4.601 Y-12.866
X-4.798 Y-12.769
X-4.998 Y-12.691
X-5.224 Y-12.626
X-5.448 Y-12.58
X-5.679 Y-12.553
X-5.925 Y-12.544
X-6.124 Y-12.549
X-6.301 Y-12.566
Z5
X-8.816 Y-14.863
Z0 F150
X-8.865 Y-14.778 F300
X-8.911 Y-14.701
X-8.95 Y-14.645
X-8.995 Y-14.591
X-9.062 Y-14.521
X-9.208 Y-14.392
X-9.376 Y-14.288
X-9.572 Y-14.206
X-9.8 Y-14.143
X-9.879 Y-14.128
X-9.967 Y-14.118
X-10.162 Y-14.108
X-10.361 Y-14.113
X-10.543 Y-14.134
X-10.678 Y-14.163
X-10.814 Y-14.205
X-10.95 Y-14.258
X-11.084 Y-14.322
X-11.215 Y-14.395
X-11.342 Y-14.478
X-11.463 Y-14.57
X-11.578 Y-14.67
X-11.67 Y-14.767
X-11.761 Y-14.882
X-11.849 Y-15.012
X-11.931 Y-15.152
X-12.005 Y-15.298
X-12.069 Y-15.447
X-12.12 Y-15.594
X-12.158 Y-15.735
X-12.172 Y-15.82
X-12.182 Y-15.922
X-12.19 Y-16.159
X-12.182 Y-16.402
X-12.172 Y-16.513
X-12.158 Y-16.61
X-12.134 Y-16.735
X-12.109 Y-16.843
X-12.05 Y-17.027
X-11.967 Y-17.199
X-11.911 Y-17.293
X-11.843 Y-17.398
X-11.748 Y-17.534
X-11.653 Y-17.656
X-11.554 Y-17.768
X-11.446 Y-17.874
X-11.325 Y-17.978
X-11.187 Y-18.083
X-11.028 Y-18.194
X-10.843 Y-18.314
X-10.644 Y-18.441
X-10.51 Y-18.526
X-10.463 Y-18.556
X-10.4 Y-18.597
X-10.07 Y-18.805
X-9.907 Y-18.908
X-9.765 Y-18.999
X-9.644 Y-19.078
X-9.542 Y-19.146
X-9.458 Y-19.205
X-9.389 Y-19.254
X-9.335 Y-19.296
X-9.205 Y-19.403
X-9.088 Y-19.508
X-8.984 Y-19.611
X-8.89 Y-19.712
X-8.808 Y-19.813
X-8.735 Y-19.914
X-8.618 Y-20.119
X-8.557 Y-20.261
X-8.515 Y-20.387
X-8.49 Y-20.515
X-8.476 Y-20.66
X-8.467 Y-20.834
X-8.435 Y-20.771
X-8.418 Y-20.736
X-8.398 Y-20.687
X-8.355 Y-20.571
X-8.329 Y-20.49
X-8.314 Y-20.414
X-8.308 Y-20.318
X-8.307 Y-20.253
Y-20.171
Y-20.093
X-8.308 Y-20.028
X-8.315 Y-19.925
X-8.329 Y-19.837
X-8.354 Y-19.739
X-8.394 Y-19.611
X-8.443 Y-19.489
X-8.502 Y-19.372
X-8.575 Y-19.256
X-8.662 Y-19.138
X-8.766 Y-19.015
X-8.889 Y-18.884
X-9.033 Y-18.742
X-9.23 Y-18.56
X-9.336 Y-18.466
X-9.457 Y-18.365
X-9.597 Y-18.25
X-9.763 Y-18.116
X-9.858 Y-18.041
X-10.074 Y-17.87
X-10.197 Y-17.774
X-10.302 Y-17.689
X-10.412 Y-17.594
X-10.634 Y-17.392
X-10.834 Y-17.192
X-10.917 Y-17.102
X-10.985 Y-17.023
X-11.084 Y-16.882
X-11.17 Y-16.729
X-11.238 Y-16.574
X-11.282 Y-16.428
X-11.293 Y-16.36
X-11.3 Y-16.28
X-11.303 Y-16.103
X-11.29 Y-15.927
X-11.278 Y-15.847
X-11.263 Y-15.779
X-11.217 Y-15.646
X-11.149 Y-15.496
X-11.07 Y-15.349
X-10.992 Y-15.227
X-10.901 Y-15.115
X-10.799 Y-15.009
X-10.688 Y-14.912
X-10.569 Y-14.823
X-10.446 Y-14.744
X-10.317 Y-14.676
X-10.186 Y-14.62
X-10.054 Y-14.578
X-9.903 Y-14.549
X-9.818 Y-14.542
X-9.723 Y-14.538
X-9.509 Y-14.55
X-9.312 Y-14.593
X-9.124 Y-14.668
X-8.937 Y-14.78
X-8.816 Y-14.863
Z5
X-45.155 Y-12.622
Z0 F150
Y-12.378 F300
X-45.195 Y-12.138
X-45.272 Y-11.907
X-45.385 Y-11.691
X-45.531 Y-11.496
X-45.707 Y-11.327
X-45.908 Y-11.189
X-46.128 Y-11.085
X-46.362 Y-11.017
X-46.604 Y-10.987
X-46.847 Y-10.997
X-47.086 Y-11.046
X-47.313 Y-11.132
X-47.525 Y-11.254
X-47.713 Y-11.408
X-47.875 Y-11.59
X-48.005 Y-11.797
X-48.1 Y-12.021
X-48.159 Y-12.257
X-48.178 Y-12.5
X-48.159 Y-12.743
X-48.1 Y-12.979
X-48.005 Y-13.203
X-47.875 Y-13.41
X-47.713 Y-13.592
X-47.525 Y-13.746
X-47.313 Y-13.868
X-47.086 Y-13.954
X-46.847 Y-14.003
X-46.604 Y-14.013
X-46.362 Y-13.983
X-46.128 Y-13.915
X-45.908 Y-13.811
X-45.707 Y-13.673
X-45.531 Y-13.504
X-45.385 Y-13.309
X-45.272 Y-13.093
X-45.195 Y-12.862
X-45.155 Y-12.622
Z5
Z15
(When using Fusion 360 for Personal Use, the feedrate of)
(rapid moves is reduced to match the feedrate of cutting)
(moves, which can increase machining time. Unrestricted rapid)
(moves are available with a Fusion 360 Subscription.)

(Trace3)
G0 X-7.028 Y-25
G1 Z15 F300
Z5
Z0.75 F150
X-36.992 F300
X-37.446 Y-24.983
X-37.897 Y-24.931
X-38.343 Y-24.846
X-38.782 Y-24.727
X-39.21 Y-24.575
X-39.625 Y-24.391
X-40.026 Y-24.177
X-40.408 Y-23.933
X-40.772 Y-23.66
X-41.113 Y-23.361
X-41.431 Y-23.037
X-41.724 Y-22.689
X-45.192 Y-19.678
X-45.708 Y-19.499
X-46.21 Y-19.283
X-46.695 Y-19.031
X-47.16 Y-18.745
X-47.603 Y-18.425
X-48.021 Y-18.074
X-48.413 Y-17.694
X-48.777 Y-17.286
X-49.109 Y-16.853
X-49.41 Y-16.397
X-49.676 Y-15.92
X-49.907 Y-15.425
X-50.101 Y-14.915
X-50.258 Y-14.392
X-50.376 Y-13.858
X-50.455 Y-13.318
X-50.495 Y-12.773
Y-12.227
X-50.455 Y-11.682
X-50.376 Y-11.142
X-50.258 Y-10.608
X-50.101 Y-10.085
X-49.907 Y-9.575
X-49.676 Y-9.08
X-49.41 Y-8.603
X-49.109 Y-8.147
X-48.777 Y-7.714
X-48.413 Y-7.306
X-48.021 Y-6.925
X-47.603 Y-6.575
X-47.16 Y-6.255
X-46.695 Y-5.969
X-46.21 Y-5.717
X-45.708 Y-5.501
X-45.192 Y-5.322
X-41.724 Y-2.311
X-41.431 Y-1.963
X-41.113 Y-1.639
X-40.772 Y-1.34
X-40.408 Y-1.067
X-40.026 Y-0.823
X-39.625 Y-0.609
X-39.21 Y-0.425
X-38.782 Y-0.273
X-38.343 Y-0.154
X-37.897 Y-0.069
X-37.446 Y-0.017
X-36.992 Y0
X-7.028
X-6.557 Y-0.018
X-6.089 Y-0.074
X-5.627 Y-0.166
X-5.174 Y-0.294
X-4.732 Y-0.457
X-4.304 Y-0.654
X-3.893 Y-0.884
X-3.501 Y-1.146
X-3.131 Y-1.438
X-2.785 Y-1.757
X-2.465 Y-2.103
X-2.174 Y-2.473
X-1.912 Y-2.865
X-1.682 Y-3.276
X-1.485 Y-3.704
X-1.322 Y-4.146
X-1.194 Y-4.599
X-1.102 Y-5.061
X-1.046 Y-5.529
X-1.028 Y-6
Y-19
X-1.046 Y-19.471
X-1.102 Y-19.939
X-1.194 Y-20.401
X-1.322 Y-20.854
X-1.485 Y-21.296
X-1.682 Y-21.724
X-1.912 Y-22.135
X-2.174 Y-22.527
X-2.465 Y-22.897
X-2.785 Y-23.243
X-3.131 Y-23.562
X-3.501 Y-23.854
X-3.893 Y-24.116
X-4.304 Y-24.346
X-4.732 Y-24.543
X-5.174 Y-24.706
X-5.627 Y-24.834
X-6.089 Y-24.926
X-6.557 Y-24.982
X-7.028 Y-25
Z0.5 F150
X-36.992 F300
X-37.446 Y-24.983
X-37.897 Y-24.931
X-38.343 Y-24.846
X-38.782 Y-24.727
X-39.21 Y-24.575
X-39.625 Y-24.391
X-40.026 Y-24.177
X-40.408 Y-23.933
X-40.772 Y-23.66
X-41.113 Y-23.361
X-41.431 Y-23.037
X-41.724 Y-22.689
X-45.192 Y-19.678
X-45.708 Y-19.499
X-46.21 Y-19.283
X-46.695 Y-19.031
X-47.16 Y-18.745
X-47.603 Y-18.425
X-48.021 Y-18.074
X-48.413 Y-17.694
X-48.777 Y-17.286
X-49.109 Y-16.853
X-49.41 Y-16.397
X-49.676 Y-15.92
X-49.907 Y-15.425
X-50.101 Y-14.915
X-50.258 Y-14.392
X-50.376 Y-13.858
X-50.455 Y-13.318
X-50.495 Y-12.773
Y-12.227
X-50.455 Y-11.682
X-50.376 Y-11.142
X-50.258 Y-10.608
X-50.101 Y-10.085
X-49.907 Y-9.575
X-49.676 Y-9.08
X-49.41 Y-8.603
X-49.109 Y-8.147
X-48.777 Y-7.714
X-48.413 Y-7.306
X-48.021 Y-6.925
X-47.603 Y-6.575
X-47.16 Y-6.255
X-46.695 Y-5.969
X-46.21 Y-5.717
X-45.708 Y-5.501
X-45.192 Y-5.322
X-41.724 Y-2.311
X-41.431 Y-1.963
X-41.113 Y-1.639
X-40.772 Y-1.34
X-40.408 Y-1.067
X-40.026 Y-0.823
X-39.625 Y-0.609
X-39.21 Y-0.425
X-38.782 Y-0.273
X-38.343 Y-0.154
X-37.897 Y-0.069
X-37.446 Y-0.017
X-36.992 Y0
X-7.028
X-6.557 Y-0.018
X-6.089 Y-0.074
X-5.627 Y-0.166
X-5.174 Y-0.294
X-4.732 Y-0.457
X-4.304 Y-0.654
X-3.893 Y-0.884
X-3.501 Y-1.146
X-3.131 Y-1.438
X-2.785 Y-1.757
X-2.465 Y-2.103
X-2.174 Y-2.473
X-1.912 Y-2.865
X-1.682 Y-3.276
X-1.485 Y-3.704
X-1.322 Y-4.146
X-1.194 Y-4.599
X-1.102 Y-5.061
X-1.046 Y-5.529
X-1.028 Y-6
Y-19
X-1.046 Y-19.471
X-1.102 Y-19.939
X-1.194 Y-20.401
X-1.322 Y-20.854
X-1.485 Y-21.296
X-1.682 Y-21.724
X-1.912 Y-22.135
X-2.174 Y-22.527
X-2.465 Y-22.897
X-2.785 Y-23.243
X-3.131 Y-23.562
X-3.501 Y-23.854
X-3.893 Y-24.116
X-4.304 Y-24.346
X-4.732 Y-24.543
X-5.174 Y-24.706
X-5.627 Y-24.834
X-6.089 Y-24.926
X-6.557 Y-24.982
X-7.028 Y-25
Z0.25 F150
X-36.992 F300
X-37.446 Y-24.983
X-37.897 Y-24.931
X-38.343 Y-24.846
X-38.782 Y-24.727
X-39.21 Y-24.575
X-39.625 Y-24.391
X-40.026 Y-24.177
X-40.408 Y-23.933
X-40.772 Y-23.66
X-41.113 Y-23.361
X-41.431 Y-23.037
X-41.724 Y-22.689
X-45.192 Y-19.678
X-45.708 Y-19.499
X-46.21 Y-19.283
X-46.695 Y-19.031
X-47.16 Y-18.745
X-47.603 Y-18.425
X-48.021 Y-18.074
X-48.413 Y-17.694
X-48.777 Y-17.286
X-49.109 Y-16.853
X-49.41 Y-16.397
X-49.676 Y-15.92
X-49.907 Y-15.425
X-50.101 Y-14.915
X-50.258 Y-14.392
X-50.376 Y-13.858
X-50.455 Y-13.318
X-50.495 Y-12.773
Y-12.227
X-50.455 Y-11.682
X-50.376 Y-11.142
X-50.258 Y-10.608
X-50.101 Y-10.085
X-49.907 Y-9.575
X-49.676 Y-9.08
X-49.41 Y-8.603
X-49.109 Y-8.147
X-48.777 Y-7.714
X-48.413 Y-7.306
X-48.021 Y-6.925
X-47.603 Y-6.575
X-47.16 Y-6.255
X-46.695 Y-5.969
X-46.21 Y-5.717
X-45.708 Y-5.501
X-45.192 Y-5.322
X-41.724 Y-2.311
X-41.431 Y-1.963
X-41.113 Y-1.639
X-40.772 Y-1.34
X-40.408 Y-1.067
X-40.026 Y-0.823
X-39.625 Y-0.609
X-39.21 Y-0.425
X-38.782 Y-0.273
X-38.343 Y-0.154
X-37.897 Y-0.069
X-37.446 Y-0.017
X-36.992 Y0
X-7.028
X-6.557 Y-0.018
X-6.089 Y-0.074
X-5.627 Y-0.166
X-5.174 Y-0.294
X-4.732 Y-0.457
X-4.304 Y-0.654
X-3.893 Y-0.884
X-3.501 Y-1.146
X-3.131 Y-1.438
X-2.785 Y-1.757
X-2.465 Y-2.103
X-2.174 Y-2.473
X-1.912 Y-2.865
X-1.682 Y-3.276
X-1.485 Y-3.704
X-1.322 Y-4.146
X-1.194 Y-4.599
X-1.102 Y-5.061
X-1.046 Y-5.529
X-1.028 Y-6
Y-19
X-1.046 Y-19.471
X-1.102 Y-19.939
X-1.194 Y-20.401
X-1.322 Y-20.854
X-1.485 Y-21.296
X-1.682 Y-21.724
X-1.912 Y-22.135
X-2.174 Y-22.527
X-2.465 Y-22.897
X-2.785 Y-23.243
X-3.131 Y-23.562
X-3.501 Y-23.854
X-3.893 Y-24.116
X-4.304 Y-24.346
X-4.732 Y-24.543
X-5.174 Y-24.706
X-5.627 Y-24.834
X-6.089 Y-24.926
X-6.557 Y-24.982
X-7.028 Y-25
Z0 F150
X-36.992 F300
X-37.446 Y-24.983
X-37.897 Y-24.931
X-38.343 Y-24.846
X-38.782 Y-24.727
X-39.21 Y-24.575
X-39.625 Y-24.391
X-40.026 Y-24.177
X-40.408 Y-23.933
X-40.772 Y-23.66
X-41.113 Y-23.361
X-41.431 Y-23.037
X-41.724 Y-22.689
X-45.192 Y-19.678
X-45.708 Y-19.499
X-46.21 Y-19.283
X-46.695 Y-19.031
X-47.16 Y-18.745
X-47.603 Y-18.425
X-48.021 Y-18.074
X-48.413 Y-17.694
X-48.777 Y-17.286
X-49.109 Y-16.853
X-49.41 Y-16.397
X-49.676 Y-15.92
X-49.907 Y-15.425
X-50.101 Y-14.915
X-50.258 Y-14.392
X-50.376 Y-13.858
X-50.455 Y-13.318
X-50.495 Y-12.773
Y-12.227
X-50.455 Y-11.682
X-50.376 Y-11.142
X-50.258 Y-10.608
X-50.101 Y-10.085
X-49.907 Y-9.575
X-49.676 Y-9.08
X-49.41 Y-8.603
X-49.109 Y-8.147
X-48.777 Y-7.714
X-48.413 Y-7.306
X-48.021 Y-6.925
X-47.603 Y-6.575
X-47.16 Y-6.255
X-46.695 Y-5.969
X-46.21 Y-5.717
X-45.708 Y-5.501
X-45.192 Y-5.322
X-41.724 Y-2.311
X-41.431 Y-1.963
X-41.113 Y-1.639
X-40.772 Y-1.34
X-40.408 Y-1.067
X-40.026 Y-0.823
X-39.625 Y-0.609
X-39.21 Y-0.425
X-38.782 Y-0.273
X-38.343 Y-0.154
X-37.897 Y-0.069
X-37.446 Y-0.017
X-36.992 Y0
X-7.028
X-6.557 Y-0.018
X-6.089 Y-0.074
X-5.627 Y-0.166
X-5.174 Y-0.294
X-4.732 Y-0.457
X-4.304 Y-0.654
X-3.893 Y-0.884
X-3.501 Y-1.146
X-3.131 Y-1.438
X-2.785 Y-1.757
X-2.465 Y-2.103
X-2.174 Y-2.473
X-1.912 Y-2.865
X-1.682 Y-3.276
X-1.485 Y-3.704
X-1.322 Y-4.146
X-1.194 Y-4.599
X-1.102 Y-5.061
X-1.046 Y-5.529
X-1.028 Y-6
Y-19
X-1.046 Y-19.471
X-1.102 Y-19.939
X-1.194 Y-20.401
X-1.322 Y-20.854
X-1.485 Y-21.296
X-1.682 Y-21.724
X-1.912 Y-22.135
X-2.174 Y-22.527
X-2.465 Y-22.897
X-2.785 Y-23.243
X-3.131 Y-23.562
X-3.501 Y-23.854
X-3.893 Y-24.116
X-4.304 Y-24.346
X-4.732 Y-24.543
X-5.174 Y-24.706
X-5.627 Y-24.834
X-6.089 Y-24.926
X-6.557 Y-24.982
X-7.028 Y-25
Z5
Z15
M9
M5
M30
