(1001)
(Machine)
(  vendor: Autodesk)
(  model: Generic 3-axis)
(  description: This machine has XYZ axis on the Head)
(T3 D=1.5 CR=0 - ZMIN=-2.25 - flat end mill)
G90 G94
G17
G21
(-Attention- Property Safe Retracts is set to Clearance Height.)
(Ensure the clearance height will clear the part and or fixtures.)
(Raise the Z-axis to a safe height before starting the program.)
(When using Fusion 360 for Personal Use, the feedrate of)
(rapid moves is reduced to match the feedrate of cutting)
(moves, which can increase machining time. Unrestricted rapid)
(moves are available with a Fusion 360 Subscription.)

(Trace2)
T3
S24000 M3
G17 G90 G94
G54
M8
G0 X-39.395 Y-15.503
Z15
G1 Z3.25 F100
Z0.75 F150
X-36.395 Y-15.502 F100
X-35.757 Y-12.502
X-37.471
X-37.745 Y-13.788
X-39.031
X-39.24 Y-13.708
X-39.429 Y-13.617
X-39.51 Y-13.562
X-39.577 Y-13.501
X-39.63 Y-13.43
X-39.668 Y-13.35
X-39.691 Y-13.262
X-39.703 Y-13.167
X-39.704 Y-13.066
X-39.696 Y-12.959
X-39.662 Y-12.735
X-39.614 Y-12.503
X-39.555 Y-12.261
X-39.486 Y-12.029
X-39.398 Y-11.816
X-39.343 Y-11.719
X-39.281 Y-11.631
X-39.209 Y-11.552
X-39.126 Y-11.483
X-39.034 Y-11.424
X-38.933 Y-11.373
X-38.715 Y-11.289
X-38.483 Y-11.217
X-36.34 Y-11.216
X-35.119 Y-9.502
X-38.119 Y-9.503
X-38.74 Y-9.631
X-39.041 Y-9.705
X-39.331 Y-9.792
X-39.606 Y-9.896
X-39.863 Y-10.019
X-40.099 Y-10.168
X-40.207 Y-10.253
X-40.308 Y-10.345
X-40.493 Y-10.552
X-40.654 Y-10.783
X-40.796 Y-11.036
X-40.922 Y-11.308
X-41.035 Y-11.594
X-41.138 Y-11.891
X-41.328 Y-12.503
X-41.403 Y-13.105
X-41.429 Y-13.397
X-41.44 Y-13.679
X-41.432 Y-13.948
X-41.4 Y-14.199
X-41.339 Y-14.429
X-41.296 Y-14.535
X-41.244 Y-14.635
X-41.183 Y-14.728
X-41.111 Y-14.814
X-41.03 Y-14.893
X-40.94 Y-14.965
X-40.734 Y-15.092
X-40.5 Y-15.198
X-40.243 Y-15.288
X-39.97 Y-15.367
X-39.395 Y-15.503
Z3.25
Z5
X-35.576 Y-15.502
Z3.25
Z0.75 F150
X-33.862 F100
X-33.314 Y-12.93
X-32.041 Y-15.501
X-29.898
X-30.983 Y-13.555
X-30.722 Y-13.382
X-30.474 Y-13.201
X-30.25 Y-13.002
X-30.15 Y-12.892
X-30.061 Y-12.776
X-29.983 Y-12.651
X-29.913 Y-12.52
X-29.797 Y-12.241
X-29.701 Y-11.946
X-29.616 Y-11.643
X-29.585 Y-11.184
X-29.58 Y-10.961
X-29.585 Y-10.748
X-29.606 Y-10.547
X-29.646 Y-10.361
X-29.709 Y-10.193
X-29.799 Y-10.047
X-29.919 Y-9.925
X-30.065 Y-9.824
X-30.236 Y-9.741
X-30.425 Y-9.675
X-30.63 Y-9.62
X-30.847 Y-9.575
X-31.301 Y-9.501
X-34.3 Y-9.502
X-34.664 Y-11.216
X-31.664 Y-11.215
X-31.49 Y-11.25
X-31.418 Y-11.28
X-31.365 Y-11.325
X-31.334 Y-11.387
X-31.323 Y-11.465
X-31.33 Y-11.644
X-31.4 Y-11.823
X-31.445 Y-11.901
X-31.503 Y-11.964
X-31.575 Y-12.008
X-31.659 Y-12.038
X-31.848 Y-12.073
X-34.848
X-35.576 Y-15.502
Z3.25
Z5
X-29.081 Y-14.3
Z3.25
Z0.75 F150
X-29.765 Y-15.501 F100
X-27.943 Y-15.5
X-26.059 Y-12.178
X-25.586 Y-15.5
X-23.765 Y-15.499
X-24.632 Y-9.499
X-26.346 Y-9.5
X-29.081 Y-14.3
Z3.25
Z5
X-23.443 Y-13.743
Z3.25
Z0.75 F150
X-23.401 Y-13.873 F100
X-23.292 Y-14.126
X-23.158 Y-14.375
X-23.013 Y-14.62
X-22.811 Y-14.817
X-22.604 Y-15.002
X-22.386 Y-15.164
X-22.272 Y-15.233
X-22.153 Y-15.293
X-22.03 Y-15.342
X-21.902 Y-15.381
X-21.635 Y-15.438
X-21.359 Y-15.474
X-21.078 Y-15.499
X-19.363 Y-15.498
X-18.142 Y-13.784
X-20.714
X-20.953 Y-13.758
X-21.067 Y-13.734
X-21.175 Y-13.696
X-21.275 Y-13.64
X-21.368 Y-13.571
X-21.543 Y-13.407
X-21.663 Y-13.196
X-21.71 Y-13.087
X-21.741 Y-12.975
X-21.754 Y-12.86
X-21.753 Y-12.741
X-21.726 Y-12.499
X-21.638 Y-12.237
X-21.585 Y-12.112
X-21.521 Y-11.995
X-21.442 Y-11.886
X-21.353 Y-11.783
X-21.156 Y-11.59
X-20.931 Y-11.435
X-20.815 Y-11.368
X-20.694 Y-11.313
X-20.568 Y-11.273
X-20.436 Y-11.245
X-20.166 Y-11.213
X-18.452 Y-11.212
X-17.23 Y-9.498
X-19.802
X-20.119 Y-9.531
X-20.433 Y-9.575
X-20.739 Y-9.638
X-21.034 Y-9.731
X-21.316 Y-9.859
X-21.587 Y-10.016
X-21.851 Y-10.192
X-22.112 Y-10.377
X-22.346 Y-10.601
X-22.571 Y-10.829
X-22.779 Y-11.068
X-22.962 Y-11.323
X-23.113 Y-11.597
X-23.237 Y-11.889
X-23.343 Y-12.191
X-23.44 Y-12.499
X-23.476 Y-12.783
X-23.502 Y-13.065
X-23.504 Y-13.342
X-23.494 Y-13.478
X-23.474 Y-13.612
X-23.443 Y-13.743
Z3.25
Z5
X-17.748 Y-13.783
Z3.25
Z0.75 F150
X-18.112 Y-15.498 F100
X-14.255 Y-15.497
X-13.034 Y-13.782
X-17.748 Y-13.783
Z3.25
Z5
X-17.658 Y-13.355
Z3.25
Z0.75 F150
X-13.801 Y-13.354 F100
X-12.58 Y-11.639
X-17.294 Y-11.641
X-17.658 Y-13.355
Z3.25
Z5
X-17.2 Y-11.212
Z3.25
Z0.75 F150
X-13.343 Y-11.211 F100
X-12.122 Y-9.496
X-16.836 Y-9.498
X-17.2 Y-11.212
Z3.25
Z5
X-11.682 Y-7.863
Z3.25
Z0.75 F150
X-10.96 Y-8.255 F100
X-10.242 Y-8.657
X-9.951 Y-8.81
X-9.67 Y-8.98
X-9.391 Y-9.153
X-9.106 Y-9.315
X-8.964 Y-9.402
X-8.809 Y-9.478
X-8.489 Y-9.625
X-8.337 Y-9.706
X-8.199 Y-9.8
X-8.082 Y-9.914
X-8.034 Y-9.98
X-7.994 Y-10.053
X-8.059 Y-10.115
X-8.09 Y-10.172
X-8.093 Y-10.224
X-8.076 Y-10.275
X-8.006 Y-10.376
X-7.93 Y-10.488
X-7.231 Y-10.988
X-6.882 Y-11.237
X-6.525 Y-11.472
X-6.507 Y-11.504
X-6.49 Y-11.516
X-6.475 Y-11.513
X-6.46 Y-11.5
X-6.43 Y-11.461
X-6.397 Y-11.434
X-6.354 Y-11.472
X-6.317 Y-11.489
X-6.286 Y-11.487
X-6.258 Y-11.47
X-6.206 Y-11.403
X-6.146 Y-11.311
X-6.014 Y-11.051
X-5.871 Y-10.798
X-5.808 Y-10.669
X-5.756 Y-10.536
X-5.72 Y-10.397
X-5.706 Y-10.25
X-5.592 Y-10.033
X-5.473 Y-9.802
X-5.41 Y-9.693
X-5.343 Y-9.597
X-5.271 Y-9.516
X-5.195 Y-9.457
X-5.148 Y-9.459
X-5.093 Y-9.449
X-5.034 Y-9.427
X-4.978 Y-9.396
X-4.929 Y-9.356
X-4.892 Y-9.308
X-4.872 Y-9.254
X-4.875 Y-9.195
X-4.827 Y-9.213
X-4.791 Y-9.219
X-4.766 Y-9.215
X-4.749 Y-9.202
X-4.735 Y-9.156
Y-9.093
X-4.736 Y-9.025
X-4.725 Y-8.963
X-4.71 Y-8.938
X-4.686 Y-8.918
X-4.653 Y-8.907
X-4.608 Y-8.904
X-4.664 Y-8.933
X-4.699 Y-8.959
X-4.716 Y-8.98
X-4.719 Y-8.998
X-4.709 Y-9.011
X-4.69 Y-9.021
X-4.633 Y-9.028
X-4.57 Y-9.018
X-4.522 Y-8.99
X-4.51 Y-8.97
Y-8.945
X-4.524 Y-8.916
X-4.556 Y-8.882
X-4.394 Y-8.817
X-4.259 Y-8.739
X-4.201 Y-8.689
X-4.147 Y-8.63
X-4.098 Y-8.559
X-4.053 Y-8.475
X-4.376 Y-8.061
X-4.689 Y-7.639
X-4.658 Y-6.728
X-4.639 Y-5.817
X-4.626 Y-3.993
X-4.242 Y-3.506
X-4.057 Y-3.258
X-3.88 Y-3.003
X-3.832 Y-2.962
X-3.795 Y-2.923
X-3.769 Y-2.888
X-3.753 Y-2.857
X-3.749 Y-2.804
X-3.775 Y-2.764
X-3.827 Y-2.737
X-3.898 Y-2.724
X-3.982 Y-2.723
X-4.072 Y-2.735
X-4.195 Y-2.767
X-4.311 Y-2.769
X-4.422 Y-2.747
X-4.527 Y-2.704
X-4.628 Y-2.646
X-4.725 Y-2.576
X-4.909 Y-2.421
X-5.094 Y-2.493
X-5.274 Y-2.576
X-5.629 Y-2.754
X-5.672 Y-2.77
X-5.711 Y-2.797
X-5.781 Y-2.877
X-5.901 Y-3.081
X-5.957 Y-3.171
X-6.014 Y-3.231
X-6.043 Y-3.244
X-6.075 Y-3.243
X-6.108 Y-3.225
X-6.143 Y-3.19
X-6.318 Y-3.154
X-6.494 Y-3.133
X-6.849 Y-3.117
X-7.206 Y-3.11
X-7.383 Y-3.1
X-7.56 Y-3.079
X-8.042 Y-2.751
X-8.519 Y-2.408
X-8.608 Y-2.336
X-8.703 Y-2.281
X-8.807 Y-2.252
X-8.863 Y-2.249
X-8.922 Y-2.256
X-9.135 Y-2.25
X-9.35 Y-2.253
X-9.455 Y-2.245
X-9.557 Y-2.225
X-9.654 Y-2.187
X-9.744 Y-2.126
X-9.869 Y-2.1
X-9.997 Y-2.086
X-10.26 Y-2.082
X-10.525 Y-2.089
X-10.786 Y-2.083
X-11.063 Y-2.08
X-11.2 Y-2.081
X-11.329 Y-2.102
X-11.391 Y-2.173
X-11.47 Y-2.245
X-11.635 Y-2.387
X-11.697 Y-2.459
X-11.728 Y-2.533
X-11.729 Y-2.57
X-11.718 Y-2.608
X-11.693 Y-2.646
X-11.653 Y-2.685
X-11.62 Y-2.774
X-11.569 Y-2.847
X-11.442 Y-2.971
X-11.38 Y-3.032
X-11.33 Y-3.102
X-11.298 Y-3.185
X-11.292 Y-3.288
X-11.304 Y-3.381
X-11.292 Y-3.464
X-11.262 Y-3.539
X-11.218 Y-3.609
X-11.109 Y-3.744
X-11.008 Y-3.891
X-10.957 Y-3.991
X-10.919 Y-4.095
X-10.868 Y-4.31
X-10.818 Y-4.527
X-10.781 Y-4.634
X-10.73 Y-4.739
X-10.731 Y-4.838
X-10.75 Y-4.933
X-10.819 Y-5.115
X-10.899 Y-5.287
X-10.931 Y-5.37
X-10.95 Y-5.452
X-11.012 Y-5.477
X-11.066 Y-5.508
X-11.151 Y-5.59
X-11.217 Y-5.69
X-11.272 Y-5.799
X-11.328 Y-5.91
X-11.392 Y-6.014
X-11.477 Y-6.103
X-11.53 Y-6.139
X-11.591 Y-6.168
X-11.648 Y-6.318
X-11.688 Y-6.472
X-11.725 Y-6.62
X-11.771 Y-6.752
X-11.708 Y-6.804
X-11.654 Y-6.871
X-11.559 Y-7.018
X-11.512 Y-7.082
X-11.462 Y-7.13
X-11.406 Y-7.154
X-11.34 Y-7.146
X-11.35 Y-7.089
X-11.339 Y-7.049
X-11.311 Y-7.02
X-11.269 Y-7
X-11.153 Y-6.97
X-11.015 Y-6.928
X-10.957 Y-6.973
X-10.916 Y-7.011
X-10.89 Y-7.042
X-10.877 Y-7.067
X-10.876 Y-7.088
X-10.886 Y-7.103
X-10.931 Y-7.125
X-10.999 Y-7.138
X-11.08 Y-7.147
X-11.161 Y-7.159
X-11.232 Y-7.18
X-11.229 Y-7.233
X-11.234 Y-7.27
X-11.246 Y-7.293
X-11.264 Y-7.305
X-11.314 Y-7.302
X-11.374 Y-7.276
X-11.437 Y-7.245
X-11.493 Y-7.225
X-11.535 Y-7.231
X-11.548 Y-7.248
X-11.553 Y-7.279
X-11.602 Y-7.316
X-11.636 Y-7.353
X-11.656 Y-7.391
X-11.664 Y-7.429
X-11.656 Y-7.505
X-11.63 Y-7.581
X-11.601 Y-7.655
X-11.589 Y-7.728
X-11.594 Y-7.763
X-11.61 Y-7.797
X-11.639 Y-7.83
X-11.682 Y-7.863
Z3.25
Z5
X-5.787 Y-12.566
Z3.25
Z0.75 F150
X-5.955 Y-12.599 F100
X-6.129 Y-12.648
X-6.347 Y-12.731
X-6.571 Y-12.837
X-6.78 Y-12.955
X-6.871 Y-13.016
X-6.95 Y-13.074
X-7.007 Y-13.123
X-7.079 Y-13.189
X-7.246 Y-13.352
X-7.407 Y-13.518
X-7.472 Y-13.59
X-7.519 Y-13.646
X-7.638 Y-13.816
X-7.745 Y-14.007
X-7.839 Y-14.212
X-7.916 Y-14.426
X-7.976 Y-14.641
X-8.016 Y-14.851
X-8.034 Y-15.05
X-8.027 Y-15.232
X-7.993 Y-15.439
X-7.94 Y-15.619
X-7.865 Y-15.779
X-7.766 Y-15.923
X-7.728 Y-15.968
X-7.699 Y-16.001
X-7.675 Y-16.02
X-7.659 Y-16.027
X-7.647 Y-16.022
X-7.641 Y-16.004
X-7.638 Y-15.973
X-7.64 Y-15.93
Y-15.861
X-7.636 Y-15.765
X-7.628 Y-15.65
X-7.616 Y-15.525
X-7.587 Y-15.271
X-7.571 Y-15.16
X-7.555 Y-15.069
X-7.492 Y-14.831
X-7.403 Y-14.602
X-7.29 Y-14.384
X-7.154 Y-14.18
X-6.998 Y-13.993
X-6.823 Y-13.824
X-6.632 Y-13.676
X-6.425 Y-13.552
X-6.29 Y-13.491
X-6.146 Y-13.443
X-5.996 Y-13.409
X-5.838 Y-13.388
X-5.675 Y-13.381
X-5.507 Y-13.388
X-5.334 Y-13.409
X-5.157 Y-13.444
X-4.894 Y-13.525
X-4.648 Y-13.639
X-4.423 Y-13.784
X-4.219 Y-13.958
X-4.041 Y-14.159
X-3.888 Y-14.385
X-3.765 Y-14.634
X-3.672 Y-14.904
X-3.641 Y-15.018
X-3.617 Y-15.121
X-3.584 Y-15.304
X-3.569 Y-15.475
X-3.571 Y-15.656
X-3.585 Y-15.831
X-3.613 Y-15.995
X-3.656 Y-16.152
X-3.716 Y-16.304
X-3.793 Y-16.455
X-3.89 Y-16.608
X-4.008 Y-16.765
X-4.148 Y-16.929
X-4.227 Y-17.014
X-4.328 Y-17.111
X-4.45 Y-17.223
X-4.595 Y-17.351
X-4.765 Y-17.495
X-4.96 Y-17.657
X-5.183 Y-17.838
X-5.56 Y-18.14
X-5.671 Y-18.231
X-5.867 Y-18.4
X-5.963 Y-18.488
X-6.064 Y-18.584
X-6.176 Y-18.694
X-6.304 Y-18.822
X-6.383 Y-18.902
X-6.455 Y-18.974
X-6.577 Y-19.101
X-6.677 Y-19.209
X-6.76 Y-19.305
X-6.897 Y-19.486
X-6.961 Y-19.584
X-7.029 Y-19.695
X-7.072 Y-19.771
X-7.123 Y-19.868
X-7.237 Y-20.093
X-7.342 Y-20.315
X-7.383 Y-20.408
X-7.411 Y-20.478
X-7.443 Y-20.581
X-7.475 Y-20.713
X-7.505 Y-20.864
X-7.532 Y-21.028
X-7.574 Y-21.361
X-7.586 Y-21.515
X-7.59 Y-21.649
Y-21.705
X-7.588 Y-21.751
X-7.586 Y-21.78
X-7.584 Y-21.789
X-7.575 Y-21.773
X-7.558 Y-21.735
X-7.533 Y-21.681
X-7.503 Y-21.615
X-7.426 Y-21.452
X-7.335 Y-21.284
X-7.225 Y-21.099
X-7.161 Y-20.998
X-7.09 Y-20.889
X-6.976 Y-20.719
X-6.87 Y-20.57
X-6.769 Y-20.437
X-6.668 Y-20.315
X-6.45 Y-20.084
X-6.325 Y-19.966
X-6.182 Y-19.839
X-6.076 Y-19.746
X-5.99 Y-19.671
X-5.969 Y-19.654
X-5.937 Y-19.629
X-5.845 Y-19.56
X-5.726 Y-19.476
X-5.595 Y-19.384
X-5.07 Y-19.021
X-4.97 Y-18.953
X-4.848 Y-18.87
X-4.719 Y-18.783
X-4.597 Y-18.702
X-4.371 Y-18.545
X-4.171 Y-18.389
X-3.975 Y-18.216
X-3.873 Y-18.117
X-3.763 Y-18.008
X-3.65 Y-17.892
X-3.547 Y-17.782
X-3.365 Y-17.578
X-3.212 Y-17.387
X-3.082 Y-17.201
X-2.971 Y-17.01
X-2.871 Y-16.807
X-2.779 Y-16.581
X-2.688 Y-16.326
X-2.642 Y-16.17
X-2.608 Y-16
X-2.585 Y-15.82
X-2.573 Y-15.633
X-2.571 Y-15.441
X-2.581 Y-15.248
X-2.603 Y-15.056
X-2.635 Y-14.869
X-2.665 Y-14.749
X-2.708 Y-14.614
X-2.822 Y-14.318
X-2.959 Y-14.023
X-3.032 Y-13.889
X-3.103 Y-13.77
X-3.231 Y-13.592
X-3.376 Y-13.422
X-3.537 Y-13.262
X-3.711 Y-13.115
X-3.895 Y-12.983
X-4.087 Y-12.866
X-4.284 Y-12.769
X-4.484 Y-12.691
X-4.71 Y-12.626
X-4.934 Y-12.58
X-5.165 Y-12.553
X-5.411 Y-12.544
X-5.61 Y-12.549
X-5.787 Y-12.566
Z3.25
Z5
X-8.302 Y-14.863
Z3.25
Z0.75 F150
X-8.352 Y-14.778 F100
X-8.398 Y-14.701
X-8.436 Y-14.645
X-8.481 Y-14.591
X-8.548 Y-14.521
X-8.694 Y-14.392
X-8.863 Y-14.288
X-9.058 Y-14.206
X-9.286 Y-14.143
X-9.365 Y-14.128
X-9.453 Y-14.118
X-9.648 Y-14.108
X-9.847 Y-14.113
X-10.029 Y-14.134
X-10.164 Y-14.163
X-10.3 Y-14.205
X-10.436 Y-14.258
X-10.57 Y-14.322
X-10.701 Y-14.395
X-10.828 Y-14.478
X-10.949 Y-14.57
X-11.064 Y-14.67
X-11.156 Y-14.767
X-11.247 Y-14.882
X-11.335 Y-15.012
X-11.417 Y-15.152
X-11.491 Y-15.298
X-11.555 Y-15.447
X-11.606 Y-15.594
X-11.644 Y-15.735
X-11.658 Y-15.82
X-11.668 Y-15.922
X-11.676 Y-16.159
X-11.668 Y-16.402
X-11.658 Y-16.513
X-11.644 Y-16.61
X-11.62 Y-16.735
X-11.595 Y-16.843
X-11.536 Y-17.027
X-11.453 Y-17.199
X-11.397 Y-17.293
X-11.329 Y-17.398
X-11.234 Y-17.534
X-11.14 Y-17.656
X-11.04 Y-17.768
X-10.932 Y-17.874
X-10.811 Y-17.978
X-10.673 Y-18.083
X-10.514 Y-18.194
X-10.329 Y-18.314
X-10.13 Y-18.441
X-9.997 Y-18.526
X-9.949 Y-18.556
X-9.886 Y-18.597
X-9.743 Y-18.687
X-9.556 Y-18.805
X-9.393 Y-18.908
X-9.251 Y-18.999
X-9.13 Y-19.078
X-9.028 Y-19.146
X-8.944 Y-19.205
X-8.875 Y-19.254
X-8.821 Y-19.296
X-8.691 Y-19.403
X-8.574 Y-19.508
X-8.47 Y-19.611
X-8.376 Y-19.712
X-8.294 Y-19.813
X-8.221 Y-19.914
X-8.104 Y-20.119
X-8.043 Y-20.261
X-8.001 Y-20.387
X-7.976 Y-20.515
X-7.962 Y-20.66
X-7.953 Y-20.834
X-7.921 Y-20.771
X-7.904 Y-20.736
X-7.884 Y-20.687
X-7.841 Y-20.571
X-7.815 Y-20.49
X-7.8 Y-20.414
X-7.794 Y-20.318
X-7.793 Y-20.253
Y-20.171
Y-20.093
X-7.794 Y-20.028
X-7.801 Y-19.925
X-7.815 Y-19.837
X-7.84 Y-19.739
X-7.88 Y-19.611
X-7.929 Y-19.489
X-7.988 Y-19.372
X-8.061 Y-19.256
X-8.148 Y-19.138
X-8.252 Y-19.015
X-8.375 Y-18.884
X-8.519 Y-18.742
X-8.716 Y-18.56
X-8.822 Y-18.466
X-8.943 Y-18.365
X-9.083 Y-18.25
X-9.249 Y-18.116
X-9.344 Y-18.041
X-9.56 Y-17.87
X-9.683 Y-17.774
X-9.788 Y-17.689
X-9.898 Y-17.594
X-10.12 Y-17.392
X-10.32 Y-17.192
X-10.404 Y-17.102
X-10.471 Y-17.023
X-10.57 Y-16.882
X-10.656 Y-16.729
X-10.724 Y-16.574
X-10.768 Y-16.428
X-10.779 Y-16.36
X-10.786 Y-16.28
X-10.789 Y-16.103
X-10.776 Y-15.927
X-10.764 Y-15.847
X-10.749 Y-15.779
X-10.703 Y-15.646
X-10.635 Y-15.496
X-10.556 Y-15.349
X-10.478 Y-15.227
X-10.387 Y-15.115
X-10.285 Y-15.009
X-10.174 Y-14.912
X-10.056 Y-14.823
X-9.932 Y-14.744
X-9.803 Y-14.676
X-9.672 Y-14.62
X-9.541 Y-14.578
X-9.389 Y-14.549
X-9.304 Y-14.542
X-9.209 Y-14.538
X-8.995 Y-14.55
X-8.798 Y-14.593
X-8.61 Y-14.668
X-8.423 Y-14.78
X-8.302 Y-14.863
Z3.25
Z5
X-44.642 Y-12.622
Z3.25
Z0.75 F150
Y-12.378 F100
X-44.681 Y-12.138
X-44.758 Y-11.907
X-44.871 Y-11.691
X-45.017 Y-11.496
X-45.193 Y-11.327
X-45.394 Y-11.189
X-45.614 Y-11.085
X-45.848 Y-11.017
X-46.09 Y-10.987
X-46.333 Y-10.997
X-46.572 Y-11.046
X-46.799 Y-11.132
X-47.011 Y-11.254
X-47.199 Y-11.408
X-47.361 Y-11.59
X-47.491 Y-11.797
X-47.586 Y-12.021
X-47.645 Y-12.257
X-47.664 Y-12.5
X-47.645 Y-12.743
X-47.586 Y-12.979
X-47.491 Y-13.203
X-47.361 Y-13.41
X-47.199 Y-13.592
X-47.011 Y-13.746
X-46.799 Y-13.868
X-46.572 Y-13.954
X-46.333 Y-14.003
X-46.09 Y-14.013
X-45.848 Y-13.983
X-45.614 Y-13.915
X-45.394 Y-13.811
X-45.193 Y-13.673
X-45.017 Y-13.504
X-44.871 Y-13.309
X-44.758 Y-13.093
X-44.681 Y-12.862
X-44.642 Y-12.622
Z3.25
Z5
X-39.395 Y-15.503
Z3.25
Z0.25 F150
X-36.395 Y-15.502 F100
X-35.757 Y-12.502
X-37.471
X-37.745 Y-13.788
X-39.031
X-39.24 Y-13.708
X-39.429 Y-13.617
X-39.51 Y-13.562
X-39.577 Y-13.501
X-39.63 Y-13.43
X-39.668 Y-13.35
X-39.691 Y-13.262
X-39.703 Y-13.167
X-39.704 Y-13.066
X-39.696 Y-12.959
X-39.662 Y-12.735
X-39.614 Y-12.503
X-39.555 Y-12.261
X-39.486 Y-12.029
X-39.398 Y-11.816
X-39.343 Y-11.719
X-39.281 Y-11.631
X-39.209 Y-11.552
X-39.126 Y-11.483
X-39.034 Y-11.424
X-38.933 Y-11.373
X-38.715 Y-11.289
X-38.483 Y-11.217
X-36.34 Y-11.216
X-35.119 Y-9.502
X-38.119 Y-9.503
X-38.74 Y-9.631
X-39.041 Y-9.705
X-39.331 Y-9.792
X-39.606 Y-9.896
X-39.863 Y-10.019
X-40.099 Y-10.168
X-40.207 Y-10.253
X-40.308 Y-10.345
X-40.493 Y-10.552
X-40.654 Y-10.783
X-40.796 Y-11.036
X-40.922 Y-11.308
X-41.035 Y-11.594
X-41.138 Y-11.891
X-41.328 Y-12.503
X-41.403 Y-13.105
X-41.429 Y-13.397
X-41.44 Y-13.679
X-41.432 Y-13.948
X-41.4 Y-14.199
X-41.339 Y-14.429
X-41.296 Y-14.535
X-41.244 Y-14.635
X-41.183 Y-14.728
X-41.111 Y-14.814
X-41.03 Y-14.893
X-40.94 Y-14.965
X-40.734 Y-15.092
X-40.5 Y-15.198
X-40.243 Y-15.288
X-39.97 Y-15.367
X-39.395 Y-15.503
Z3.25
Z5
X-35.576 Y-15.502
Z3.25
Z0.25 F150
X-33.862 F100
X-33.314 Y-12.93
X-32.041 Y-15.501
X-29.898
X-30.983 Y-13.555
X-30.722 Y-13.382
X-30.474 Y-13.201
X-30.25 Y-13.002
X-30.15 Y-12.892
X-30.061 Y-12.776
X-29.983 Y-12.651
X-29.913 Y-12.52
X-29.797 Y-12.241
X-29.701 Y-11.946
X-29.616 Y-11.643
X-29.585 Y-11.184
X-29.58 Y-10.961
X-29.585 Y-10.748
X-29.606 Y-10.547
X-29.646 Y-10.361
X-29.709 Y-10.193
X-29.799 Y-10.047
X-29.919 Y-9.925
X-30.065 Y-9.824
X-30.236 Y-9.741
X-30.425 Y-9.675
X-30.63 Y-9.62
X-30.847 Y-9.575
X-31.301 Y-9.501
X-34.3 Y-9.502
X-34.664 Y-11.216
X-31.664 Y-11.215
X-31.49 Y-11.25
X-31.418 Y-11.28
X-31.365 Y-11.325
X-31.334 Y-11.387
X-31.323 Y-11.465
X-31.33 Y-11.644
X-31.4 Y-11.823
X-31.445 Y-11.901
X-31.503 Y-11.964
X-31.575 Y-12.008
X-31.659 Y-12.038
X-31.848 Y-12.073
X-34.848
X-35.576 Y-15.502
Z3.25
Z5
X-29.081 Y-14.3
Z3.25
Z0.25 F150
X-29.765 Y-15.501 F100
X-27.943 Y-15.5
X-26.059 Y-12.178
X-25.586 Y-15.5
X-23.765 Y-15.499
X-24.632 Y-9.499
X-26.346 Y-9.5
X-29.081 Y-14.3
Z3.25
Z5
X-23.443 Y-13.743
Z3.25
Z0.25 F150
X-23.401 Y-13.873 F100
X-23.292 Y-14.126
X-23.158 Y-14.375
X-23.013 Y-14.62
X-22.811 Y-14.817
X-22.604 Y-15.002
X-22.386 Y-15.164
X-22.272 Y-15.233
X-22.153 Y-15.293
X-22.03 Y-15.342
X-21.902 Y-15.381
X-21.635 Y-15.438
X-21.359 Y-15.474
X-21.078 Y-15.499
X-19.363 Y-15.498
X-18.142 Y-13.784
X-20.714
X-20.953 Y-13.758
X-21.067 Y-13.734
X-21.175 Y-13.696
X-21.275 Y-13.64
X-21.368 Y-13.571
X-21.543 Y-13.407
X-21.663 Y-13.196
X-21.71 Y-13.087
X-21.741 Y-12.975
X-21.754 Y-12.86
X-21.753 Y-12.741
X-21.726 Y-12.499
X-21.638 Y-12.237
X-21.585 Y-12.112
X-21.521 Y-11.995
X-21.442 Y-11.886
X-21.353 Y-11.783
X-21.156 Y-11.59
X-20.931 Y-11.435
X-20.815 Y-11.368
X-20.694 Y-11.313
X-20.568 Y-11.273
X-20.436 Y-11.245
X-20.166 Y-11.213
X-18.452 Y-11.212
X-17.23 Y-9.498
X-19.802
X-20.119 Y-9.531
X-20.433 Y-9.575
X-20.739 Y-9.638
X-21.034 Y-9.731
X-21.316 Y-9.859
X-21.587 Y-10.016
X-21.851 Y-10.192
X-22.112 Y-10.377
X-22.346 Y-10.601
X-22.571 Y-10.829
X-22.779 Y-11.068
X-22.962 Y-11.323
X-23.113 Y-11.597
X-23.237 Y-11.889
X-23.343 Y-12.191
X-23.44 Y-12.499
X-23.476 Y-12.783
X-23.502 Y-13.065
X-23.504 Y-13.342
X-23.494 Y-13.478
X-23.474 Y-13.612
X-23.443 Y-13.743
Z3.25
Z5
X-17.748 Y-13.783
Z3.25
Z0.25 F150
X-18.112 Y-15.498 F100
X-14.255 Y-15.497
X-13.034 Y-13.782
X-17.748 Y-13.783
Z3.25
Z5
X-17.658 Y-13.355
Z3.25
Z0.25 F150
X-13.801 Y-13.354 F100
X-12.58 Y-11.639
X-17.294 Y-11.641
X-17.658 Y-13.355
Z3.25
Z5
X-17.2 Y-11.212
Z3.25
Z0.25 F150
X-13.343 Y-11.211 F100
X-12.122 Y-9.496
X-16.836 Y-9.498
X-17.2 Y-11.212
Z3.25
Z5
X-11.682 Y-7.863
Z3.25
Z0.25 F150
X-10.96 Y-8.255 F100
X-10.242 Y-8.657
X-9.951 Y-8.81
X-9.67 Y-8.98
X-9.391 Y-9.153
X-9.106 Y-9.315
X-8.964 Y-9.402
X-8.809 Y-9.478
X-8.489 Y-9.625
X-8.337 Y-9.706
X-8.199 Y-9.8
X-8.082 Y-9.914
X-8.034 Y-9.98
X-7.994 Y-10.053
X-8.059 Y-10.115
X-8.09 Y-10.172
X-8.093 Y-10.224
X-8.076 Y-10.275
X-8.006 Y-10.376
X-7.93 Y-10.488
X-7.231 Y-10.988
X-6.882 Y-11.237
X-6.525 Y-11.472
X-6.507 Y-11.504
X-6.49 Y-11.516
X-6.475 Y-11.513
X-6.46 Y-11.5
X-6.43 Y-11.461
X-6.397 Y-11.434
X-6.354 Y-11.472
X-6.317 Y-11.489
X-6.286 Y-11.487
X-6.258 Y-11.47
X-6.206 Y-11.403
X-6.146 Y-11.311
X-6.014 Y-11.051
X-5.871 Y-10.798
X-5.808 Y-10.669
X-5.756 Y-10.536
X-5.72 Y-10.397
X-5.706 Y-10.25
X-5.592 Y-10.033
X-5.473 Y-9.802
X-5.41 Y-9.693
X-5.343 Y-9.597
X-5.271 Y-9.516
X-5.195 Y-9.457
X-5.148 Y-9.459
X-5.093 Y-9.449
X-5.034 Y-9.427
X-4.978 Y-9.396
X-4.929 Y-9.356
X-4.892 Y-9.308
X-4.872 Y-9.254
X-4.875 Y-9.195
X-4.827 Y-9.213
X-4.791 Y-9.219
X-4.766 Y-9.215
X-4.749 Y-9.202
X-4.735 Y-9.156
Y-9.093
X-4.736 Y-9.025
X-4.725 Y-8.963
X-4.71 Y-8.938
X-4.686 Y-8.918
X-4.653 Y-8.907
X-4.608 Y-8.904
X-4.664 Y-8.933
X-4.699 Y-8.959
X-4.716 Y-8.98
X-4.719 Y-8.998
X-4.709 Y-9.011
X-4.69 Y-9.021
X-4.633 Y-9.028
X-4.57 Y-9.018
X-4.522 Y-8.99
X-4.51 Y-8.97
Y-8.945
X-4.524 Y-8.916
X-4.556 Y-8.882
X-4.394 Y-8.817
X-4.259 Y-8.739
X-4.201 Y-8.689
X-4.147 Y-8.63
X-4.098 Y-8.559
X-4.053 Y-8.475
X-4.376 Y-8.061
X-4.689 Y-7.639
X-4.658 Y-6.728
X-4.639 Y-5.817
X-4.626 Y-3.993
X-4.242 Y-3.506
X-4.057 Y-3.258
X-3.88 Y-3.003
X-3.832 Y-2.962
X-3.795 Y-2.923
X-3.769 Y-2.888
X-3.753 Y-2.857
X-3.749 Y-2.804
X-3.775 Y-2.764
X-3.827 Y-2.737
X-3.898 Y-2.724
X-3.982 Y-2.723
X-4.072 Y-2.735
X-4.195 Y-2.767
X-4.311 Y-2.769
X-4.422 Y-2.747
X-4.527 Y-2.704
X-4.628 Y-2.646
X-4.725 Y-2.576
X-4.909 Y-2.421
X-5.094 Y-2.493
X-5.274 Y-2.576
X-5.629 Y-2.754
X-5.672 Y-2.77
X-5.711 Y-2.797
X-5.781 Y-2.877
X-5.901 Y-3.081
X-5.957 Y-3.171
X-6.014 Y-3.231
X-6.043 Y-3.244
X-6.075 Y-3.243
X-6.108 Y-3.225
X-6.143 Y-3.19
X-6.318 Y-3.154
X-6.494 Y-3.133
X-6.849 Y-3.117
X-7.206 Y-3.11
X-7.383 Y-3.1
X-7.56 Y-3.079
X-8.042 Y-2.751
X-8.519 Y-2.408
X-8.608 Y-2.336
X-8.703 Y-2.281
X-8.807 Y-2.252
X-8.863 Y-2.249
X-8.922 Y-2.256
X-9.135 Y-2.25
X-9.35 Y-2.253
X-9.455 Y-2.245
X-9.557 Y-2.225
X-9.654 Y-2.187
X-9.744 Y-2.126
X-9.869 Y-2.1
X-9.997 Y-2.086
X-10.26 Y-2.082
X-10.525 Y-2.089
X-10.786 Y-2.083
X-11.063 Y-2.08
X-11.2 Y-2.081
X-11.329 Y-2.102
X-11.391 Y-2.173
X-11.47 Y-2.245
X-11.635 Y-2.387
X-11.697 Y-2.459
X-11.728 Y-2.533
X-11.729 Y-2.57
X-11.718 Y-2.608
X-11.693 Y-2.646
X-11.653 Y-2.685
X-11.62 Y-2.774
X-11.569 Y-2.847
X-11.442 Y-2.971
X-11.38 Y-3.032
X-11.33 Y-3.102
X-11.298 Y-3.185
X-11.292 Y-3.288
X-11.304 Y-3.381
X-11.292 Y-3.464
X-11.262 Y-3.539
X-11.218 Y-3.609
X-11.109 Y-3.744
X-11.008 Y-3.891
X-10.957 Y-3.991
X-10.919 Y-4.095
X-10.868 Y-4.31
X-10.818 Y-4.527
X-10.781 Y-4.634
X-10.73 Y-4.739
X-10.731 Y-4.838
X-10.75 Y-4.933
X-10.819 Y-5.115
X-10.899 Y-5.287
X-10.931 Y-5.37
X-10.95 Y-5.452
X-11.012 Y-5.477
X-11.066 Y-5.508
X-11.151 Y-5.59
X-11.217 Y-5.69
X-11.272 Y-5.799
X-11.328 Y-5.91
X-11.392 Y-6.014
X-11.477 Y-6.103
X-11.53 Y-6.139
X-11.591 Y-6.168
X-11.648 Y-6.318
X-11.688 Y-6.472
X-11.725 Y-6.62
X-11.771 Y-6.752
X-11.708 Y-6.804
X-11.654 Y-6.871
X-11.559 Y-7.018
X-11.512 Y-7.082
X-11.462 Y-7.13
X-11.406 Y-7.154
X-11.34 Y-7.146
X-11.35 Y-7.089
X-11.339 Y-7.049
X-11.311 Y-7.02
X-11.269 Y-7
X-11.153 Y-6.97
X-11.015 Y-6.928
X-10.957 Y-6.973
X-10.916 Y-7.011
X-10.89 Y-7.042
X-10.877 Y-7.067
X-10.876 Y-7.088
X-10.886 Y-7.103
X-10.931 Y-7.125
X-10.999 Y-7.138
X-11.08 Y-7.147
X-11.161 Y-7.159
X-11.232 Y-7.18
X-11.229 Y-7.233
X-11.234 Y-7.27
X-11.246 Y-7.293
X-11.264 Y-7.305
X-11.314 Y-7.302
X-11.374 Y-7.276
X-11.437 Y-7.245
X-11.493 Y-7.225
X-11.535 Y-7.231
X-11.548 Y-7.248
X-11.553 Y-7.279
X-11.602 Y-7.316
X-11.636 Y-7.353
X-11.656 Y-7.391
X-11.664 Y-7.429
X-11.656 Y-7.505
X-11.63 Y-7.581
X-11.601 Y-7.655
X-11.589 Y-7.728
X-11.594 Y-7.763
X-11.61 Y-7.797
X-11.639 Y-7.83
X-11.682 Y-7.863
Z3.25
Z5
X-5.787 Y-12.566
Z3.25
Z0.25 F150
X-5.955 Y-12.599 F100
X-6.129 Y-12.648
X-6.347 Y-12.731
X-6.571 Y-12.837
X-6.78 Y-12.955
X-6.871 Y-13.016
X-6.95 Y-13.074
X-7.007 Y-13.123
X-7.079 Y-13.189
X-7.246 Y-13.352
X-7.407 Y-13.518
X-7.472 Y-13.59
X-7.519 Y-13.646
X-7.638 Y-13.816
X-7.745 Y-14.007
X-7.839 Y-14.212
X-7.916 Y-14.426
X-7.976 Y-14.641
X-8.016 Y-14.851
X-8.034 Y-15.05
X-8.027 Y-15.232
X-7.993 Y-15.439
X-7.94 Y-15.619
X-7.865 Y-15.779
X-7.766 Y-15.923
X-7.728 Y-15.968
X-7.699 Y-16.001
X-7.675 Y-16.02
X-7.659 Y-16.027
X-7.647 Y-16.022
X-7.641 Y-16.004
X-7.638 Y-15.973
X-7.64 Y-15.93
Y-15.861
X-7.636 Y-15.765
X-7.628 Y-15.65
X-7.616 Y-15.525
X-7.587 Y-15.271
X-7.571 Y-15.16
X-7.555 Y-15.069
X-7.492 Y-14.831
X-7.403 Y-14.602
X-7.29 Y-14.384
X-7.154 Y-14.18
X-6.998 Y-13.993
X-6.823 Y-13.824
X-6.632 Y-13.676
X-6.425 Y-13.552
X-6.29 Y-13.491
X-6.146 Y-13.443
X-5.996 Y-13.409
X-5.838 Y-13.388
X-5.675 Y-13.381
X-5.507 Y-13.388
X-5.334 Y-13.409
X-5.157 Y-13.444
X-4.894 Y-13.525
X-4.648 Y-13.639
X-4.423 Y-13.784
X-4.219 Y-13.958
X-4.041 Y-14.159
X-3.888 Y-14.385
X-3.765 Y-14.634
X-3.672 Y-14.904
X-3.641 Y-15.018
X-3.617 Y-15.121
X-3.584 Y-15.304
X-3.569 Y-15.475
X-3.571 Y-15.656
X-3.585 Y-15.831
X-3.613 Y-15.995
X-3.656 Y-16.152
X-3.716 Y-16.304
X-3.793 Y-16.455
X-3.89 Y-16.608
X-4.008 Y-16.765
X-4.148 Y-16.929
X-4.227 Y-17.014
X-4.328 Y-17.111
X-4.45 Y-17.223
X-4.595 Y-17.351
X-4.765 Y-17.495
X-4.96 Y-17.657
X-5.183 Y-17.838
X-5.56 Y-18.14
X-5.671 Y-18.231
X-5.867 Y-18.4
X-5.963 Y-18.488
X-6.064 Y-18.584
X-6.176 Y-18.694
X-6.304 Y-18.822
X-6.383 Y-18.902
X-6.455 Y-18.974
X-6.577 Y-19.101
X-6.677 Y-19.209
X-6.76 Y-19.305
X-6.897 Y-19.486
X-6.961 Y-19.584
X-7.029 Y-19.695
X-7.072 Y-19.771
X-7.123 Y-19.868
X-7.237 Y-20.093
X-7.342 Y-20.315
X-7.383 Y-20.408
X-7.411 Y-20.478
X-7.443 Y-20.581
X-7.475 Y-20.713
X-7.505 Y-20.864
X-7.532 Y-21.028
X-7.574 Y-21.361
X-7.586 Y-21.515
X-7.59 Y-21.649
Y-21.705
X-7.588 Y-21.751
X-7.586 Y-21.78
X-7.584 Y-21.789
X-7.575 Y-21.773
X-7.558 Y-21.735
X-7.533 Y-21.681
X-7.503 Y-21.615
X-7.426 Y-21.452
X-7.335 Y-21.284
X-7.225 Y-21.099
X-7.161 Y-20.998
X-7.09 Y-20.889
X-6.976 Y-20.719
X-6.87 Y-20.57
X-6.769 Y-20.437
X-6.668 Y-20.315
X-6.45 Y-20.084
X-6.325 Y-19.966
X-6.182 Y-19.839
X-6.076 Y-19.746
X-5.99 Y-19.671
X-5.969 Y-19.654
X-5.937 Y-19.629
X-5.845 Y-19.56
X-5.726 Y-19.476
X-5.595 Y-19.384
X-5.07 Y-19.021
X-4.97 Y-18.953
X-4.848 Y-18.87
X-4.719 Y-18.783
X-4.597 Y-18.702
X-4.371 Y-18.545
X-4.171 Y-18.389
X-3.975 Y-18.216
X-3.873 Y-18.117
X-3.763 Y-18.008
X-3.65 Y-17.892
X-3.547 Y-17.782
X-3.365 Y-17.578
X-3.212 Y-17.387
X-3.082 Y-17.201
X-2.971 Y-17.01
X-2.871 Y-16.807
X-2.779 Y-16.581
X-2.688 Y-16.326
X-2.642 Y-16.17
X-2.608 Y-16
X-2.585 Y-15.82
X-2.573 Y-15.633
X-2.571 Y-15.441
X-2.581 Y-15.248
X-2.603 Y-15.056
X-2.635 Y-14.869
X-2.665 Y-14.749
X-2.708 Y-14.614
X-2.822 Y-14.318
X-2.959 Y-14.023
X-3.032 Y-13.889
X-3.103 Y-13.77
X-3.231 Y-13.592
X-3.376 Y-13.422
X-3.537 Y-13.262
X-3.711 Y-13.115
X-3.895 Y-12.983
X-4.087 Y-12.866
X-4.284 Y-12.769
X-4.484 Y-12.691
X-4.71 Y-12.626
X-4.934 Y-12.58
X-5.165 Y-12.553
X-5.411 Y-12.544
X-5.61 Y-12.549
X-5.787 Y-12.566
Z3.25
Z5
X-8.302 Y-14.863
Z3.25
Z0.25 F150
X-8.352 Y-14.778 F100
X-8.398 Y-14.701
X-8.436 Y-14.645
X-8.481 Y-14.591
X-8.548 Y-14.521
X-8.694 Y-14.392
X-8.863 Y-14.288
X-9.058 Y-14.206
X-9.286 Y-14.143
X-9.365 Y-14.128
X-9.453 Y-14.118
X-9.648 Y-14.108
X-9.847 Y-14.113
X-10.029 Y-14.134
X-10.164 Y-14.163
X-10.3 Y-14.205
X-10.436 Y-14.258
X-10.57 Y-14.322
X-10.701 Y-14.395
X-10.828 Y-14.478
X-10.949 Y-14.57
X-11.064 Y-14.67
X-11.156 Y-14.767
X-11.247 Y-14.882
X-11.335 Y-15.012
X-11.417 Y-15.152
X-11.491 Y-15.298
X-11.555 Y-15.447
X-11.606 Y-15.594
X-11.644 Y-15.735
X-11.658 Y-15.82
X-11.668 Y-15.922
X-11.676 Y-16.159
X-11.668 Y-16.402
X-11.658 Y-16.513
X-11.644 Y-16.61
X-11.62 Y-16.735
X-11.595 Y-16.843
X-11.536 Y-17.027
X-11.453 Y-17.199
X-11.397 Y-17.293
X-11.329 Y-17.398
X-11.234 Y-17.534
X-11.14 Y-17.656
X-11.04 Y-17.768
X-10.932 Y-17.874
X-10.811 Y-17.978
X-10.673 Y-18.083
X-10.514 Y-18.194
X-10.329 Y-18.314
X-10.13 Y-18.441
X-9.997 Y-18.526
X-9.949 Y-18.556
X-9.886 Y-18.597
X-9.743 Y-18.687
X-9.556 Y-18.805
X-9.393 Y-18.908
X-9.251 Y-18.999
X-9.13 Y-19.078
X-9.028 Y-19.146
X-8.944 Y-19.205
X-8.875 Y-19.254
X-8.821 Y-19.296
X-8.691 Y-19.403
X-8.574 Y-19.508
X-8.47 Y-19.611
X-8.376 Y-19.712
X-8.294 Y-19.813
X-8.221 Y-19.914
X-8.104 Y-20.119
X-8.043 Y-20.261
X-8.001 Y-20.387
X-7.976 Y-20.515
X-7.962 Y-20.66
X-7.953 Y-20.834
X-7.921 Y-20.771
X-7.904 Y-20.736
X-7.884 Y-20.687
X-7.841 Y-20.571
X-7.815 Y-20.49
X-7.8 Y-20.414
X-7.794 Y-20.318
X-7.793 Y-20.253
Y-20.171
Y-20.093
X-7.794 Y-20.028
X-7.801 Y-19.925
X-7.815 Y-19.837
X-7.84 Y-19.739
X-7.88 Y-19.611
X-7.929 Y-19.489
X-7.988 Y-19.372
X-8.061 Y-19.256
X-8.148 Y-19.138
X-8.252 Y-19.015
X-8.375 Y-18.884
X-8.519 Y-18.742
X-8.716 Y-18.56
X-8.822 Y-18.466
X-8.943 Y-18.365
X-9.083 Y-18.25
X-9.249 Y-18.116
X-9.344 Y-18.041
X-9.56 Y-17.87
X-9.683 Y-17.774
X-9.788 Y-17.689
X-9.898 Y-17.594
X-10.12 Y-17.392
X-10.32 Y-17.192
X-10.404 Y-17.102
X-10.471 Y-17.023
X-10.57 Y-16.882
X-10.656 Y-16.729
X-10.724 Y-16.574
X-10.768 Y-16.428
X-10.779 Y-16.36
X-10.786 Y-16.28
X-10.789 Y-16.103
X-10.776 Y-15.927
X-10.764 Y-15.847
X-10.749 Y-15.779
X-10.703 Y-15.646
X-10.635 Y-15.496
X-10.556 Y-15.349
X-10.478 Y-15.227
X-10.387 Y-15.115
X-10.285 Y-15.009
X-10.174 Y-14.912
X-10.056 Y-14.823
X-9.932 Y-14.744
X-9.803 Y-14.676
X-9.672 Y-14.62
X-9.541 Y-14.578
X-9.389 Y-14.549
X-9.304 Y-14.542
X-9.209 Y-14.538
X-8.995 Y-14.55
X-8.798 Y-14.593
X-8.61 Y-14.668
X-8.423 Y-14.78
X-8.302 Y-14.863
Z3.25
Z5
X-44.642 Y-12.622
Z3.25
Z0.25 F150
Y-12.378 F100
X-44.681 Y-12.138
X-44.758 Y-11.907
X-44.871 Y-11.691
X-45.017 Y-11.496
X-45.193 Y-11.327
X-45.394 Y-11.189
X-45.614 Y-11.085
X-45.848 Y-11.017
X-46.09 Y-10.987
X-46.333 Y-10.997
X-46.572 Y-11.046
X-46.799 Y-11.132
X-47.011 Y-11.254
X-47.199 Y-11.408
X-47.361 Y-11.59
X-47.491 Y-11.797
X-47.586 Y-12.021
X-47.645 Y-12.257
X-47.664 Y-12.5
X-47.645 Y-12.743
X-47.586 Y-12.979
X-47.491 Y-13.203
X-47.361 Y-13.41
X-47.199 Y-13.592
X-47.011 Y-13.746
X-46.799 Y-13.868
X-46.572 Y-13.954
X-46.333 Y-14.003
X-46.09 Y-14.013
X-45.848 Y-13.983
X-45.614 Y-13.915
X-45.394 Y-13.811
X-45.193 Y-13.673
X-45.017 Y-13.504
X-44.871 Y-13.309
X-44.758 Y-13.093
X-44.681 Y-12.862
X-44.642 Y-12.622
Z3.25
Z5
X-39.395 Y-15.503
Z3.25
Z-0.25 F150
X-36.395 Y-15.502 F100
X-35.757 Y-12.502
X-37.471
X-37.745 Y-13.788
X-39.031
X-39.24 Y-13.708
X-39.429 Y-13.617
X-39.51 Y-13.562
X-39.577 Y-13.501
X-39.63 Y-13.43
X-39.668 Y-13.35
X-39.691 Y-13.262
X-39.703 Y-13.167
X-39.704 Y-13.066
X-39.696 Y-12.959
X-39.662 Y-12.735
X-39.614 Y-12.503
X-39.555 Y-12.261
X-39.486 Y-12.029
X-39.398 Y-11.816
X-39.343 Y-11.719
X-39.281 Y-11.631
X-39.209 Y-11.552
X-39.126 Y-11.483
X-39.034 Y-11.424
X-38.933 Y-11.373
X-38.715 Y-11.289
X-38.483 Y-11.217
X-36.34 Y-11.216
X-35.119 Y-9.502
X-38.119 Y-9.503
X-38.74 Y-9.631
X-39.041 Y-9.705
X-39.331 Y-9.792
X-39.606 Y-9.896
X-39.863 Y-10.019
X-40.099 Y-10.168
X-40.207 Y-10.253
X-40.308 Y-10.345
X-40.493 Y-10.552
X-40.654 Y-10.783
X-40.796 Y-11.036
X-40.922 Y-11.308
X-41.035 Y-11.594
X-41.138 Y-11.891
X-41.328 Y-12.503
X-41.403 Y-13.105
X-41.429 Y-13.397
X-41.44 Y-13.679
X-41.432 Y-13.948
X-41.4 Y-14.199
X-41.339 Y-14.429
X-41.296 Y-14.535
X-41.244 Y-14.635
X-41.183 Y-14.728
X-41.111 Y-14.814
X-41.03 Y-14.893
X-40.94 Y-14.965
X-40.734 Y-15.092
X-40.5 Y-15.198
X-40.243 Y-15.288
X-39.97 Y-15.367
X-39.395 Y-15.503
Z3.25
Z5
X-35.576 Y-15.502
Z3.25
Z-0.25 F150
X-33.862 F100
X-33.314 Y-12.93
X-32.041 Y-15.501
X-29.898
X-30.983 Y-13.555
X-30.722 Y-13.382
X-30.474 Y-13.201
X-30.25 Y-13.002
X-30.15 Y-12.892
X-30.061 Y-12.776
X-29.983 Y-12.651
X-29.913 Y-12.52
X-29.797 Y-12.241
X-29.701 Y-11.946
X-29.616 Y-11.643
X-29.585 Y-11.184
X-29.58 Y-10.961
X-29.585 Y-10.748
X-29.606 Y-10.547
X-29.646 Y-10.361
X-29.709 Y-10.193
X-29.799 Y-10.047
X-29.919 Y-9.925
X-30.065 Y-9.824
X-30.236 Y-9.741
X-30.425 Y-9.675
X-30.63 Y-9.62
X-30.847 Y-9.575
X-31.301 Y-9.501
X-34.3 Y-9.502
X-34.664 Y-11.216
X-31.664 Y-11.215
X-31.49 Y-11.25
X-31.418 Y-11.28
X-31.365 Y-11.325
X-31.334 Y-11.387
X-31.323 Y-11.465
X-31.33 Y-11.644
X-31.4 Y-11.823
X-31.445 Y-11.901
X-31.503 Y-11.964
X-31.575 Y-12.008
X-31.659 Y-12.038
X-31.848 Y-12.073
X-34.848
X-35.576 Y-15.502
Z3.25
Z5
X-29.081 Y-14.3
Z3.25
Z-0.25 F150
X-29.765 Y-15.501 F100
X-27.943 Y-15.5
X-26.059 Y-12.178
X-25.586 Y-15.5
X-23.765 Y-15.499
X-24.632 Y-9.499
X-26.346 Y-9.5
X-29.081 Y-14.3
Z3.25
Z5
X-23.443 Y-13.743
Z3.25
Z-0.25 F150
X-23.401 Y-13.873 F100
X-23.292 Y-14.126
X-23.158 Y-14.375
X-23.013 Y-14.62
X-22.811 Y-14.817
X-22.604 Y-15.002
X-22.386 Y-15.164
X-22.272 Y-15.233
X-22.153 Y-15.293
X-22.03 Y-15.342
X-21.902 Y-15.381
X-21.635 Y-15.438
X-21.359 Y-15.474
X-21.078 Y-15.499
X-19.363 Y-15.498
X-18.142 Y-13.784
X-20.714
X-20.953 Y-13.758
X-21.067 Y-13.734
X-21.175 Y-13.696
X-21.275 Y-13.64
X-21.368 Y-13.571
X-21.543 Y-13.407
X-21.663 Y-13.196
X-21.71 Y-13.087
X-21.741 Y-12.975
X-21.754 Y-12.86
X-21.753 Y-12.741
X-21.726 Y-12.499
X-21.638 Y-12.237
X-21.585 Y-12.112
X-21.521 Y-11.995
X-21.442 Y-11.886
X-21.353 Y-11.783
X-21.156 Y-11.59
X-20.931 Y-11.435
X-20.815 Y-11.368
X-20.694 Y-11.313
X-20.568 Y-11.273
X-20.436 Y-11.245
X-20.166 Y-11.213
X-18.452 Y-11.212
X-17.23 Y-9.498
X-19.802
X-20.119 Y-9.531
X-20.433 Y-9.575
X-20.739 Y-9.638
X-21.034 Y-9.731
X-21.316 Y-9.859
X-21.587 Y-10.016
X-21.851 Y-10.192
X-22.112 Y-10.377
X-22.346 Y-10.601
X-22.571 Y-10.829
X-22.779 Y-11.068
X-22.962 Y-11.323
X-23.113 Y-11.597
X-23.237 Y-11.889
X-23.343 Y-12.191
X-23.44 Y-12.499
X-23.476 Y-12.783
X-23.502 Y-13.065
X-23.504 Y-13.342
X-23.494 Y-13.478
X-23.474 Y-13.612
X-23.443 Y-13.743
Z3.25
Z5
X-17.748 Y-13.783
Z3.25
Z-0.25 F150
X-18.112 Y-15.498 F100
X-14.255 Y-15.497
X-13.034 Y-13.782
X-17.748 Y-13.783
Z3.25
Z5
X-17.658 Y-13.355
Z3.25
Z-0.25 F150
X-13.801 Y-13.354 F100
X-12.58 Y-11.639
X-17.294 Y-11.641
X-17.658 Y-13.355
Z3.25
Z5
X-17.2 Y-11.212
Z3.25
Z-0.25 F150
X-13.343 Y-11.211 F100
X-12.122 Y-9.496
X-16.836 Y-9.498
X-17.2 Y-11.212
Z3.25
Z5
X-11.682 Y-7.863
Z3.25
Z-0.25 F150
X-10.96 Y-8.255 F100
X-10.242 Y-8.657
X-9.951 Y-8.81
X-9.67 Y-8.98
X-9.391 Y-9.153
X-9.106 Y-9.315
X-8.964 Y-9.402
X-8.809 Y-9.478
X-8.489 Y-9.625
X-8.337 Y-9.706
X-8.199 Y-9.8
X-8.082 Y-9.914
X-8.034 Y-9.98
X-7.994 Y-10.053
X-8.059 Y-10.115
X-8.09 Y-10.172
X-8.093 Y-10.224
X-8.076 Y-10.275
X-8.006 Y-10.376
X-7.93 Y-10.488
X-7.231 Y-10.988
X-6.882 Y-11.237
X-6.525 Y-11.472
X-6.507 Y-11.504
X-6.49 Y-11.516
X-6.475 Y-11.513
X-6.46 Y-11.5
X-6.43 Y-11.461
X-6.397 Y-11.434
X-6.354 Y-11.472
X-6.317 Y-11.489
X-6.286 Y-11.487
X-6.258 Y-11.47
X-6.206 Y-11.403
X-6.146 Y-11.311
X-6.014 Y-11.051
X-5.871 Y-10.798
X-5.808 Y-10.669
X-5.756 Y-10.536
X-5.72 Y-10.397
X-5.706 Y-10.25
X-5.592 Y-10.033
X-5.473 Y-9.802
X-5.41 Y-9.693
X-5.343 Y-9.597
X-5.271 Y-9.516
X-5.195 Y-9.457
X-5.148 Y-9.459
X-5.093 Y-9.449
X-5.034 Y-9.427
X-4.978 Y-9.396
X-4.929 Y-9.356
X-4.892 Y-9.308
X-4.872 Y-9.254
X-4.875 Y-9.195
X-4.827 Y-9.213
X-4.791 Y-9.219
X-4.766 Y-9.215
X-4.749 Y-9.202
X-4.735 Y-9.156
Y-9.093
X-4.736 Y-9.025
X-4.725 Y-8.963
X-4.71 Y-8.938
X-4.686 Y-8.918
X-4.653 Y-8.907
X-4.608 Y-8.904
X-4.664 Y-8.933
X-4.699 Y-8.959
X-4.716 Y-8.98
X-4.719 Y-8.998
X-4.709 Y-9.011
X-4.69 Y-9.021
X-4.633 Y-9.028
X-4.57 Y-9.018
X-4.522 Y-8.99
X-4.51 Y-8.97
Y-8.945
X-4.524 Y-8.916
X-4.556 Y-8.882
X-4.394 Y-8.817
X-4.259 Y-8.739
X-4.201 Y-8.689
X-4.147 Y-8.63
X-4.098 Y-8.559
X-4.053 Y-8.475
X-4.376 Y-8.061
X-4.689 Y-7.639
X-4.658 Y-6.728
X-4.639 Y-5.817
X-4.626 Y-3.993
X-4.242 Y-3.506
X-4.057 Y-3.258
X-3.88 Y-3.003
X-3.832 Y-2.962
X-3.795 Y-2.923
X-3.769 Y-2.888
X-3.753 Y-2.857
X-3.749 Y-2.804
X-3.775 Y-2.764
X-3.827 Y-2.737
X-3.898 Y-2.724
X-3.982 Y-2.723
X-4.072 Y-2.735
X-4.195 Y-2.767
X-4.311 Y-2.769
X-4.422 Y-2.747
X-4.527 Y-2.704
X-4.628 Y-2.646
X-4.725 Y-2.576
X-4.909 Y-2.421
X-5.094 Y-2.493
X-5.274 Y-2.576
X-5.629 Y-2.754
X-5.672 Y-2.77
X-5.711 Y-2.797
X-5.781 Y-2.877
X-5.901 Y-3.081
X-5.957 Y-3.171
X-6.014 Y-3.231
X-6.043 Y-3.244
X-6.075 Y-3.243
X-6.108 Y-3.225
X-6.143 Y-3.19
X-6.318 Y-3.154
X-6.494 Y-3.133
X-6.849 Y-3.117
X-7.206 Y-3.11
X-7.383 Y-3.1
X-7.56 Y-3.079
X-8.042 Y-2.751
X-8.519 Y-2.408
X-8.608 Y-2.336
X-8.703 Y-2.281
X-8.807 Y-2.252
X-8.863 Y-2.249
X-8.922 Y-2.256
X-9.135 Y-2.25
X-9.35 Y-2.253
X-9.455 Y-2.245
X-9.557 Y-2.225
X-9.654 Y-2.187
X-9.744 Y-2.126
X-9.869 Y-2.1
X-9.997 Y-2.086
X-10.26 Y-2.082
X-10.525 Y-2.089
X-10.786 Y-2.083
X-11.063 Y-2.08
X-11.2 Y-2.081
X-11.329 Y-2.102
X-11.391 Y-2.173
X-11.47 Y-2.245
X-11.635 Y-2.387
X-11.697 Y-2.459
X-11.728 Y-2.533
X-11.729 Y-2.57
X-11.718 Y-2.608
X-11.693 Y-2.646
X-11.653 Y-2.685
X-11.62 Y-2.774
X-11.569 Y-2.847
X-11.442 Y-2.971
X-11.38 Y-3.032
X-11.33 Y-3.102
X-11.298 Y-3.185
X-11.292 Y-3.288
X-11.304 Y-3.381
X-11.292 Y-3.464
X-11.262 Y-3.539
X-11.218 Y-3.609
X-11.109 Y-3.744
X-11.008 Y-3.891
X-10.957 Y-3.991
X-10.919 Y-4.095
X-10.868 Y-4.31
X-10.818 Y-4.527
X-10.781 Y-4.634
X-10.73 Y-4.739
X-10.731 Y-4.838
X-10.75 Y-4.933
X-10.819 Y-5.115
X-10.899 Y-5.287
X-10.931 Y-5.37
X-10.95 Y-5.452
X-11.012 Y-5.477
X-11.066 Y-5.508
X-11.151 Y-5.59
X-11.217 Y-5.69
X-11.272 Y-5.799
X-11.328 Y-5.91
X-11.392 Y-6.014
X-11.477 Y-6.103
X-11.53 Y-6.139
X-11.591 Y-6.168
X-11.648 Y-6.318
X-11.688 Y-6.472
X-11.725 Y-6.62
X-11.771 Y-6.752
X-11.708 Y-6.804
X-11.654 Y-6.871
X-11.559 Y-7.018
X-11.512 Y-7.082
X-11.462 Y-7.13
X-11.406 Y-7.154
X-11.34 Y-7.146
X-11.35 Y-7.089
X-11.339 Y-7.049
X-11.311 Y-7.02
X-11.269 Y-7
X-11.153 Y-6.97
X-11.015 Y-6.928
X-10.957 Y-6.973
X-10.916 Y-7.011
X-10.89 Y-7.042
X-10.877 Y-7.067
X-10.876 Y-7.088
X-10.886 Y-7.103
X-10.931 Y-7.125
X-10.999 Y-7.138
X-11.08 Y-7.147
X-11.161 Y-7.159
X-11.232 Y-7.18
X-11.229 Y-7.233
X-11.234 Y-7.27
X-11.246 Y-7.293
X-11.264 Y-7.305
X-11.314 Y-7.302
X-11.374 Y-7.276
X-11.437 Y-7.245
X-11.493 Y-7.225
X-11.535 Y-7.231
X-11.548 Y-7.248
X-11.553 Y-7.279
X-11.602 Y-7.316
X-11.636 Y-7.353
X-11.656 Y-7.391
X-11.664 Y-7.429
X-11.656 Y-7.505
X-11.63 Y-7.581
X-11.601 Y-7.655
X-11.589 Y-7.728
X-11.594 Y-7.763
X-11.61 Y-7.797
X-11.639 Y-7.83
X-11.682 Y-7.863
Z3.25
Z5
X-5.787 Y-12.566
Z3.25
Z-0.25 F150
X-5.955 Y-12.599 F100
X-6.129 Y-12.648
X-6.347 Y-12.731
X-6.571 Y-12.837
X-6.78 Y-12.955
X-6.871 Y-13.016
X-6.95 Y-13.074
X-7.007 Y-13.123
X-7.079 Y-13.189
X-7.246 Y-13.352
X-7.407 Y-13.518
X-7.472 Y-13.59
X-7.519 Y-13.646
X-7.638 Y-13.816
X-7.745 Y-14.007
X-7.839 Y-14.212
X-7.916 Y-14.426
X-7.976 Y-14.641
X-8.016 Y-14.851
X-8.034 Y-15.05
X-8.027 Y-15.232
X-7.993 Y-15.439
X-7.94 Y-15.619
X-7.865 Y-15.779
X-7.766 Y-15.923
X-7.728 Y-15.968
X-7.699 Y-16.001
X-7.675 Y-16.02
X-7.659 Y-16.027
X-7.647 Y-16.022
X-7.641 Y-16.004
X-7.638 Y-15.973
X-7.64 Y-15.93
Y-15.861
X-7.636 Y-15.765
X-7.628 Y-15.65
X-7.616 Y-15.525
X-7.587 Y-15.271
X-7.571 Y-15.16
X-7.555 Y-15.069
X-7.492 Y-14.831
X-7.403 Y-14.602
X-7.29 Y-14.384
X-7.154 Y-14.18
X-6.998 Y-13.993
X-6.823 Y-13.824
X-6.632 Y-13.676
X-6.425 Y-13.552
X-6.29 Y-13.491
X-6.146 Y-13.443
X-5.996 Y-13.409
X-5.838 Y-13.388
X-5.675 Y-13.381
X-5.507 Y-13.388
X-5.334 Y-13.409
X-5.157 Y-13.444
X-4.894 Y-13.525
X-4.648 Y-13.639
X-4.423 Y-13.784
X-4.219 Y-13.958
X-4.041 Y-14.159
X-3.888 Y-14.385
X-3.765 Y-14.634
X-3.672 Y-14.904
X-3.641 Y-15.018
X-3.617 Y-15.121
X-3.584 Y-15.304
X-3.569 Y-15.475
X-3.571 Y-15.656
X-3.585 Y-15.831
X-3.613 Y-15.995
X-3.656 Y-16.152
X-3.716 Y-16.304
X-3.793 Y-16.455
X-3.89 Y-16.608
X-4.008 Y-16.765
X-4.148 Y-16.929
X-4.227 Y-17.014
X-4.328 Y-17.111
X-4.45 Y-17.223
X-4.595 Y-17.351
X-4.765 Y-17.495
X-4.96 Y-17.657
X-5.183 Y-17.838
X-5.56 Y-18.14
X-5.671 Y-18.231
X-5.867 Y-18.4
X-5.963 Y-18.488
X-6.064 Y-18.584
X-6.176 Y-18.694
X-6.304 Y-18.822
X-6.383 Y-18.902
X-6.455 Y-18.974
X-6.577 Y-19.101
X-6.677 Y-19.209
X-6.76 Y-19.305
X-6.897 Y-19.486
X-6.961 Y-19.584
X-7.029 Y-19.695
X-7.072 Y-19.771
X-7.123 Y-19.868
X-7.237 Y-20.093
X-7.342 Y-20.315
X-7.383 Y-20.408
X-7.411 Y-20.478
X-7.443 Y-20.581
X-7.475 Y-20.713
X-7.505 Y-20.864
X-7.532 Y-21.028
X-7.574 Y-21.361
X-7.586 Y-21.515
X-7.59 Y-21.649
Y-21.705
X-7.588 Y-21.751
X-7.586 Y-21.78
X-7.584 Y-21.789
X-7.575 Y-21.773
X-7.558 Y-21.735
X-7.533 Y-21.681
X-7.503 Y-21.615
X-7.426 Y-21.452
X-7.335 Y-21.284
X-7.225 Y-21.099
X-7.161 Y-20.998
X-7.09 Y-20.889
X-6.976 Y-20.719
X-6.87 Y-20.57
X-6.769 Y-20.437
X-6.668 Y-20.315
X-6.45 Y-20.084
X-6.325 Y-19.966
X-6.182 Y-19.839
X-6.076 Y-19.746
X-5.99 Y-19.671
X-5.969 Y-19.654
X-5.937 Y-19.629
X-5.845 Y-19.56
X-5.726 Y-19.476
X-5.595 Y-19.384
X-5.07 Y-19.021
X-4.97 Y-18.953
X-4.848 Y-18.87
X-4.719 Y-18.783
X-4.597 Y-18.702
X-4.371 Y-18.545
X-4.171 Y-18.389
X-3.975 Y-18.216
X-3.873 Y-18.117
X-3.763 Y-18.008
X-3.65 Y-17.892
X-3.547 Y-17.782
X-3.365 Y-17.578
X-3.212 Y-17.387
X-3.082 Y-17.201
X-2.971 Y-17.01
X-2.871 Y-16.807
X-2.779 Y-16.581
X-2.688 Y-16.326
X-2.642 Y-16.17
X-2.608 Y-16
X-2.585 Y-15.82
X-2.573 Y-15.633
X-2.571 Y-15.441
X-2.581 Y-15.248
X-2.603 Y-15.056
X-2.635 Y-14.869
X-2.665 Y-14.749
X-2.708 Y-14.614
X-2.822 Y-14.318
X-2.959 Y-14.023
X-3.032 Y-13.889
X-3.103 Y-13.77
X-3.231 Y-13.592
X-3.376 Y-13.422
X-3.537 Y-13.262
X-3.711 Y-13.115
X-3.895 Y-12.983
X-4.087 Y-12.866
X-4.284 Y-12.769
X-4.484 Y-12.691
X-4.71 Y-12.626
X-4.934 Y-12.58
X-5.165 Y-12.553
X-5.411 Y-12.544
X-5.61 Y-12.549
X-5.787 Y-12.566
Z3.25
Z5
X-8.302 Y-14.863
Z3.25
Z-0.25 F150
X-8.352 Y-14.778 F100
X-8.398 Y-14.701
X-8.436 Y-14.645
X-8.481 Y-14.591
X-8.548 Y-14.521
X-8.694 Y-14.392
X-8.863 Y-14.288
X-9.058 Y-14.206
X-9.286 Y-14.143
X-9.365 Y-14.128
X-9.453 Y-14.118
X-9.648 Y-14.108
X-9.847 Y-14.113
X-10.029 Y-14.134
X-10.164 Y-14.163
X-10.3 Y-14.205
X-10.436 Y-14.258
X-10.57 Y-14.322
X-10.701 Y-14.395
X-10.828 Y-14.478
X-10.949 Y-14.57
X-11.064 Y-14.67
X-11.156 Y-14.767
X-11.247 Y-14.882
X-11.335 Y-15.012
X-11.417 Y-15.152
X-11.491 Y-15.298
X-11.555 Y-15.447
X-11.606 Y-15.594
X-11.644 Y-15.735
X-11.658 Y-15.82
X-11.668 Y-15.922
X-11.676 Y-16.159
X-11.668 Y-16.402
X-11.658 Y-16.513
X-11.644 Y-16.61
X-11.62 Y-16.735
X-11.595 Y-16.843
X-11.536 Y-17.027
X-11.453 Y-17.199
X-11.397 Y-17.293
X-11.329 Y-17.398
X-11.234 Y-17.534
X-11.14 Y-17.656
X-11.04 Y-17.768
X-10.932 Y-17.874
X-10.811 Y-17.978
X-10.673 Y-18.083
X-10.514 Y-18.194
X-10.329 Y-18.314
X-10.13 Y-18.441
X-9.997 Y-18.526
X-9.949 Y-18.556
X-9.886 Y-18.597
X-9.743 Y-18.687
X-9.556 Y-18.805
X-9.393 Y-18.908
X-9.251 Y-18.999
X-9.13 Y-19.078
X-9.028 Y-19.146
X-8.944 Y-19.205
X-8.875 Y-19.254
X-8.821 Y-19.296
X-8.691 Y-19.403
X-8.574 Y-19.508
X-8.47 Y-19.611
X-8.376 Y-19.712
X-8.294 Y-19.813
X-8.221 Y-19.914
X-8.104 Y-20.119
X-8.043 Y-20.261
X-8.001 Y-20.387
X-7.976 Y-20.515
X-7.962 Y-20.66
X-7.953 Y-20.834
X-7.921 Y-20.771
X-7.904 Y-20.736
X-7.884 Y-20.687
X-7.841 Y-20.571
X-7.815 Y-20.49
X-7.8 Y-20.414
X-7.794 Y-20.318
X-7.793 Y-20.253
Y-20.171
Y-20.093
X-7.794 Y-20.028
X-7.801 Y-19.925
X-7.815 Y-19.837
X-7.84 Y-19.739
X-7.88 Y-19.611
X-7.929 Y-19.489
X-7.988 Y-19.372
X-8.061 Y-19.256
X-8.148 Y-19.138
X-8.252 Y-19.015
X-8.375 Y-18.884
X-8.519 Y-18.742
X-8.716 Y-18.56
X-8.822 Y-18.466
X-8.943 Y-18.365
X-9.083 Y-18.25
X-9.249 Y-18.116
X-9.344 Y-18.041
X-9.56 Y-17.87
X-9.683 Y-17.774
X-9.788 Y-17.689
X-9.898 Y-17.594
X-10.12 Y-17.392
X-10.32 Y-17.192
X-10.404 Y-17.102
X-10.471 Y-17.023
X-10.57 Y-16.882
X-10.656 Y-16.729
X-10.724 Y-16.574
X-10.768 Y-16.428
X-10.779 Y-16.36
X-10.786 Y-16.28
X-10.789 Y-16.103
X-10.776 Y-15.927
X-10.764 Y-15.847
X-10.749 Y-15.779
X-10.703 Y-15.646
X-10.635 Y-15.496
X-10.556 Y-15.349
X-10.478 Y-15.227
X-10.387 Y-15.115
X-10.285 Y-15.009
X-10.174 Y-14.912
X-10.056 Y-14.823
X-9.932 Y-14.744
X-9.803 Y-14.676
X-9.672 Y-14.62
X-9.541 Y-14.578
X-9.389 Y-14.549
X-9.304 Y-14.542
X-9.209 Y-14.538
X-8.995 Y-14.55
X-8.798 Y-14.593
X-8.61 Y-14.668
X-8.423 Y-14.78
X-8.302 Y-14.863
Z3.25
Z5
X-44.642 Y-12.622
Z3.25
Z-0.25 F150
Y-12.378 F100
X-44.681 Y-12.138
X-44.758 Y-11.907
X-44.871 Y-11.691
X-45.017 Y-11.496
X-45.193 Y-11.327
X-45.394 Y-11.189
X-45.614 Y-11.085
X-45.848 Y-11.017
X-46.09 Y-10.987
X-46.333 Y-10.997
X-46.572 Y-11.046
X-46.799 Y-11.132
X-47.011 Y-11.254
X-47.199 Y-11.408
X-47.361 Y-11.59
X-47.491 Y-11.797
X-47.586 Y-12.021
X-47.645 Y-12.257
X-47.664 Y-12.5
X-47.645 Y-12.743
X-47.586 Y-12.979
X-47.491 Y-13.203
X-47.361 Y-13.41
X-47.199 Y-13.592
X-47.011 Y-13.746
X-46.799 Y-13.868
X-46.572 Y-13.954
X-46.333 Y-14.003
X-46.09 Y-14.013
X-45.848 Y-13.983
X-45.614 Y-13.915
X-45.394 Y-13.811
X-45.193 Y-13.673
X-45.017 Y-13.504
X-44.871 Y-13.309
X-44.758 Y-13.093
X-44.681 Y-12.862
X-44.642 Y-12.622
Z3.25
Z5
X-39.395 Y-15.503
Z3.25
Z-0.75 F150
X-36.395 Y-15.502 F100
X-35.757 Y-12.502
X-37.471
X-37.745 Y-13.788
X-39.031
X-39.24 Y-13.708
X-39.429 Y-13.617
X-39.51 Y-13.562
X-39.577 Y-13.501
X-39.63 Y-13.43
X-39.668 Y-13.35
X-39.691 Y-13.262
X-39.703 Y-13.167
X-39.704 Y-13.066
X-39.696 Y-12.959
X-39.662 Y-12.735
X-39.614 Y-12.503
X-39.555 Y-12.261
X-39.486 Y-12.029
X-39.398 Y-11.816
X-39.343 Y-11.719
X-39.281 Y-11.631
X-39.209 Y-11.552
X-39.126 Y-11.483
X-39.034 Y-11.424
X-38.933 Y-11.373
X-38.715 Y-11.289
X-38.483 Y-11.217
X-36.34 Y-11.216
X-35.119 Y-9.502
X-38.119 Y-9.503
X-38.74 Y-9.631
X-39.041 Y-9.705
X-39.331 Y-9.792
X-39.606 Y-9.896
X-39.863 Y-10.019
X-40.099 Y-10.168
X-40.207 Y-10.253
X-40.308 Y-10.345
X-40.493 Y-10.552
X-40.654 Y-10.783
X-40.796 Y-11.036
X-40.922 Y-11.308
X-41.035 Y-11.594
X-41.138 Y-11.891
X-41.328 Y-12.503
X-41.403 Y-13.105
X-41.429 Y-13.397
X-41.44 Y-13.679
X-41.432 Y-13.948
X-41.4 Y-14.199
X-41.339 Y-14.429
X-41.296 Y-14.535
X-41.244 Y-14.635
X-41.183 Y-14.728
X-41.111 Y-14.814
X-41.03 Y-14.893
X-40.94 Y-14.965
X-40.734 Y-15.092
X-40.5 Y-15.198
X-40.243 Y-15.288
X-39.97 Y-15.367
X-39.395 Y-15.503
Z3.25
Z5
X-35.576 Y-15.502
Z3.25
Z-0.75 F150
X-33.862 F100
X-33.314 Y-12.93
X-32.041 Y-15.501
X-29.898
X-30.983 Y-13.555
X-30.722 Y-13.382
X-30.474 Y-13.201
X-30.25 Y-13.002
X-30.15 Y-12.892
X-30.061 Y-12.776
X-29.983 Y-12.651
X-29.913 Y-12.52
X-29.797 Y-12.241
X-29.701 Y-11.946
X-29.616 Y-11.643
X-29.585 Y-11.184
X-29.58 Y-10.961
X-29.585 Y-10.748
X-29.606 Y-10.547
X-29.646 Y-10.361
X-29.709 Y-10.193
X-29.799 Y-10.047
X-29.919 Y-9.925
X-30.065 Y-9.824
X-30.236 Y-9.741
X-30.425 Y-9.675
X-30.63 Y-9.62
X-30.847 Y-9.575
X-31.301 Y-9.501
X-34.3 Y-9.502
X-34.664 Y-11.216
X-31.664 Y-11.215
X-31.49 Y-11.25
X-31.418 Y-11.28
X-31.365 Y-11.325
X-31.334 Y-11.387
X-31.323 Y-11.465
X-31.33 Y-11.644
X-31.4 Y-11.823
X-31.445 Y-11.901
X-31.503 Y-11.964
X-31.575 Y-12.008
X-31.659 Y-12.038
X-31.848 Y-12.073
X-34.848
X-35.576 Y-15.502
Z3.25
Z5
X-29.081 Y-14.3
Z3.25
Z-0.75 F150
X-29.765 Y-15.501 F100
X-27.943 Y-15.5
X-26.059 Y-12.178
X-25.586 Y-15.5
X-23.765 Y-15.499
X-24.632 Y-9.499
X-26.346 Y-9.5
X-29.081 Y-14.3
Z3.25
Z5
X-23.443 Y-13.743
Z3.25
Z-0.75 F150
X-23.401 Y-13.873 F100
X-23.292 Y-14.126
X-23.158 Y-14.375
X-23.013 Y-14.62
X-22.811 Y-14.817
X-22.604 Y-15.002
X-22.386 Y-15.164
X-22.272 Y-15.233
X-22.153 Y-15.293
X-22.03 Y-15.342
X-21.902 Y-15.381
X-21.635 Y-15.438
X-21.359 Y-15.474
X-21.078 Y-15.499
X-19.363 Y-15.498
X-18.142 Y-13.784
X-20.714
X-20.953 Y-13.758
X-21.067 Y-13.734
X-21.175 Y-13.696
X-21.275 Y-13.64
X-21.368 Y-13.571
X-21.543 Y-13.407
X-21.663 Y-13.196
X-21.71 Y-13.087
X-21.741 Y-12.975
X-21.754 Y-12.86
X-21.753 Y-12.741
X-21.726 Y-12.499
X-21.638 Y-12.237
X-21.585 Y-12.112
X-21.521 Y-11.995
X-21.442 Y-11.886
X-21.353 Y-11.783
X-21.156 Y-11.59
X-20.931 Y-11.435
X-20.815 Y-11.368
X-20.694 Y-11.313
X-20.568 Y-11.273
X-20.436 Y-11.245
X-20.166 Y-11.213
X-18.452 Y-11.212
X-17.23 Y-9.498
X-19.802
X-20.119 Y-9.531
X-20.433 Y-9.575
X-20.739 Y-9.638
X-21.034 Y-9.731
X-21.316 Y-9.859
X-21.587 Y-10.016
X-21.851 Y-10.192
X-22.112 Y-10.377
X-22.346 Y-10.601
X-22.571 Y-10.829
X-22.779 Y-11.068
X-22.962 Y-11.323
X-23.113 Y-11.597
X-23.237 Y-11.889
X-23.343 Y-12.191
X-23.44 Y-12.499
X-23.476 Y-12.783
X-23.502 Y-13.065
X-23.504 Y-13.342
X-23.494 Y-13.478
X-23.474 Y-13.612
X-23.443 Y-13.743
Z3.25
Z5
X-17.748 Y-13.783
Z3.25
Z-0.75 F150
X-18.112 Y-15.498 F100
X-14.255 Y-15.497
X-13.034 Y-13.782
X-17.748 Y-13.783
Z3.25
Z5
X-17.658 Y-13.355
Z3.25
Z-0.75 F150
X-13.801 Y-13.354 F100
X-12.58 Y-11.639
X-17.294 Y-11.641
X-17.658 Y-13.355
Z3.25
Z5
X-17.2 Y-11.212
Z3.25
Z-0.75 F150
X-13.343 Y-11.211 F100
X-12.122 Y-9.496
X-16.836 Y-9.498
X-17.2 Y-11.212
Z3.25
Z5
X-11.682 Y-7.863
Z3.25
Z-0.75 F150
X-10.96 Y-8.255 F100
X-10.242 Y-8.657
X-9.951 Y-8.81
X-9.67 Y-8.98
X-9.391 Y-9.153
X-9.106 Y-9.315
X-8.964 Y-9.402
X-8.809 Y-9.478
X-8.489 Y-9.625
X-8.337 Y-9.706
X-8.199 Y-9.8
X-8.082 Y-9.914
X-8.034 Y-9.98
X-7.994 Y-10.053
X-8.059 Y-10.115
X-8.09 Y-10.172
X-8.093 Y-10.224
X-8.076 Y-10.275
X-8.006 Y-10.376
X-7.93 Y-10.488
X-7.231 Y-10.988
X-6.882 Y-11.237
X-6.525 Y-11.472
X-6.507 Y-11.504
X-6.49 Y-11.516
X-6.475 Y-11.513
X-6.46 Y-11.5
X-6.43 Y-11.461
X-6.397 Y-11.434
X-6.354 Y-11.472
X-6.317 Y-11.489
X-6.286 Y-11.487
X-6.258 Y-11.47
X-6.206 Y-11.403
X-6.146 Y-11.311
X-6.014 Y-11.051
X-5.871 Y-10.798
X-5.808 Y-10.669
X-5.756 Y-10.536
X-5.72 Y-10.397
X-5.706 Y-10.25
X-5.592 Y-10.033
X-5.473 Y-9.802
X-5.41 Y-9.693
X-5.343 Y-9.597
X-5.271 Y-9.516
X-5.195 Y-9.457
X-5.148 Y-9.459
X-5.093 Y-9.449
X-5.034 Y-9.427
X-4.978 Y-9.396
X-4.929 Y-9.356
X-4.892 Y-9.308
X-4.872 Y-9.254
X-4.875 Y-9.195
X-4.827 Y-9.213
X-4.791 Y-9.219
X-4.766 Y-9.215
X-4.749 Y-9.202
X-4.735 Y-9.156
Y-9.093
X-4.736 Y-9.025
X-4.725 Y-8.963
X-4.71 Y-8.938
X-4.686 Y-8.918
X-4.653 Y-8.907
X-4.608 Y-8.904
X-4.664 Y-8.933
X-4.699 Y-8.959
X-4.716 Y-8.98
X-4.719 Y-8.998
X-4.709 Y-9.011
X-4.69 Y-9.021
X-4.633 Y-9.028
X-4.57 Y-9.018
X-4.522 Y-8.99
X-4.51 Y-8.97
Y-8.945
X-4.524 Y-8.916
X-4.556 Y-8.882
X-4.394 Y-8.817
X-4.259 Y-8.739
X-4.201 Y-8.689
X-4.147 Y-8.63
X-4.098 Y-8.559
X-4.053 Y-8.475
X-4.376 Y-8.061
X-4.689 Y-7.639
X-4.658 Y-6.728
X-4.639 Y-5.817
X-4.626 Y-3.993
X-4.242 Y-3.506
X-4.057 Y-3.258
X-3.88 Y-3.003
X-3.832 Y-2.962
X-3.795 Y-2.923
X-3.769 Y-2.888
X-3.753 Y-2.857
X-3.749 Y-2.804
X-3.775 Y-2.764
X-3.827 Y-2.737
X-3.898 Y-2.724
X-3.982 Y-2.723
X-4.072 Y-2.735
X-4.195 Y-2.767
X-4.311 Y-2.769
X-4.422 Y-2.747
X-4.527 Y-2.704
X-4.628 Y-2.646
X-4.725 Y-2.576
X-4.909 Y-2.421
X-5.094 Y-2.493
X-5.274 Y-2.576
X-5.629 Y-2.754
X-5.672 Y-2.77
X-5.711 Y-2.797
X-5.781 Y-2.877
X-5.901 Y-3.081
X-5.957 Y-3.171
X-6.014 Y-3.231
X-6.043 Y-3.244
X-6.075 Y-3.243
X-6.108 Y-3.225
X-6.143 Y-3.19
X-6.318 Y-3.154
X-6.494 Y-3.133
X-6.849 Y-3.117
X-7.206 Y-3.11
X-7.383 Y-3.1
X-7.56 Y-3.079
X-8.042 Y-2.751
X-8.519 Y-2.408
X-8.608 Y-2.336
X-8.703 Y-2.281
X-8.807 Y-2.252
X-8.863 Y-2.249
X-8.922 Y-2.256
X-9.135 Y-2.25
X-9.35 Y-2.253
X-9.455 Y-2.245
X-9.557 Y-2.225
X-9.654 Y-2.187
X-9.744 Y-2.126
X-9.869 Y-2.1
X-9.997 Y-2.086
X-10.26 Y-2.082
X-10.525 Y-2.089
X-10.786 Y-2.083
X-11.063 Y-2.08
X-11.2 Y-2.081
X-11.329 Y-2.102
X-11.391 Y-2.173
X-11.47 Y-2.245
X-11.635 Y-2.387
X-11.697 Y-2.459
X-11.728 Y-2.533
X-11.729 Y-2.57
X-11.718 Y-2.608
X-11.693 Y-2.646
X-11.653 Y-2.685
X-11.62 Y-2.774
X-11.569 Y-2.847
X-11.442 Y-2.971
X-11.38 Y-3.032
X-11.33 Y-3.102
X-11.298 Y-3.185
X-11.292 Y-3.288
X-11.304 Y-3.381
X-11.292 Y-3.464
X-11.262 Y-3.539
X-11.218 Y-3.609
X-11.109 Y-3.744
X-11.008 Y-3.891
X-10.957 Y-3.991
X-10.919 Y-4.095
X-10.868 Y-4.31
X-10.818 Y-4.527
X-10.781 Y-4.634
X-10.73 Y-4.739
X-10.731 Y-4.838
X-10.75 Y-4.933
X-10.819 Y-5.115
X-10.899 Y-5.287
X-10.931 Y-5.37
X-10.95 Y-5.452
X-11.012 Y-5.477
X-11.066 Y-5.508
X-11.151 Y-5.59
X-11.217 Y-5.69
X-11.272 Y-5.799
X-11.328 Y-5.91
X-11.392 Y-6.014
X-11.477 Y-6.103
X-11.53 Y-6.139
X-11.591 Y-6.168
X-11.648 Y-6.318
X-11.688 Y-6.472
X-11.725 Y-6.62
X-11.771 Y-6.752
X-11.708 Y-6.804
X-11.654 Y-6.871
X-11.559 Y-7.018
X-11.512 Y-7.082
X-11.462 Y-7.13
X-11.406 Y-7.154
X-11.34 Y-7.146
X-11.35 Y-7.089
X-11.339 Y-7.049
X-11.311 Y-7.02
X-11.269 Y-7
X-11.153 Y-6.97
X-11.015 Y-6.928
X-10.957 Y-6.973
X-10.916 Y-7.011
X-10.89 Y-7.042
X-10.877 Y-7.067
X-10.876 Y-7.088
X-10.886 Y-7.103
X-10.931 Y-7.125
X-10.999 Y-7.138
X-11.08 Y-7.147
X-11.161 Y-7.159
X-11.232 Y-7.18
X-11.229 Y-7.233
X-11.234 Y-7.27
X-11.246 Y-7.293
X-11.264 Y-7.305
X-11.314 Y-7.302
X-11.374 Y-7.276
X-11.437 Y-7.245
X-11.493 Y-7.225
X-11.535 Y-7.231
X-11.548 Y-7.248
X-11.553 Y-7.279
X-11.602 Y-7.316
X-11.636 Y-7.353
X-11.656 Y-7.391
X-11.664 Y-7.429
X-11.656 Y-7.505
X-11.63 Y-7.581
X-11.601 Y-7.655
X-11.589 Y-7.728
X-11.594 Y-7.763
X-11.61 Y-7.797
X-11.639 Y-7.83
X-11.682 Y-7.863
Z3.25
Z5
X-5.787 Y-12.566
Z3.25
Z-0.75 F150
X-5.955 Y-12.599 F100
X-6.129 Y-12.648
X-6.347 Y-12.731
X-6.571 Y-12.837
X-6.78 Y-12.955
X-6.871 Y-13.016
X-6.95 Y-13.074
X-7.007 Y-13.123
X-7.079 Y-13.189
X-7.246 Y-13.352
X-7.407 Y-13.518
X-7.472 Y-13.59
X-7.519 Y-13.646
X-7.638 Y-13.816
X-7.745 Y-14.007
X-7.839 Y-14.212
X-7.916 Y-14.426
X-7.976 Y-14.641
X-8.016 Y-14.851
X-8.034 Y-15.05
X-8.027 Y-15.232
X-7.993 Y-15.439
X-7.94 Y-15.619
X-7.865 Y-15.779
X-7.766 Y-15.923
X-7.728 Y-15.968
X-7.699 Y-16.001
X-7.675 Y-16.02
X-7.659 Y-16.027
X-7.647 Y-16.022
X-7.641 Y-16.004
X-7.638 Y-15.973
X-7.64 Y-15.93
Y-15.861
X-7.636 Y-15.765
X-7.628 Y-15.65
X-7.616 Y-15.525
X-7.587 Y-15.271
X-7.571 Y-15.16
X-7.555 Y-15.069
X-7.492 Y-14.831
X-7.403 Y-14.602
X-7.29 Y-14.384
X-7.154 Y-14.18
X-6.998 Y-13.993
X-6.823 Y-13.824
X-6.632 Y-13.676
X-6.425 Y-13.552
X-6.29 Y-13.491
X-6.146 Y-13.443
X-5.996 Y-13.409
X-5.838 Y-13.388
X-5.675 Y-13.381
X-5.507 Y-13.388
X-5.334 Y-13.409
X-5.157 Y-13.444
X-4.894 Y-13.525
X-4.648 Y-13.639
X-4.423 Y-13.784
X-4.219 Y-13.958
X-4.041 Y-14.159
X-3.888 Y-14.385
X-3.765 Y-14.634
X-3.672 Y-14.904
X-3.641 Y-15.018
X-3.617 Y-15.121
X-3.584 Y-15.304
X-3.569 Y-15.475
X-3.571 Y-15.656
X-3.585 Y-15.831
X-3.613 Y-15.995
X-3.656 Y-16.152
X-3.716 Y-16.304
X-3.793 Y-16.455
X-3.89 Y-16.608
X-4.008 Y-16.765
X-4.148 Y-16.929
X-4.227 Y-17.014
X-4.328 Y-17.111
X-4.45 Y-17.223
X-4.595 Y-17.351
X-4.765 Y-17.495
X-4.96 Y-17.657
X-5.183 Y-17.838
X-5.56 Y-18.14
X-5.671 Y-18.231
X-5.867 Y-18.4
X-5.963 Y-18.488
X-6.064 Y-18.584
X-6.176 Y-18.694
X-6.304 Y-18.822
X-6.383 Y-18.902
X-6.455 Y-18.974
X-6.577 Y-19.101
X-6.677 Y-19.209
X-6.76 Y-19.305
X-6.897 Y-19.486
X-6.961 Y-19.584
X-7.029 Y-19.695
X-7.072 Y-19.771
X-7.123 Y-19.868
X-7.237 Y-20.093
X-7.342 Y-20.315
X-7.383 Y-20.408
X-7.411 Y-20.478
X-7.443 Y-20.581
X-7.475 Y-20.713
X-7.505 Y-20.864
X-7.532 Y-21.028
X-7.574 Y-21.361
X-7.586 Y-21.515
X-7.59 Y-21.649
Y-21.705
X-7.588 Y-21.751
X-7.586 Y-21.78
X-7.584 Y-21.789
X-7.575 Y-21.773
X-7.558 Y-21.735
X-7.533 Y-21.681
X-7.503 Y-21.615
X-7.426 Y-21.452
X-7.335 Y-21.284
X-7.225 Y-21.099
X-7.161 Y-20.998
X-7.09 Y-20.889
X-6.976 Y-20.719
X-6.87 Y-20.57
X-6.769 Y-20.437
X-6.668 Y-20.315
X-6.45 Y-20.084
X-6.325 Y-19.966
X-6.182 Y-19.839
X-6.076 Y-19.746
X-5.99 Y-19.671
X-5.969 Y-19.654
X-5.937 Y-19.629
X-5.845 Y-19.56
X-5.726 Y-19.476
X-5.595 Y-19.384
X-5.07 Y-19.021
X-4.97 Y-18.953
X-4.848 Y-18.87
X-4.719 Y-18.783
X-4.597 Y-18.702
X-4.371 Y-18.545
X-4.171 Y-18.389
X-3.975 Y-18.216
X-3.873 Y-18.117
X-3.763 Y-18.008
X-3.65 Y-17.892
X-3.547 Y-17.782
X-3.365 Y-17.578
X-3.212 Y-17.387
X-3.082 Y-17.201
X-2.971 Y-17.01
X-2.871 Y-16.807
X-2.779 Y-16.581
X-2.688 Y-16.326
X-2.642 Y-16.17
X-2.608 Y-16
X-2.585 Y-15.82
X-2.573 Y-15.633
X-2.571 Y-15.441
X-2.581 Y-15.248
X-2.603 Y-15.056
X-2.635 Y-14.869
X-2.665 Y-14.749
X-2.708 Y-14.614
X-2.822 Y-14.318
X-2.959 Y-14.023
X-3.032 Y-13.889
X-3.103 Y-13.77
X-3.231 Y-13.592
X-3.376 Y-13.422
X-3.537 Y-13.262
X-3.711 Y-13.115
X-3.895 Y-12.983
X-4.087 Y-12.866
X-4.284 Y-12.769
X-4.484 Y-12.691
X-4.71 Y-12.626
X-4.934 Y-12.58
X-5.165 Y-12.553
X-5.411 Y-12.544
X-5.61 Y-12.549
X-5.787 Y-12.566
Z3.25
Z5
X-8.302 Y-14.863
Z3.25
Z-0.75 F150
X-8.352 Y-14.778 F100
X-8.398 Y-14.701
X-8.436 Y-14.645
X-8.481 Y-14.591
X-8.548 Y-14.521
X-8.694 Y-14.392
X-8.863 Y-14.288
X-9.058 Y-14.206
X-9.286 Y-14.143
X-9.365 Y-14.128
X-9.453 Y-14.118
X-9.648 Y-14.108
X-9.847 Y-14.113
X-10.029 Y-14.134
X-10.164 Y-14.163
X-10.3 Y-14.205
X-10.436 Y-14.258
X-10.57 Y-14.322
X-10.701 Y-14.395
X-10.828 Y-14.478
X-10.949 Y-14.57
X-11.064 Y-14.67
X-11.156 Y-14.767
X-11.247 Y-14.882
X-11.335 Y-15.012
X-11.417 Y-15.152
X-11.491 Y-15.298
X-11.555 Y-15.447
X-11.606 Y-15.594
X-11.644 Y-15.735
X-11.658 Y-15.82
X-11.668 Y-15.922
X-11.676 Y-16.159
X-11.668 Y-16.402
X-11.658 Y-16.513
X-11.644 Y-16.61
X-11.62 Y-16.735
X-11.595 Y-16.843
X-11.536 Y-17.027
X-11.453 Y-17.199
X-11.397 Y-17.293
X-11.329 Y-17.398
X-11.234 Y-17.534
X-11.14 Y-17.656
X-11.04 Y-17.768
X-10.932 Y-17.874
X-10.811 Y-17.978
X-10.673 Y-18.083
X-10.514 Y-18.194
X-10.329 Y-18.314
X-10.13 Y-18.441
X-9.997 Y-18.526
X-9.949 Y-18.556
X-9.886 Y-18.597
X-9.743 Y-18.687
X-9.556 Y-18.805
X-9.393 Y-18.908
X-9.251 Y-18.999
X-9.13 Y-19.078
X-9.028 Y-19.146
X-8.944 Y-19.205
X-8.875 Y-19.254
X-8.821 Y-19.296
X-8.691 Y-19.403
X-8.574 Y-19.508
X-8.47 Y-19.611
X-8.376 Y-19.712
X-8.294 Y-19.813
X-8.221 Y-19.914
X-8.104 Y-20.119
X-8.043 Y-20.261
X-8.001 Y-20.387
X-7.976 Y-20.515
X-7.962 Y-20.66
X-7.953 Y-20.834
X-7.921 Y-20.771
X-7.904 Y-20.736
X-7.884 Y-20.687
X-7.841 Y-20.571
X-7.815 Y-20.49
X-7.8 Y-20.414
X-7.794 Y-20.318
X-7.793 Y-20.253
Y-20.171
Y-20.093
X-7.794 Y-20.028
X-7.801 Y-19.925
X-7.815 Y-19.837
X-7.84 Y-19.739
X-7.88 Y-19.611
X-7.929 Y-19.489
X-7.988 Y-19.372
X-8.061 Y-19.256
X-8.148 Y-19.138
X-8.252 Y-19.015
X-8.375 Y-18.884
X-8.519 Y-18.742
X-8.716 Y-18.56
X-8.822 Y-18.466
X-8.943 Y-18.365
X-9.083 Y-18.25
X-9.249 Y-18.116
X-9.344 Y-18.041
X-9.56 Y-17.87
X-9.683 Y-17.774
X-9.788 Y-17.689
X-9.898 Y-17.594
X-10.12 Y-17.392
X-10.32 Y-17.192
X-10.404 Y-17.102
X-10.471 Y-17.023
X-10.57 Y-16.882
X-10.656 Y-16.729
X-10.724 Y-16.574
X-10.768 Y-16.428
X-10.779 Y-16.36
X-10.786 Y-16.28
X-10.789 Y-16.103
X-10.776 Y-15.927
X-10.764 Y-15.847
X-10.749 Y-15.779
X-10.703 Y-15.646
X-10.635 Y-15.496
X-10.556 Y-15.349
X-10.478 Y-15.227
X-10.387 Y-15.115
X-10.285 Y-15.009
X-10.174 Y-14.912
X-10.056 Y-14.823
X-9.932 Y-14.744
X-9.803 Y-14.676
X-9.672 Y-14.62
X-9.541 Y-14.578
X-9.389 Y-14.549
X-9.304 Y-14.542
X-9.209 Y-14.538
X-8.995 Y-14.55
X-8.798 Y-14.593
X-8.61 Y-14.668
X-8.423 Y-14.78
X-8.302 Y-14.863
Z3.25
Z5
X-44.642 Y-12.622
Z3.25
Z-0.75 F150
Y-12.378 F100
X-44.681 Y-12.138
X-44.758 Y-11.907
X-44.871 Y-11.691
X-45.017 Y-11.496
X-45.193 Y-11.327
X-45.394 Y-11.189
X-45.614 Y-11.085
X-45.848 Y-11.017
X-46.09 Y-10.987
X-46.333 Y-10.997
X-46.572 Y-11.046
X-46.799 Y-11.132
X-47.011 Y-11.254
X-47.199 Y-11.408
X-47.361 Y-11.59
X-47.491 Y-11.797
X-47.586 Y-12.021
X-47.645 Y-12.257
X-47.664 Y-12.5
X-47.645 Y-12.743
X-47.586 Y-12.979
X-47.491 Y-13.203
X-47.361 Y-13.41
X-47.199 Y-13.592
X-47.011 Y-13.746
X-46.799 Y-13.868
X-46.572 Y-13.954
X-46.333 Y-14.003
X-46.09 Y-14.013
X-45.848 Y-13.983
X-45.614 Y-13.915
X-45.394 Y-13.811
X-45.193 Y-13.673
X-45.017 Y-13.504
X-44.871 Y-13.309
X-44.758 Y-13.093
X-44.681 Y-12.862
X-44.642 Y-12.622
Z3.25
Z5
X-39.395 Y-15.503
Z3.25
Z-1.25 F150
X-36.395 Y-15.502 F100
X-35.757 Y-12.502
X-37.471
X-37.745 Y-13.788
X-39.031
X-39.24 Y-13.708
X-39.429 Y-13.617
X-39.51 Y-13.562
X-39.577 Y-13.501
X-39.63 Y-13.43
X-39.668 Y-13.35
X-39.691 Y-13.262
X-39.703 Y-13.167
X-39.704 Y-13.066
X-39.696 Y-12.959
X-39.662 Y-12.735
X-39.614 Y-12.503
X-39.555 Y-12.261
X-39.486 Y-12.029
X-39.398 Y-11.816
X-39.343 Y-11.719
X-39.281 Y-11.631
X-39.209 Y-11.552
X-39.126 Y-11.483
X-39.034 Y-11.424
X-38.933 Y-11.373
X-38.715 Y-11.289
X-38.483 Y-11.217
X-36.34 Y-11.216
X-35.119 Y-9.502
X-38.119 Y-9.503
X-38.74 Y-9.631
X-39.041 Y-9.705
X-39.331 Y-9.792
X-39.606 Y-9.896
X-39.863 Y-10.019
X-40.099 Y-10.168
X-40.207 Y-10.253
X-40.308 Y-10.345
X-40.493 Y-10.552
X-40.654 Y-10.783
X-40.796 Y-11.036
X-40.922 Y-11.308
X-41.035 Y-11.594
X-41.138 Y-11.891
X-41.328 Y-12.503
X-41.403 Y-13.105
X-41.429 Y-13.397
X-41.44 Y-13.679
X-41.432 Y-13.948
X-41.4 Y-14.199
X-41.339 Y-14.429
X-41.296 Y-14.535
X-41.244 Y-14.635
X-41.183 Y-14.728
X-41.111 Y-14.814
X-41.03 Y-14.893
X-40.94 Y-14.965
X-40.734 Y-15.092
X-40.5 Y-15.198
X-40.243 Y-15.288
X-39.97 Y-15.367
X-39.395 Y-15.503
Z3.25
Z5
X-35.576 Y-15.502
Z3.25
Z-1.25 F150
X-33.862 F100
X-33.314 Y-12.93
X-32.041 Y-15.501
X-29.898
X-30.983 Y-13.555
X-30.722 Y-13.382
X-30.474 Y-13.201
X-30.25 Y-13.002
X-30.15 Y-12.892
X-30.061 Y-12.776
X-29.983 Y-12.651
X-29.913 Y-12.52
X-29.797 Y-12.241
X-29.701 Y-11.946
X-29.616 Y-11.643
X-29.585 Y-11.184
X-29.58 Y-10.961
X-29.585 Y-10.748
X-29.606 Y-10.547
X-29.646 Y-10.361
X-29.709 Y-10.193
X-29.799 Y-10.047
X-29.919 Y-9.925
X-30.065 Y-9.824
X-30.236 Y-9.741
X-30.425 Y-9.675
X-30.63 Y-9.62
X-30.847 Y-9.575
X-31.301 Y-9.501
X-34.3 Y-9.502
X-34.664 Y-11.216
X-31.664 Y-11.215
X-31.49 Y-11.25
X-31.418 Y-11.28
X-31.365 Y-11.325
X-31.334 Y-11.387
X-31.323 Y-11.465
X-31.33 Y-11.644
X-31.4 Y-11.823
X-31.445 Y-11.901
X-31.503 Y-11.964
X-31.575 Y-12.008
X-31.659 Y-12.038
X-31.848 Y-12.073
X-34.848
X-35.576 Y-15.502
Z3.25
Z5
X-29.081 Y-14.3
Z3.25
Z-1.25 F150
X-29.765 Y-15.501 F100
X-27.943 Y-15.5
X-26.059 Y-12.178
X-25.586 Y-15.5
X-23.765 Y-15.499
X-24.632 Y-9.499
X-26.346 Y-9.5
X-29.081 Y-14.3
Z3.25
Z5
X-23.443 Y-13.743
Z3.25
Z-1.25 F150
X-23.401 Y-13.873 F100
X-23.292 Y-14.126
X-23.158 Y-14.375
X-23.013 Y-14.62
X-22.811 Y-14.817
X-22.604 Y-15.002
X-22.386 Y-15.164
X-22.272 Y-15.233
X-22.153 Y-15.293
X-22.03 Y-15.342
X-21.902 Y-15.381
X-21.635 Y-15.438
X-21.359 Y-15.474
X-21.078 Y-15.499
X-19.363 Y-15.498
X-18.142 Y-13.784
X-20.714
X-20.953 Y-13.758
X-21.067 Y-13.734
X-21.175 Y-13.696
X-21.275 Y-13.64
X-21.368 Y-13.571
X-21.543 Y-13.407
X-21.663 Y-13.196
X-21.71 Y-13.087
X-21.741 Y-12.975
X-21.754 Y-12.86
X-21.753 Y-12.741
X-21.726 Y-12.499
X-21.638 Y-12.237
X-21.585 Y-12.112
X-21.521 Y-11.995
X-21.442 Y-11.886
X-21.353 Y-11.783
X-21.156 Y-11.59
X-20.931 Y-11.435
X-20.815 Y-11.368
X-20.694 Y-11.313
X-20.568 Y-11.273
X-20.436 Y-11.245
X-20.166 Y-11.213
X-18.452 Y-11.212
X-17.23 Y-9.498
X-19.802
X-20.119 Y-9.531
X-20.433 Y-9.575
X-20.739 Y-9.638
X-21.034 Y-9.731
X-21.316 Y-9.859
X-21.587 Y-10.016
X-21.851 Y-10.192
X-22.112 Y-10.377
X-22.346 Y-10.601
X-22.571 Y-10.829
X-22.779 Y-11.068
X-22.962 Y-11.323
X-23.113 Y-11.597
X-23.237 Y-11.889
X-23.343 Y-12.191
X-23.44 Y-12.499
X-23.476 Y-12.783
X-23.502 Y-13.065
X-23.504 Y-13.342
X-23.494 Y-13.478
X-23.474 Y-13.612
X-23.443 Y-13.743
Z3.25
Z5
X-17.748 Y-13.783
Z3.25
Z-1.25 F150
X-18.112 Y-15.498 F100
X-14.255 Y-15.497
X-13.034 Y-13.782
X-17.748 Y-13.783
Z3.25
Z5
X-17.658 Y-13.355
Z3.25
Z-1.25 F150
X-13.801 Y-13.354 F100
X-12.58 Y-11.639
X-17.294 Y-11.641
X-17.658 Y-13.355
Z3.25
Z5
X-17.2 Y-11.212
Z3.25
Z-1.25 F150
X-13.343 Y-11.211 F100
X-12.122 Y-9.496
X-16.836 Y-9.498
X-17.2 Y-11.212
Z3.25
Z5
X-11.682 Y-7.863
Z3.25
Z-1.25 F150
X-10.96 Y-8.255 F100
X-10.242 Y-8.657
X-9.951 Y-8.81
X-9.67 Y-8.98
X-9.391 Y-9.153
X-9.106 Y-9.315
X-8.964 Y-9.402
X-8.809 Y-9.478
X-8.489 Y-9.625
X-8.337 Y-9.706
X-8.199 Y-9.8
X-8.082 Y-9.914
X-8.034 Y-9.98
X-7.994 Y-10.053
X-8.059 Y-10.115
X-8.09 Y-10.172
X-8.093 Y-10.224
X-8.076 Y-10.275
X-8.006 Y-10.376
X-7.93 Y-10.488
X-7.231 Y-10.988
X-6.882 Y-11.237
X-6.525 Y-11.472
X-6.507 Y-11.504
X-6.49 Y-11.516
X-6.475 Y-11.513
X-6.46 Y-11.5
X-6.43 Y-11.461
X-6.397 Y-11.434
X-6.354 Y-11.472
X-6.317 Y-11.489
X-6.286 Y-11.487
X-6.258 Y-11.47
X-6.206 Y-11.403
X-6.146 Y-11.311
X-6.014 Y-11.051
X-5.871 Y-10.798
X-5.808 Y-10.669
X-5.756 Y-10.536
X-5.72 Y-10.397
X-5.706 Y-10.25
X-5.592 Y-10.033
X-5.473 Y-9.802
X-5.41 Y-9.693
X-5.343 Y-9.597
X-5.271 Y-9.516
X-5.195 Y-9.457
X-5.148 Y-9.459
X-5.093 Y-9.449
X-5.034 Y-9.427
X-4.978 Y-9.396
X-4.929 Y-9.356
X-4.892 Y-9.308
X-4.872 Y-9.254
X-4.875 Y-9.195
X-4.827 Y-9.213
X-4.791 Y-9.219
X-4.766 Y-9.215
X-4.749 Y-9.202
X-4.735 Y-9.156
Y-9.093
X-4.736 Y-9.025
X-4.725 Y-8.963
X-4.71 Y-8.938
X-4.686 Y-8.918
X-4.653 Y-8.907
X-4.608 Y-8.904
X-4.664 Y-8.933
X-4.699 Y-8.959
X-4.716 Y-8.98
X-4.719 Y-8.998
X-4.709 Y-9.011
X-4.69 Y-9.021
X-4.633 Y-9.028
X-4.57 Y-9.018
X-4.522 Y-8.99
X-4.51 Y-8.97
Y-8.945
X-4.524 Y-8.916
X-4.556 Y-8.882
X-4.394 Y-8.817
X-4.259 Y-8.739
X-4.201 Y-8.689
X-4.147 Y-8.63
X-4.098 Y-8.559
X-4.053 Y-8.475
X-4.376 Y-8.061
X-4.689 Y-7.639
X-4.658 Y-6.728
X-4.639 Y-5.817
X-4.626 Y-3.993
X-4.242 Y-3.506
X-4.057 Y-3.258
X-3.88 Y-3.003
X-3.832 Y-2.962
X-3.795 Y-2.923
X-3.769 Y-2.888
X-3.753 Y-2.857
X-3.749 Y-2.804
X-3.775 Y-2.764
X-3.827 Y-2.737
X-3.898 Y-2.724
X-3.982 Y-2.723
X-4.072 Y-2.735
X-4.195 Y-2.767
X-4.311 Y-2.769
X-4.422 Y-2.747
X-4.527 Y-2.704
X-4.628 Y-2.646
X-4.725 Y-2.576
X-4.909 Y-2.421
X-5.094 Y-2.493
X-5.274 Y-2.576
X-5.629 Y-2.754
X-5.672 Y-2.77
X-5.711 Y-2.797
X-5.781 Y-2.877
X-5.901 Y-3.081
X-5.957 Y-3.171
X-6.014 Y-3.231
X-6.043 Y-3.244
X-6.075 Y-3.243
X-6.108 Y-3.225
X-6.143 Y-3.19
X-6.318 Y-3.154
X-6.494 Y-3.133
X-6.849 Y-3.117
X-7.206 Y-3.11
X-7.383 Y-3.1
X-7.56 Y-3.079
X-8.042 Y-2.751
X-8.519 Y-2.408
X-8.608 Y-2.336
X-8.703 Y-2.281
X-8.807 Y-2.252
X-8.863 Y-2.249
X-8.922 Y-2.256
X-9.135 Y-2.25
X-9.35 Y-2.253
X-9.455 Y-2.245
X-9.557 Y-2.225
X-9.654 Y-2.187
X-9.744 Y-2.126
X-9.869 Y-2.1
X-9.997 Y-2.086
X-10.26 Y-2.082
X-10.525 Y-2.089
X-10.786 Y-2.083
X-11.063 Y-2.08
X-11.2 Y-2.081
X-11.329 Y-2.102
X-11.391 Y-2.173
X-11.47 Y-2.245
X-11.635 Y-2.387
X-11.697 Y-2.459
X-11.728 Y-2.533
X-11.729 Y-2.57
X-11.718 Y-2.608
X-11.693 Y-2.646
X-11.653 Y-2.685
X-11.62 Y-2.774
X-11.569 Y-2.847
X-11.442 Y-2.971
X-11.38 Y-3.032
X-11.33 Y-3.102
X-11.298 Y-3.185
X-11.292 Y-3.288
X-11.304 Y-3.381
X-11.292 Y-3.464
X-11.262 Y-3.539
X-11.218 Y-3.609
X-11.109 Y-3.744
X-11.008 Y-3.891
X-10.957 Y-3.991
X-10.919 Y-4.095
X-10.868 Y-4.31
X-10.818 Y-4.527
X-10.781 Y-4.634
X-10.73 Y-4.739
X-10.731 Y-4.838
X-10.75 Y-4.933
X-10.819 Y-5.115
X-10.899 Y-5.287
X-10.931 Y-5.37
X-10.95 Y-5.452
X-11.012 Y-5.477
X-11.066 Y-5.508
X-11.151 Y-5.59
X-11.217 Y-5.69
X-11.272 Y-5.799
X-11.328 Y-5.91
X-11.392 Y-6.014
X-11.477 Y-6.103
X-11.53 Y-6.139
X-11.591 Y-6.168
X-11.648 Y-6.318
X-11.688 Y-6.472
X-11.725 Y-6.62
X-11.771 Y-6.752
X-11.708 Y-6.804
X-11.654 Y-6.871
X-11.559 Y-7.018
X-11.512 Y-7.082
X-11.462 Y-7.13
X-11.406 Y-7.154
X-11.34 Y-7.146
X-11.35 Y-7.089
X-11.339 Y-7.049
X-11.311 Y-7.02
X-11.269 Y-7
X-11.153 Y-6.97
X-11.015 Y-6.928
X-10.957 Y-6.973
X-10.916 Y-7.011
X-10.89 Y-7.042
X-10.877 Y-7.067
X-10.876 Y-7.088
X-10.886 Y-7.103
X-10.931 Y-7.125
X-10.999 Y-7.138
X-11.08 Y-7.147
X-11.161 Y-7.159
X-11.232 Y-7.18
X-11.229 Y-7.233
X-11.234 Y-7.27
X-11.246 Y-7.293
X-11.264 Y-7.305
X-11.314 Y-7.302
X-11.374 Y-7.276
X-11.437 Y-7.245
X-11.493 Y-7.225
X-11.535 Y-7.231
X-11.548 Y-7.248
X-11.553 Y-7.279
X-11.602 Y-7.316
X-11.636 Y-7.353
X-11.656 Y-7.391
X-11.664 Y-7.429
X-11.656 Y-7.505
X-11.63 Y-7.581
X-11.601 Y-7.655
X-11.589 Y-7.728
X-11.594 Y-7.763
X-11.61 Y-7.797
X-11.639 Y-7.83
X-11.682 Y-7.863
Z3.25
Z5
X-5.787 Y-12.566
Z3.25
Z-1.25 F150
X-5.955 Y-12.599 F100
X-6.129 Y-12.648
X-6.347 Y-12.731
X-6.571 Y-12.837
X-6.78 Y-12.955
X-6.871 Y-13.016
X-6.95 Y-13.074
X-7.007 Y-13.123
X-7.079 Y-13.189
X-7.246 Y-13.352
X-7.407 Y-13.518
X-7.472 Y-13.59
X-7.519 Y-13.646
X-7.638 Y-13.816
X-7.745 Y-14.007
X-7.839 Y-14.212
X-7.916 Y-14.426
X-7.976 Y-14.641
X-8.016 Y-14.851
X-8.034 Y-15.05
X-8.027 Y-15.232
X-7.993 Y-15.439
X-7.94 Y-15.619
X-7.865 Y-15.779
X-7.766 Y-15.923
X-7.728 Y-15.968
X-7.699 Y-16.001
X-7.675 Y-16.02
X-7.659 Y-16.027
X-7.647 Y-16.022
X-7.641 Y-16.004
X-7.638 Y-15.973
X-7.64 Y-15.93
Y-15.861
X-7.636 Y-15.765
X-7.628 Y-15.65
X-7.616 Y-15.525
X-7.587 Y-15.271
X-7.571 Y-15.16
X-7.555 Y-15.069
X-7.492 Y-14.831
X-7.403 Y-14.602
X-7.29 Y-14.384
X-7.154 Y-14.18
X-6.998 Y-13.993
X-6.823 Y-13.824
X-6.632 Y-13.676
X-6.425 Y-13.552
X-6.29 Y-13.491
X-6.146 Y-13.443
X-5.996 Y-13.409
X-5.838 Y-13.388
X-5.675 Y-13.381
X-5.507 Y-13.388
X-5.334 Y-13.409
X-5.157 Y-13.444
X-4.894 Y-13.525
X-4.648 Y-13.639
X-4.423 Y-13.784
X-4.219 Y-13.958
X-4.041 Y-14.159
X-3.888 Y-14.385
X-3.765 Y-14.634
X-3.672 Y-14.904
X-3.641 Y-15.018
X-3.617 Y-15.121
X-3.584 Y-15.304
X-3.569 Y-15.475
X-3.571 Y-15.656
X-3.585 Y-15.831
X-3.613 Y-15.995
X-3.656 Y-16.152
X-3.716 Y-16.304
X-3.793 Y-16.455
X-3.89 Y-16.608
X-4.008 Y-16.765
X-4.148 Y-16.929
X-4.227 Y-17.014
X-4.328 Y-17.111
X-4.45 Y-17.223
X-4.595 Y-17.351
X-4.765 Y-17.495
X-4.96 Y-17.657
X-5.183 Y-17.838
X-5.56 Y-18.14
X-5.671 Y-18.231
X-5.867 Y-18.4
X-5.963 Y-18.488
X-6.064 Y-18.584
X-6.176 Y-18.694
X-6.304 Y-18.822
X-6.383 Y-18.902
X-6.455 Y-18.974
X-6.577 Y-19.101
X-6.677 Y-19.209
X-6.76 Y-19.305
X-6.897 Y-19.486
X-6.961 Y-19.584
X-7.029 Y-19.695
X-7.072 Y-19.771
X-7.123 Y-19.868
X-7.237 Y-20.093
X-7.342 Y-20.315
X-7.383 Y-20.408
X-7.411 Y-20.478
X-7.443 Y-20.581
X-7.475 Y-20.713
X-7.505 Y-20.864
X-7.532 Y-21.028
X-7.574 Y-21.361
X-7.586 Y-21.515
X-7.59 Y-21.649
Y-21.705
X-7.588 Y-21.751
X-7.586 Y-21.78
X-7.584 Y-21.789
X-7.575 Y-21.773
X-7.558 Y-21.735
X-7.533 Y-21.681
X-7.503 Y-21.615
X-7.426 Y-21.452
X-7.335 Y-21.284
X-7.225 Y-21.099
X-7.161 Y-20.998
X-7.09 Y-20.889
X-6.976 Y-20.719
X-6.87 Y-20.57
X-6.769 Y-20.437
X-6.668 Y-20.315
X-6.45 Y-20.084
X-6.325 Y-19.966
X-6.182 Y-19.839
X-6.076 Y-19.746
X-5.99 Y-19.671
X-5.969 Y-19.654
X-5.937 Y-19.629
X-5.845 Y-19.56
X-5.726 Y-19.476
X-5.595 Y-19.384
X-5.07 Y-19.021
X-4.97 Y-18.953
X-4.848 Y-18.87
X-4.719 Y-18.783
X-4.597 Y-18.702
X-4.371 Y-18.545
X-4.171 Y-18.389
X-3.975 Y-18.216
X-3.873 Y-18.117
X-3.763 Y-18.008
X-3.65 Y-17.892
X-3.547 Y-17.782
X-3.365 Y-17.578
X-3.212 Y-17.387
X-3.082 Y-17.201
X-2.971 Y-17.01
X-2.871 Y-16.807
X-2.779 Y-16.581
X-2.688 Y-16.326
X-2.642 Y-16.17
X-2.608 Y-16
X-2.585 Y-15.82
X-2.573 Y-15.633
X-2.571 Y-15.441
X-2.581 Y-15.248
X-2.603 Y-15.056
X-2.635 Y-14.869
X-2.665 Y-14.749
X-2.708 Y-14.614
X-2.822 Y-14.318
X-2.959 Y-14.023
X-3.032 Y-13.889
X-3.103 Y-13.77
X-3.231 Y-13.592
X-3.376 Y-13.422
X-3.537 Y-13.262
X-3.711 Y-13.115
X-3.895 Y-12.983
X-4.087 Y-12.866
X-4.284 Y-12.769
X-4.484 Y-12.691
X-4.71 Y-12.626
X-4.934 Y-12.58
X-5.165 Y-12.553
X-5.411 Y-12.544
X-5.61 Y-12.549
X-5.787 Y-12.566
Z3.25
Z5
X-8.302 Y-14.863
Z3.25
Z-1.25 F150
X-8.352 Y-14.778 F100
X-8.398 Y-14.701
X-8.436 Y-14.645
X-8.481 Y-14.591
X-8.548 Y-14.521
X-8.694 Y-14.392
X-8.863 Y-14.288
X-9.058 Y-14.206
X-9.286 Y-14.143
X-9.365 Y-14.128
X-9.453 Y-14.118
X-9.648 Y-14.108
X-9.847 Y-14.113
X-10.029 Y-14.134
X-10.164 Y-14.163
X-10.3 Y-14.205
X-10.436 Y-14.258
X-10.57 Y-14.322
X-10.701 Y-14.395
X-10.828 Y-14.478
X-10.949 Y-14.57
X-11.064 Y-14.67
X-11.156 Y-14.767
X-11.247 Y-14.882
X-11.335 Y-15.012
X-11.417 Y-15.152
X-11.491 Y-15.298
X-11.555 Y-15.447
X-11.606 Y-15.594
X-11.644 Y-15.735
X-11.658 Y-15.82
X-11.668 Y-15.922
X-11.676 Y-16.159
X-11.668 Y-16.402
X-11.658 Y-16.513
X-11.644 Y-16.61
X-11.62 Y-16.735
X-11.595 Y-16.843
X-11.536 Y-17.027
X-11.453 Y-17.199
X-11.397 Y-17.293
X-11.329 Y-17.398
X-11.234 Y-17.534
X-11.14 Y-17.656
X-11.04 Y-17.768
X-10.932 Y-17.874
X-10.811 Y-17.978
X-10.673 Y-18.083
X-10.514 Y-18.194
X-10.329 Y-18.314
X-10.13 Y-18.441
X-9.997 Y-18.526
X-9.949 Y-18.556
X-9.886 Y-18.597
X-9.743 Y-18.687
X-9.556 Y-18.805
X-9.393 Y-18.908
X-9.251 Y-18.999
X-9.13 Y-19.078
X-9.028 Y-19.146
X-8.944 Y-19.205
X-8.875 Y-19.254
X-8.821 Y-19.296
X-8.691 Y-19.403
X-8.574 Y-19.508
X-8.47 Y-19.611
X-8.376 Y-19.712
X-8.294 Y-19.813
X-8.221 Y-19.914
X-8.104 Y-20.119
X-8.043 Y-20.261
X-8.001 Y-20.387
X-7.976 Y-20.515
X-7.962 Y-20.66
X-7.953 Y-20.834
X-7.921 Y-20.771
X-7.904 Y-20.736
X-7.884 Y-20.687
X-7.841 Y-20.571
X-7.815 Y-20.49
X-7.8 Y-20.414
X-7.794 Y-20.318
X-7.793 Y-20.253
Y-20.171
Y-20.093
X-7.794 Y-20.028
X-7.801 Y-19.925
X-7.815 Y-19.837
X-7.84 Y-19.739
X-7.88 Y-19.611
X-7.929 Y-19.489
X-7.988 Y-19.372
X-8.061 Y-19.256
X-8.148 Y-19.138
X-8.252 Y-19.015
X-8.375 Y-18.884
X-8.519 Y-18.742
X-8.716 Y-18.56
X-8.822 Y-18.466
X-8.943 Y-18.365
X-9.083 Y-18.25
X-9.249 Y-18.116
X-9.344 Y-18.041
X-9.56 Y-17.87
X-9.683 Y-17.774
X-9.788 Y-17.689
X-9.898 Y-17.594
X-10.12 Y-17.392
X-10.32 Y-17.192
X-10.404 Y-17.102
X-10.471 Y-17.023
X-10.57 Y-16.882
X-10.656 Y-16.729
X-10.724 Y-16.574
X-10.768 Y-16.428
X-10.779 Y-16.36
X-10.786 Y-16.28
X-10.789 Y-16.103
X-10.776 Y-15.927
X-10.764 Y-15.847
X-10.749 Y-15.779
X-10.703 Y-15.646
X-10.635 Y-15.496
X-10.556 Y-15.349
X-10.478 Y-15.227
X-10.387 Y-15.115
X-10.285 Y-15.009
X-10.174 Y-14.912
X-10.056 Y-14.823
X-9.932 Y-14.744
X-9.803 Y-14.676
X-9.672 Y-14.62
X-9.541 Y-14.578
X-9.389 Y-14.549
X-9.304 Y-14.542
X-9.209 Y-14.538
X-8.995 Y-14.55
X-8.798 Y-14.593
X-8.61 Y-14.668
X-8.423 Y-14.78
X-8.302 Y-14.863
Z3.25
Z5
X-44.642 Y-12.622
Z3.25
Z-1.25 F150
Y-12.378 F100
X-44.681 Y-12.138
X-44.758 Y-11.907
X-44.871 Y-11.691
X-45.017 Y-11.496
X-45.193 Y-11.327
X-45.394 Y-11.189
X-45.614 Y-11.085
X-45.848 Y-11.017
X-46.09 Y-10.987
X-46.333 Y-10.997
X-46.572 Y-11.046
X-46.799 Y-11.132
X-47.011 Y-11.254
X-47.199 Y-11.408
X-47.361 Y-11.59
X-47.491 Y-11.797
X-47.586 Y-12.021
X-47.645 Y-12.257
X-47.664 Y-12.5
X-47.645 Y-12.743
X-47.586 Y-12.979
X-47.491 Y-13.203
X-47.361 Y-13.41
X-47.199 Y-13.592
X-47.011 Y-13.746
X-46.799 Y-13.868
X-46.572 Y-13.954
X-46.333 Y-14.003
X-46.09 Y-14.013
X-45.848 Y-13.983
X-45.614 Y-13.915
X-45.394 Y-13.811
X-45.193 Y-13.673
X-45.017 Y-13.504
X-44.871 Y-13.309
X-44.758 Y-13.093
X-44.681 Y-12.862
X-44.642 Y-12.622
Z3.25
Z5
X-39.395 Y-15.503
Z3.25
Z-1.75 F150
X-36.395 Y-15.502 F100
X-35.757 Y-12.502
X-37.471
X-37.745 Y-13.788
X-39.031
X-39.24 Y-13.708
X-39.429 Y-13.617
X-39.51 Y-13.562
X-39.577 Y-13.501
X-39.63 Y-13.43
X-39.668 Y-13.35
X-39.691 Y-13.262
X-39.703 Y-13.167
X-39.704 Y-13.066
X-39.696 Y-12.959
X-39.662 Y-12.735
X-39.614 Y-12.503
X-39.555 Y-12.261
X-39.486 Y-12.029
X-39.398 Y-11.816
X-39.343 Y-11.719
X-39.281 Y-11.631
X-39.209 Y-11.552
X-39.126 Y-11.483
X-39.034 Y-11.424
X-38.933 Y-11.373
X-38.715 Y-11.289
X-38.483 Y-11.217
X-36.34 Y-11.216
X-35.119 Y-9.502
X-38.119 Y-9.503
X-38.74 Y-9.631
X-39.041 Y-9.705
X-39.331 Y-9.792
X-39.606 Y-9.896
X-39.863 Y-10.019
X-40.099 Y-10.168
X-40.207 Y-10.253
X-40.308 Y-10.345
X-40.493 Y-10.552
X-40.654 Y-10.783
X-40.796 Y-11.036
X-40.922 Y-11.308
X-41.035 Y-11.594
X-41.138 Y-11.891
X-41.328 Y-12.503
X-41.403 Y-13.105
X-41.429 Y-13.397
X-41.44 Y-13.679
X-41.432 Y-13.948
X-41.4 Y-14.199
X-41.339 Y-14.429
X-41.296 Y-14.535
X-41.244 Y-14.635
X-41.183 Y-14.728
X-41.111 Y-14.814
X-41.03 Y-14.893
X-40.94 Y-14.965
X-40.734 Y-15.092
X-40.5 Y-15.198
X-40.243 Y-15.288
X-39.97 Y-15.367
X-39.395 Y-15.503
Z3.25
Z5
X-35.576 Y-15.502
Z3.25
Z-1.75 F150
X-33.862 F100
X-33.314 Y-12.93
X-32.041 Y-15.501
X-29.898
X-30.983 Y-13.555
X-30.722 Y-13.382
X-30.474 Y-13.201
X-30.25 Y-13.002
X-30.15 Y-12.892
X-30.061 Y-12.776
X-29.983 Y-12.651
X-29.913 Y-12.52
X-29.797 Y-12.241
X-29.701 Y-11.946
X-29.616 Y-11.643
X-29.585 Y-11.184
X-29.58 Y-10.961
X-29.585 Y-10.748
X-29.606 Y-10.547
X-29.646 Y-10.361
X-29.709 Y-10.193
X-29.799 Y-10.047
X-29.919 Y-9.925
X-30.065 Y-9.824
X-30.236 Y-9.741
X-30.425 Y-9.675
X-30.63 Y-9.62
X-30.847 Y-9.575
X-31.301 Y-9.501
X-34.3 Y-9.502
X-34.664 Y-11.216
X-31.664 Y-11.215
X-31.49 Y-11.25
X-31.418 Y-11.28
X-31.365 Y-11.325
X-31.334 Y-11.387
X-31.323 Y-11.465
X-31.33 Y-11.644
X-31.4 Y-11.823
X-31.445 Y-11.901
X-31.503 Y-11.964
X-31.575 Y-12.008
X-31.659 Y-12.038
X-31.848 Y-12.073
X-34.848
X-35.576 Y-15.502
Z3.25
Z5
X-29.081 Y-14.3
Z3.25
Z-1.75 F150
X-29.765 Y-15.501 F100
X-27.943 Y-15.5
X-26.059 Y-12.178
X-25.586 Y-15.5
X-23.765 Y-15.499
X-24.632 Y-9.499
X-26.346 Y-9.5
X-29.081 Y-14.3
Z3.25
Z5
X-23.443 Y-13.743
Z3.25
Z-1.75 F150
X-23.401 Y-13.873 F100
X-23.292 Y-14.126
X-23.158 Y-14.375
X-23.013 Y-14.62
X-22.811 Y-14.817
X-22.604 Y-15.002
X-22.386 Y-15.164
X-22.272 Y-15.233
X-22.153 Y-15.293
X-22.03 Y-15.342
X-21.902 Y-15.381
X-21.635 Y-15.438
X-21.359 Y-15.474
X-21.078 Y-15.499
X-19.363 Y-15.498
X-18.142 Y-13.784
X-20.714
X-20.953 Y-13.758
X-21.067 Y-13.734
X-21.175 Y-13.696
X-21.275 Y-13.64
X-21.368 Y-13.571
X-21.543 Y-13.407
X-21.663 Y-13.196
X-21.71 Y-13.087
X-21.741 Y-12.975
X-21.754 Y-12.86
X-21.753 Y-12.741
X-21.726 Y-12.499
X-21.638 Y-12.237
X-21.585 Y-12.112
X-21.521 Y-11.995
X-21.442 Y-11.886
X-21.353 Y-11.783
X-21.156 Y-11.59
X-20.931 Y-11.435
X-20.815 Y-11.368
X-20.694 Y-11.313
X-20.568 Y-11.273
X-20.436 Y-11.245
X-20.166 Y-11.213
X-18.452 Y-11.212
X-17.23 Y-9.498
X-19.802
X-20.119 Y-9.531
X-20.433 Y-9.575
X-20.739 Y-9.638
X-21.034 Y-9.731
X-21.316 Y-9.859
X-21.587 Y-10.016
X-21.851 Y-10.192
X-22.112 Y-10.377
X-22.346 Y-10.601
X-22.571 Y-10.829
X-22.779 Y-11.068
X-22.962 Y-11.323
X-23.113 Y-11.597
X-23.237 Y-11.889
X-23.343 Y-12.191
X-23.44 Y-12.499
X-23.476 Y-12.783
X-23.502 Y-13.065
X-23.504 Y-13.342
X-23.494 Y-13.478
X-23.474 Y-13.612
X-23.443 Y-13.743
Z3.25
Z5
X-17.748 Y-13.783
Z3.25
Z-1.75 F150
X-18.112 Y-15.498 F100
X-14.255 Y-15.497
X-13.034 Y-13.782
X-17.748 Y-13.783
Z3.25
Z5
X-17.658 Y-13.355
Z3.25
Z-1.75 F150
X-13.801 Y-13.354 F100
X-12.58 Y-11.639
X-17.294 Y-11.641
X-17.658 Y-13.355
Z3.25
Z5
X-17.2 Y-11.212
Z3.25
Z-1.75 F150
X-13.343 Y-11.211 F100
X-12.122 Y-9.496
X-16.836 Y-9.498
X-17.2 Y-11.212
Z3.25
Z5
X-11.682 Y-7.863
Z3.25
Z-1.75 F150
X-10.96 Y-8.255 F100
X-10.242 Y-8.657
X-9.951 Y-8.81
X-9.67 Y-8.98
X-9.391 Y-9.153
X-9.106 Y-9.315
X-8.964 Y-9.402
X-8.809 Y-9.478
X-8.489 Y-9.625
X-8.337 Y-9.706
X-8.199 Y-9.8
X-8.082 Y-9.914
X-8.034 Y-9.98
X-7.994 Y-10.053
X-8.059 Y-10.115
X-8.09 Y-10.172
X-8.093 Y-10.224
X-8.076 Y-10.275
X-8.006 Y-10.376
X-7.93 Y-10.488
X-7.231 Y-10.988
X-6.882 Y-11.237
X-6.525 Y-11.472
X-6.507 Y-11.504
X-6.49 Y-11.516
X-6.475 Y-11.513
X-6.46 Y-11.5
X-6.43 Y-11.461
X-6.397 Y-11.434
X-6.354 Y-11.472
X-6.317 Y-11.489
X-6.286 Y-11.487
X-6.258 Y-11.47
X-6.206 Y-11.403
X-6.146 Y-11.311
X-6.014 Y-11.051
X-5.871 Y-10.798
X-5.808 Y-10.669
X-5.756 Y-10.536
X-5.72 Y-10.397
X-5.706 Y-10.25
X-5.592 Y-10.033
X-5.473 Y-9.802
X-5.41 Y-9.693
X-5.343 Y-9.597
X-5.271 Y-9.516
X-5.195 Y-9.457
X-5.148 Y-9.459
X-5.093 Y-9.449
X-5.034 Y-9.427
X-4.978 Y-9.396
X-4.929 Y-9.356
X-4.892 Y-9.308
X-4.872 Y-9.254
X-4.875 Y-9.195
X-4.827 Y-9.213
X-4.791 Y-9.219
X-4.766 Y-9.215
X-4.749 Y-9.202
X-4.735 Y-9.156
Y-9.093
X-4.736 Y-9.025
X-4.725 Y-8.963
X-4.71 Y-8.938
X-4.686 Y-8.918
X-4.653 Y-8.907
X-4.608 Y-8.904
X-4.664 Y-8.933
X-4.699 Y-8.959
X-4.716 Y-8.98
X-4.719 Y-8.998
X-4.709 Y-9.011
X-4.69 Y-9.021
X-4.633 Y-9.028
X-4.57 Y-9.018
X-4.522 Y-8.99
X-4.51 Y-8.97
Y-8.945
X-4.524 Y-8.916
X-4.556 Y-8.882
X-4.394 Y-8.817
X-4.259 Y-8.739
X-4.201 Y-8.689
X-4.147 Y-8.63
X-4.098 Y-8.559
X-4.053 Y-8.475
X-4.376 Y-8.061
X-4.689 Y-7.639
X-4.658 Y-6.728
X-4.639 Y-5.817
X-4.626 Y-3.993
X-4.242 Y-3.506
X-4.057 Y-3.258
X-3.88 Y-3.003
X-3.832 Y-2.962
X-3.795 Y-2.923
X-3.769 Y-2.888
X-3.753 Y-2.857
X-3.749 Y-2.804
X-3.775 Y-2.764
X-3.827 Y-2.737
X-3.898 Y-2.724
X-3.982 Y-2.723
X-4.072 Y-2.735
X-4.195 Y-2.767
X-4.311 Y-2.769
X-4.422 Y-2.747
X-4.527 Y-2.704
X-4.628 Y-2.646
X-4.725 Y-2.576
X-4.909 Y-2.421
X-5.094 Y-2.493
X-5.274 Y-2.576
X-5.629 Y-2.754
X-5.672 Y-2.77
X-5.711 Y-2.797
X-5.781 Y-2.877
X-5.901 Y-3.081
X-5.957 Y-3.171
X-6.014 Y-3.231
X-6.043 Y-3.244
X-6.075 Y-3.243
X-6.108 Y-3.225
X-6.143 Y-3.19
X-6.318 Y-3.154
X-6.494 Y-3.133
X-6.849 Y-3.117
X-7.206 Y-3.11
X-7.383 Y-3.1
X-7.56 Y-3.079
X-8.042 Y-2.751
X-8.519 Y-2.408
X-8.608 Y-2.336
X-8.703 Y-2.281
X-8.807 Y-2.252
X-8.863 Y-2.249
X-8.922 Y-2.256
X-9.135 Y-2.25
X-9.35 Y-2.253
X-9.455 Y-2.245
X-9.557 Y-2.225
X-9.654 Y-2.187
X-9.744 Y-2.126
X-9.869 Y-2.1
X-9.997 Y-2.086
X-10.26 Y-2.082
X-10.525 Y-2.089
X-10.786 Y-2.083
X-11.063 Y-2.08
X-11.2 Y-2.081
X-11.329 Y-2.102
X-11.391 Y-2.173
X-11.47 Y-2.245
X-11.635 Y-2.387
X-11.697 Y-2.459
X-11.728 Y-2.533
X-11.729 Y-2.57
X-11.718 Y-2.608
X-11.693 Y-2.646
X-11.653 Y-2.685
X-11.62 Y-2.774
X-11.569 Y-2.847
X-11.442 Y-2.971
X-11.38 Y-3.032
X-11.33 Y-3.102
X-11.298 Y-3.185
X-11.292 Y-3.288
X-11.304 Y-3.381
X-11.292 Y-3.464
X-11.262 Y-3.539
X-11.218 Y-3.609
X-11.109 Y-3.744
X-11.008 Y-3.891
X-10.957 Y-3.991
X-10.919 Y-4.095
X-10.868 Y-4.31
X-10.818 Y-4.527
X-10.781 Y-4.634
X-10.73 Y-4.739
X-10.731 Y-4.838
X-10.75 Y-4.933
X-10.819 Y-5.115
X-10.899 Y-5.287
X-10.931 Y-5.37
X-10.95 Y-5.452
X-11.012 Y-5.477
X-11.066 Y-5.508
X-11.151 Y-5.59
X-11.217 Y-5.69
X-11.272 Y-5.799
X-11.328 Y-5.91
X-11.392 Y-6.014
X-11.477 Y-6.103
X-11.53 Y-6.139
X-11.591 Y-6.168
X-11.648 Y-6.318
X-11.688 Y-6.472
X-11.725 Y-6.62
X-11.771 Y-6.752
X-11.708 Y-6.804
X-11.654 Y-6.871
X-11.559 Y-7.018
X-11.512 Y-7.082
X-11.462 Y-7.13
X-11.406 Y-7.154
X-11.34 Y-7.146
X-11.35 Y-7.089
X-11.339 Y-7.049
X-11.311 Y-7.02
X-11.269 Y-7
X-11.153 Y-6.97
X-11.015 Y-6.928
X-10.957 Y-6.973
X-10.916 Y-7.011
X-10.89 Y-7.042
X-10.877 Y-7.067
X-10.876 Y-7.088
X-10.886 Y-7.103
X-10.931 Y-7.125
X-10.999 Y-7.138
X-11.08 Y-7.147
X-11.161 Y-7.159
X-11.232 Y-7.18
X-11.229 Y-7.233
X-11.234 Y-7.27
X-11.246 Y-7.293
X-11.264 Y-7.305
X-11.314 Y-7.302
X-11.374 Y-7.276
X-11.437 Y-7.245
X-11.493 Y-7.225
X-11.535 Y-7.231
X-11.548 Y-7.248
X-11.553 Y-7.279
X-11.602 Y-7.316
X-11.636 Y-7.353
X-11.656 Y-7.391
X-11.664 Y-7.429
X-11.656 Y-7.505
X-11.63 Y-7.581
X-11.601 Y-7.655
X-11.589 Y-7.728
X-11.594 Y-7.763
X-11.61 Y-7.797
X-11.639 Y-7.83
X-11.682 Y-7.863
Z3.25
Z5
X-5.787 Y-12.566
Z3.25
Z-1.75 F150
X-5.955 Y-12.599 F100
X-6.129 Y-12.648
X-6.347 Y-12.731
X-6.571 Y-12.837
X-6.78 Y-12.955
X-6.871 Y-13.016
X-6.95 Y-13.074
X-7.007 Y-13.123
X-7.079 Y-13.189
X-7.246 Y-13.352
X-7.407 Y-13.518
X-7.472 Y-13.59
X-7.519 Y-13.646
X-7.638 Y-13.816
X-7.745 Y-14.007
X-7.839 Y-14.212
X-7.916 Y-14.426
X-7.976 Y-14.641
X-8.016 Y-14.851
X-8.034 Y-15.05
X-8.027 Y-15.232
X-7.993 Y-15.439
X-7.94 Y-15.619
X-7.865 Y-15.779
X-7.766 Y-15.923
X-7.728 Y-15.968
X-7.699 Y-16.001
X-7.675 Y-16.02
X-7.659 Y-16.027
X-7.647 Y-16.022
X-7.641 Y-16.004
X-7.638 Y-15.973
X-7.64 Y-15.93
Y-15.861
X-7.636 Y-15.765
X-7.628 Y-15.65
X-7.616 Y-15.525
X-7.587 Y-15.271
X-7.571 Y-15.16
X-7.555 Y-15.069
X-7.492 Y-14.831
X-7.403 Y-14.602
X-7.29 Y-14.384
X-7.154 Y-14.18
X-6.998 Y-13.993
X-6.823 Y-13.824
X-6.632 Y-13.676
X-6.425 Y-13.552
X-6.29 Y-13.491
X-6.146 Y-13.443
X-5.996 Y-13.409
X-5.838 Y-13.388
X-5.675 Y-13.381
X-5.507 Y-13.388
X-5.334 Y-13.409
X-5.157 Y-13.444
X-4.894 Y-13.525
X-4.648 Y-13.639
X-4.423 Y-13.784
X-4.219 Y-13.958
X-4.041 Y-14.159
X-3.888 Y-14.385
X-3.765 Y-14.634
X-3.672 Y-14.904
X-3.641 Y-15.018
X-3.617 Y-15.121
X-3.584 Y-15.304
X-3.569 Y-15.475
X-3.571 Y-15.656
X-3.585 Y-15.831
X-3.613 Y-15.995
X-3.656 Y-16.152
X-3.716 Y-16.304
X-3.793 Y-16.455
X-3.89 Y-16.608
X-4.008 Y-16.765
X-4.148 Y-16.929
X-4.227 Y-17.014
X-4.328 Y-17.111
X-4.45 Y-17.223
X-4.595 Y-17.351
X-4.765 Y-17.495
X-4.96 Y-17.657
X-5.183 Y-17.838
X-5.56 Y-18.14
X-5.671 Y-18.231
X-5.867 Y-18.4
X-5.963 Y-18.488
X-6.064 Y-18.584
X-6.176 Y-18.694
X-6.304 Y-18.822
X-6.383 Y-18.902
X-6.455 Y-18.974
X-6.577 Y-19.101
X-6.677 Y-19.209
X-6.76 Y-19.305
X-6.897 Y-19.486
X-6.961 Y-19.584
X-7.029 Y-19.695
X-7.072 Y-19.771
X-7.123 Y-19.868
X-7.237 Y-20.093
X-7.342 Y-20.315
X-7.383 Y-20.408
X-7.411 Y-20.478
X-7.443 Y-20.581
X-7.475 Y-20.713
X-7.505 Y-20.864
X-7.532 Y-21.028
X-7.574 Y-21.361
X-7.586 Y-21.515
X-7.59 Y-21.649
Y-21.705
X-7.588 Y-21.751
X-7.586 Y-21.78
X-7.584 Y-21.789
X-7.575 Y-21.773
X-7.558 Y-21.735
X-7.533 Y-21.681
X-7.503 Y-21.615
X-7.426 Y-21.452
X-7.335 Y-21.284
X-7.225 Y-21.099
X-7.161 Y-20.998
X-7.09 Y-20.889
X-6.976 Y-20.719
X-6.87 Y-20.57
X-6.769 Y-20.437
X-6.668 Y-20.315
X-6.45 Y-20.084
X-6.325 Y-19.966
X-6.182 Y-19.839
X-6.076 Y-19.746
X-5.99 Y-19.671
X-5.969 Y-19.654
X-5.937 Y-19.629
X-5.845 Y-19.56
X-5.726 Y-19.476
X-5.595 Y-19.384
X-5.07 Y-19.021
X-4.97 Y-18.953
X-4.848 Y-18.87
X-4.719 Y-18.783
X-4.597 Y-18.702
X-4.371 Y-18.545
X-4.171 Y-18.389
X-3.975 Y-18.216
X-3.873 Y-18.117
X-3.763 Y-18.008
X-3.65 Y-17.892
X-3.547 Y-17.782
X-3.365 Y-17.578
X-3.212 Y-17.387
X-3.082 Y-17.201
X-2.971 Y-17.01
X-2.871 Y-16.807
X-2.779 Y-16.581
X-2.688 Y-16.326
X-2.642 Y-16.17
X-2.608 Y-16
X-2.585 Y-15.82
X-2.573 Y-15.633
X-2.571 Y-15.441
X-2.581 Y-15.248
X-2.603 Y-15.056
X-2.635 Y-14.869
X-2.665 Y-14.749
X-2.708 Y-14.614
X-2.822 Y-14.318
X-2.959 Y-14.023
X-3.032 Y-13.889
X-3.103 Y-13.77
X-3.231 Y-13.592
X-3.376 Y-13.422
X-3.537 Y-13.262
X-3.711 Y-13.115
X-3.895 Y-12.983
X-4.087 Y-12.866
X-4.284 Y-12.769
X-4.484 Y-12.691
X-4.71 Y-12.626
X-4.934 Y-12.58
X-5.165 Y-12.553
X-5.411 Y-12.544
X-5.61 Y-12.549
X-5.787 Y-12.566
Z3.25
Z5
X-8.302 Y-14.863
Z3.25
Z-1.75 F150
X-8.352 Y-14.778 F100
X-8.398 Y-14.701
X-8.436 Y-14.645
X-8.481 Y-14.591
X-8.548 Y-14.521
X-8.694 Y-14.392
X-8.863 Y-14.288
X-9.058 Y-14.206
X-9.286 Y-14.143
X-9.365 Y-14.128
X-9.453 Y-14.118
X-9.648 Y-14.108
X-9.847 Y-14.113
X-10.029 Y-14.134
X-10.164 Y-14.163
X-10.3 Y-14.205
X-10.436 Y-14.258
X-10.57 Y-14.322
X-10.701 Y-14.395
X-10.828 Y-14.478
X-10.949 Y-14.57
X-11.064 Y-14.67
X-11.156 Y-14.767
X-11.247 Y-14.882
X-11.335 Y-15.012
X-11.417 Y-15.152
X-11.491 Y-15.298
X-11.555 Y-15.447
X-11.606 Y-15.594
X-11.644 Y-15.735
X-11.658 Y-15.82
X-11.668 Y-15.922
X-11.676 Y-16.159
X-11.668 Y-16.402
X-11.658 Y-16.513
X-11.644 Y-16.61
X-11.62 Y-16.735
X-11.595 Y-16.843
X-11.536 Y-17.027
X-11.453 Y-17.199
X-11.397 Y-17.293
X-11.329 Y-17.398
X-11.234 Y-17.534
X-11.14 Y-17.656
X-11.04 Y-17.768
X-10.932 Y-17.874
X-10.811 Y-17.978
X-10.673 Y-18.083
X-10.514 Y-18.194
X-10.329 Y-18.314
X-10.13 Y-18.441
X-9.997 Y-18.526
X-9.949 Y-18.556
X-9.886 Y-18.597
X-9.743 Y-18.687
X-9.556 Y-18.805
X-9.393 Y-18.908
X-9.251 Y-18.999
X-9.13 Y-19.078
X-9.028 Y-19.146
X-8.944 Y-19.205
X-8.875 Y-19.254
X-8.821 Y-19.296
X-8.691 Y-19.403
X-8.574 Y-19.508
X-8.47 Y-19.611
X-8.376 Y-19.712
X-8.294 Y-19.813
X-8.221 Y-19.914
X-8.104 Y-20.119
X-8.043 Y-20.261
X-8.001 Y-20.387
X-7.976 Y-20.515
X-7.962 Y-20.66
X-7.953 Y-20.834
X-7.921 Y-20.771
X-7.904 Y-20.736
X-7.884 Y-20.687
X-7.841 Y-20.571
X-7.815 Y-20.49
X-7.8 Y-20.414
X-7.794 Y-20.318
X-7.793 Y-20.253
Y-20.171
Y-20.093
X-7.794 Y-20.028
X-7.801 Y-19.925
X-7.815 Y-19.837
X-7.84 Y-19.739
X-7.88 Y-19.611
X-7.929 Y-19.489
X-7.988 Y-19.372
X-8.061 Y-19.256
X-8.148 Y-19.138
X-8.252 Y-19.015
X-8.375 Y-18.884
X-8.519 Y-18.742
X-8.716 Y-18.56
X-8.822 Y-18.466
X-8.943 Y-18.365
X-9.083 Y-18.25
X-9.249 Y-18.116
X-9.344 Y-18.041
X-9.56 Y-17.87
X-9.683 Y-17.774
X-9.788 Y-17.689
X-9.898 Y-17.594
X-10.12 Y-17.392
X-10.32 Y-17.192
X-10.404 Y-17.102
X-10.471 Y-17.023
X-10.57 Y-16.882
X-10.656 Y-16.729
X-10.724 Y-16.574
X-10.768 Y-16.428
X-10.779 Y-16.36
X-10.786 Y-16.28
X-10.789 Y-16.103
X-10.776 Y-15.927
X-10.764 Y-15.847
X-10.749 Y-15.779
X-10.703 Y-15.646
X-10.635 Y-15.496
X-10.556 Y-15.349
X-10.478 Y-15.227
X-10.387 Y-15.115
X-10.285 Y-15.009
X-10.174 Y-14.912
X-10.056 Y-14.823
X-9.932 Y-14.744
X-9.803 Y-14.676
X-9.672 Y-14.62
X-9.541 Y-14.578
X-9.389 Y-14.549
X-9.304 Y-14.542
X-9.209 Y-14.538
X-8.995 Y-14.55
X-8.798 Y-14.593
X-8.61 Y-14.668
X-8.423 Y-14.78
X-8.302 Y-14.863
Z3.25
Z5
X-44.642 Y-12.622
Z3.25
Z-1.75 F150
Y-12.378 F100
X-44.681 Y-12.138
X-44.758 Y-11.907
X-44.871 Y-11.691
X-45.017 Y-11.496
X-45.193 Y-11.327
X-45.394 Y-11.189
X-45.614 Y-11.085
X-45.848 Y-11.017
X-46.09 Y-10.987
X-46.333 Y-10.997
X-46.572 Y-11.046
X-46.799 Y-11.132
X-47.011 Y-11.254
X-47.199 Y-11.408
X-47.361 Y-11.59
X-47.491 Y-11.797
X-47.586 Y-12.021
X-47.645 Y-12.257
X-47.664 Y-12.5
X-47.645 Y-12.743
X-47.586 Y-12.979
X-47.491 Y-13.203
X-47.361 Y-13.41
X-47.199 Y-13.592
X-47.011 Y-13.746
X-46.799 Y-13.868
X-46.572 Y-13.954
X-46.333 Y-14.003
X-46.09 Y-14.013
X-45.848 Y-13.983
X-45.614 Y-13.915
X-45.394 Y-13.811
X-45.193 Y-13.673
X-45.017 Y-13.504
X-44.871 Y-13.309
X-44.758 Y-13.093
X-44.681 Y-12.862
X-44.642 Y-12.622
Z3.25
Z5
X-39.395 Y-15.503
Z3.25
Z-2.25 F150
X-36.395 Y-15.502 F100
X-35.757 Y-12.502
X-37.471
X-37.745 Y-13.788
X-39.031
X-39.24 Y-13.708
X-39.429 Y-13.617
X-39.51 Y-13.562
X-39.577 Y-13.501
X-39.63 Y-13.43
X-39.668 Y-13.35
X-39.691 Y-13.262
X-39.703 Y-13.167
X-39.704 Y-13.066
X-39.696 Y-12.959
X-39.662 Y-12.735
X-39.614 Y-12.503
X-39.555 Y-12.261
X-39.486 Y-12.029
X-39.398 Y-11.816
X-39.343 Y-11.719
X-39.281 Y-11.631
X-39.209 Y-11.552
X-39.126 Y-11.483
X-39.034 Y-11.424
X-38.933 Y-11.373
X-38.715 Y-11.289
X-38.483 Y-11.217
X-36.34 Y-11.216
X-35.119 Y-9.502
X-38.119 Y-9.503
X-38.74 Y-9.631
X-39.041 Y-9.705
X-39.331 Y-9.792
X-39.606 Y-9.896
X-39.863 Y-10.019
X-40.099 Y-10.168
X-40.207 Y-10.253
X-40.308 Y-10.345
X-40.493 Y-10.552
X-40.654 Y-10.783
X-40.796 Y-11.036
X-40.922 Y-11.308
X-41.035 Y-11.594
X-41.138 Y-11.891
X-41.328 Y-12.503
X-41.403 Y-13.105
X-41.429 Y-13.397
X-41.44 Y-13.679
X-41.432 Y-13.948
X-41.4 Y-14.199
X-41.339 Y-14.429
X-41.296 Y-14.535
X-41.244 Y-14.635
X-41.183 Y-14.728
X-41.111 Y-14.814
X-41.03 Y-14.893
X-40.94 Y-14.965
X-40.734 Y-15.092
X-40.5 Y-15.198
X-40.243 Y-15.288
X-39.97 Y-15.367
X-39.395 Y-15.503
Z3.25
Z5
X-35.576 Y-15.502
Z3.25
Z-2.25 F150
X-33.862 F100
X-33.314 Y-12.93
X-32.041 Y-15.501
X-29.898
X-30.983 Y-13.555
X-30.722 Y-13.382
X-30.474 Y-13.201
X-30.25 Y-13.002
X-30.15 Y-12.892
X-30.061 Y-12.776
X-29.983 Y-12.651
X-29.913 Y-12.52
X-29.797 Y-12.241
X-29.701 Y-11.946
X-29.616 Y-11.643
X-29.585 Y-11.184
X-29.58 Y-10.961
X-29.585 Y-10.748
X-29.606 Y-10.547
X-29.646 Y-10.361
X-29.709 Y-10.193
X-29.799 Y-10.047
X-29.919 Y-9.925
X-30.065 Y-9.824
X-30.236 Y-9.741
X-30.425 Y-9.675
X-30.63 Y-9.62
X-30.847 Y-9.575
X-31.301 Y-9.501
X-34.3 Y-9.502
X-34.664 Y-11.216
X-31.664 Y-11.215
X-31.49 Y-11.25
X-31.418 Y-11.28
X-31.365 Y-11.325
X-31.334 Y-11.387
X-31.323 Y-11.465
X-31.33 Y-11.644
X-31.4 Y-11.823
X-31.445 Y-11.901
X-31.503 Y-11.964
X-31.575 Y-12.008
X-31.659 Y-12.038
X-31.848 Y-12.073
X-34.848
X-35.576 Y-15.502
Z3.25
Z5
X-29.081 Y-14.3
Z3.25
Z-2.25 F150
X-29.765 Y-15.501 F100
X-27.943 Y-15.5
X-26.059 Y-12.178
X-25.586 Y-15.5
X-23.765 Y-15.499
X-24.632 Y-9.499
X-26.346 Y-9.5
X-29.081 Y-14.3
Z3.25
Z5
X-23.443 Y-13.743
Z3.25
Z-2.25 F150
X-23.401 Y-13.873 F100
X-23.292 Y-14.126
X-23.158 Y-14.375
X-23.013 Y-14.62
X-22.811 Y-14.817
X-22.604 Y-15.002
X-22.386 Y-15.164
X-22.272 Y-15.233
X-22.153 Y-15.293
X-22.03 Y-15.342
X-21.902 Y-15.381
X-21.635 Y-15.438
X-21.359 Y-15.474
X-21.078 Y-15.499
X-19.363 Y-15.498
X-18.142 Y-13.784
X-20.714
X-20.953 Y-13.758
X-21.067 Y-13.734
X-21.175 Y-13.696
X-21.275 Y-13.64
X-21.368 Y-13.571
X-21.543 Y-13.407
X-21.663 Y-13.196
X-21.71 Y-13.087
X-21.741 Y-12.975
X-21.754 Y-12.86
X-21.753 Y-12.741
X-21.726 Y-12.499
X-21.638 Y-12.237
X-21.585 Y-12.112
X-21.521 Y-11.995
X-21.442 Y-11.886
X-21.353 Y-11.783
X-21.156 Y-11.59
X-20.931 Y-11.435
X-20.815 Y-11.368
X-20.694 Y-11.313
X-20.568 Y-11.273
X-20.436 Y-11.245
X-20.166 Y-11.213
X-18.452 Y-11.212
X-17.23 Y-9.498
X-19.802
X-20.119 Y-9.531
X-20.433 Y-9.575
X-20.739 Y-9.638
X-21.034 Y-9.731
X-21.316 Y-9.859
X-21.587 Y-10.016
X-21.851 Y-10.192
X-22.112 Y-10.377
X-22.346 Y-10.601
X-22.571 Y-10.829
X-22.779 Y-11.068
X-22.962 Y-11.323
X-23.113 Y-11.597
X-23.237 Y-11.889
X-23.343 Y-12.191
X-23.44 Y-12.499
X-23.476 Y-12.783
X-23.502 Y-13.065
X-23.504 Y-13.342
X-23.494 Y-13.478
X-23.474 Y-13.612
X-23.443 Y-13.743
Z3.25
Z5
X-17.748 Y-13.783
Z3.25
Z-2.25 F150
X-18.112 Y-15.498 F100
X-14.255 Y-15.497
X-13.034 Y-13.782
X-17.748 Y-13.783
Z3.25
Z5
X-17.658 Y-13.355
Z3.25
Z-2.25 F150
X-13.801 Y-13.354 F100
X-12.58 Y-11.639
X-17.294 Y-11.641
X-17.658 Y-13.355
Z3.25
Z5
X-17.2 Y-11.212
Z3.25
Z-2.25 F150
X-13.343 Y-11.211 F100
X-12.122 Y-9.496
X-16.836 Y-9.498
X-17.2 Y-11.212
Z3.25
Z5
X-11.682 Y-7.863
Z3.25
Z-2.25 F150
X-10.96 Y-8.255 F100
X-10.242 Y-8.657
X-9.951 Y-8.81
X-9.67 Y-8.98
X-9.391 Y-9.153
X-9.106 Y-9.315
X-8.964 Y-9.402
X-8.809 Y-9.478
X-8.489 Y-9.625
X-8.337 Y-9.706
X-8.199 Y-9.8
X-8.082 Y-9.914
X-8.034 Y-9.98
X-7.994 Y-10.053
X-8.059 Y-10.115
X-8.09 Y-10.172
X-8.093 Y-10.224
X-8.076 Y-10.275
X-8.006 Y-10.376
X-7.93 Y-10.488
X-7.231 Y-10.988
X-6.882 Y-11.237
X-6.525 Y-11.472
X-6.507 Y-11.504
X-6.49 Y-11.516
X-6.475 Y-11.513
X-6.46 Y-11.5
X-6.43 Y-11.461
X-6.397 Y-11.434
X-6.354 Y-11.472
X-6.317 Y-11.489
X-6.286 Y-11.487
X-6.258 Y-11.47
X-6.206 Y-11.403
X-6.146 Y-11.311
X-6.014 Y-11.051
X-5.871 Y-10.798
X-5.808 Y-10.669
X-5.756 Y-10.536
X-5.72 Y-10.397
X-5.706 Y-10.25
X-5.592 Y-10.033
X-5.473 Y-9.802
X-5.41 Y-9.693
X-5.343 Y-9.597
X-5.271 Y-9.516
X-5.195 Y-9.457
X-5.148 Y-9.459
X-5.093 Y-9.449
X-5.034 Y-9.427
X-4.978 Y-9.396
X-4.929 Y-9.356
X-4.892 Y-9.308
X-4.872 Y-9.254
X-4.875 Y-9.195
X-4.827 Y-9.213
X-4.791 Y-9.219
X-4.766 Y-9.215
X-4.749 Y-9.202
X-4.735 Y-9.156
Y-9.093
X-4.736 Y-9.025
X-4.725 Y-8.963
X-4.71 Y-8.938
X-4.686 Y-8.918
X-4.653 Y-8.907
X-4.608 Y-8.904
X-4.664 Y-8.933
X-4.699 Y-8.959
X-4.716 Y-8.98
X-4.719 Y-8.998
X-4.709 Y-9.011
X-4.69 Y-9.021
X-4.633 Y-9.028
X-4.57 Y-9.018
X-4.522 Y-8.99
X-4.51 Y-8.97
Y-8.945
X-4.524 Y-8.916
X-4.556 Y-8.882
X-4.394 Y-8.817
X-4.259 Y-8.739
X-4.201 Y-8.689
X-4.147 Y-8.63
X-4.098 Y-8.559
X-4.053 Y-8.475
X-4.376 Y-8.061
X-4.689 Y-7.639
X-4.658 Y-6.728
X-4.639 Y-5.817
X-4.626 Y-3.993
X-4.242 Y-3.506
X-4.057 Y-3.258
X-3.88 Y-3.003
X-3.832 Y-2.962
X-3.795 Y-2.923
X-3.769 Y-2.888
X-3.753 Y-2.857
X-3.749 Y-2.804
X-3.775 Y-2.764
X-3.827 Y-2.737
X-3.898 Y-2.724
X-3.982 Y-2.723
X-4.072 Y-2.735
X-4.195 Y-2.767
X-4.311 Y-2.769
X-4.422 Y-2.747
X-4.527 Y-2.704
X-4.628 Y-2.646
X-4.725 Y-2.576
X-4.909 Y-2.421
X-5.094 Y-2.493
X-5.274 Y-2.576
X-5.629 Y-2.754
X-5.672 Y-2.77
X-5.711 Y-2.797
X-5.781 Y-2.877
X-5.901 Y-3.081
X-5.957 Y-3.171
X-6.014 Y-3.231
X-6.043 Y-3.244
X-6.075 Y-3.243
X-6.108 Y-3.225
X-6.143 Y-3.19
X-6.318 Y-3.154
X-6.494 Y-3.133
X-6.849 Y-3.117
X-7.206 Y-3.11
X-7.383 Y-3.1
X-7.56 Y-3.079
X-8.042 Y-2.751
X-8.519 Y-2.408
X-8.608 Y-2.336
X-8.703 Y-2.281
X-8.807 Y-2.252
X-8.863 Y-2.249
X-8.922 Y-2.256
X-9.135 Y-2.25
X-9.35 Y-2.253
X-9.455 Y-2.245
X-9.557 Y-2.225
X-9.654 Y-2.187
X-9.744 Y-2.126
X-9.869 Y-2.1
X-9.997 Y-2.086
X-10.26 Y-2.082
X-10.525 Y-2.089
X-10.786 Y-2.083
X-11.063 Y-2.08
X-11.2 Y-2.081
X-11.329 Y-2.102
X-11.391 Y-2.173
X-11.47 Y-2.245
X-11.635 Y-2.387
X-11.697 Y-2.459
X-11.728 Y-2.533
X-11.729 Y-2.57
X-11.718 Y-2.608
X-11.693 Y-2.646
X-11.653 Y-2.685
X-11.62 Y-2.774
X-11.569 Y-2.847
X-11.442 Y-2.971
X-11.38 Y-3.032
X-11.33 Y-3.102
X-11.298 Y-3.185
X-11.292 Y-3.288
X-11.304 Y-3.381
X-11.292 Y-3.464
X-11.262 Y-3.539
X-11.218 Y-3.609
X-11.109 Y-3.744
X-11.008 Y-3.891
X-10.957 Y-3.991
X-10.919 Y-4.095
X-10.868 Y-4.31
X-10.818 Y-4.527
X-10.781 Y-4.634
X-10.73 Y-4.739
X-10.731 Y-4.838
X-10.75 Y-4.933
X-10.819 Y-5.115
X-10.899 Y-5.287
X-10.931 Y-5.37
X-10.95 Y-5.452
X-11.012 Y-5.477
X-11.066 Y-5.508
X-11.151 Y-5.59
X-11.217 Y-5.69
X-11.272 Y-5.799
X-11.328 Y-5.91
X-11.392 Y-6.014
X-11.477 Y-6.103
X-11.53 Y-6.139
X-11.591 Y-6.168
X-11.648 Y-6.318
X-11.688 Y-6.472
X-11.725 Y-6.62
X-11.771 Y-6.752
X-11.708 Y-6.804
X-11.654 Y-6.871
X-11.559 Y-7.018
X-11.512 Y-7.082
X-11.462 Y-7.13
X-11.406 Y-7.154
X-11.34 Y-7.146
X-11.35 Y-7.089
X-11.339 Y-7.049
X-11.311 Y-7.02
X-11.269 Y-7
X-11.153 Y-6.97
X-11.015 Y-6.928
X-10.957 Y-6.973
X-10.916 Y-7.011
X-10.89 Y-7.042
X-10.877 Y-7.067
X-10.876 Y-7.088
X-10.886 Y-7.103
X-10.931 Y-7.125
X-10.999 Y-7.138
X-11.08 Y-7.147
X-11.161 Y-7.159
X-11.232 Y-7.18
X-11.229 Y-7.233
X-11.234 Y-7.27
X-11.246 Y-7.293
X-11.264 Y-7.305
X-11.314 Y-7.302
X-11.374 Y-7.276
X-11.437 Y-7.245
X-11.493 Y-7.225
X-11.535 Y-7.231
X-11.548 Y-7.248
X-11.553 Y-7.279
X-11.602 Y-7.316
X-11.636 Y-7.353
X-11.656 Y-7.391
X-11.664 Y-7.429
X-11.656 Y-7.505
X-11.63 Y-7.581
X-11.601 Y-7.655
X-11.589 Y-7.728
X-11.594 Y-7.763
X-11.61 Y-7.797
X-11.639 Y-7.83
X-11.682 Y-7.863
Z3.25
Z5
X-5.787 Y-12.566
Z3.25
Z-2.25 F150
X-5.955 Y-12.599 F100
X-6.129 Y-12.648
X-6.347 Y-12.731
X-6.571 Y-12.837
X-6.78 Y-12.955
X-6.871 Y-13.016
X-6.95 Y-13.074
X-7.007 Y-13.123
X-7.079 Y-13.189
X-7.246 Y-13.352
X-7.407 Y-13.518
X-7.472 Y-13.59
X-7.519 Y-13.646
X-7.638 Y-13.816
X-7.745 Y-14.007
X-7.839 Y-14.212
X-7.916 Y-14.426
X-7.976 Y-14.641
X-8.016 Y-14.851
X-8.034 Y-15.05
X-8.027 Y-15.232
X-7.993 Y-15.439
X-7.94 Y-15.619
X-7.865 Y-15.779
X-7.766 Y-15.923
X-7.728 Y-15.968
X-7.699 Y-16.001
X-7.675 Y-16.02
X-7.659 Y-16.027
X-7.647 Y-16.022
X-7.641 Y-16.004
X-7.638 Y-15.973
X-7.64 Y-15.93
Y-15.861
X-7.636 Y-15.765
X-7.628 Y-15.65
X-7.616 Y-15.525
X-7.587 Y-15.271
X-7.571 Y-15.16
X-7.555 Y-15.069
X-7.492 Y-14.831
X-7.403 Y-14.602
X-7.29 Y-14.384
X-7.154 Y-14.18
X-6.998 Y-13.993
X-6.823 Y-13.824
X-6.632 Y-13.676
X-6.425 Y-13.552
X-6.29 Y-13.491
X-6.146 Y-13.443
X-5.996 Y-13.409
X-5.838 Y-13.388
X-5.675 Y-13.381
X-5.507 Y-13.388
X-5.334 Y-13.409
X-5.157 Y-13.444
X-4.894 Y-13.525
X-4.648 Y-13.639
X-4.423 Y-13.784
X-4.219 Y-13.958
X-4.041 Y-14.159
X-3.888 Y-14.385
X-3.765 Y-14.634
X-3.672 Y-14.904
X-3.641 Y-15.018
X-3.617 Y-15.121
X-3.584 Y-15.304
X-3.569 Y-15.475
X-3.571 Y-15.656
X-3.585 Y-15.831
X-3.613 Y-15.995
X-3.656 Y-16.152
X-3.716 Y-16.304
X-3.793 Y-16.455
