(1001)
(Machine)
(  vendor: Autodesk)
(  model: Generic 3-axis)
(  description: This machine has XYZ axis on the Head)
(T3 D=3.1 CR=0 - ZMIN=-0.5 - flat end mill)
G90 G94
G17
G21
(-Attention- Property Safe Retracts is set to Clearance Height.)
(Ensure the clearance height will clear the part and or fixtures.)
(Raise the Z-axis to a safe height before starting the program.)
(When using Fusion 360 for Personal Use, the feedrate of)
(rapid moves is reduced to match the feedrate of cutting)
(moves, which can increase machining time. Unrestricted rapid)
(moves are available with a Fusion 360 Subscription.)

(Trace2)
T3
S24000 M3
G17 G90 G94
G54
M8
G0 X-37.377 Y-14.988
Z15
G1 Z4 F300
Z0.5 F150
X-34.877 Y-14.987 F300
X-34.346 Y-12.487
X-35.774
X-36.003 Y-13.559
X-37.074
X-37.249 Y-13.492
X-37.406 Y-13.416
X-37.473 Y-13.37
X-37.53 Y-13.319
X-37.574 Y-13.26
X-37.605 Y-13.194
X-37.624 Y-13.12
X-37.634 Y-13.041
X-37.629 Y-12.868
X-37.6 Y-12.681
X-37.56 Y-12.488
X-37.511 Y-12.286
X-37.453 Y-12.093
X-37.38 Y-11.915
X-37.283 Y-11.761
X-37.222 Y-11.695
X-37.153 Y-11.638
X-36.993 Y-11.546
X-36.811 Y-11.476
X-36.618 Y-11.416
X-34.832 Y-11.415
X-33.814 Y-9.987
X-36.314
X-36.831 Y-10.094
X-37.082 Y-10.156
X-37.324 Y-10.229
X-37.554 Y-10.315
X-37.768 Y-10.418
X-37.964 Y-10.542
X-38.139 Y-10.69
X-38.292 Y-10.861
X-38.427 Y-11.054
X-38.545 Y-11.266
X-38.65 Y-11.492
X-38.744 Y-11.73
X-38.83 Y-11.978
X-38.989 Y-12.488
X-39.051 Y-12.989
X-39.073 Y-13.233
X-39.082 Y-13.468
X-39.075 Y-13.691
X-39.048 Y-13.901
X-38.998 Y-14.093
X-38.919 Y-14.265
X-38.868 Y-14.342
X-38.808 Y-14.414
X-38.665 Y-14.539
X-38.493 Y-14.645
X-38.298 Y-14.734
X-38.084 Y-14.809
X-37.857 Y-14.874
X-37.377 Y-14.988
Z4
Z5
X-34.195 Y-14.987
Z4
Z0.5 F150
X-32.767 Y-14.986 F300
X-32.31 Y-12.844
X-31.249 Y-14.986
X-29.463
X-30.367 Y-13.365
X-30.15 Y-13.221
X-29.943 Y-13.069
X-29.757 Y-12.903
X-29.674 Y-12.812
X-29.6 Y-12.715
X-29.476 Y-12.502
X-29.379 Y-12.269
X-29.299 Y-12.023
X-29.228 Y-11.771
X-29.203 Y-11.388
X-29.198 Y-11.203
X-29.203 Y-11.025
X-29.22 Y-10.858
X-29.254 Y-10.703
X-29.306 Y-10.563
X-29.381 Y-10.441
X-29.481 Y-10.339
X-29.603 Y-10.255
X-29.745 Y-10.186
X-29.903 Y-10.131
X-30.074 Y-10.085
X-30.254 Y-10.048
X-30.632 Y-9.986
X-33.132 Y-9.987
X-33.435 Y-11.415
X-30.935
X-30.79 Y-11.444
X-30.73 Y-11.469
X-30.686 Y-11.506
X-30.66 Y-11.558
X-30.651 Y-11.623
X-30.657 Y-11.772
X-30.715 Y-11.921
X-30.753 Y-11.986
X-30.801 Y-12.038
X-30.861 Y-12.075
X-30.931 Y-12.1
X-31.089 Y-12.129
X-33.589 Y-12.13
X-34.195 Y-14.987
Z4
Z5
X-28.64 Y-13.736
Z4
Z0.5 F150
X-29.352 Y-14.986 F300
X-27.835 Y-14.985
X-26.264 Y-12.217
X-25.87 Y-14.985
X-24.352 Y-14.984
X-25.075 Y-9.985
X-26.504
X-28.64 Y-13.736
Z4
Z5
X-24.11 Y-13.412
Z4
Z0.5 F150
X-24.049 Y-13.629 F300
X-23.958 Y-13.84
X-23.847 Y-14.047
X-23.726 Y-14.252
X-23.558 Y-14.416
X-23.385 Y-14.57
X-23.204 Y-14.705
X-23.009 Y-14.813
X-22.8 Y-14.886
X-22.578 Y-14.934
X-22.113 Y-14.984
X-20.685
X-19.667 Y-13.555
X-21.81
X-22.009 Y-13.534
X-22.104 Y-13.513
X-22.194 Y-13.481
X-22.277 Y-13.436
X-22.355 Y-13.377
X-22.501 Y-13.241
X-22.601 Y-13.065
X-22.64 Y-12.974
X-22.666 Y-12.881
X-22.677 Y-12.785
X-22.676 Y-12.686
X-22.653 Y-12.484
X-22.58 Y-12.266
X-22.536 Y-12.162
X-22.482 Y-12.064
X-22.417 Y-11.973
X-22.342 Y-11.888
X-22.178 Y-11.727
X-21.991 Y-11.598
X-21.894 Y-11.542
X-21.793 Y-11.496
X-21.688 Y-11.462
X-21.579 Y-11.44
X-21.353 Y-11.412
X-19.925
X-18.907 Y-9.983
X-21.05 Y-9.984
X-21.576 Y-10.047
X-21.831 Y-10.1
X-22.077 Y-10.178
X-22.312 Y-10.285
X-22.538 Y-10.415
X-22.975 Y-10.716
X-23.358 Y-11.093
X-23.531 Y-11.292
X-23.683 Y-11.504
X-23.809 Y-11.733
X-23.912 Y-11.976
X-24.082 Y-12.484
X-24.133 Y-12.956
X-24.135 Y-13.187
X-24.11 Y-13.412
Z4
Z5
X-19.338 Y-13.555
Z4
Z0.5 F150
X-19.642 Y-14.983 F300
X-16.427
X-15.41 Y-13.554
X-19.338 Y-13.555
Z4
Z5
X-19.264 Y-13.198
Z4
Z0.5 F150
X-16.049 Y-13.197 F300
X-15.032 Y-11.768
X-18.96 Y-11.769
X-19.264 Y-13.198
Z4
Z5
X-18.882 Y-11.412
Z4
Z0.5 F150
X-15.668 Y-11.411 F300
X-14.65 Y-9.982
X-18.579 Y-9.983
X-18.882 Y-11.412
Z4
Z5
X-11.696 Y-7.863
Z4
Z0.5 F150
X-10.974 Y-8.255 F300
X-10.256 Y-8.657
X-9.965 Y-8.81
X-9.684 Y-8.98
X-9.405 Y-9.153
X-9.12 Y-9.315
X-8.978 Y-9.402
X-8.823 Y-9.478
X-8.503 Y-9.625
X-8.351 Y-9.706
X-8.213 Y-9.8
X-8.096 Y-9.914
X-8.048 Y-9.98
X-8.008 Y-10.053
X-8.073 Y-10.115
X-8.103 Y-10.172
X-8.107 Y-10.224
X-8.09 Y-10.275
X-8.02 Y-10.376
X-7.944 Y-10.488
X-7.245 Y-10.988
X-6.896 Y-11.237
X-6.539 Y-11.472
X-6.521 Y-11.504
X-6.504 Y-11.516
X-6.489 Y-11.513
X-6.474 Y-11.5
X-6.444 Y-11.461
X-6.411 Y-11.434
X-6.368 Y-11.472
X-6.331 Y-11.489
X-6.3 Y-11.487
X-6.272 Y-11.47
X-6.219 Y-11.403
X-6.16 Y-11.311
X-6.028 Y-11.051
X-5.885 Y-10.798
X-5.821 Y-10.669
X-5.77 Y-10.536
X-5.734 Y-10.397
X-5.72 Y-10.25
X-5.606 Y-10.033
X-5.487 Y-9.802
X-5.424 Y-9.693
X-5.357 Y-9.597
X-5.285 Y-9.516
X-5.209 Y-9.457
X-5.162 Y-9.459
X-5.107 Y-9.449
X-5.048 Y-9.427
X-4.992 Y-9.396
X-4.943 Y-9.356
X-4.906 Y-9.308
X-4.886 Y-9.254
X-4.889 Y-9.195
X-4.841 Y-9.213
X-4.805 Y-9.219
X-4.78 Y-9.215
X-4.763 Y-9.202
X-4.749 Y-9.156
Y-9.093
X-4.75 Y-9.025
X-4.739 Y-8.963
X-4.724 Y-8.938
X-4.7 Y-8.918
X-4.667 Y-8.907
X-4.622 Y-8.904
X-4.677 Y-8.933
X-4.713 Y-8.959
X-4.73 Y-8.98
X-4.733 Y-8.998
X-4.723 Y-9.011
X-4.704 Y-9.021
X-4.647 Y-9.028
X-4.584 Y-9.018
X-4.536 Y-8.99
X-4.524 Y-8.97
Y-8.945
X-4.538 Y-8.916
X-4.57 Y-8.882
X-4.408 Y-8.817
X-4.273 Y-8.739
X-4.214 Y-8.689
X-4.161 Y-8.63
X-4.112 Y-8.559
X-4.067 Y-8.475
X-4.39 Y-8.061
X-4.703 Y-7.639
X-4.672 Y-6.728
X-4.653 Y-5.817
X-4.64 Y-3.993
X-4.256 Y-3.506
X-4.071 Y-3.258
X-3.894 Y-3.003
X-3.846 Y-2.962
X-3.809 Y-2.923
X-3.783 Y-2.888
X-3.767 Y-2.857
X-3.763 Y-2.804
X-3.789 Y-2.764
X-3.841 Y-2.737
X-3.912 Y-2.724
X-3.996 Y-2.723
X-4.086 Y-2.735
X-4.208 Y-2.767
X-4.325 Y-2.769
X-4.436 Y-2.747
X-4.541 Y-2.704
X-4.642 Y-2.646
X-4.739 Y-2.576
X-4.923 Y-2.421
X-5.108 Y-2.493
X-5.288 Y-2.576
X-5.643 Y-2.754
X-5.686 Y-2.77
X-5.725 Y-2.797
X-5.795 Y-2.877
X-5.915 Y-3.081
X-5.971 Y-3.171
X-6.028 Y-3.231
X-6.057 Y-3.244
X-6.089 Y-3.243
X-6.122 Y-3.225
X-6.157 Y-3.19
X-6.332 Y-3.154
X-6.508 Y-3.133
X-6.863 Y-3.117
X-7.22 Y-3.11
X-7.397 Y-3.1
X-7.573 Y-3.079
X-8.056 Y-2.751
X-8.533 Y-2.408
X-8.622 Y-2.336
X-8.717 Y-2.281
X-8.821 Y-2.252
X-8.877 Y-2.249
X-8.936 Y-2.256
X-9.149 Y-2.25
X-9.364 Y-2.253
X-9.469 Y-2.245
X-9.571 Y-2.225
X-9.668 Y-2.187
X-9.758 Y-2.126
X-9.883 Y-2.1
X-10.011 Y-2.086
X-10.274 Y-2.082
X-10.539 Y-2.089
X-10.8 Y-2.083
X-11.076 Y-2.08
X-11.214 Y-2.081
X-11.343 Y-2.102
X-11.405 Y-2.173
X-11.484 Y-2.245
X-11.649 Y-2.387
X-11.711 Y-2.459
X-11.742 Y-2.533
X-11.743 Y-2.57
X-11.732 Y-2.608
X-11.707 Y-2.646
X-11.667 Y-2.685
X-11.634 Y-2.774
X-11.583 Y-2.847
X-11.456 Y-2.971
X-11.394 Y-3.032
X-11.344 Y-3.102
X-11.312 Y-3.185
X-11.305 Y-3.288
X-11.318 Y-3.381
X-11.306 Y-3.464
X-11.276 Y-3.539
X-11.232 Y-3.609
X-11.123 Y-3.744
X-11.022 Y-3.891
X-10.971 Y-3.991
X-10.933 Y-4.095
X-10.882 Y-4.31
X-10.832 Y-4.527
X-10.795 Y-4.634
X-10.744 Y-4.739
X-10.745 Y-4.838
X-10.764 Y-4.933
X-10.833 Y-5.115
X-10.913 Y-5.287
X-10.945 Y-5.37
X-10.964 Y-5.452
X-11.026 Y-5.477
X-11.08 Y-5.508
X-11.165 Y-5.59
X-11.231 Y-5.69
X-11.286 Y-5.799
X-11.341 Y-5.91
X-11.406 Y-6.014
X-11.491 Y-6.103
X-11.543 Y-6.139
X-11.605 Y-6.168
X-11.662 Y-6.318
X-11.702 Y-6.472
X-11.739 Y-6.62
X-11.785 Y-6.752
X-11.722 Y-6.804
X-11.668 Y-6.871
X-11.573 Y-7.018
X-11.526 Y-7.082
X-11.476 Y-7.13
X-11.42 Y-7.154
X-11.354 Y-7.146
X-11.364 Y-7.089
X-11.353 Y-7.049
X-11.325 Y-7.02
X-11.283 Y-7
X-11.167 Y-6.97
X-11.029 Y-6.928
X-10.971 Y-6.973
X-10.93 Y-7.011
X-10.904 Y-7.042
X-10.891 Y-7.067
X-10.89 Y-7.088
X-10.9 Y-7.103
X-10.944 Y-7.125
X-11.013 Y-7.138
X-11.094 Y-7.147
X-11.175 Y-7.159
X-11.246 Y-7.18
X-11.243 Y-7.233
X-11.248 Y-7.27
X-11.26 Y-7.293
X-11.278 Y-7.305
X-11.328 Y-7.302
X-11.388 Y-7.276
X-11.451 Y-7.245
X-11.507 Y-7.225
X-11.549 Y-7.231
X-11.562 Y-7.248
X-11.567 Y-7.279
X-11.616 Y-7.316
X-11.65 Y-7.353
X-11.67 Y-7.391
X-11.678 Y-7.429
X-11.67 Y-7.505
X-11.644 Y-7.581
X-11.615 Y-7.655
X-11.603 Y-7.728
X-11.608 Y-7.763
X-11.624 Y-7.797
X-11.653 Y-7.83
X-11.696 Y-7.863
Z4
Z5
X-5.801 Y-12.566
Z4
Z0.5 F150
X-5.969 Y-12.599 F300
X-6.143 Y-12.648
X-6.361 Y-12.731
X-6.585 Y-12.837
X-6.794 Y-12.955
X-6.885 Y-13.016
X-6.964 Y-13.074
X-7.021 Y-13.123
X-7.093 Y-13.189
X-7.26 Y-13.352
X-7.421 Y-13.518
X-7.486 Y-13.59
X-7.533 Y-13.646
X-7.652 Y-13.816
X-7.759 Y-14.007
X-7.853 Y-14.212
X-7.93 Y-14.426
X-7.99 Y-14.641
X-8.03 Y-14.851
X-8.048 Y-15.05
X-8.041 Y-15.232
X-8.007 Y-15.439
X-7.954 Y-15.619
X-7.879 Y-15.779
X-7.78 Y-15.923
X-7.742 Y-15.968
X-7.713 Y-16.001
X-7.689 Y-16.02
X-7.673 Y-16.027
X-7.661 Y-16.022
X-7.655 Y-16.004
X-7.652 Y-15.973
X-7.654 Y-15.93
Y-15.861
X-7.65 Y-15.765
X-7.642 Y-15.65
X-7.63 Y-15.525
X-7.601 Y-15.271
X-7.585 Y-15.16
X-7.569 Y-15.069
X-7.506 Y-14.831
X-7.417 Y-14.602
X-7.304 Y-14.384
X-7.168 Y-14.18
X-7.012 Y-13.993
X-6.837 Y-13.824
X-6.646 Y-13.676
X-6.439 Y-13.552
X-6.304 Y-13.491
X-6.16 Y-13.443
X-6.01 Y-13.409
X-5.852 Y-13.388
X-5.689 Y-13.381
X-5.521 Y-13.388
X-5.348 Y-13.409
X-5.171 Y-13.444
X-4.908 Y-13.525
X-4.662 Y-13.639
X-4.437 Y-13.784
X-4.233 Y-13.958
X-4.055 Y-14.159
X-3.902 Y-14.385
X-3.779 Y-14.634
X-3.686 Y-14.904
X-3.655 Y-15.018
X-3.631 Y-15.121
X-3.598 Y-15.304
X-3.583 Y-15.475
X-3.584 Y-15.656
X-3.599 Y-15.831
X-3.627 Y-15.995
X-3.67 Y-16.152
X-3.73 Y-16.304
X-3.807 Y-16.455
X-3.904 Y-16.608
X-4.022 Y-16.765
X-4.162 Y-16.929
X-4.241 Y-17.014
X-4.342 Y-17.111
X-4.464 Y-17.223
X-4.609 Y-17.351
X-4.779 Y-17.495
X-4.974 Y-17.657
X-5.197 Y-17.838
X-5.574 Y-18.14
X-5.685 Y-18.231
X-5.881 Y-18.4
X-5.977 Y-18.488
X-6.078 Y-18.584
X-6.19 Y-18.694
X-6.318 Y-18.822
X-6.397 Y-18.902
X-6.469 Y-18.974
X-6.591 Y-19.101
X-6.691 Y-19.209
X-6.774 Y-19.305
X-6.911 Y-19.486
X-6.975 Y-19.584
X-7.043 Y-19.695
X-7.086 Y-19.771
X-7.137 Y-19.868
X-7.251 Y-20.093
X-7.356 Y-20.315
X-7.397 Y-20.408
X-7.425 Y-20.478
X-7.457 Y-20.581
X-7.489 Y-20.713
X-7.519 Y-20.864
X-7.546 Y-21.028
X-7.588 Y-21.361
X-7.6 Y-21.515
X-7.604 Y-21.649
X-7.603 Y-21.705
X-7.602 Y-21.751
X-7.6 Y-21.78
X-7.598 Y-21.789
X-7.589 Y-21.773
X-7.571 Y-21.735
X-7.547 Y-21.681
X-7.517 Y-21.615
X-7.44 Y-21.452
X-7.349 Y-21.284
X-7.239 Y-21.099
X-7.175 Y-20.998
X-7.104 Y-20.889
X-6.99 Y-20.719
X-6.884 Y-20.57
X-6.783 Y-20.437
X-6.682 Y-20.315
X-6.464 Y-20.084
X-6.339 Y-19.966
X-6.196 Y-19.839
X-6.09 Y-19.746
X-6.004 Y-19.671
X-5.983 Y-19.654
X-5.951 Y-19.629
X-5.859 Y-19.56
X-5.74 Y-19.476
X-5.609 Y-19.384
X-5.084 Y-19.021
X-4.984 Y-18.953
X-4.862 Y-18.87
X-4.733 Y-18.783
X-4.611 Y-18.702
X-4.385 Y-18.545
X-4.185 Y-18.389
X-3.989 Y-18.216
X-3.887 Y-18.117
X-3.777 Y-18.008
X-3.664 Y-17.892
X-3.561 Y-17.782
X-3.379 Y-17.578
X-3.226 Y-17.387
X-3.096 Y-17.201
X-2.985 Y-17.01
X-2.885 Y-16.807
X-2.793 Y-16.581
X-2.701 Y-16.326
X-2.656 Y-16.17
X-2.622 Y-16
X-2.599 Y-15.82
X-2.587 Y-15.633
X-2.585 Y-15.441
X-2.595 Y-15.248
X-2.617 Y-15.056
X-2.649 Y-14.869
X-2.679 Y-14.749
X-2.722 Y-14.614
X-2.836 Y-14.318
X-2.973 Y-14.023
X-3.046 Y-13.889
X-3.117 Y-13.77
X-3.245 Y-13.592
X-3.39 Y-13.422
X-3.551 Y-13.262
X-3.724 Y-13.115
X-3.909 Y-12.983
X-4.101 Y-12.866
X-4.298 Y-12.769
X-4.498 Y-12.691
X-4.724 Y-12.626
X-4.948 Y-12.58
X-5.179 Y-12.553
X-5.425 Y-12.544
X-5.624 Y-12.549
X-5.801 Y-12.566
Z4
Z5
X-8.316 Y-14.863
Z4
Z0.5 F150
X-8.365 Y-14.778 F300
X-8.411 Y-14.701
X-8.45 Y-14.645
X-8.495 Y-14.591
X-8.562 Y-14.521
X-8.708 Y-14.392
X-8.876 Y-14.288
X-9.072 Y-14.206
X-9.3 Y-14.143
X-9.379 Y-14.128
X-9.467 Y-14.118
X-9.662 Y-14.108
X-9.861 Y-14.113
X-10.043 Y-14.134
X-10.178 Y-14.163
X-10.314 Y-14.205
X-10.45 Y-14.258
X-10.584 Y-14.322
X-10.715 Y-14.395
X-10.842 Y-14.478
X-10.963 Y-14.57
X-11.078 Y-14.67
X-11.17 Y-14.767
X-11.261 Y-14.882
X-11.349 Y-15.012
X-11.431 Y-15.152
X-11.505 Y-15.298
X-11.569 Y-15.447
X-11.62 Y-15.594
X-11.658 Y-15.735
X-11.672 Y-15.82
X-11.682 Y-15.922
X-11.69 Y-16.159
X-11.682 Y-16.402
X-11.672 Y-16.513
X-11.658 Y-16.61
X-11.634 Y-16.735
X-11.609 Y-16.843
X-11.55 Y-17.027
X-11.467 Y-17.199
X-11.411 Y-17.293
X-11.343 Y-17.398
X-11.248 Y-17.534
X-11.153 Y-17.656
X-11.054 Y-17.768
X-10.946 Y-17.874
X-10.825 Y-17.978
X-10.687 Y-18.083
X-10.528 Y-18.194
X-10.343 Y-18.314
X-10.144 Y-18.441
X-10.01 Y-18.526
X-9.963 Y-18.556
X-9.9 Y-18.597
X-9.757 Y-18.687
X-9.57 Y-18.805
X-9.407 Y-18.908
X-9.265 Y-18.999
X-9.144 Y-19.078
X-9.042 Y-19.146
X-8.958 Y-19.205
X-8.889 Y-19.254
X-8.835 Y-19.296
X-8.705 Y-19.403
X-8.588 Y-19.508
X-8.484 Y-19.611
X-8.39 Y-19.712
X-8.308 Y-19.813
X-8.235 Y-19.914
X-8.118 Y-20.119
X-8.057 Y-20.261
X-8.015 Y-20.387
X-7.99 Y-20.515
X-7.976 Y-20.66
X-7.967 Y-20.834
X-7.935 Y-20.771
X-7.918 Y-20.736
X-7.898 Y-20.687
X-7.855 Y-20.571
X-7.829 Y-20.49
X-7.814 Y-20.414
X-7.808 Y-20.318
X-7.807 Y-20.253
Y-20.171
Y-20.093
X-7.808 Y-20.028
X-7.815 Y-19.925
X-7.829 Y-19.837
X-7.854 Y-19.739
X-7.894 Y-19.611
X-7.943 Y-19.489
X-8.002 Y-19.372
X-8.075 Y-19.256
X-8.162 Y-19.138
X-8.266 Y-19.015
X-8.389 Y-18.884
X-8.533 Y-18.742
X-8.73 Y-18.56
X-8.836 Y-18.466
X-8.957 Y-18.365
X-9.097 Y-18.25
X-9.263 Y-18.116
X-9.358 Y-18.041
X-9.574 Y-17.87
X-9.697 Y-17.774
X-9.802 Y-17.689
X-9.912 Y-17.594
X-10.134 Y-17.392
X-10.334 Y-17.192
X-10.417 Y-17.102
X-10.485 Y-17.023
X-10.584 Y-16.882
X-10.67 Y-16.729
X-10.738 Y-16.574
X-10.782 Y-16.428
X-10.793 Y-16.36
X-10.8 Y-16.28
X-10.803 Y-16.103
X-10.79 Y-15.927
X-10.778 Y-15.847
X-10.763 Y-15.779
X-10.717 Y-15.646
X-10.649 Y-15.496
X-10.57 Y-15.349
X-10.492 Y-15.227
X-10.401 Y-15.115
X-10.299 Y-15.009
X-10.188 Y-14.912
X-10.069 Y-14.823
X-9.945 Y-14.744
X-9.817 Y-14.676
X-9.686 Y-14.62
X-9.554 Y-14.578
X-9.403 Y-14.549
X-9.318 Y-14.542
X-9.223 Y-14.538
X-9.009 Y-14.55
X-8.812 Y-14.593
X-8.624 Y-14.668
X-8.437 Y-14.78
X-8.316 Y-14.863
Z4
Z5
X-44.655 Y-12.622
Z4
Z0.5 F150
Y-12.378 F300
X-44.695 Y-12.138
X-44.772 Y-11.907
X-44.885 Y-11.691
X-45.031 Y-11.496
X-45.207 Y-11.327
X-45.408 Y-11.189
X-45.628 Y-11.085
X-45.862 Y-11.017
X-46.104 Y-10.987
X-46.347 Y-10.997
X-46.586 Y-11.046
X-46.813 Y-11.132
X-47.025 Y-11.254
X-47.213 Y-11.408
X-47.375 Y-11.59
X-47.505 Y-11.797
X-47.6 Y-12.021
X-47.659 Y-12.257
X-47.678 Y-12.5
X-47.659 Y-12.743
X-47.6 Y-12.979
X-47.505 Y-13.203
X-47.375 Y-13.41
X-47.213 Y-13.592
X-47.025 Y-13.746
X-46.813 Y-13.868
X-46.586 Y-13.954
X-46.347 Y-14.003
X-46.104 Y-14.013
X-45.862 Y-13.983
X-45.628 Y-13.915
X-45.408 Y-13.811
X-45.207 Y-13.673
X-45.031 Y-13.504
X-44.885 Y-13.309
X-44.772 Y-13.093
X-44.695 Y-12.862
X-44.655 Y-12.622
Z4
Z5
X-37.377 Y-14.988
Z4
Z0.25 F150
X-34.877 Y-14.987 F300
X-34.346 Y-12.487
X-35.774
X-36.003 Y-13.559
X-37.074
X-37.249 Y-13.492
X-37.406 Y-13.416
X-37.473 Y-13.37
X-37.53 Y-13.319
X-37.574 Y-13.26
X-37.605 Y-13.194
X-37.624 Y-13.12
X-37.634 Y-13.041
X-37.629 Y-12.868
X-37.6 Y-12.681
X-37.56 Y-12.488
X-37.511 Y-12.286
X-37.453 Y-12.093
X-37.38 Y-11.915
X-37.283 Y-11.761
X-37.222 Y-11.695
X-37.153 Y-11.638
X-36.993 Y-11.546
X-36.811 Y-11.476
X-36.618 Y-11.416
X-34.832 Y-11.415
X-33.814 Y-9.987
X-36.314
X-36.831 Y-10.094
X-37.082 Y-10.156
X-37.324 Y-10.229
X-37.554 Y-10.315
X-37.768 Y-10.418
X-37.964 Y-10.542
X-38.139 Y-10.69
X-38.292 Y-10.861
X-38.427 Y-11.054
X-38.545 Y-11.266
X-38.65 Y-11.492
X-38.744 Y-11.73
X-38.83 Y-11.978
X-38.989 Y-12.488
X-39.051 Y-12.989
X-39.073 Y-13.233
X-39.082 Y-13.468
X-39.075 Y-13.691
X-39.048 Y-13.901
X-38.998 Y-14.093
X-38.919 Y-14.265
X-38.868 Y-14.342
X-38.808 Y-14.414
X-38.665 Y-14.539
X-38.493 Y-14.645
X-38.298 Y-14.734
X-38.084 Y-14.809
X-37.857 Y-14.874
X-37.377 Y-14.988
Z4
Z5
X-34.195 Y-14.987
Z4
Z0.25 F150
X-32.767 Y-14.986 F300
X-32.31 Y-12.844
X-31.249 Y-14.986
X-29.463
X-30.367 Y-13.365
X-30.15 Y-13.221
X-29.943 Y-13.069
X-29.757 Y-12.903
X-29.674 Y-12.812
X-29.6 Y-12.715
X-29.476 Y-12.502
X-29.379 Y-12.269
X-29.299 Y-12.023
X-29.228 Y-11.771
X-29.203 Y-11.388
X-29.198 Y-11.203
X-29.203 Y-11.025
X-29.22 Y-10.858
X-29.254 Y-10.703
X-29.306 Y-10.563
X-29.381 Y-10.441
X-29.481 Y-10.339
X-29.603 Y-10.255
X-29.745 Y-10.186
X-29.903 Y-10.131
X-30.074 Y-10.085
X-30.254 Y-10.048
X-30.632 Y-9.986
X-33.132 Y-9.987
X-33.435 Y-11.415
X-30.935
X-30.79 Y-11.444
X-30.73 Y-11.469
X-30.686 Y-11.506
X-30.66 Y-11.558
X-30.651 Y-11.623
X-30.657 Y-11.772
X-30.715 Y-11.921
X-30.753 Y-11.986
X-30.801 Y-12.038
X-30.861 Y-12.075
X-30.931 Y-12.1
X-31.089 Y-12.129
X-33.589 Y-12.13
X-34.195 Y-14.987
Z4
Z5
X-28.64 Y-13.736
Z4
Z0.25 F150
X-29.352 Y-14.986 F300
X-27.835 Y-14.985
X-26.264 Y-12.217
X-25.87 Y-14.985
X-24.352 Y-14.984
X-25.075 Y-9.985
X-26.504
X-28.64 Y-13.736
Z4
Z5
X-24.11 Y-13.412
Z4
Z0.25 F150
X-24.049 Y-13.629 F300
X-23.958 Y-13.84
X-23.847 Y-14.047
X-23.726 Y-14.252
X-23.558 Y-14.416
X-23.385 Y-14.57
X-23.204 Y-14.705
X-23.009 Y-14.813
X-22.8 Y-14.886
X-22.578 Y-14.934
X-22.113 Y-14.984
X-20.685
X-19.667 Y-13.555
X-21.81
X-22.009 Y-13.534
X-22.104 Y-13.513
X-22.194 Y-13.481
X-22.277 Y-13.436
X-22.355 Y-13.377
X-22.501 Y-13.241
X-22.601 Y-13.065
X-22.64 Y-12.974
X-22.666 Y-12.881
X-22.677 Y-12.785
X-22.676 Y-12.686
X-22.653 Y-12.484
X-22.58 Y-12.266
X-22.536 Y-12.162
X-22.482 Y-12.064
X-22.417 Y-11.973
X-22.342 Y-11.888
X-22.178 Y-11.727
X-21.991 Y-11.598
X-21.894 Y-11.542
X-21.793 Y-11.496
X-21.688 Y-11.462
X-21.579 Y-11.44
X-21.353 Y-11.412
X-19.925
X-18.907 Y-9.983
X-21.05 Y-9.984
X-21.576 Y-10.047
X-21.831 Y-10.1
X-22.077 Y-10.178
X-22.312 Y-10.285
X-22.538 Y-10.415
X-22.975 Y-10.716
X-23.358 Y-11.093
X-23.531 Y-11.292
X-23.683 Y-11.504
X-23.809 Y-11.733
X-23.912 Y-11.976
X-24.082 Y-12.484
X-24.133 Y-12.956
X-24.135 Y-13.187
X-24.11 Y-13.412
Z4
Z5
X-19.338 Y-13.555
Z4
Z0.25 F150
X-19.642 Y-14.983 F300
X-16.427
X-15.41 Y-13.554
X-19.338 Y-13.555
Z4
Z5
X-19.264 Y-13.198
Z4
Z0.25 F150
X-16.049 Y-13.197 F300
X-15.032 Y-11.768
X-18.96 Y-11.769
X-19.264 Y-13.198
Z4
Z5
X-18.882 Y-11.412
Z4
Z0.25 F150
X-15.668 Y-11.411 F300
X-14.65 Y-9.982
X-18.579 Y-9.983
X-18.882 Y-11.412
Z4
Z5
X-11.696 Y-7.863
Z4
Z0.25 F150
X-10.974 Y-8.255 F300
X-10.256 Y-8.657
X-9.965 Y-8.81
X-9.684 Y-8.98
X-9.405 Y-9.153
X-9.12 Y-9.315
X-8.978 Y-9.402
X-8.823 Y-9.478
X-8.503 Y-9.625
X-8.351 Y-9.706
X-8.213 Y-9.8
X-8.096 Y-9.914
X-8.048 Y-9.98
X-8.008 Y-10.053
X-8.073 Y-10.115
X-8.103 Y-10.172
X-8.107 Y-10.224
X-8.09 Y-10.275
X-8.02 Y-10.376
X-7.944 Y-10.488
X-7.245 Y-10.988
X-6.896 Y-11.237
X-6.539 Y-11.472
X-6.521 Y-11.504
X-6.504 Y-11.516
X-6.489 Y-11.513
X-6.474 Y-11.5
X-6.444 Y-11.461
X-6.411 Y-11.434
X-6.368 Y-11.472
X-6.331 Y-11.489
X-6.3 Y-11.487
X-6.272 Y-11.47
X-6.219 Y-11.403
X-6.16 Y-11.311
X-6.028 Y-11.051
X-5.885 Y-10.798
X-5.821 Y-10.669
X-5.77 Y-10.536
X-5.734 Y-10.397
X-5.72 Y-10.25
X-5.606 Y-10.033
X-5.487 Y-9.802
X-5.424 Y-9.693
X-5.357 Y-9.597
X-5.285 Y-9.516
X-5.209 Y-9.457
X-5.162 Y-9.459
X-5.107 Y-9.449
X-5.048 Y-9.427
X-4.992 Y-9.396
X-4.943 Y-9.356
X-4.906 Y-9.308
X-4.886 Y-9.254
X-4.889 Y-9.195
X-4.841 Y-9.213
X-4.805 Y-9.219
X-4.78 Y-9.215
X-4.763 Y-9.202
X-4.749 Y-9.156
Y-9.093
X-4.75 Y-9.025
X-4.739 Y-8.963
X-4.724 Y-8.938
X-4.7 Y-8.918
X-4.667 Y-8.907
X-4.622 Y-8.904
X-4.677 Y-8.933
X-4.713 Y-8.959
X-4.73 Y-8.98
X-4.733 Y-8.998
X-4.723 Y-9.011
X-4.704 Y-9.021
X-4.647 Y-9.028
X-4.584 Y-9.018
X-4.536 Y-8.99
X-4.524 Y-8.97
Y-8.945
X-4.538 Y-8.916
X-4.57 Y-8.882
X-4.408 Y-8.817
X-4.273 Y-8.739
X-4.214 Y-8.689
X-4.161 Y-8.63
X-4.112 Y-8.559
X-4.067 Y-8.475
X-4.39 Y-8.061
X-4.703 Y-7.639
X-4.672 Y-6.728
X-4.653 Y-5.817
X-4.64 Y-3.993
X-4.256 Y-3.506
X-4.071 Y-3.258
X-3.894 Y-3.003
X-3.846 Y-2.962
X-3.809 Y-2.923
X-3.783 Y-2.888
X-3.767 Y-2.857
X-3.763 Y-2.804
X-3.789 Y-2.764
X-3.841 Y-2.737
X-3.912 Y-2.724
X-3.996 Y-2.723
X-4.086 Y-2.735
X-4.208 Y-2.767
X-4.325 Y-2.769
X-4.436 Y-2.747
X-4.541 Y-2.704
X-4.642 Y-2.646
X-4.739 Y-2.576
X-4.923 Y-2.421
X-5.108 Y-2.493
X-5.288 Y-2.576
X-5.643 Y-2.754
X-5.686 Y-2.77
X-5.725 Y-2.797
X-5.795 Y-2.877
X-5.915 Y-3.081
X-5.971 Y-3.171
X-6.028 Y-3.231
X-6.057 Y-3.244
X-6.089 Y-3.243
X-6.122 Y-3.225
X-6.157 Y-3.19
X-6.332 Y-3.154
X-6.508 Y-3.133
X-6.863 Y-3.117
X-7.22 Y-3.11
X-7.397 Y-3.1
X-7.573 Y-3.079
X-8.056 Y-2.751
X-8.533 Y-2.408
X-8.622 Y-2.336
X-8.717 Y-2.281
X-8.821 Y-2.252
X-8.877 Y-2.249
X-8.936 Y-2.256
X-9.149 Y-2.25
X-9.364 Y-2.253
X-9.469 Y-2.245
X-9.571 Y-2.225
X-9.668 Y-2.187
X-9.758 Y-2.126
X-9.883 Y-2.1
X-10.011 Y-2.086
X-10.274 Y-2.082
X-10.539 Y-2.089
X-10.8 Y-2.083
X-11.076 Y-2.08
X-11.214 Y-2.081
X-11.343 Y-2.102
X-11.405 Y-2.173
X-11.484 Y-2.245
X-11.649 Y-2.387
X-11.711 Y-2.459
X-11.742 Y-2.533
X-11.743 Y-2.57
X-11.732 Y-2.608
X-11.707 Y-2.646
X-11.667 Y-2.685
X-11.634 Y-2.774
X-11.583 Y-2.847
X-11.456 Y-2.971
X-11.394 Y-3.032
X-11.344 Y-3.102
X-11.312 Y-3.185
X-11.305 Y-3.288
X-11.318 Y-3.381
X-11.306 Y-3.464
X-11.276 Y-3.539
X-11.232 Y-3.609
X-11.123 Y-3.744
X-11.022 Y-3.891
X-10.971 Y-3.991
X-10.933 Y-4.095
X-10.882 Y-4.31
X-10.832 Y-4.527
X-10.795 Y-4.634
X-10.744 Y-4.739
X-10.745 Y-4.838
X-10.764 Y-4.933
X-10.833 Y-5.115
X-10.913 Y-5.287
X-10.945 Y-5.37
X-10.964 Y-5.452
X-11.026 Y-5.477
X-11.08 Y-5.508
X-11.165 Y-5.59
X-11.231 Y-5.69
X-11.286 Y-5.799
X-11.341 Y-5.91
X-11.406 Y-6.014
X-11.491 Y-6.103
X-11.543 Y-6.139
X-11.605 Y-6.168
X-11.662 Y-6.318
X-11.702 Y-6.472
X-11.739 Y-6.62
X-11.785 Y-6.752
X-11.722 Y-6.804
X-11.668 Y-6.871
X-11.573 Y-7.018
X-11.526 Y-7.082
X-11.476 Y-7.13
X-11.42 Y-7.154
X-11.354 Y-7.146
X-11.364 Y-7.089
X-11.353 Y-7.049
X-11.325 Y-7.02
X-11.283 Y-7
X-11.167 Y-6.97
X-11.029 Y-6.928
X-10.971 Y-6.973
X-10.93 Y-7.011
X-10.904 Y-7.042
X-10.891 Y-7.067
X-10.89 Y-7.088
X-10.9 Y-7.103
X-10.944 Y-7.125
X-11.013 Y-7.138
X-11.094 Y-7.147
X-11.175 Y-7.159
X-11.246 Y-7.18
X-11.243 Y-7.233
X-11.248 Y-7.27
X-11.26 Y-7.293
X-11.278 Y-7.305
X-11.328 Y-7.302
X-11.388 Y-7.276
X-11.451 Y-7.245
X-11.507 Y-7.225
X-11.549 Y-7.231
X-11.562 Y-7.248
X-11.567 Y-7.279
X-11.616 Y-7.316
X-11.65 Y-7.353
X-11.67 Y-7.391
X-11.678 Y-7.429
X-11.67 Y-7.505
X-11.644 Y-7.581
X-11.615 Y-7.655
X-11.603 Y-7.728
X-11.608 Y-7.763
X-11.624 Y-7.797
X-11.653 Y-7.83
X-11.696 Y-7.863
Z4
Z5
X-5.801 Y-12.566
Z4
Z0.25 F150
X-5.969 Y-12.599 F300
X-6.143 Y-12.648
X-6.361 Y-12.731
X-6.585 Y-12.837
X-6.794 Y-12.955
X-6.885 Y-13.016
X-6.964 Y-13.074
X-7.021 Y-13.123
X-7.093 Y-13.189
X-7.26 Y-13.352
X-7.421 Y-13.518
X-7.486 Y-13.59
X-7.533 Y-13.646
X-7.652 Y-13.816
X-7.759 Y-14.007
X-7.853 Y-14.212
X-7.93 Y-14.426
X-7.99 Y-14.641
X-8.03 Y-14.851
X-8.048 Y-15.05
X-8.041 Y-15.232
X-8.007 Y-15.439
X-7.954 Y-15.619
X-7.879 Y-15.779
X-7.78 Y-15.923
X-7.742 Y-15.968
X-7.713 Y-16.001
X-7.689 Y-16.02
X-7.673 Y-16.027
X-7.661 Y-16.022
X-7.655 Y-16.004
X-7.652 Y-15.973
X-7.654 Y-15.93
Y-15.861
X-7.65 Y-15.765
X-7.642 Y-15.65
X-7.63 Y-15.525
X-7.601 Y-15.271
X-7.585 Y-15.16
X-7.569 Y-15.069
X-7.506 Y-14.831
X-7.417 Y-14.602
X-7.304 Y-14.384
X-7.168 Y-14.18
X-7.012 Y-13.993
X-6.837 Y-13.824
X-6.646 Y-13.676
X-6.439 Y-13.552
X-6.304 Y-13.491
X-6.16 Y-13.443
X-6.01 Y-13.409
X-5.852 Y-13.388
X-5.689 Y-13.381
X-5.521 Y-13.388
X-5.348 Y-13.409
X-5.171 Y-13.444
X-4.908 Y-13.525
X-4.662 Y-13.639
X-4.437 Y-13.784
X-4.233 Y-13.958
X-4.055 Y-14.159
X-3.902 Y-14.385
X-3.779 Y-14.634
X-3.686 Y-14.904
X-3.655 Y-15.018
X-3.631 Y-15.121
X-3.598 Y-15.304
X-3.583 Y-15.475
X-3.584 Y-15.656
X-3.599 Y-15.831
X-3.627 Y-15.995
X-3.67 Y-16.152
X-3.73 Y-16.304
X-3.807 Y-16.455
X-3.904 Y-16.608
X-4.022 Y-16.765
X-4.162 Y-16.929
X-4.241 Y-17.014
X-4.342 Y-17.111
X-4.464 Y-17.223
X-4.609 Y-17.351
X-4.779 Y-17.495
X-4.974 Y-17.657
X-5.197 Y-17.838
X-5.574 Y-18.14
X-5.685 Y-18.231
X-5.881 Y-18.4
X-5.977 Y-18.488
X-6.078 Y-18.584
X-6.19 Y-18.694
X-6.318 Y-18.822
X-6.397 Y-18.902
X-6.469 Y-18.974
X-6.591 Y-19.101
X-6.691 Y-19.209
X-6.774 Y-19.305
X-6.911 Y-19.486
X-6.975 Y-19.584
X-7.043 Y-19.695
X-7.086 Y-19.771
X-7.137 Y-19.868
X-7.251 Y-20.093
X-7.356 Y-20.315
X-7.397 Y-20.408
X-7.425 Y-20.478
X-7.457 Y-20.581
X-7.489 Y-20.713
X-7.519 Y-20.864
X-7.546 Y-21.028
X-7.588 Y-21.361
X-7.6 Y-21.515
X-7.604 Y-21.649
X-7.603 Y-21.705
X-7.602 Y-21.751
X-7.6 Y-21.78
X-7.598 Y-21.789
X-7.589 Y-21.773
X-7.571 Y-21.735
X-7.547 Y-21.681
X-7.517 Y-21.615
X-7.44 Y-21.452
X-7.349 Y-21.284
X-7.239 Y-21.099
X-7.175 Y-20.998
X-7.104 Y-20.889
X-6.99 Y-20.719
X-6.884 Y-20.57
X-6.783 Y-20.437
X-6.682 Y-20.315
X-6.464 Y-20.084
X-6.339 Y-19.966
X-6.196 Y-19.839
X-6.09 Y-19.746
X-6.004 Y-19.671
X-5.983 Y-19.654
X-5.951 Y-19.629
X-5.859 Y-19.56
X-5.74 Y-19.476
X-5.609 Y-19.384
X-5.084 Y-19.021
X-4.984 Y-18.953
X-4.862 Y-18.87
X-4.733 Y-18.783
X-4.611 Y-18.702
X-4.385 Y-18.545
X-4.185 Y-18.389
X-3.989 Y-18.216
X-3.887 Y-18.117
X-3.777 Y-18.008
X-3.664 Y-17.892
X-3.561 Y-17.782
X-3.379 Y-17.578
X-3.226 Y-17.387
X-3.096 Y-17.201
X-2.985 Y-17.01
X-2.885 Y-16.807
X-2.793 Y-16.581
X-2.701 Y-16.326
X-2.656 Y-16.17
X-2.622 Y-16
X-2.599 Y-15.82
X-2.587 Y-15.633
X-2.585 Y-15.441
X-2.595 Y-15.248
X-2.617 Y-15.056
X-2.649 Y-14.869
X-2.679 Y-14.749
X-2.722 Y-14.614
X-2.836 Y-14.318
X-2.973 Y-14.023
X-3.046 Y-13.889
X-3.117 Y-13.77
X-3.245 Y-13.592
X-3.39 Y-13.422
X-3.551 Y-13.262
X-3.724 Y-13.115
X-3.909 Y-12.983
X-4.101 Y-12.866
X-4.298 Y-12.769
X-4.498 Y-12.691
X-4.724 Y-12.626
X-4.948 Y-12.58
X-5.179 Y-12.553
X-5.425 Y-12.544
X-5.624 Y-12.549
X-5.801 Y-12.566
Z4
Z5
X-8.316 Y-14.863
Z4
Z0.25 F150
X-8.365 Y-14.778 F300
X-8.411 Y-14.701
X-8.45 Y-14.645
X-8.495 Y-14.591
X-8.562 Y-14.521
X-8.708 Y-14.392
X-8.876 Y-14.288
X-9.072 Y-14.206
X-9.3 Y-14.143
X-9.379 Y-14.128
X-9.467 Y-14.118
X-9.662 Y-14.108
X-9.861 Y-14.113
X-10.043 Y-14.134
X-10.178 Y-14.163
X-10.314 Y-14.205
X-10.45 Y-14.258
X-10.584 Y-14.322
X-10.715 Y-14.395
X-10.842 Y-14.478
X-10.963 Y-14.57
X-11.078 Y-14.67
X-11.17 Y-14.767
X-11.261 Y-14.882
X-11.349 Y-15.012
X-11.431 Y-15.152
X-11.505 Y-15.298
X-11.569 Y-15.447
X-11.62 Y-15.594
X-11.658 Y-15.735
X-11.672 Y-15.82
X-11.682 Y-15.922
X-11.69 Y-16.159
X-11.682 Y-16.402
X-11.672 Y-16.513
X-11.658 Y-16.61
X-11.634 Y-16.735
X-11.609 Y-16.843
X-11.55 Y-17.027
X-11.467 Y-17.199
X-11.411 Y-17.293
X-11.343 Y-17.398
X-11.248 Y-17.534
X-11.153 Y-17.656
X-11.054 Y-17.768
X-10.946 Y-17.874
X-10.825 Y-17.978
X-10.687 Y-18.083
X-10.528 Y-18.194
X-10.343 Y-18.314
X-10.144 Y-18.441
X-10.01 Y-18.526
X-9.963 Y-18.556
X-9.9 Y-18.597
X-9.757 Y-18.687
X-9.57 Y-18.805
X-9.407 Y-18.908
X-9.265 Y-18.999
X-9.144 Y-19.078
X-9.042 Y-19.146
X-8.958 Y-19.205
X-8.889 Y-19.254
X-8.835 Y-19.296
X-8.705 Y-19.403
X-8.588 Y-19.508
X-8.484 Y-19.611
X-8.39 Y-19.712
X-8.308 Y-19.813
X-8.235 Y-19.914
X-8.118 Y-20.119
X-8.057 Y-20.261
X-8.015 Y-20.387
X-7.99 Y-20.515
X-7.976 Y-20.66
X-7.967 Y-20.834
X-7.935 Y-20.771
X-7.918 Y-20.736
X-7.898 Y-20.687
X-7.855 Y-20.571
X-7.829 Y-20.49
X-7.814 Y-20.414
X-7.808 Y-20.318
X-7.807 Y-20.253
Y-20.171
Y-20.093
X-7.808 Y-20.028
X-7.815 Y-19.925
X-7.829 Y-19.837
X-7.854 Y-19.739
X-7.894 Y-19.611
X-7.943 Y-19.489
X-8.002 Y-19.372
X-8.075 Y-19.256
X-8.162 Y-19.138
X-8.266 Y-19.015
X-8.389 Y-18.884
X-8.533 Y-18.742
X-8.73 Y-18.56
X-8.836 Y-18.466
X-8.957 Y-18.365
X-9.097 Y-18.25
X-9.263 Y-18.116
X-9.358 Y-18.041
X-9.574 Y-17.87
X-9.697 Y-17.774
X-9.802 Y-17.689
X-9.912 Y-17.594
X-10.134 Y-17.392
X-10.334 Y-17.192
X-10.417 Y-17.102
X-10.485 Y-17.023
X-10.584 Y-16.882
X-10.67 Y-16.729
X-10.738 Y-16.574
X-10.782 Y-16.428
X-10.793 Y-16.36
X-10.8 Y-16.28
X-10.803 Y-16.103
X-10.79 Y-15.927
X-10.778 Y-15.847
X-10.763 Y-15.779
X-10.717 Y-15.646
X-10.649 Y-15.496
X-10.57 Y-15.349
X-10.492 Y-15.227
X-10.401 Y-15.115
X-10.299 Y-15.009
X-10.188 Y-14.912
X-10.069 Y-14.823
X-9.945 Y-14.744
X-9.817 Y-14.676
X-9.686 Y-14.62
X-9.554 Y-14.578
X-9.403 Y-14.549
X-9.318 Y-14.542
X-9.223 Y-14.538
X-9.009 Y-14.55
X-8.812 Y-14.593
X-8.624 Y-14.668
X-8.437 Y-14.78
X-8.316 Y-14.863
Z4
Z5
X-44.655 Y-12.622
Z4
Z0.25 F150
Y-12.378 F300
X-44.695 Y-12.138
X-44.772 Y-11.907
X-44.885 Y-11.691
X-45.031 Y-11.496
X-45.207 Y-11.327
X-45.408 Y-11.189
X-45.628 Y-11.085
X-45.862 Y-11.017
X-46.104 Y-10.987
X-46.347 Y-10.997
X-46.586 Y-11.046
X-46.813 Y-11.132
X-47.025 Y-11.254
X-47.213 Y-11.408
X-47.375 Y-11.59
X-47.505 Y-11.797
X-47.6 Y-12.021
X-47.659 Y-12.257
X-47.678 Y-12.5
X-47.659 Y-12.743
X-47.6 Y-12.979
X-47.505 Y-13.203
X-47.375 Y-13.41
X-47.213 Y-13.592
X-47.025 Y-13.746
X-46.813 Y-13.868
X-46.586 Y-13.954
X-46.347 Y-14.003
X-46.104 Y-14.013
X-45.862 Y-13.983
X-45.628 Y-13.915
X-45.408 Y-13.811
X-45.207 Y-13.673
X-45.031 Y-13.504
X-44.885 Y-13.309
X-44.772 Y-13.093
X-44.695 Y-12.862
X-44.655 Y-12.622
Z4
Z5
X-37.377 Y-14.988
Z4
Z0 F150
X-34.877 Y-14.987 F300
X-34.346 Y-12.487
X-35.774
X-36.003 Y-13.559
X-37.074
X-37.249 Y-13.492
X-37.406 Y-13.416
X-37.473 Y-13.37
X-37.53 Y-13.319
X-37.574 Y-13.26
X-37.605 Y-13.194
X-37.624 Y-13.12
X-37.634 Y-13.041
X-37.629 Y-12.868
X-37.6 Y-12.681
X-37.56 Y-12.488
X-37.511 Y-12.286
X-37.453 Y-12.093
X-37.38 Y-11.915
X-37.283 Y-11.761
X-37.222 Y-11.695
X-37.153 Y-11.638
X-36.993 Y-11.546
X-36.811 Y-11.476
X-36.618 Y-11.416
X-34.832 Y-11.415
X-33.814 Y-9.987
X-36.314
X-36.831 Y-10.094
X-37.082 Y-10.156
X-37.324 Y-10.229
X-37.554 Y-10.315
X-37.768 Y-10.418
X-37.964 Y-10.542
X-38.139 Y-10.69
X-38.292 Y-10.861
X-38.427 Y-11.054
X-38.545 Y-11.266
X-38.65 Y-11.492
X-38.744 Y-11.73
X-38.83 Y-11.978
X-38.989 Y-12.488
X-39.051 Y-12.989
X-39.073 Y-13.233
X-39.082 Y-13.468
X-39.075 Y-13.691
X-39.048 Y-13.901
X-38.998 Y-14.093
X-38.919 Y-14.265
X-38.868 Y-14.342
X-38.808 Y-14.414
X-38.665 Y-14.539
X-38.493 Y-14.645
X-38.298 Y-14.734
X-38.084 Y-14.809
X-37.857 Y-14.874
X-37.377 Y-14.988
Z4
Z5
X-34.195 Y-14.987
Z4
Z0 F150
X-32.767 Y-14.986 F300
X-32.31 Y-12.844
X-31.249 Y-14.986
X-29.463
X-30.367 Y-13.365
X-30.15 Y-13.221
X-29.943 Y-13.069
X-29.757 Y-12.903
X-29.674 Y-12.812
X-29.6 Y-12.715
X-29.476 Y-12.502
X-29.379 Y-12.269
X-29.299 Y-12.023
X-29.228 Y-11.771
X-29.203 Y-11.388
X-29.198 Y-11.203
X-29.203 Y-11.025
X-29.22 Y-10.858
X-29.254 Y-10.703
X-29.306 Y-10.563
X-29.381 Y-10.441
X-29.481 Y-10.339
X-29.603 Y-10.255
X-29.745 Y-10.186
X-29.903 Y-10.131
X-30.074 Y-10.085
X-30.254 Y-10.048
X-30.632 Y-9.986
X-33.132 Y-9.987
X-33.435 Y-11.415
X-30.935
X-30.79 Y-11.444
X-30.73 Y-11.469
X-30.686 Y-11.506
X-30.66 Y-11.558
X-30.651 Y-11.623
X-30.657 Y-11.772
X-30.715 Y-11.921
X-30.753 Y-11.986
X-30.801 Y-12.038
X-30.861 Y-12.075
X-30.931 Y-12.1
X-31.089 Y-12.129
X-33.589 Y-12.13
X-34.195 Y-14.987
Z4
Z5
X-28.64 Y-13.736
Z4
Z0 F150
X-29.352 Y-14.986 F300
X-27.835 Y-14.985
X-26.264 Y-12.217
X-25.87 Y-14.985
X-24.352 Y-14.984
X-25.075 Y-9.985
X-26.504
X-28.64 Y-13.736
Z4
Z5
X-24.11 Y-13.412
Z4
Z0 F150
X-24.049 Y-13.629 F300
X-23.958 Y-13.84
X-23.847 Y-14.047
X-23.726 Y-14.252
X-23.558 Y-14.416
X-23.385 Y-14.57
X-23.204 Y-14.705
X-23.009 Y-14.813
X-22.8 Y-14.886
X-22.578 Y-14.934
X-22.113 Y-14.984
X-20.685
X-19.667 Y-13.555
X-21.81
X-22.009 Y-13.534
X-22.104 Y-13.513
X-22.194 Y-13.481
X-22.277 Y-13.436
X-22.355 Y-13.377
X-22.501 Y-13.241
X-22.601 Y-13.065
X-22.64 Y-12.974
X-22.666 Y-12.881
X-22.677 Y-12.785
X-22.676 Y-12.686
X-22.653 Y-12.484
X-22.58 Y-12.266
X-22.536 Y-12.162
X-22.482 Y-12.064
X-22.417 Y-11.973
X-22.342 Y-11.888
X-22.178 Y-11.727
X-21.991 Y-11.598
X-21.894 Y-11.542
X-21.793 Y-11.496
X-21.688 Y-11.462
X-21.579 Y-11.44
X-21.353 Y-11.412
X-19.925
X-18.907 Y-9.983
X-21.05 Y-9.984
X-21.576 Y-10.047
X-21.831 Y-10.1
X-22.077 Y-10.178
X-22.312 Y-10.285
X-22.538 Y-10.415
X-22.975 Y-10.716
X-23.358 Y-11.093
X-23.531 Y-11.292
X-23.683 Y-11.504
X-23.809 Y-11.733
X-23.912 Y-11.976
X-24.082 Y-12.484
X-24.133 Y-12.956
X-24.135 Y-13.187
X-24.11 Y-13.412
Z4
Z5
X-19.338 Y-13.555
Z4
Z0 F150
X-19.642 Y-14.983 F300
X-16.427
X-15.41 Y-13.554
X-19.338 Y-13.555
Z4
Z5
X-19.264 Y-13.198
Z4
Z0 F150
X-16.049 Y-13.197 F300
X-15.032 Y-11.768
X-18.96 Y-11.769
X-19.264 Y-13.198
Z4
Z5
X-18.882 Y-11.412
Z4
Z0 F150
X-15.668 Y-11.411 F300
X-14.65 Y-9.982
X-18.579 Y-9.983
X-18.882 Y-11.412
Z4
Z5
X-11.696 Y-7.863
Z4
Z0 F150
X-10.974 Y-8.255 F300
X-10.256 Y-8.657
X-9.965 Y-8.81
X-9.684 Y-8.98
X-9.405 Y-9.153
X-9.12 Y-9.315
X-8.978 Y-9.402
X-8.823 Y-9.478
X-8.503 Y-9.625
X-8.351 Y-9.706
X-8.213 Y-9.8
X-8.096 Y-9.914
X-8.048 Y-9.98
X-8.008 Y-10.053
X-8.073 Y-10.115
X-8.103 Y-10.172
X-8.107 Y-10.224
X-8.09 Y-10.275
X-8.02 Y-10.376
X-7.944 Y-10.488
X-7.245 Y-10.988
X-6.896 Y-11.237
X-6.539 Y-11.472
X-6.521 Y-11.504
X-6.504 Y-11.516
X-6.489 Y-11.513
X-6.474 Y-11.5
X-6.444 Y-11.461
X-6.411 Y-11.434
X-6.368 Y-11.472
X-6.331 Y-11.489
X-6.3 Y-11.487
X-6.272 Y-11.47
X-6.219 Y-11.403
X-6.16 Y-11.311
X-6.028 Y-11.051
X-5.885 Y-10.798
X-5.821 Y-10.669
X-5.77 Y-10.536
X-5.734 Y-10.397
X-5.72 Y-10.25
X-5.606 Y-10.033
X-5.487 Y-9.802
X-5.424 Y-9.693
X-5.357 Y-9.597
X-5.285 Y-9.516
X-5.209 Y-9.457
X-5.162 Y-9.459
X-5.107 Y-9.449
X-5.048 Y-9.427
X-4.992 Y-9.396
X-4.943 Y-9.356
X-4.906 Y-9.308
X-4.886 Y-9.254
X-4.889 Y-9.195
X-4.841 Y-9.213
X-4.805 Y-9.219
X-4.78 Y-9.215
X-4.763 Y-9.202
X-4.749 Y-9.156
Y-9.093
X-4.75 Y-9.025
X-4.739 Y-8.963
X-4.724 Y-8.938
X-4.7 Y-8.918
X-4.667 Y-8.907
X-4.622 Y-8.904
X-4.677 Y-8.933
X-4.713 Y-8.959
X-4.73 Y-8.98
X-4.733 Y-8.998
X-4.723 Y-9.011
X-4.704 Y-9.021
X-4.647 Y-9.028
X-4.584 Y-9.018
X-4.536 Y-8.99
X-4.524 Y-8.97
Y-8.945
X-4.538 Y-8.916
X-4.57 Y-8.882
X-4.408 Y-8.817
X-4.273 Y-8.739
X-4.214 Y-8.689
X-4.161 Y-8.63
X-4.112 Y-8.559
X-4.067 Y-8.475
X-4.39 Y-8.061
X-4.703 Y-7.639
X-4.672 Y-6.728
X-4.653 Y-5.817
X-4.64 Y-3.993
X-4.256 Y-3.506
X-4.071 Y-3.258
X-3.894 Y-3.003
X-3.846 Y-2.962
X-3.809 Y-2.923
X-3.783 Y-2.888
X-3.767 Y-2.857
X-3.763 Y-2.804
X-3.789 Y-2.764
X-3.841 Y-2.737
X-3.912 Y-2.724
X-3.996 Y-2.723
X-4.086 Y-2.735
X-4.208 Y-2.767
X-4.325 Y-2.769
X-4.436 Y-2.747
X-4.541 Y-2.704
X-4.642 Y-2.646
X-4.739 Y-2.576
X-4.923 Y-2.421
X-5.108 Y-2.493
X-5.288 Y-2.576
X-5.643 Y-2.754
X-5.686 Y-2.77
X-5.725 Y-2.797
X-5.795 Y-2.877
X-5.915 Y-3.081
X-5.971 Y-3.171
X-6.028 Y-3.231
X-6.057 Y-3.244
X-6.089 Y-3.243
X-6.122 Y-3.225
X-6.157 Y-3.19
X-6.332 Y-3.154
X-6.508 Y-3.133
X-6.863 Y-3.117
X-7.22 Y-3.11
X-7.397 Y-3.1
X-7.573 Y-3.079
X-8.056 Y-2.751
X-8.533 Y-2.408
X-8.622 Y-2.336
X-8.717 Y-2.281
X-8.821 Y-2.252
X-8.877 Y-2.249
X-8.936 Y-2.256
X-9.149 Y-2.25
X-9.364 Y-2.253
X-9.469 Y-2.245
X-9.571 Y-2.225
X-9.668 Y-2.187
X-9.758 Y-2.126
X-9.883 Y-2.1
X-10.011 Y-2.086
X-10.274 Y-2.082
X-10.539 Y-2.089
X-10.8 Y-2.083
X-11.076 Y-2.08
X-11.214 Y-2.081
X-11.343 Y-2.102
X-11.405 Y-2.173
X-11.484 Y-2.245
X-11.649 Y-2.387
X-11.711 Y-2.459
X-11.742 Y-2.533
X-11.743 Y-2.57
X-11.732 Y-2.608
X-11.707 Y-2.646
X-11.667 Y-2.685
X-11.634 Y-2.774
X-11.583 Y-2.847
X-11.456 Y-2.971
X-11.394 Y-3.032
X-11.344 Y-3.102
X-11.312 Y-3.185
X-11.305 Y-3.288
X-11.318 Y-3.381
X-11.306 Y-3.464
X-11.276 Y-3.539
X-11.232 Y-3.609
X-11.123 Y-3.744
X-11.022 Y-3.891
X-10.971 Y-3.991
X-10.933 Y-4.095
X-10.882 Y-4.31
X-10.832 Y-4.527
X-10.795 Y-4.634
X-10.744 Y-4.739
X-10.745 Y-4.838
X-10.764 Y-4.933
X-10.833 Y-5.115
X-10.913 Y-5.287
X-10.945 Y-5.37
X-10.964 Y-5.452
X-11.026 Y-5.477
X-11.08 Y-5.508
X-11.165 Y-5.59
X-11.231 Y-5.69
X-11.286 Y-5.799
X-11.341 Y-5.91
X-11.406 Y-6.014
X-11.491 Y-6.103
X-11.543 Y-6.139
X-11.605 Y-6.168
X-11.662 Y-6.318
X-11.702 Y-6.472
X-11.739 Y-6.62
X-11.785 Y-6.752
X-11.722 Y-6.804
X-11.668 Y-6.871
X-11.573 Y-7.018
X-11.526 Y-7.082
X-11.476 Y-7.13
X-11.42 Y-7.154
X-11.354 Y-7.146
X-11.364 Y-7.089
X-11.353 Y-7.049
X-11.325 Y-7.02
X-11.283 Y-7
X-11.167 Y-6.97
X-11.029 Y-6.928
X-10.971 Y-6.973
X-10.93 Y-7.011
X-10.904 Y-7.042
X-10.891 Y-7.067
X-10.89 Y-7.088
X-10.9 Y-7.103
X-10.944 Y-7.125
X-11.013 Y-7.138
X-11.094 Y-7.147
X-11.175 Y-7.159
X-11.246 Y-7.18
X-11.243 Y-7.233
X-11.248 Y-7.27
X-11.26 Y-7.293
X-11.278 Y-7.305
X-11.328 Y-7.302
X-11.388 Y-7.276
X-11.451 Y-7.245
X-11.507 Y-7.225
X-11.549 Y-7.231
X-11.562 Y-7.248
X-11.567 Y-7.279
X-11.616 Y-7.316
X-11.65 Y-7.353
X-11.67 Y-7.391
X-11.678 Y-7.429
X-11.67 Y-7.505
X-11.644 Y-7.581
X-11.615 Y-7.655
X-11.603 Y-7.728
X-11.608 Y-7.763
X-11.624 Y-7.797
X-11.653 Y-7.83
X-11.696 Y-7.863
Z4
Z5
X-5.801 Y-12.566
Z4
Z0 F150
X-5.969 Y-12.599 F300
X-6.143 Y-12.648
X-6.361 Y-12.731
X-6.585 Y-12.837
X-6.794 Y-12.955
X-6.885 Y-13.016
X-6.964 Y-13.074
X-7.021 Y-13.123
X-7.093 Y-13.189
X-7.26 Y-13.352
X-7.421 Y-13.518
X-7.486 Y-13.59
X-7.533 Y-13.646
X-7.652 Y-13.816
X-7.759 Y-14.007
X-7.853 Y-14.212
X-7.93 Y-14.426
X-7.99 Y-14.641
X-8.03 Y-14.851
X-8.048 Y-15.05
X-8.041 Y-15.232
X-8.007 Y-15.439
X-7.954 Y-15.619
X-7.879 Y-15.779
X-7.78 Y-15.923
X-7.742 Y-15.968
X-7.713 Y-16.001
X-7.689 Y-16.02
X-7.673 Y-16.027
X-7.661 Y-16.022
X-7.655 Y-16.004
X-7.652 Y-15.973
X-7.654 Y-15.93
Y-15.861
X-7.65 Y-15.765
X-7.642 Y-15.65
X-7.63 Y-15.525
X-7.601 Y-15.271
X-7.585 Y-15.16
X-7.569 Y-15.069
X-7.506 Y-14.831
X-7.417 Y-14.602
X-7.304 Y-14.384
X-7.168 Y-14.18
X-7.012 Y-13.993
X-6.837 Y-13.824
X-6.646 Y-13.676
X-6.439 Y-13.552
X-6.304 Y-13.491
X-6.16 Y-13.443
X-6.01 Y-13.409
X-5.852 Y-13.388
X-5.689 Y-13.381
X-5.521 Y-13.388
X-5.348 Y-13.409
X-5.171 Y-13.444
X-4.908 Y-13.525
X-4.662 Y-13.639
X-4.437 Y-13.784
X-4.233 Y-13.958
X-4.055 Y-14.159
X-3.902 Y-14.385
X-3.779 Y-14.634
X-3.686 Y-14.904
X-3.655 Y-15.018
X-3.631 Y-15.121
X-3.598 Y-15.304
X-3.583 Y-15.475
X-3.584 Y-15.656
X-3.599 Y-15.831
X-3.627 Y-15.995
X-3.67 Y-16.152
X-3.73 Y-16.304
X-3.807 Y-16.455
X-3.904 Y-16.608
X-4.022 Y-16.765
X-4.162 Y-16.929
X-4.241 Y-17.014
X-4.342 Y-17.111
X-4.464 Y-17.223
X-4.609 Y-17.351
X-4.779 Y-17.495
X-4.974 Y-17.657
X-5.197 Y-17.838
X-5.574 Y-18.14
X-5.685 Y-18.231
X-5.881 Y-18.4
X-5.977 Y-18.488
X-6.078 Y-18.584
X-6.19 Y-18.694
X-6.318 Y-18.822
X-6.397 Y-18.902
X-6.469 Y-18.974
X-6.591 Y-19.101
X-6.691 Y-19.209
X-6.774 Y-19.305
X-6.911 Y-19.486
X-6.975 Y-19.584
X-7.043 Y-19.695
X-7.086 Y-19.771
X-7.137 Y-19.868
X-7.251 Y-20.093
X-7.356 Y-20.315
X-7.397 Y-20.408
X-7.425 Y-20.478
X-7.457 Y-20.581
X-7.489 Y-20.713
X-7.519 Y-20.864
X-7.546 Y-21.028
X-7.588 Y-21.361
X-7.6 Y-21.515
X-7.604 Y-21.649
X-7.603 Y-21.705
X-7.602 Y-21.751
X-7.6 Y-21.78
X-7.598 Y-21.789
X-7.589 Y-21.773
X-7.571 Y-21.735
X-7.547 Y-21.681
X-7.517 Y-21.615
X-7.44 Y-21.452
X-7.349 Y-21.284
X-7.239 Y-21.099
X-7.175 Y-20.998
X-7.104 Y-20.889
X-6.99 Y-20.719
X-6.884 Y-20.57
X-6.783 Y-20.437
X-6.682 Y-20.315
X-6.464 Y-20.084
X-6.339 Y-19.966
X-6.196 Y-19.839
X-6.09 Y-19.746
X-6.004 Y-19.671
X-5.983 Y-19.654
X-5.951 Y-19.629
X-5.859 Y-19.56
X-5.74 Y-19.476
X-5.609 Y-19.384
X-5.084 Y-19.021
X-4.984 Y-18.953
X-4.862 Y-18.87
X-4.733 Y-18.783
X-4.611 Y-18.702
X-4.385 Y-18.545
X-4.185 Y-18.389
X-3.989 Y-18.216
X-3.887 Y-18.117
X-3.777 Y-18.008
X-3.664 Y-17.892
X-3.561 Y-17.782
X-3.379 Y-17.578
X-3.226 Y-17.387
X-3.096 Y-17.201
X-2.985 Y-17.01
X-2.885 Y-16.807
X-2.793 Y-16.581
X-2.701 Y-16.326
X-2.656 Y-16.17
X-2.622 Y-16
X-2.599 Y-15.82
X-2.587 Y-15.633
X-2.585 Y-15.441
X-2.595 Y-15.248
X-2.617 Y-15.056
X-2.649 Y-14.869
X-2.679 Y-14.749
X-2.722 Y-14.614
X-2.836 Y-14.318
X-2.973 Y-14.023
X-3.046 Y-13.889
X-3.117 Y-13.77
X-3.245 Y-13.592
X-3.39 Y-13.422
X-3.551 Y-13.262
X-3.724 Y-13.115
X-3.909 Y-12.983
X-4.101 Y-12.866
X-4.298 Y-12.769
X-4.498 Y-12.691
X-4.724 Y-12.626
X-4.948 Y-12.58
X-5.179 Y-12.553
X-5.425 Y-12.544
X-5.624 Y-12.549
X-5.801 Y-12.566
Z4
Z5
X-8.316 Y-14.863
Z4
Z0 F150
X-8.365 Y-14.778 F300
X-8.411 Y-14.701
X-8.45 Y-14.645
X-8.495 Y-14.591
X-8.562 Y-14.521
X-8.708 Y-14.392
X-8.876 Y-14.288
X-9.072 Y-14.206
X-9.3 Y-14.143
X-9.379 Y-14.128
X-9.467 Y-14.118
X-9.662 Y-14.108
X-9.861 Y-14.113
X-10.043 Y-14.134
X-10.178 Y-14.163
X-10.314 Y-14.205
X-10.45 Y-14.258
X-10.584 Y-14.322
X-10.715 Y-14.395
X-10.842 Y-14.478
X-10.963 Y-14.57
X-11.078 Y-14.67
X-11.17 Y-14.767
X-11.261 Y-14.882
X-11.349 Y-15.012
X-11.431 Y-15.152
X-11.505 Y-15.298
X-11.569 Y-15.447
X-11.62 Y-15.594
X-11.658 Y-15.735
X-11.672 Y-15.82
X-11.682 Y-15.922
X-11.69 Y-16.159
X-11.682 Y-16.402
X-11.672 Y-16.513
X-11.658 Y-16.61
X-11.634 Y-16.735
X-11.609 Y-16.843
X-11.55 Y-17.027
X-11.467 Y-17.199
X-11.411 Y-17.293
X-11.343 Y-17.398
X-11.248 Y-17.534
X-11.153 Y-17.656
X-11.054 Y-17.768
X-10.946 Y-17.874
X-10.825 Y-17.978
X-10.687 Y-18.083
X-10.528 Y-18.194
X-10.343 Y-18.314
X-10.144 Y-18.441
X-10.01 Y-18.526
X-9.963 Y-18.556
X-9.9 Y-18.597
X-9.757 Y-18.687
X-9.57 Y-18.805
X-9.407 Y-18.908
X-9.265 Y-18.999
X-9.144 Y-19.078
X-9.042 Y-19.146
X-8.958 Y-19.205
X-8.889 Y-19.254
X-8.835 Y-19.296
X-8.705 Y-19.403
X-8.588 Y-19.508
X-8.484 Y-19.611
X-8.39 Y-19.712
X-8.308 Y-19.813
X-8.235 Y-19.914
X-8.118 Y-20.119
X-8.057 Y-20.261
X-8.015 Y-20.387
X-7.99 Y-20.515
X-7.976 Y-20.66
X-7.967 Y-20.834
X-7.935 Y-20.771
X-7.918 Y-20.736
X-7.898 Y-20.687
X-7.855 Y-20.571
X-7.829 Y-20.49
X-7.814 Y-20.414
X-7.808 Y-20.318
X-7.807 Y-20.253
Y-20.171
Y-20.093
X-7.808 Y-20.028
X-7.815 Y-19.925
X-7.829 Y-19.837
X-7.854 Y-19.739
X-7.894 Y-19.611
X-7.943 Y-19.489
X-8.002 Y-19.372
X-8.075 Y-19.256
X-8.162 Y-19.138
X-8.266 Y-19.015
X-8.389 Y-18.884
X-8.533 Y-18.742
X-8.73 Y-18.56
X-8.836 Y-18.466
X-8.957 Y-18.365
X-9.097 Y-18.25
X-9.263 Y-18.116
X-9.358 Y-18.041
X-9.574 Y-17.87
X-9.697 Y-17.774
X-9.802 Y-17.689
X-9.912 Y-17.594
X-10.134 Y-17.392
X-10.334 Y-17.192
X-10.417 Y-17.102
X-10.485 Y-17.023
X-10.584 Y-16.882
X-10.67 Y-16.729
X-10.738 Y-16.574
X-10.782 Y-16.428
X-10.793 Y-16.36
X-10.8 Y-16.28
X-10.803 Y-16.103
X-10.79 Y-15.927
X-10.778 Y-15.847
X-10.763 Y-15.779
X-10.717 Y-15.646
X-10.649 Y-15.496
X-10.57 Y-15.349
X-10.492 Y-15.227
X-10.401 Y-15.115
X-10.299 Y-15.009
X-10.188 Y-14.912
X-10.069 Y-14.823
X-9.945 Y-14.744
X-9.817 Y-14.676
X-9.686 Y-14.62
X-9.554 Y-14.578
X-9.403 Y-14.549
X-9.318 Y-14.542
X-9.223 Y-14.538
X-9.009 Y-14.55
X-8.812 Y-14.593
X-8.624 Y-14.668
X-8.437 Y-14.78
X-8.316 Y-14.863
Z4
Z5
X-44.655 Y-12.622
Z4
Z0 F150
Y-12.378 F300
X-44.695 Y-12.138
X-44.772 Y-11.907
X-44.885 Y-11.691
X-45.031 Y-11.496
X-45.207 Y-11.327
X-45.408 Y-11.189
X-45.628 Y-11.085
X-45.862 Y-11.017
X-46.104 Y-10.987
X-46.347 Y-10.997
X-46.586 Y-11.046
X-46.813 Y-11.132
X-47.025 Y-11.254
X-47.213 Y-11.408
X-47.375 Y-11.59
X-47.505 Y-11.797
X-47.6 Y-12.021
X-47.659 Y-12.257
X-47.678 Y-12.5
X-47.659 Y-12.743
X-47.6 Y-12.979
X-47.505 Y-13.203
X-47.375 Y-13.41
X-47.213 Y-13.592
X-47.025 Y-13.746
X-46.813 Y-13.868
X-46.586 Y-13.954
X-46.347 Y-14.003
X-46.104 Y-14.013
X-45.862 Y-13.983
X-45.628 Y-13.915
X-45.408 Y-13.811
X-45.207 Y-13.673
X-45.031 Y-13.504
X-44.885 Y-13.309
X-44.772 Y-13.093
X-44.695 Y-12.862
X-44.655 Y-12.622
Z4
Z5
X-37.377 Y-14.988
Z4
Z-0.25 F150
X-34.877 Y-14.987 F300
X-34.346 Y-12.487
X-35.774
X-36.003 Y-13.559
X-37.074
X-37.249 Y-13.492
X-37.406 Y-13.416
X-37.473 Y-13.37
X-37.53 Y-13.319
X-37.574 Y-13.26
X-37.605 Y-13.194
X-37.624 Y-13.12
X-37.634 Y-13.041
X-37.629 Y-12.868
X-37.6 Y-12.681
X-37.56 Y-12.488
X-37.511 Y-12.286
X-37.453 Y-12.093
X-37.38 Y-11.915
X-37.283 Y-11.761
X-37.222 Y-11.695
X-37.153 Y-11.638
X-36.993 Y-11.546
X-36.811 Y-11.476
X-36.618 Y-11.416
X-34.832 Y-11.415
X-33.814 Y-9.987
X-36.314
X-36.831 Y-10.094
X-37.082 Y-10.156
X-37.324 Y-10.229
X-37.554 Y-10.315
X-37.768 Y-10.418
X-37.964 Y-10.542
X-38.139 Y-10.69
X-38.292 Y-10.861
X-38.427 Y-11.054
X-38.545 Y-11.266
X-38.65 Y-11.492
X-38.744 Y-11.73
X-38.83 Y-11.978
X-38.989 Y-12.488
X-39.051 Y-12.989
X-39.073 Y-13.233
X-39.082 Y-13.468
X-39.075 Y-13.691
X-39.048 Y-13.901
X-38.998 Y-14.093
X-38.919 Y-14.265
X-38.868 Y-14.342
X-38.808 Y-14.414
X-38.665 Y-14.539
X-38.493 Y-14.645
X-38.298 Y-14.734
X-38.084 Y-14.809
X-37.857 Y-14.874
X-37.377 Y-14.988
Z4
Z5
X-34.195 Y-14.987
Z4
Z-0.25 F150
X-32.767 Y-14.986 F300
X-32.31 Y-12.844
X-31.249 Y-14.986
X-29.463
X-30.367 Y-13.365
X-30.15 Y-13.221
X-29.943 Y-13.069
X-29.757 Y-12.903
X-29.674 Y-12.812
X-29.6 Y-12.715
X-29.476 Y-12.502
X-29.379 Y-12.269
X-29.299 Y-12.023
X-29.228 Y-11.771
X-29.203 Y-11.388
X-29.198 Y-11.203
X-29.203 Y-11.025
X-29.22 Y-10.858
X-29.254 Y-10.703
X-29.306 Y-10.563
X-29.381 Y-10.441
X-29.481 Y-10.339
X-29.603 Y-10.255
X-29.745 Y-10.186
X-29.903 Y-10.131
X-30.074 Y-10.085
X-30.254 Y-10.048
X-30.632 Y-9.986
X-33.132 Y-9.987
X-33.435 Y-11.415
X-30.935
X-30.79 Y-11.444
X-30.73 Y-11.469
X-30.686 Y-11.506
X-30.66 Y-11.558
X-30.651 Y-11.623
X-30.657 Y-11.772
X-30.715 Y-11.921
X-30.753 Y-11.986
X-30.801 Y-12.038
X-30.861 Y-12.075
X-30.931 Y-12.1
X-31.089 Y-12.129
X-33.589 Y-12.13
X-34.195 Y-14.987
Z4
Z5
X-28.64 Y-13.736
Z4
Z-0.25 F150
X-29.352 Y-14.986 F300
X-27.835 Y-14.985
X-26.264 Y-12.217
X-25.87 Y-14.985
X-24.352 Y-14.984
X-25.075 Y-9.985
X-26.504
X-28.64 Y-13.736
Z4
Z5
X-24.11 Y-13.412
Z4
Z-0.25 F150
X-24.049 Y-13.629 F300
X-23.958 Y-13.84
X-23.847 Y-14.047
X-23.726 Y-14.252
X-23.558 Y-14.416
X-23.385 Y-14.57
X-23.204 Y-14.705
X-23.009 Y-14.813
X-22.8 Y-14.886
X-22.578 Y-14.934
X-22.113 Y-14.984
X-20.685
X-19.667 Y-13.555
X-21.81
X-22.009 Y-13.534
X-22.104 Y-13.513
X-22.194 Y-13.481
X-22.277 Y-13.436
X-22.355 Y-13.377
X-22.501 Y-13.241
X-22.601 Y-13.065
X-22.64 Y-12.974
X-22.666 Y-12.881
X-22.677 Y-12.785
X-22.676 Y-12.686
X-22.653 Y-12.484
X-22.58 Y-12.266
X-22.536 Y-12.162
X-22.482 Y-12.064
X-22.417 Y-11.973
X-22.342 Y-11.888
X-22.178 Y-11.727
X-21.991 Y-11.598
X-21.894 Y-11.542
X-21.793 Y-11.496
X-21.688 Y-11.462
X-21.579 Y-11.44
X-21.353 Y-11.412
X-19.925
X-18.907 Y-9.983
X-21.05 Y-9.984
X-21.576 Y-10.047
X-21.831 Y-10.1
X-22.077 Y-10.178
X-22.312 Y-10.285
X-22.538 Y-10.415
X-22.975 Y-10.716
X-23.358 Y-11.093
X-23.531 Y-11.292
X-23.683 Y-11.504
X-23.809 Y-11.733
X-23.912 Y-11.976
X-24.082 Y-12.484
X-24.133 Y-12.956
X-24.135 Y-13.187
X-24.11 Y-13.412
Z4
Z5
X-19.338 Y-13.555
Z4
Z-0.25 F150
X-19.642 Y-14.983 F300
X-16.427
X-15.41 Y-13.554
X-19.338 Y-13.555
Z4
Z5
X-19.264 Y-13.198
Z4
Z-0.25 F150
X-16.049 Y-13.197 F300
X-15.032 Y-11.768
X-18.96 Y-11.769
X-19.264 Y-13.198
Z4
Z5
X-18.882 Y-11.412
Z4
Z-0.25 F150
X-15.668 Y-11.411 F300
X-14.65 Y-9.982
X-18.579 Y-9.983
X-18.882 Y-11.412
Z4
Z5
X-11.696 Y-7.863
Z4
Z-0.25 F150
X-10.974 Y-8.255 F300
X-10.256 Y-8.657
X-9.965 Y-8.81
X-9.684 Y-8.98
X-9.405 Y-9.153
X-9.12 Y-9.315
X-8.978 Y-9.402
X-8.823 Y-9.478
X-8.503 Y-9.625
X-8.351 Y-9.706
X-8.213 Y-9.8
X-8.096 Y-9.914
X-8.048 Y-9.98
X-8.008 Y-10.053
X-8.073 Y-10.115
X-8.103 Y-10.172
X-8.107 Y-10.224
X-8.09 Y-10.275
X-8.02 Y-10.376
X-7.944 Y-10.488
X-7.245 Y-10.988
X-6.896 Y-11.237
X-6.539 Y-11.472
X-6.521 Y-11.504
X-6.504 Y-11.516
X-6.489 Y-11.513
X-6.474 Y-11.5
X-6.444 Y-11.461
X-6.411 Y-11.434
X-6.368 Y-11.472
X-6.331 Y-11.489
X-6.3 Y-11.487
X-6.272 Y-11.47
X-6.219 Y-11.403
X-6.16 Y-11.311
X-6.028 Y-11.051
X-5.885 Y-10.798
X-5.821 Y-10.669
X-5.77 Y-10.536
X-5.734 Y-10.397
X-5.72 Y-10.25
X-5.606 Y-10.033
X-5.487 Y-9.802
X-5.424 Y-9.693
X-5.357 Y-9.597
X-5.285 Y-9.516
X-5.209 Y-9.457
X-5.162 Y-9.459
X-5.107 Y-9.449
X-5.048 Y-9.427
X-4.992 Y-9.396
X-4.943 Y-9.356
X-4.906 Y-9.308
X-4.886 Y-9.254
X-4.889 Y-9.195
X-4.841 Y-9.213
X-4.805 Y-9.219
X-4.78 Y-9.215
X-4.763 Y-9.202
X-4.749 Y-9.156
Y-9.093
X-4.75 Y-9.025
X-4.739 Y-8.963
X-4.724 Y-8.938
X-4.7 Y-8.918
X-4.667 Y-8.907
X-4.622 Y-8.904
X-4.677 Y-8.933
X-4.713 Y-8.959
X-4.73 Y-8.98
X-4.733 Y-8.998
X-4.723 Y-9.011
X-4.704 Y-9.021
X-4.647 Y-9.028
X-4.584 Y-9.018
X-4.536 Y-8.99
X-4.524 Y-8.97
Y-8.945
X-4.538 Y-8.916
X-4.57 Y-8.882
X-4.408 Y-8.817
X-4.273 Y-8.739
X-4.214 Y-8.689
X-4.161 Y-8.63
X-4.112 Y-8.559
X-4.067 Y-8.475
X-4.39 Y-8.061
X-4.703 Y-7.639
X-4.672 Y-6.728
X-4.653 Y-5.817
X-4.64 Y-3.993
X-4.256 Y-3.506
X-4.071 Y-3.258
X-3.894 Y-3.003
X-3.846 Y-2.962
X-3.809 Y-2.923
X-3.783 Y-2.888
X-3.767 Y-2.857
X-3.763 Y-2.804
X-3.789 Y-2.764
X-3.841 Y-2.737
X-3.912 Y-2.724
X-3.996 Y-2.723
X-4.086 Y-2.735
X-4.208 Y-2.767
X-4.325 Y-2.769
X-4.436 Y-2.747
X-4.541 Y-2.704
X-4.642 Y-2.646
X-4.739 Y-2.576
X-4.923 Y-2.421
X-5.108 Y-2.493
X-5.288 Y-2.576
X-5.643 Y-2.754
X-5.686 Y-2.77
X-5.725 Y-2.797
X-5.795 Y-2.877
X-5.915 Y-3.081
X-5.971 Y-3.171
X-6.028 Y-3.231
X-6.057 Y-3.244
X-6.089 Y-3.243
X-6.122 Y-3.225
X-6.157 Y-3.19
X-6.332 Y-3.154
X-6.508 Y-3.133
X-6.863 Y-3.117
X-7.22 Y-3.11
X-7.397 Y-3.1
X-7.573 Y-3.079
X-8.056 Y-2.751
X-8.533 Y-2.408
X-8.622 Y-2.336
X-8.717 Y-2.281
X-8.821 Y-2.252
X-8.877 Y-2.249
X-8.936 Y-2.256
X-9.149 Y-2.25
X-9.364 Y-2.253
X-9.469 Y-2.245
X-9.571 Y-2.225
X-9.668 Y-2.187
X-9.758 Y-2.126
X-9.883 Y-2.1
X-10.011 Y-2.086
X-10.274 Y-2.082
X-10.539 Y-2.089
X-10.8 Y-2.083
X-11.076 Y-2.08
X-11.214 Y-2.081
X-11.343 Y-2.102
X-11.405 Y-2.173
X-11.484 Y-2.245
X-11.649 Y-2.387
X-11.711 Y-2.459
X-11.742 Y-2.533
X-11.743 Y-2.57
X-11.732 Y-2.608
X-11.707 Y-2.646
X-11.667 Y-2.685
X-11.634 Y-2.774
X-11.583 Y-2.847
X-11.456 Y-2.971
X-11.394 Y-3.032
X-11.344 Y-3.102
X-11.312 Y-3.185
X-11.305 Y-3.288
X-11.318 Y-3.381
X-11.306 Y-3.464
X-11.276 Y-3.539
X-11.232 Y-3.609
X-11.123 Y-3.744
X-11.022 Y-3.891
X-10.971 Y-3.991
X-10.933 Y-4.095
X-10.882 Y-4.31
X-10.832 Y-4.527
X-10.795 Y-4.634
X-10.744 Y-4.739
X-10.745 Y-4.838
X-10.764 Y-4.933
X-10.833 Y-5.115
X-10.913 Y-5.287
X-10.945 Y-5.37
X-10.964 Y-5.452
X-11.026 Y-5.477
X-11.08 Y-5.508
X-11.165 Y-5.59
X-11.231 Y-5.69
X-11.286 Y-5.799
X-11.341 Y-5.91
X-11.406 Y-6.014
X-11.491 Y-6.103
X-11.543 Y-6.139
X-11.605 Y-6.168
X-11.662 Y-6.318
X-11.702 Y-6.472
X-11.739 Y-6.62
X-11.785 Y-6.752
X-11.722 Y-6.804
X-11.668 Y-6.871
X-11.573 Y-7.018
X-11.526 Y-7.082
X-11.476 Y-7.13
X-11.42 Y-7.154
X-11.354 Y-7.146
X-11.364 Y-7.089
X-11.353 Y-7.049
X-11.325 Y-7.02
X-11.283 Y-7
X-11.167 Y-6.97
X-11.029 Y-6.928
X-10.971 Y-6.973
X-10.93 Y-7.011
X-10.904 Y-7.042
X-10.891 Y-7.067
X-10.89 Y-7.088
X-10.9 Y-7.103
X-10.944 Y-7.125
X-11.013 Y-7.138
X-11.094 Y-7.147
X-11.175 Y-7.159
X-11.246 Y-7.18
X-11.243 Y-7.233
X-11.248 Y-7.27
X-11.26 Y-7.293
X-11.278 Y-7.305
X-11.328 Y-7.302
X-11.388 Y-7.276
X-11.451 Y-7.245
X-11.507 Y-7.225
X-11.549 Y-7.231
X-11.562 Y-7.248
X-11.567 Y-7.279
X-11.616 Y-7.316
X-11.65 Y-7.353
X-11.67 Y-7.391
X-11.678 Y-7.429
X-11.67 Y-7.505
X-11.644 Y-7.581
X-11.615 Y-7.655
X-11.603 Y-7.728
X-11.608 Y-7.763
X-11.624 Y-7.797
X-11.653 Y-7.83
X-11.696 Y-7.863
Z4
Z5
X-5.801 Y-12.566
Z4
Z-0.25 F150
X-5.969 Y-12.599 F300
X-6.143 Y-12.648
X-6.361 Y-12.731
X-6.585 Y-12.837
X-6.794 Y-12.955
X-6.885 Y-13.016
X-6.964 Y-13.074
X-7.021 Y-13.123
X-7.093 Y-13.189
X-7.26 Y-13.352
X-7.421 Y-13.518
X-7.486 Y-13.59
X-7.533 Y-13.646
X-7.652 Y-13.816
X-7.759 Y-14.007
X-7.853 Y-14.212
X-7.93 Y-14.426
X-7.99 Y-14.641
X-8.03 Y-14.851
X-8.048 Y-15.05
X-8.041 Y-15.232
X-8.007 Y-15.439
X-7.954 Y-15.619
X-7.879 Y-15.779
X-7.78 Y-15.923
X-7.742 Y-15.968
X-7.713 Y-16.001
X-7.689 Y-16.02
X-7.673 Y-16.027
X-7.661 Y-16.022
X-7.655 Y-16.004
X-7.652 Y-15.973
X-7.654 Y-15.93
Y-15.861
X-7.65 Y-15.765
X-7.642 Y-15.65
X-7.63 Y-15.525
X-7.601 Y-15.271
X-7.585 Y-15.16
X-7.569 Y-15.069
X-7.506 Y-14.831
X-7.417 Y-14.602
X-7.304 Y-14.384
X-7.168 Y-14.18
X-7.012 Y-13.993
X-6.837 Y-13.824
X-6.646 Y-13.676
X-6.439 Y-13.552
X-6.304 Y-13.491
X-6.16 Y-13.443
X-6.01 Y-13.409
X-5.852 Y-13.388
X-5.689 Y-13.381
X-5.521 Y-13.388
X-5.348 Y-13.409
X-5.171 Y-13.444
X-4.908 Y-13.525
X-4.662 Y-13.639
X-4.437 Y-13.784
X-4.233 Y-13.958
X-4.055 Y-14.159
X-3.902 Y-14.385
X-3.779 Y-14.634
X-3.686 Y-14.904
X-3.655 Y-15.018
X-3.631 Y-15.121
X-3.598 Y-15.304
X-3.583 Y-15.475
X-3.584 Y-15.656
X-3.599 Y-15.831
X-3.627 Y-15.995
X-3.67 Y-16.152
X-3.73 Y-16.304
X-3.807 Y-16.455
X-3.904 Y-16.608
X-4.022 Y-16.765
X-4.162 Y-16.929
X-4.241 Y-17.014
X-4.342 Y-17.111
X-4.464 Y-17.223
X-4.609 Y-17.351
X-4.779 Y-17.495
X-4.974 Y-17.657
X-5.197 Y-17.838
X-5.574 Y-18.14
X-5.685 Y-18.231
X-5.881 Y-18.4
X-5.977 Y-18.488
X-6.078 Y-18.584
X-6.19 Y-18.694
X-6.318 Y-18.822
X-6.397 Y-18.902
X-6.469 Y-18.974
X-6.591 Y-19.101
X-6.691 Y-19.209
X-6.774 Y-19.305
X-6.911 Y-19.486
X-6.975 Y-19.584
X-7.043 Y-19.695
X-7.086 Y-19.771
X-7.137 Y-19.868
X-7.251 Y-20.093
X-7.356 Y-20.315
X-7.397 Y-20.408
X-7.425 Y-20.478
X-7.457 Y-20.581
X-7.489 Y-20.713
X-7.519 Y-20.864
X-7.546 Y-21.028
X-7.588 Y-21.361
X-7.6 Y-21.515
X-7.604 Y-21.649
X-7.603 Y-21.705
X-7.602 Y-21.751
X-7.6 Y-21.78
X-7.598 Y-21.789
X-7.589 Y-21.773
X-7.571 Y-21.735
X-7.547 Y-21.681
X-7.517 Y-21.615
X-7.44 Y-21.452
X-7.349 Y-21.284
X-7.239 Y-21.099
X-7.175 Y-20.998
X-7.104 Y-20.889
X-6.99 Y-20.719
X-6.884 Y-20.57
X-6.783 Y-20.437
X-6.682 Y-20.315
X-6.464 Y-20.084
X-6.339 Y-19.966
X-6.196 Y-19.839
X-6.09 Y-19.746
X-6.004 Y-19.671
X-5.983 Y-19.654
X-5.951 Y-19.629
X-5.859 Y-19.56
X-5.74 Y-19.476
X-5.609 Y-19.384
X-5.084 Y-19.021
X-4.984 Y-18.953
X-4.862 Y-18.87
X-4.733 Y-18.783
X-4.611 Y-18.702
X-4.385 Y-18.545
X-4.185 Y-18.389
X-3.989 Y-18.216
X-3.887 Y-18.117
X-3.777 Y-18.008
X-3.664 Y-17.892
X-3.561 Y-17.782
X-3.379 Y-17.578
X-3.226 Y-17.387
X-3.096 Y-17.201
X-2.985 Y-17.01
X-2.885 Y-16.807
X-2.793 Y-16.581
X-2.701 Y-16.326
X-2.656 Y-16.17
X-2.622 Y-16
X-2.599 Y-15.82
X-2.587 Y-15.633
X-2.585 Y-15.441
X-2.595 Y-15.248
X-2.617 Y-15.056
X-2.649 Y-14.869
X-2.679 Y-14.749
X-2.722 Y-14.614
X-2.836 Y-14.318
X-2.973 Y-14.023
X-3.046 Y-13.889
X-3.117 Y-13.77
X-3.245 Y-13.592
X-3.39 Y-13.422
X-3.551 Y-13.262
X-3.724 Y-13.115
X-3.909 Y-12.983
X-4.101 Y-12.866
X-4.298 Y-12.769
X-4.498 Y-12.691
X-4.724 Y-12.626
X-4.948 Y-12.58
X-5.179 Y-12.553
X-5.425 Y-12.544
X-5.624 Y-12.549
X-5.801 Y-12.566
Z4
Z5
X-8.316 Y-14.863
Z4
Z-0.25 F150
X-8.365 Y-14.778 F300
X-8.411 Y-14.701
X-8.45 Y-14.645
X-8.495 Y-14.591
X-8.562 Y-14.521
X-8.708 Y-14.392
X-8.876 Y-14.288
X-9.072 Y-14.206
X-9.3 Y-14.143
X-9.379 Y-14.128
X-9.467 Y-14.118
X-9.662 Y-14.108
X-9.861 Y-14.113
X-10.043 Y-14.134
X-10.178 Y-14.163
X-10.314 Y-14.205
X-10.45 Y-14.258
X-10.584 Y-14.322
X-10.715 Y-14.395
X-10.842 Y-14.478
X-10.963 Y-14.57
X-11.078 Y-14.67
X-11.17 Y-14.767
X-11.261 Y-14.882
X-11.349 Y-15.012
X-11.431 Y-15.152
X-11.505 Y-15.298
X-11.569 Y-15.447
X-11.62 Y-15.594
X-11.658 Y-15.735
X-11.672 Y-15.82
X-11.682 Y-15.922
X-11.69 Y-16.159
X-11.682 Y-16.402
X-11.672 Y-16.513
X-11.658 Y-16.61
X-11.634 Y-16.735
X-11.609 Y-16.843
X-11.55 Y-17.027
X-11.467 Y-17.199
X-11.411 Y-17.293
X-11.343 Y-17.398
X-11.248 Y-17.534
X-11.153 Y-17.656
X-11.054 Y-17.768
X-10.946 Y-17.874
X-10.825 Y-17.978
X-10.687 Y-18.083
X-10.528 Y-18.194
X-10.343 Y-18.314
X-10.144 Y-18.441
X-10.01 Y-18.526
X-9.963 Y-18.556
X-9.9 Y-18.597
X-9.757 Y-18.687
X-9.57 Y-18.805
X-9.407 Y-18.908
X-9.265 Y-18.999
X-9.144 Y-19.078
X-9.042 Y-19.146
X-8.958 Y-19.205
X-8.889 Y-19.254
X-8.835 Y-19.296
X-8.705 Y-19.403
X-8.588 Y-19.508
X-8.484 Y-19.611
X-8.39 Y-19.712
X-8.308 Y-19.813
X-8.235 Y-19.914
X-8.118 Y-20.119
X-8.057 Y-20.261
X-8.015 Y-20.387
X-7.99 Y-20.515
X-7.976 Y-20.66
X-7.967 Y-20.834
X-7.935 Y-20.771
X-7.918 Y-20.736
X-7.898 Y-20.687
X-7.855 Y-20.571
X-7.829 Y-20.49
X-7.814 Y-20.414
X-7.808 Y-20.318
X-7.807 Y-20.253
Y-20.171
Y-20.093
X-7.808 Y-20.028
X-7.815 Y-19.925
X-7.829 Y-19.837
X-7.854 Y-19.739
X-7.894 Y-19.611
X-7.943 Y-19.489
X-8.002 Y-19.372
X-8.075 Y-19.256
X-8.162 Y-19.138
X-8.266 Y-19.015
X-8.389 Y-18.884
X-8.533 Y-18.742
X-8.73 Y-18.56
X-8.836 Y-18.466
X-8.957 Y-18.365
X-9.097 Y-18.25
X-9.263 Y-18.116
X-9.358 Y-18.041
X-9.574 Y-17.87
X-9.697 Y-17.774
X-9.802 Y-17.689
X-9.912 Y-17.594
X-10.134 Y-17.392
X-10.334 Y-17.192
X-10.417 Y-17.102
X-10.485 Y-17.023
X-10.584 Y-16.882
X-10.67 Y-16.729
X-10.738 Y-16.574
X-10.782 Y-16.428
X-10.793 Y-16.36
X-10.8 Y-16.28
X-10.803 Y-16.103
X-10.79 Y-15.927
X-10.778 Y-15.847
X-10.763 Y-15.779
X-10.717 Y-15.646
X-10.649 Y-15.496
X-10.57 Y-15.349
X-10.492 Y-15.227
X-10.401 Y-15.115
X-10.299 Y-15.009
X-10.188 Y-14.912
X-10.069 Y-14.823
X-9.945 Y-14.744
X-9.817 Y-14.676
X-9.686 Y-14.62
X-9.554 Y-14.578
X-9.403 Y-14.549
X-9.318 Y-14.542
X-9.223 Y-14.538
X-9.009 Y-14.55
X-8.812 Y-14.593
X-8.624 Y-14.668
X-8.437 Y-14.78
X-8.316 Y-14.863
Z4
Z5
X-44.655 Y-12.622
Z4
Z-0.25 F150
Y-12.378 F300
X-44.695 Y-12.138
X-44.772 Y-11.907
X-44.885 Y-11.691
X-45.031 Y-11.496
X-45.207 Y-11.327
X-45.408 Y-11.189
X-45.628 Y-11.085
X-45.862 Y-11.017
X-46.104 Y-10.987
X-46.347 Y-10.997
X-46.586 Y-11.046
X-46.813 Y-11.132
X-47.025 Y-11.254
X-47.213 Y-11.408
X-47.375 Y-11.59
X-47.505 Y-11.797
X-47.6 Y-12.021
X-47.659 Y-12.257
X-47.678 Y-12.5
X-47.659 Y-12.743
X-47.6 Y-12.979
X-47.505 Y-13.203
X-47.375 Y-13.41
X-47.213 Y-13.592
X-47.025 Y-13.746
X-46.813 Y-13.868
X-46.586 Y-13.954
X-46.347 Y-14.003
X-46.104 Y-14.013
X-45.862 Y-13.983
X-45.628 Y-13.915
X-45.408 Y-13.811
X-45.207 Y-13.673
X-45.031 Y-13.504
X-44.885 Y-13.309
X-44.772 Y-13.093
X-44.695 Y-12.862
X-44.655 Y-12.622
Z4
Z5
X-37.377 Y-14.988
Z4
Z-0.5 F150
X-34.877 Y-14.987 F300
X-34.346 Y-12.487
X-35.774
X-36.003 Y-13.559
X-37.074
X-37.249 Y-13.492
X-37.406 Y-13.416
X-37.473 Y-13.37
X-37.53 Y-13.319
X-37.574 Y-13.26
X-37.605 Y-13.194
X-37.624 Y-13.12
X-37.634 Y-13.041
X-37.629 Y-12.868
X-37.6 Y-12.681
X-37.56 Y-12.488
X-37.511 Y-12.286
X-37.453 Y-12.093
X-37.38 Y-11.915
X-37.283 Y-11.761
X-37.222 Y-11.695
X-37.153 Y-11.638
X-36.993 Y-11.546
X-36.811 Y-11.476
X-36.618 Y-11.416
X-34.832 Y-11.415
X-33.814 Y-9.987
X-36.314
X-36.831 Y-10.094
X-37.082 Y-10.156
X-37.324 Y-10.229
X-37.554 Y-10.315
X-37.768 Y-10.418
X-37.964 Y-10.542
X-38.139 Y-10.69
X-38.292 Y-10.861
X-38.427 Y-11.054
X-38.545 Y-11.266
X-38.65 Y-11.492
X-38.744 Y-11.73
X-38.83 Y-11.978
X-38.989 Y-12.488
X-39.051 Y-12.989
X-39.073 Y-13.233
X-39.082 Y-13.468
X-39.075 Y-13.691
X-39.048 Y-13.901
X-38.998 Y-14.093
X-38.919 Y-14.265
X-38.868 Y-14.342
X-38.808 Y-14.414
X-38.665 Y-14.539
X-38.493 Y-14.645
X-38.298 Y-14.734
X-38.084 Y-14.809
X-37.857 Y-14.874
X-37.377 Y-14.988
Z4
Z5
X-34.195 Y-14.987
Z4
Z-0.5 F150
X-32.767 Y-14.986 F300
X-32.31 Y-12.844
X-31.249 Y-14.986
X-29.463
X-30.367 Y-13.365
X-30.15 Y-13.221
X-29.943 Y-13.069
X-29.757 Y-12.903
X-29.674 Y-12.812
X-29.6 Y-12.715
X-29.476 Y-12.502
X-29.379 Y-12.269
X-29.299 Y-12.023
X-29.228 Y-11.771
X-29.203 Y-11.388
X-29.198 Y-11.203
X-29.203 Y-11.025
X-29.22 Y-10.858
X-29.254 Y-10.703
X-29.306 Y-10.563
X-29.381 Y-10.441
X-29.481 Y-10.339
X-29.603 Y-10.255
X-29.745 Y-10.186
X-29.903 Y-10.131
X-30.074 Y-10.085
X-30.254 Y-10.048
X-30.632 Y-9.986
X-33.132 Y-9.987
X-33.435 Y-11.415
X-30.935
X-30.79 Y-11.444
X-30.73 Y-11.469
X-30.686 Y-11.506
X-30.66 Y-11.558
X-30.651 Y-11.623
X-30.657 Y-11.772
X-30.715 Y-11.921
X-30.753 Y-11.986
X-30.801 Y-12.038
X-30.861 Y-12.075
X-30.931 Y-12.1
X-31.089 Y-12.129
X-33.589 Y-12.13
X-34.195 Y-14.987
Z4
Z5
X-28.64 Y-13.736
Z4
Z-0.5 F150
X-29.352 Y-14.986 F300
X-27.835 Y-14.985
X-26.264 Y-12.217
X-25.87 Y-14.985
X-24.352 Y-14.984
X-25.075 Y-9.985
X-26.504
X-28.64 Y-13.736
Z4
Z5
X-24.11 Y-13.412
Z4
Z-0.5 F150
X-24.049 Y-13.629 F300
X-23.958 Y-13.84
X-23.847 Y-14.047
X-23.726 Y-14.252
X-23.558 Y-14.416
X-23.385 Y-14.57
X-23.204 Y-14.705
X-23.009 Y-14.813
X-22.8 Y-14.886
X-22.578 Y-14.934
X-22.113 Y-14.984
X-20.685
X-19.667 Y-13.555
X-21.81
X-22.009 Y-13.534
X-22.104 Y-13.513
X-22.194 Y-13.481
X-22.277 Y-13.436
X-22.355 Y-13.377
X-22.501 Y-13.241
X-22.601 Y-13.065
X-22.64 Y-12.974
X-22.666 Y-12.881
X-22.677 Y-12.785
X-22.676 Y-12.686
X-22.653 Y-12.484
X-22.58 Y-12.266
X-22.536 Y-12.162
X-22.482 Y-12.064
X-22.417 Y-11.973
X-22.342 Y-11.888
X-22.178 Y-11.727
X-21.991 Y-11.598
X-21.894 Y-11.542
X-21.793 Y-11.496
X-21.688 Y-11.462
X-21.579 Y-11.44
X-21.353 Y-11.412
X-19.925
X-18.907 Y-9.983
X-21.05 Y-9.984
X-21.576 Y-10.047
X-21.831 Y-10.1
X-22.077 Y-10.178
X-22.312 Y-10.285
X-22.538 Y-10.415
X-22.975 Y-10.716
X-23.358 Y-11.093
X-23.531 Y-11.292
X-23.683 Y-11.504
X-23.809 Y-11.733
X-23.912 Y-11.976
X-24.082 Y-12.484
X-24.133 Y-12.956
X-24.135 Y-13.187
X-24.11 Y-13.412
Z4
Z5
X-19.338 Y-13.555
Z4
Z-0.5 F150
X-19.642 Y-14.983 F300
X-16.427
X-15.41 Y-13.554
X-19.338 Y-13.555
Z4
Z5
X-19.264 Y-13.198
Z4
Z-0.5 F150
X-16.049 Y-13.197 F300
X-15.032 Y-11.768
X-18.96 Y-11.769
X-19.264 Y-13.198
Z4
Z5
X-18.882 Y-11.412
Z4
Z-0.5 F150
X-15.668 Y-11.411 F300
X-14.65 Y-9.982
X-18.579 Y-9.983
X-18.882 Y-11.412
Z4
Z5
X-11.696 Y-7.863
Z4
Z-0.5 F150
X-10.974 Y-8.255 F300
X-10.256 Y-8.657
X-9.965 Y-8.81
X-9.684 Y-8.98
X-9.405 Y-9.153
X-9.12 Y-9.315
X-8.978 Y-9.402
X-8.823 Y-9.478
X-8.503 Y-9.625
X-8.351 Y-9.706
X-8.213 Y-9.8
X-8.096 Y-9.914
X-8.048 Y-9.98
X-8.008 Y-10.053
X-8.073 Y-10.115
X-8.103 Y-10.172
X-8.107 Y-10.224
X-8.09 Y-10.275
X-8.02 Y-10.376
X-7.944 Y-10.488
X-7.245 Y-10.988
X-6.896 Y-11.237
X-6.539 Y-11.472
X-6.521 Y-11.504
X-6.504 Y-11.516
X-6.489 Y-11.513
X-6.474 Y-11.5
X-6.444 Y-11.461
X-6.411 Y-11.434
X-6.368 Y-11.472
X-6.331 Y-11.489
X-6.3 Y-11.487
X-6.272 Y-11.47
X-6.219 Y-11.403
X-6.16 Y-11.311
X-6.028 Y-11.051
X-5.885 Y-10.798
X-5.821 Y-10.669
X-5.77 Y-10.536
X-5.734 Y-10.397
X-5.72 Y-10.25
X-5.606 Y-10.033
X-5.487 Y-9.802
X-5.424 Y-9.693
X-5.357 Y-9.597
X-5.285 Y-9.516
X-5.209 Y-9.457
X-5.162 Y-9.459
X-5.107 Y-9.449
X-5.048 Y-9.427
X-4.992 Y-9.396
X-4.943 Y-9.356
X-4.906 Y-9.308
X-4.886 Y-9.254
X-4.889 Y-9.195
X-4.841 Y-9.213
X-4.805 Y-9.219
X-4.78 Y-9.215
X-4.763 Y-9.202
X-4.749 Y-9.156
Y-9.093
X-4.75 Y-9.025
X-4.739 Y-8.963
X-4.724 Y-8.938
X-4.7 Y-8.918
X-4.667 Y-8.907
X-4.622 Y-8.904
X-4.677 Y-8.933
X-4.713 Y-8.959
X-4.73 Y-8.98
X-4.733 Y-8.998
X-4.723 Y-9.011
X-4.704 Y-9.021
X-4.647 Y-9.028
X-4.584 Y-9.018
X-4.536 Y-8.99
X-4.524 Y-8.97
Y-8.945
X-4.538 Y-8.916
X-4.57 Y-8.882
X-4.408 Y-8.817
X-4.273 Y-8.739
X-4.214 Y-8.689
X-4.161 Y-8.63
X-4.112 Y-8.559
X-4.067 Y-8.475
X-4.39 Y-8.061
X-4.703 Y-7.639
X-4.672 Y-6.728
X-4.653 Y-5.817
X-4.64 Y-3.993
X-4.256 Y-3.506
X-4.071 Y-3.258
X-3.894 Y-3.003
X-3.846 Y-2.962
X-3.809 Y-2.923
X-3.783 Y-2.888
X-3.767 Y-2.857
X-3.763 Y-2.804
X-3.789 Y-2.764
X-3.841 Y-2.737
X-3.912 Y-2.724
X-3.996 Y-2.723
X-4.086 Y-2.735
X-4.208 Y-2.767
X-4.325 Y-2.769
X-4.436 Y-2.747
X-4.541 Y-2.704
X-4.642 Y-2.646
X-4.739 Y-2.576
X-4.923 Y-2.421
X-5.108 Y-2.493
X-5.288 Y-2.576
X-5.643 Y-2.754
X-5.686 Y-2.77
X-5.725 Y-2.797
X-5.795 Y-2.877
X-5.915 Y-3.081
X-5.971 Y-3.171
X-6.028 Y-3.231
X-6.057 Y-3.244
X-6.089 Y-3.243
X-6.122 Y-3.225
X-6.157 Y-3.19
X-6.332 Y-3.154
X-6.508 Y-3.133
X-6.863 Y-3.117
X-7.22 Y-3.11
X-7.397 Y-3.1
X-7.573 Y-3.079
X-8.056 Y-2.751
X-8.533 Y-2.408
X-8.622 Y-2.336
X-8.717 Y-2.281
X-8.821 Y-2.252
X-8.877 Y-2.249
X-8.936 Y-2.256
X-9.149 Y-2.25
X-9.364 Y-2.253
X-9.469 Y-2.245
X-9.571 Y-2.225
X-9.668 Y-2.187
X-9.758 Y-2.126
X-9.883 Y-2.1
X-10.011 Y-2.086
X-10.274 Y-2.082
X-10.539 Y-2.089
X-10.8 Y-2.083
X-11.076 Y-2.08
X-11.214 Y-2.081
X-11.343 Y-2.102
X-11.405 Y-2.173
X-11.484 Y-2.245
X-11.649 Y-2.387
X-11.711 Y-2.459
X-11.742 Y-2.533
X-11.743 Y-2.57
X-11.732 Y-2.608
X-11.707 Y-2.646
X-11.667 Y-2.685
X-11.634 Y-2.774
X-11.583 Y-2.847
X-11.456 Y-2.971
X-11.394 Y-3.032
X-11.344 Y-3.102
X-11.312 Y-3.185
X-11.305 Y-3.288
X-11.318 Y-3.381
X-11.306 Y-3.464
X-11.276 Y-3.539
X-11.232 Y-3.609
X-11.123 Y-3.744
X-11.022 Y-3.891
X-10.971 Y-3.991
X-10.933 Y-4.095
X-10.882 Y-4.31
X-10.832 Y-4.527
X-10.795 Y-4.634
X-10.744 Y-4.739
X-10.745 Y-4.838
X-10.764 Y-4.933
X-10.833 Y-5.115
X-10.913 Y-5.287
X-10.945 Y-5.37
X-10.964 Y-5.452
X-11.026 Y-5.477
X-11.08 Y-5.508
X-11.165 Y-5.59
X-11.231 Y-5.69
X-11.286 Y-5.799
X-11.341 Y-5.91
X-11.406 Y-6.014
X-11.491 Y-6.103
X-11.543 Y-6.139
X-11.605 Y-6.168
X-11.662 Y-6.318
X-11.702 Y-6.472
X-11.739 Y-6.62
X-11.785 Y-6.752
X-11.722 Y-6.804
X-11.668 Y-6.871
X-11.573 Y-7.018
X-11.526 Y-7.082
X-11.476 Y-7.13
X-11.42 Y-7.154
X-11.354 Y-7.146
X-11.364 Y-7.089
X-11.353 Y-7.049
X-11.325 Y-7.02
X-11.283 Y-7
X-11.167 Y-6.97
X-11.029 Y-6.928
X-10.971 Y-6.973
X-10.93 Y-7.011
X-10.904 Y-7.042
X-10.891 Y-7.067
X-10.89 Y-7.088
X-10.9 Y-7.103
X-10.944 Y-7.125
X-11.013 Y-7.138
X-11.094 Y-7.147
X-11.175 Y-7.159
X-11.246 Y-7.18
X-11.243 Y-7.233
X-11.248 Y-7.27
X-11.26 Y-7.293
X-11.278 Y-7.305
X-11.328 Y-7.302
X-11.388 Y-7.276
X-11.451 Y-7.245
X-11.507 Y-7.225
X-11.549 Y-7.231
X-11.562 Y-7.248
X-11.567 Y-7.279
X-11.616 Y-7.316
X-11.65 Y-7.353
X-11.67 Y-7.391
X-11.678 Y-7.429
X-11.67 Y-7.505
X-11.644 Y-7.581
X-11.615 Y-7.655
X-11.603 Y-7.728
X-11.608 Y-7.763
X-11.624 Y-7.797
X-11.653 Y-7.83
X-11.696 Y-7.863
Z4
Z5
X-5.801 Y-12.566
Z4
Z-0.5 F150
X-5.969 Y-12.599 F300
X-6.143 Y-12.648
X-6.361 Y-12.731
X-6.585 Y-12.837
X-6.794 Y-12.955
X-6.885 Y-13.016
X-6.964 Y-13.074
X-7.021 Y-13.123
X-7.093 Y-13.189
X-7.26 Y-13.352
X-7.421 Y-13.518
X-7.486 Y-13.59
X-7.533 Y-13.646
X-7.652 Y-13.816
X-7.759 Y-14.007
X-7.853 Y-14.212
X-7.93 Y-14.426
X-7.99 Y-14.641
X-8.03 Y-14.851
X-8.048 Y-15.05
X-8.041 Y-15.232
X-8.007 Y-15.439
X-7.954 Y-15.619
X-7.879 Y-15.779
X-7.78 Y-15.923
X-7.742 Y-15.968
X-7.713 Y-16.001
X-7.689 Y-16.02
X-7.673 Y-16.027
X-7.661 Y-16.022
X-7.655 Y-16.004
X-7.652 Y-15.973
X-7.654 Y-15.93
Y-15.861
X-7.65 Y-15.765
X-7.642 Y-15.65
X-7.63 Y-15.525
X-7.601 Y-15.271
X-7.585 Y-15.16
X-7.569 Y-15.069
X-7.506 Y-14.831
X-7.417 Y-14.602
X-7.304 Y-14.384
X-7.168 Y-14.18
X-7.012 Y-13.993
X-6.837 Y-13.824
X-6.646 Y-13.676
X-6.439 Y-13.552
X-6.304 Y-13.491
X-6.16 Y-13.443
X-6.01 Y-13.409
X-5.852 Y-13.388
X-5.689 Y-13.381
X-5.521 Y-13.388
X-5.348 Y-13.409
X-5.171 Y-13.444
X-4.908 Y-13.525
X-4.662 Y-13.639
X-4.437 Y-13.784
X-4.233 Y-13.958
X-4.055 Y-14.159
X-3.902 Y-14.385
X-3.779 Y-14.634
X-3.686 Y-14.904
X-3.655 Y-15.018
X-3.631 Y-15.121
X-3.598 Y-15.304
X-3.583 Y-15.475
X-3.584 Y-15.656
X-3.599 Y-15.831
X-3.627 Y-15.995
X-3.67 Y-16.152
X-3.73 Y-16.304
X-3.807 Y-16.455
X-3.904 Y-16.608
X-4.022 Y-16.765
X-4.162 Y-16.929
X-4.241 Y-17.014
X-4.342 Y-17.111
X-4.464 Y-17.223
X-4.609 Y-17.351
X-4.779 Y-17.495
X-4.974 Y-17.657
X-5.197 Y-17.838
X-5.574 Y-18.14
X-5.685 Y-18.231
X-5.881 Y-18.4
X-5.977 Y-18.488
X-6.078 Y-18.584
X-6.19 Y-18.694
X-6.318 Y-18.822
X-6.397 Y-18.902
X-6.469 Y-18.974
X-6.591 Y-19.101
X-6.691 Y-19.209
X-6.774 Y-19.305
X-6.911 Y-19.486
X-6.975 Y-19.584
X-7.043 Y-19.695
X-7.086 Y-19.771
X-7.137 Y-19.868
X-7.251 Y-20.093
X-7.356 Y-20.315
X-7.397 Y-20.408
X-7.425 Y-20.478
X-7.457 Y-20.581
X-7.489 Y-20.713
X-7.519 Y-20.864
X-7.546 Y-21.028
X-7.588 Y-21.361
X-7.6 Y-21.515
X-7.604 Y-21.649
X-7.603 Y-21.705
X-7.602 Y-21.751
X-7.6 Y-21.78
X-7.598 Y-21.789
X-7.589 Y-21.773
X-7.571 Y-21.735
X-7.547 Y-21.681
X-7.517 Y-21.615
X-7.44 Y-21.452
X-7.349 Y-21.284
X-7.239 Y-21.099
X-7.175 Y-20.998
X-7.104 Y-20.889
X-6.99 Y-20.719
X-6.884 Y-20.57
X-6.783 Y-20.437
X-6.682 Y-20.315
X-6.464 Y-20.084
X-6.339 Y-19.966
X-6.196 Y-19.839
X-6.09 Y-19.746
X-6.004 Y-19.671
X-5.983 Y-19.654
X-5.951 Y-19.629
X-5.859 Y-19.56
X-5.74 Y-19.476
X-5.609 Y-19.384
X-5.084 Y-19.021
X-4.984 Y-18.953
X-4.862 Y-18.87
X-4.733 Y-18.783
X-4.611 Y-18.702
X-4.385 Y-18.545
X-4.185 Y-18.389
X-3.989 Y-18.216
X-3.887 Y-18.117
X-3.777 Y-18.008
X-3.664 Y-17.892
X-3.561 Y-17.782
X-3.379 Y-17.578
X-3.226 Y-17.387
X-3.096 Y-17.201
X-2.985 Y-17.01
X-2.885 Y-16.807
X-2.793 Y-16.581
X-2.701 Y-16.326
X-2.656 Y-16.17
X-2.622 Y-16
X-2.599 Y-15.82
X-2.587 Y-15.633
X-2.585 Y-15.441
X-2.595 Y-15.248
X-2.617 Y-15.056
X-2.649 Y-14.869
X-2.679 Y-14.749
X-2.722 Y-14.614
X-2.836 Y-14.318
X-2.973 Y-14.023
X-3.046 Y-13.889
X-3.117 Y-13.77
X-3.245 Y-13.592
X-3.39 Y-13.422
X-3.551 Y-13.262
X-3.724 Y-13.115
X-3.909 Y-12.983
X-4.101 Y-12.866
X-4.298 Y-12.769
X-4.498 Y-12.691
X-4.724 Y-12.626
X-4.948 Y-12.58
X-5.179 Y-12.553
X-5.425 Y-12.544
X-5.624 Y-12.549
X-5.801 Y-12.566
Z4
Z5
X-8.316 Y-14.863
Z4
Z-0.5 F150
X-8.365 Y-14.778 F300
X-8.411 Y-14.701
X-8.45 Y-14.645
X-8.495 Y-14.591
X-8.562 Y-14.521
X-8.708 Y-14.392
X-8.876 Y-14.288
X-9.072 Y-14.206
X-9.3 Y-14.143
X-9.379 Y-14.128
X-9.467 Y-14.118
X-9.662 Y-14.108
X-9.861 Y-14.113
X-10.043 Y-14.134
X-10.178 Y-14.163
X-10.314 Y-14.205
X-10.45 Y-14.258
X-10.584 Y-14.322
X-10.715 Y-14.395
X-10.842 Y-14.478
X-10.963 Y-14.57
X-11.078 Y-14.67
X-11.17 Y-14.767
X-11.261 Y-14.882
X-11.349 Y-15.012
X-11.431 Y-15.152
X-11.505 Y-15.298
X-11.569 Y-15.447
X-11.62 Y-15.594
X-11.658 Y-15.735
X-11.672 Y-15.82
X-11.682 Y-15.922
X-11.69 Y-16.159
X-11.682 Y-16.402
X-11.672 Y-16.513
X-11.658 Y-16.61
X-11.634 Y-16.735
X-11.609 Y-16.843
X-11.55 Y-17.027
X-11.467 Y-17.199
X-11.411 Y-17.293
X-11.343 Y-17.398
X-11.248 Y-17.534
X-11.153 Y-17.656
X-11.054 Y-17.768
X-10.946 Y-17.874
X-10.825 Y-17.978
X-10.687 Y-18.083
X-10.528 Y-18.194
X-10.343 Y-18.314
X-10.144 Y-18.441
X-10.01 Y-18.526
X-9.963 Y-18.556
X-9.9 Y-18.597
X-9.757 Y-18.687
X-9.57 Y-18.805
X-9.407 Y-18.908
X-9.265 Y-18.999
X-9.144 Y-19.078
X-9.042 Y-19.146
X-8.958 Y-19.205
X-8.889 Y-19.254
X-8.835 Y-19.296
X-8.705 Y-19.403
X-8.588 Y-19.508
X-8.484 Y-19.611
X-8.39 Y-19.712
X-8.308 Y-19.813
X-8.235 Y-19.914
X-8.118 Y-20.119
X-8.057 Y-20.261
X-8.015 Y-20.387
X-7.99 Y-20.515
X-7.976 Y-20.66
X-7.967 Y-20.834
X-7.935 Y-20.771
X-7.918 Y-20.736
X-7.898 Y-20.687
X-7.855 Y-20.571
X-7.829 Y-20.49
X-7.814 Y-20.414
X-7.808 Y-20.318
X-7.807 Y-20.253
Y-20.171
Y-20.093
X-7.808 Y-20.028
X-7.815 Y-19.925
X-7.829 Y-19.837
X-7.854 Y-19.739
X-7.894 Y-19.611
X-7.943 Y-19.489
X-8.002 Y-19.372
X-8.075 Y-19.256
X-8.162 Y-19.138
X-8.266 Y-19.015
X-8.389 Y-18.884
X-8.533 Y-18.742
X-8.73 Y-18.56
X-8.836 Y-18.466
X-8.957 Y-18.365
X-9.097 Y-18.25
X-9.263 Y-18.116
X-9.358 Y-18.041
X-9.574 Y-17.87
X-9.697 Y-17.774
X-9.802 Y-17.689
X-9.912 Y-17.594
X-10.134 Y-17.392
X-10.334 Y-17.192
X-10.417 Y-17.102
X-10.485 Y-17.023
X-10.584 Y-16.882
X-10.67 Y-16.729
X-10.738 Y-16.574
X-10.782 Y-16.428
X-10.793 Y-16.36
X-10.8 Y-16.28
X-10.803 Y-16.103
X-10.79 Y-15.927
X-10.778 Y-15.847
X-10.763 Y-15.779
X-10.717 Y-15.646
X-10.649 Y-15.496
X-10.57 Y-15.349
X-10.492 Y-15.227
X-10.401 Y-15.115
X-10.299 Y-15.009
X-10.188 Y-14.912
X-10.069 Y-14.823
X-9.945 Y-14.744
X-9.817 Y-14.676
X-9.686 Y-14.62
X-9.554 Y-14.578
X-9.403 Y-14.549
X-9.318 Y-14.542
X-9.223 Y-14.538
X-9.009 Y-14.55
X-8.812 Y-14.593
X-8.624 Y-14.668
X-8.437 Y-14.78
X-8.316 Y-14.863
Z4
Z5
X-44.655 Y-12.622
Z4
Z-0.5 F150
Y-12.378 F300
X-44.695 Y-12.138
X-44.772 Y-11.907
X-44.885 Y-11.691
X-45.031 Y-11.496
X-45.207 Y-11.327
X-45.408 Y-11.189
X-45.628 Y-11.085
X-45.862 Y-11.017
X-46.104 Y-10.987
X-46.347 Y-10.997
X-46.586 Y-11.046
X-46.813 Y-11.132
X-47.025 Y-11.254
X-47.213 Y-11.408
X-47.375 Y-11.59
X-47.505 Y-11.797
X-47.6 Y-12.021
X-47.659 Y-12.257
X-47.678 Y-12.5
X-47.659 Y-12.743
X-47.6 Y-12.979
X-47.505 Y-13.203
X-47.375 Y-13.41
X-47.213 Y-13.592
X-47.025 Y-13.746
X-46.813 Y-13.868
X-46.586 Y-13.954
X-46.347 Y-14.003
X-46.104 Y-14.013
X-45.862 Y-13.983
X-45.628 Y-13.915
X-45.408 Y-13.811
X-45.207 Y-13.673
X-45.031 Y-13.504
X-44.885 Y-13.309
X-44.772 Y-13.093
X-44.695 Y-12.862
X-44.655 Y-12.622
Z4
Z15
(When using Fusion 360 for Personal Use, the feedrate of)
(rapid moves is reduced to match the feedrate of cutting)
(moves, which can increase machining time. Unrestricted rapid)
(moves are available with a Fusion 360 Subscription.)

(Trace3)
G0 X-6.528 Y-25
G1 Z15 F300
Z4
Z0.7 F150
X-36.492 F300
X-36.946 Y-24.983
X-37.397 Y-24.931
X-37.843 Y-24.846
X-38.282 Y-24.727
X-38.71 Y-24.575
X-39.125 Y-24.391
X-39.526 Y-24.177
X-39.908 Y-23.933
X-40.272 Y-23.66
X-40.613 Y-23.361
X-40.931 Y-23.037
X-41.224 Y-22.689
X-44.692 Y-19.678
X-45.208 Y-19.499
X-45.71 Y-19.283
X-46.195 Y-19.031
X-46.66 Y-18.745
X-47.103 Y-18.425
X-47.521 Y-18.074
X-47.913 Y-17.694
X-48.277 Y-17.286
X-48.609 Y-16.853
X-48.91 Y-16.397
X-49.176 Y-15.92
X-49.407 Y-15.425
X-49.601 Y-14.915
X-49.758 Y-14.392
X-49.876 Y-13.858
X-49.955 Y-13.318
X-49.995 Y-12.773
Y-12.227
X-49.955 Y-11.682
X-49.876 Y-11.142
X-49.758 Y-10.608
X-49.601 Y-10.085
X-49.407 Y-9.575
X-49.176 Y-9.08
X-48.91 Y-8.603
X-48.609 Y-8.147
X-48.277 Y-7.714
X-47.913 Y-7.306
X-47.521 Y-6.925
X-47.103 Y-6.575
X-46.66 Y-6.255
X-46.195 Y-5.969
X-45.71 Y-5.717
X-45.208 Y-5.501
X-44.692 Y-5.322
X-41.224 Y-2.311
X-40.931 Y-1.963
X-40.613 Y-1.639
X-40.272 Y-1.34
X-39.908 Y-1.067
X-39.526 Y-0.823
X-39.125 Y-0.609
X-38.71 Y-0.425
X-38.282 Y-0.273
X-37.843 Y-0.154
X-37.397 Y-0.069
X-36.946 Y-0.017
X-36.492 Y0
X-6.528
X-6.057 Y-0.018
X-5.589 Y-0.074
X-5.127 Y-0.166
X-4.674 Y-0.294
X-4.232 Y-0.457
X-3.804 Y-0.654
X-3.393 Y-0.884
X-3.001 Y-1.146
X-2.631 Y-1.438
X-2.285 Y-1.757
X-1.965 Y-2.103
X-1.674 Y-2.473
X-1.412 Y-2.865
X-1.182 Y-3.276
X-0.985 Y-3.704
X-0.822 Y-4.146
X-0.694 Y-4.599
X-0.602 Y-5.061
X-0.546 Y-5.529
X-0.528 Y-6
Y-19
X-0.546 Y-19.471
X-0.602 Y-19.939
X-0.694 Y-20.401
X-0.822 Y-20.854
X-0.985 Y-21.296
X-1.182 Y-21.724
X-1.412 Y-22.135
X-1.674 Y-22.527
X-1.965 Y-22.897
X-2.285 Y-23.243
X-2.631 Y-23.562
X-3.001 Y-23.854
X-3.393 Y-24.116
X-3.804 Y-24.346
X-4.232 Y-24.543
X-4.674 Y-24.706
X-5.127 Y-24.834
X-5.589 Y-24.926
X-6.057 Y-24.982
X-6.528 Y-25
Z0.4 F150
X-36.492 F300
X-36.946 Y-24.983
X-37.397 Y-24.931
X-37.843 Y-24.846
X-38.282 Y-24.727
X-38.71 Y-24.575
X-39.125 Y-24.391
X-39.526 Y-24.177
X-39.908 Y-23.933
X-40.272 Y-23.66
X-40.613 Y-23.361
X-40.931 Y-23.037
X-41.224 Y-22.689
X-44.692 Y-19.678
X-45.208 Y-19.499
X-45.71 Y-19.283
X-46.195 Y-19.031
X-46.66 Y-18.745
X-47.103 Y-18.425
X-47.521 Y-18.074
X-47.913 Y-17.694
X-48.277 Y-17.286
X-48.609 Y-16.853
X-48.91 Y-16.397
X-49.176 Y-15.92
X-49.407 Y-15.425
X-49.601 Y-14.915
X-49.758 Y-14.392
X-49.876 Y-13.858
X-49.955 Y-13.318
X-49.995 Y-12.773
Y-12.227
X-49.955 Y-11.682
X-49.876 Y-11.142
X-49.758 Y-10.608
X-49.601 Y-10.085
X-49.407 Y-9.575
X-49.176 Y-9.08
X-48.91 Y-8.603
X-48.609 Y-8.147
X-48.277 Y-7.714
X-47.913 Y-7.306
X-47.521 Y-6.925
X-47.103 Y-6.575
X-46.66 Y-6.255
X-46.195 Y-5.969
X-45.71 Y-5.717
X-45.208 Y-5.501
X-44.692 Y-5.322
X-41.224 Y-2.311
X-40.931 Y-1.963
X-40.613 Y-1.639
X-40.272 Y-1.34
X-39.908 Y-1.067
X-39.526 Y-0.823
X-39.125 Y-0.609
X-38.71 Y-0.425
X-38.282 Y-0.273
X-37.843 Y-0.154
X-37.397 Y-0.069
X-36.946 Y-0.017
X-36.492 Y0
X-6.528
X-6.057 Y-0.018
X-5.589 Y-0.074
X-5.127 Y-0.166
X-4.674 Y-0.294
X-4.232 Y-0.457
X-3.804 Y-0.654
X-3.393 Y-0.884
X-3.001 Y-1.146
X-2.631 Y-1.438
X-2.285 Y-1.757
X-1.965 Y-2.103
X-1.674 Y-2.473
X-1.412 Y-2.865
X-1.182 Y-3.276
X-0.985 Y-3.704
X-0.822 Y-4.146
X-0.694 Y-4.599
X-0.602 Y-5.061
X-0.546 Y-5.529
X-0.528 Y-6
Y-19
X-0.546 Y-19.471
X-0.602 Y-19.939
X-0.694 Y-20.401
X-0.822 Y-20.854
X-0.985 Y-21.296
X-1.182 Y-21.724
X-1.412 Y-22.135
X-1.674 Y-22.527
X-1.965 Y-22.897
X-2.285 Y-23.243
X-2.631 Y-23.562
X-3.001 Y-23.854
X-3.393 Y-24.116
X-3.804 Y-24.346
X-4.232 Y-24.543
X-4.674 Y-24.706
X-5.127 Y-24.834
X-5.589 Y-24.926
X-6.057 Y-24.982
X-6.528 Y-25
Z0.1 F150
X-36.492 F300
X-36.946 Y-24.983
X-37.397 Y-24.931
X-37.843 Y-24.846
X-38.282 Y-24.727
X-38.71 Y-24.575
X-39.125 Y-24.391
X-39.526 Y-24.177
X-39.908 Y-23.933
X-40.272 Y-23.66
X-40.613 Y-23.361
X-40.931 Y-23.037
X-41.224 Y-22.689
X-44.692 Y-19.678
X-45.208 Y-19.499
X-45.71 Y-19.283
X-46.195 Y-19.031
X-46.66 Y-18.745
X-47.103 Y-18.425
X-47.521 Y-18.074
X-47.913 Y-17.694
X-48.277 Y-17.286
X-48.609 Y-16.853
X-48.91 Y-16.397
X-49.176 Y-15.92
X-49.407 Y-15.425
X-49.601 Y-14.915
X-49.758 Y-14.392
X-49.876 Y-13.858
X-49.955 Y-13.318
X-49.995 Y-12.773
Y-12.227
X-49.955 Y-11.682
X-49.876 Y-11.142
X-49.758 Y-10.608
X-49.601 Y-10.085
X-49.407 Y-9.575
X-49.176 Y-9.08
X-48.91 Y-8.603
X-48.609 Y-8.147
X-48.277 Y-7.714
X-47.913 Y-7.306
X-47.521 Y-6.925
X-47.103 Y-6.575
X-46.66 Y-6.255
X-46.195 Y-5.969
X-45.71 Y-5.717
X-45.208 Y-5.501
X-44.692 Y-5.322
X-41.224 Y-2.311
X-40.931 Y-1.963
X-40.613 Y-1.639
X-40.272 Y-1.34
X-39.908 Y-1.067
X-39.526 Y-0.823
X-39.125 Y-0.609
X-38.71 Y-0.425
X-38.282 Y-0.273
X-37.843 Y-0.154
X-37.397 Y-0.069
X-36.946 Y-0.017
X-36.492 Y0
X-6.528
X-6.057 Y-0.018
X-5.589 Y-0.074
X-5.127 Y-0.166
X-4.674 Y-0.294
X-4.232 Y-0.457
X-3.804 Y-0.654
X-3.393 Y-0.884
X-3.001 Y-1.146
X-2.631 Y-1.438
X-2.285 Y-1.757
X-1.965 Y-2.103
X-1.674 Y-2.473
X-1.412 Y-2.865
X-1.182 Y-3.276
X-0.985 Y-3.704
X-0.822 Y-4.146
X-0.694 Y-4.599
X-0.602 Y-5.061
X-0.546 Y-5.529
X-0.528 Y-6
Y-19
X-0.546 Y-19.471
X-0.602 Y-19.939
X-0.694 Y-20.401
X-0.822 Y-20.854
X-0.985 Y-21.296
X-1.182 Y-21.724
X-1.412 Y-22.135
X-1.674 Y-22.527
X-1.965 Y-22.897
X-2.285 Y-23.243
X-2.631 Y-23.562
X-3.001 Y-23.854
X-3.393 Y-24.116
X-3.804 Y-24.346
X-4.232 Y-24.543
X-4.674 Y-24.706
X-5.127 Y-24.834
X-5.589 Y-24.926
X-6.057 Y-24.982
X-6.528 Y-25
Z-0.2 F150
X-36.492 F300
X-36.946 Y-24.983
X-37.397 Y-24.931
X-37.843 Y-24.846
X-38.282 Y-24.727
X-38.71 Y-24.575
X-39.125 Y-24.391
X-39.526 Y-24.177
X-39.908 Y-23.933
X-40.272 Y-23.66
X-40.613 Y-23.361
X-40.931 Y-23.037
X-41.224 Y-22.689
X-44.692 Y-19.678
X-45.208 Y-19.499
X-45.71 Y-19.283
X-46.195 Y-19.031
X-46.66 Y-18.745
X-47.103 Y-18.425
X-47.521 Y-18.074
X-47.913 Y-17.694
X-48.277 Y-17.286
X-48.609 Y-16.853
X-48.91 Y-16.397
X-49.176 Y-15.92
X-49.407 Y-15.425
X-49.601 Y-14.915
X-49.758 Y-14.392
X-49.876 Y-13.858
X-49.955 Y-13.318
X-49.995 Y-12.773
Y-12.227
X-49.955 Y-11.682
X-49.876 Y-11.142
X-49.758 Y-10.608
X-49.601 Y-10.085
X-49.407 Y-9.575
X-49.176 Y-9.08
X-48.91 Y-8.603
X-48.609 Y-8.147
X-48.277 Y-7.714
X-47.913 Y-7.306
X-47.521 Y-6.925
X-47.103 Y-6.575
X-46.66 Y-6.255
X-46.195 Y-5.969
X-45.71 Y-5.717
X-45.208 Y-5.501
X-44.692 Y-5.322
X-41.224 Y-2.311
X-40.931 Y-1.963
X-40.613 Y-1.639
X-40.272 Y-1.34
X-39.908 Y-1.067
X-39.526 Y-0.823
X-39.125 Y-0.609
X-38.71 Y-0.425
X-38.282 Y-0.273
X-37.843 Y-0.154
X-37.397 Y-0.069
X-36.946 Y-0.017
X-36.492 Y0
X-6.528
X-6.057 Y-0.018
X-5.589 Y-0.074
X-5.127 Y-0.166
X-4.674 Y-0.294
X-4.232 Y-0.457
X-3.804 Y-0.654
X-3.393 Y-0.884
X-3.001 Y-1.146
X-2.631 Y-1.438
X-2.285 Y-1.757
X-1.965 Y-2.103
X-1.674 Y-2.473
X-1.412 Y-2.865
X-1.182 Y-3.276
X-0.985 Y-3.704
X-0.822 Y-4.146
X-0.694 Y-4.599
X-0.602 Y-5.061
X-0.546 Y-5.529
X-0.528 Y-6
Y-19
X-0.546 Y-19.471
X-0.602 Y-19.939
X-0.694 Y-20.401
X-0.822 Y-20.854
X-0.985 Y-21.296
X-1.182 Y-21.724
X-1.412 Y-22.135
X-1.674 Y-22.527
X-1.965 Y-22.897
X-2.285 Y-23.243
X-2.631 Y-23.562
X-3.001 Y-23.854
X-3.393 Y-24.116
X-3.804 Y-24.346
X-4.232 Y-24.543
X-4.674 Y-24.706
X-5.127 Y-24.834
X-5.589 Y-24.926
X-6.057 Y-24.982
X-6.528 Y-25
Z-0.5 F150
X-36.492 F300
X-36.946 Y-24.983
X-37.397 Y-24.931
X-37.843 Y-24.846
X-38.282 Y-24.727
X-38.71 Y-24.575
X-39.125 Y-24.391
X-39.526 Y-24.177
X-39.908 Y-23.933
X-40.272 Y-23.66
X-40.613 Y-23.361
X-40.931 Y-23.037
X-41.224 Y-22.689
X-44.692 Y-19.678
X-45.208 Y-19.499
X-45.71 Y-19.283
X-46.195 Y-19.031
X-46.66 Y-18.745
X-47.103 Y-18.425
X-47.521 Y-18.074
X-47.913 Y-17.694
X-48.277 Y-17.286
X-48.609 Y-16.853
X-48.91 Y-16.397
X-49.176 Y-15.92
X-49.407 Y-15.425
X-49.601 Y-14.915
X-49.758 Y-14.392
X-49.876 Y-13.858
X-49.955 Y-13.318
X-49.995 Y-12.773
Y-12.227
X-49.955 Y-11.682
X-49.876 Y-11.142
X-49.758 Y-10.608
X-49.601 Y-10.085
X-49.407 Y-9.575
X-49.176 Y-9.08
X-48.91 Y-8.603
X-48.609 Y-8.147
X-48.277 Y-7.714
X-47.913 Y-7.306
X-47.521 Y-6.925
X-47.103 Y-6.575
X-46.66 Y-6.255
X-46.195 Y-5.969
X-45.71 Y-5.717
X-45.208 Y-5.501
X-44.692 Y-5.322
X-41.224 Y-2.311
X-40.931 Y-1.963
X-40.613 Y-1.639
X-40.272 Y-1.34
X-39.908 Y-1.067
X-39.526 Y-0.823
X-39.125 Y-0.609
X-38.71 Y-0.425
X-38.282 Y-0.273
X-37.843 Y-0.154
X-37.397 Y-0.069
X-36.946 Y-0.017
X-36.492 Y0
X-6.528
X-6.057 Y-0.018
X-5.589 Y-0.074
X-5.127 Y-0.166
X-4.674 Y-0.294
X-4.232 Y-0.457
X-3.804 Y-0.654
X-3.393 Y-0.884
X-3.001 Y-1.146
X-2.631 Y-1.438
X-2.285 Y-1.757
X-1.965 Y-2.103
X-1.674 Y-2.473
X-1.412 Y-2.865
X-1.182 Y-3.276
X-0.985 Y-3.704
X-0.822 Y-4.146
X-0.694 Y-4.599
X-0.602 Y-5.061
X-0.546 Y-5.529
X-0.528 Y-6
Y-19
X-0.546 Y-19.471
X-0.602 Y-19.939
X-0.694 Y-20.401
X-0.822 Y-20.854
X-0.985 Y-21.296
X-1.182 Y-21.724
X-1.412 Y-22.135
X-1.674 Y-22.527
X-1.965 Y-22.897
X-2.285 Y-23.243
X-2.631 Y-23.562
X-3.001 Y-23.854
X-3.393 Y-24.116
X-3.804 Y-24.346
X-4.232 Y-24.543
X-4.674 Y-24.706
X-5.127 Y-24.834
X-5.589 Y-24.926
X-6.057 Y-24.982
X-6.528 Y-25
Z4
Z15
M9
M5
M30
