(actuator_top)
(Machine)
(  vendor: Autodesk)
(  model: Generic 3-axis)
(  description: This machine has XY axis on the Table and Z axis on the Head)
(T1  D=4.78 CR=2.39 - ZMIN=-9 - ball end mill)
G90 G94
G17
G21
(When using Fusion 360 for Personal Use, the feedrate of)
(rapid moves is reduced to match the feedrate of cutting)
(moves, which can increase machining time. Unrestricted rapid)
(moves are available with a Fusion 360 Subscription.)
G28 G91 Z0
G90

(2D Contour4)
T1
S24000 M3
G54
M8
G0 X26.676 Y25.772
Z10
G1 Z5 F150
Z1.6 F50
Z-0.122
G18 G2 X27.154 Z-0.6 I0.478 K0
G1 X27.632
G17 G3 X28.11 Y26.25 I0 J0.478
X24.39 Y26.25 I-1.86 J0 F150
X28.11 Y26.25 I1.86 J0
X27.632 Y26.728 I-0.478 J0
G1 X27.154
G18 G3 X26.676 Z-0.122 I0 K0.478
G1 Z5
Y25.772
Z2.859 F50
Z-0.722
G2 X27.154 Z-1.2 I0.478 K0
G1 X27.632
G17 G3 X28.11 Y26.25 I0 J0.478
X24.39 Y26.25 I-1.86 J0 F150
X28.11 Y26.25 I1.86 J0
X27.632 Y26.728 I-0.478 J0
G1 X27.154
G18 G3 X26.676 Z-0.722 I0 K0.478
G1 Z5
Y25.772
Z2.259 F50
Z-1.322
G2 X27.154 Z-1.8 I0.478 K0
G1 X27.632
G17 G3 X28.11 Y26.25 I0 J0.478
X24.39 Y26.25 I-1.86 J0 F150
X28.11 Y26.25 I1.86 J0
X27.632 Y26.728 I-0.478 J0
G1 X27.154
G18 G3 X26.676 Z-1.322 I0 K0.478
G1 Z5
Y25.772
Z1.659 F50
Z-1.922
G2 X27.154 Z-2.4 I0.478 K0
G1 X27.632
G17 G3 X28.11 Y26.25 I0 J0.478
X24.39 Y26.25 I-1.86 J0 F150
X28.11 Y26.25 I1.86 J0
X27.632 Y26.728 I-0.478 J0
G1 X27.154
G18 G3 X26.676 Z-1.922 I0 K0.478
G1 Z5
Y25.772
Z1.059 F50
Z-2.522
G2 X27.154 Z-3 I0.478 K0
G1 X27.632
G17 G3 X28.11 Y26.25 I0 J0.478
X24.39 Y26.25 I-1.86 J0 F150
X28.11 Y26.25 I1.86 J0
X27.632 Y26.728 I-0.478 J0
G1 X27.154
G18 G3 X26.676 Z-2.522 I0 K0.478
G1 Z5
Y25.772
Z0.459 F50
Z-3.122
G2 X27.154 Z-3.6 I0.478 K0
G1 X27.632
G17 G3 X28.11 Y26.25 I0 J0.478
X24.39 Y26.25 I-1.86 J0 F150
X28.11 Y26.25 I1.86 J0
X27.632 Y26.728 I-0.478 J0
G1 X27.154
G18 G3 X26.676 Z-3.122 I0 K0.478
G1 Z5
Y25.772
Z-0.141 F50
Z-3.722
G2 X27.154 Z-4.2 I0.478 K0
G1 X27.632
G17 G3 X28.11 Y26.25 I0 J0.478
X24.39 Y26.25 I-1.86 J0 F150
X28.11 Y26.25 I1.86 J0
X27.632 Y26.728 I-0.478 J0
G1 X27.154
G18 G3 X26.676 Z-3.722 I0 K0.478
G1 Z5
Y25.772
Z-0.741 F50
Z-4.322
G2 X27.154 Z-4.8 I0.478 K0
G1 X27.632
G17 G3 X28.11 Y26.25 I0 J0.478
X24.39 Y26.25 I-1.86 J0 F150
X28.11 Y26.25 I1.86 J0
X27.632 Y26.728 I-0.478 J0
G1 X27.154
G18 G3 X26.676 Z-4.322 I0 K0.478
G1 Z5
Y25.772
Z-1.341 F50
Z-4.922
G2 X27.154 Z-5.4 I0.478 K0
G1 X27.632
G17 G3 X28.11 Y26.25 I0 J0.478
X24.39 Y26.25 I-1.86 J0 F150
X28.11 Y26.25 I1.86 J0
X27.632 Y26.728 I-0.478 J0
G1 X27.154
G18 G3 X26.676 Z-4.922 I0 K0.478
G1 Z5
Y25.772
Z-1.941 F50
Z-5.522
G2 X27.154 Z-6 I0.478 K0
G1 X27.632
G17 G3 X28.11 Y26.25 I0 J0.478
X24.39 Y26.25 I-1.86 J0 F150
X28.11 Y26.25 I1.86 J0
X27.632 Y26.728 I-0.478 J0
G1 X27.154
G18 G3 X26.676 Z-5.522 I0 K0.478
G1 Z5
Y25.772
Z-2.541 F50
Z-6.122
G2 X27.154 Z-6.6 I0.478 K0
G1 X27.632
G17 G3 X28.11 Y26.25 I0 J0.478
X24.39 Y26.25 I-1.86 J0 F150
X28.11 Y26.25 I1.86 J0
X27.632 Y26.728 I-0.478 J0
G1 X27.154
G18 G3 X26.676 Z-6.122 I0 K0.478
G1 Z5
Y25.772
Z-3.141 F50
Z-6.522
G2 X27.154 Z-7 I0.478 K0
G1 X27.632
G17 G3 X28.11 Y26.25 I0 J0.478
X24.39 Y26.25 I-1.86 J0 F150
X28.11 Y26.25 I1.86 J0
X27.632 Y26.728 I-0.478 J0
G1 X27.154
G18 G3 X26.676 Z-6.522 I0 K0.478
G1 Z10
G17
(When using Fusion 360 for Personal Use, the feedrate of)
(rapid moves is reduced to match the feedrate of cutting)
(moves, which can increase machining time. Unrestricted rapid)
(moves are available with a Fusion 360 Subscription.)

(2D Contour3)
G0 X26.728 Y-2.824
G1 Z10 F150
Z5
Z1.6 F50
Z-0.122
G19 G3 Y-2.346 Z-0.6 J0.478 K0
G1 Y-1.868
G17 G3 X26.25 Y-1.39 I-0.478 J0
G2 X26.25 Y53.89 I0 J27.64 F150
X26.25 Y-1.39 I0 J-27.64
G3 X25.772 Y-1.868 I0 J-0.478
G1 Y-2.346
G19 G2 Y-2.824 Z-0.122 J0 K0.478
G1 Z5
X26.728
Z2.859 F50
Z-0.722
G3 Y-2.346 Z-1.2 J0.478 K0
G1 Y-1.868
G17 G3 X26.25 Y-1.39 I-0.478 J0
G2 X26.25 Y53.89 I0 J27.64 F150
X26.25 Y-1.39 I0 J-27.64
G3 X25.772 Y-1.868 I0 J-0.478
G1 Y-2.346
G19 G2 Y-2.824 Z-0.722 J0 K0.478
G1 Z5
X26.728
Z2.259 F50
Z-1.322
G3 Y-2.346 Z-1.8 J0.478 K0
G1 Y-1.868
G17 G3 X26.25 Y-1.39 I-0.478 J0
G2 X26.25 Y53.89 I0 J27.64 F150
X26.25 Y-1.39 I0 J-27.64
G3 X25.772 Y-1.868 I0 J-0.478
G1 Y-2.346
G19 G2 Y-2.824 Z-1.322 J0 K0.478
G1 Z5
X26.728
Z1.659 F50
Z-1.922
G3 Y-2.346 Z-2.4 J0.478 K0
G1 Y-1.868
G17 G3 X26.25 Y-1.39 I-0.478 J0
G2 X26.25 Y53.89 I0 J27.64 F150
X26.25 Y-1.39 I0 J-27.64
G3 X25.772 Y-1.868 I0 J-0.478
G1 Y-2.346
G19 G2 Y-2.824 Z-1.922 J0 K0.478
G1 Z5
X26.728
Z1.059 F50
Z-2.522
G3 Y-2.346 Z-3 J0.478 K0
G1 Y-1.868
G17 G3 X26.25 Y-1.39 I-0.478 J0
G2 X26.25 Y53.89 I0 J27.64 F150
X26.25 Y-1.39 I0 J-27.64
G3 X25.772 Y-1.868 I0 J-0.478
G1 Y-2.346
G19 G2 Y-2.824 Z-2.522 J0 K0.478
G1 Z5
X26.728
Z0.459 F50
Z-3.122
G3 Y-2.346 Z-3.6 J0.478 K0
G1 Y-1.868
G17 G3 X26.25 Y-1.39 I-0.478 J0
G2 X26.25 Y53.89 I0 J27.64 F150
X26.25 Y-1.39 I0 J-27.64
G3 X25.772 Y-1.868 I0 J-0.478
G1 Y-2.346
G19 G2 Y-2.824 Z-3.122 J0 K0.478
G1 Z5
X26.728
Z-0.141 F50
Z-3.722
G3 Y-2.346 Z-4.2 J0.478 K0
G1 Y-1.868
G17 G3 X26.25 Y-1.39 I-0.478 J0
G2 X26.25 Y53.89 I0 J27.64 F150
X26.25 Y-1.39 I0 J-27.64
G3 X25.772 Y-1.868 I0 J-0.478
G1 Y-2.346
G19 G2 Y-2.824 Z-3.722 J0 K0.478
G1 Z5
X26.728
Z-0.741 F50
Z-4.322
G3 Y-2.346 Z-4.8 J0.478 K0
G1 Y-1.868
G17 G3 X26.25 Y-1.39 I-0.478 J0
G2 X26.25 Y53.89 I0 J27.64 F150
X26.25 Y-1.39 I0 J-27.64
G3 X25.772 Y-1.868 I0 J-0.478
G1 Y-2.346
G19 G2 Y-2.824 Z-4.322 J0 K0.478
G1 Z5
X26.728
Z-1.341 F50
Z-4.922
G3 Y-2.346 Z-5.4 J0.478 K0
G1 Y-1.868
G17 G3 X26.25 Y-1.39 I-0.478 J0
G2 X26.25 Y53.89 I0 J27.64 F150
X26.25 Y-1.39 I0 J-27.64
G3 X25.772 Y-1.868 I0 J-0.478
G1 Y-2.346
G19 G2 Y-2.824 Z-4.922 J0 K0.478
G1 Z5
X26.728
Z-1.941 F50
Z-5.522
G3 Y-2.346 Z-6 J0.478 K0
G1 Y-1.868
G17 G3 X26.25 Y-1.39 I-0.478 J0
G2 X26.25 Y53.89 I0 J27.64 F150
X26.25 Y-1.39 I0 J-27.64
G3 X25.772 Y-1.868 I0 J-0.478
G1 Y-2.346
G19 G2 Y-2.824 Z-5.522 J0 K0.478
G1 Z5
X26.728
Z-2.541 F50
Z-6.122
G3 Y-2.346 Z-6.6 J0.478 K0
G1 Y-1.868
G17 G3 X26.25 Y-1.39 I-0.478 J0
G2 X26.25 Y53.89 I0 J27.64 F150
X26.25 Y-1.39 I0 J-27.64
G3 X25.772 Y-1.868 I0 J-0.478
G1 Y-2.346
G19 G2 Y-2.824 Z-6.122 J0 K0.478
G1 Z5
X26.728
Z-3.141 F50
Z-6.722
G3 Y-2.346 Z-7.2 J0.478 K0
G1 Y-1.868
G17 G3 X26.25 Y-1.39 I-0.478 J0
G2 X26.25 Y53.89 I0 J27.64 F150
X26.25 Y-1.39 I0 J-27.64
G3 X25.772 Y-1.868 I0 J-0.478
G1 Y-2.346
G19 G2 Y-2.824 Z-6.722 J0 K0.478
G1 Z5
X26.728
Z-3.741 F50
Z-7.322
G3 Y-2.346 Z-7.8 J0.478 K0
G1 Y-1.868
G17 G3 X26.25 Y-1.39 I-0.478 J0
G2 X26.25 Y53.89 I0 J27.64 F150
X26.25 Y-1.39 I0 J-27.64
G3 X25.772 Y-1.868 I0 J-0.478
G1 Y-2.346
G19 G2 Y-2.824 Z-7.322 J0 K0.478
G1 Z5
X26.728
Z-4.341 F50
Z-7.522
G3 Y-2.346 Z-8 J0.478 K0
G1 Y-1.868
G17 G3 X26.25 Y-1.39 I-0.478 J0
G2 X26.25 Y53.89 I0 J27.64 F150
X26.25 Y-1.39 I0 J-27.64
G3 X25.772 Y-1.868 I0 J-0.478
G1 Y-2.346
G19 G2 Y-2.824 Z-7.522 J0 K0.478
G1 Z10
G17
(When using Fusion 360 for Personal Use, the feedrate of)
(rapid moves is reduced to match the feedrate of cutting)
(moves, which can increase machining time. Unrestricted rapid)
(moves are available with a Fusion 360 Subscription.)

(Bore2)
G0 X17.25 Y17.25
G1 Z10 F150
Z0.522
Z-1 F50
X17.22 Y17.28
X17.205 Y17.276
X17.194 Y17.265
X17.19 Y17.25
X17.198 Y17.221 Z-1.082 F150
X17.219 Y17.199 Z-1.163
X17.248 Y17.19 Z-1.245
X17.278 Y17.197 Z-1.327
X17.3 Y17.217 Z-1.408
X17.31 Y17.246 Z-1.49
X17.304 Y17.276 Z-1.571
X17.284 Y17.299 Z-1.653
X17.256 Y17.31 Z-1.735
X17.226 Y17.305 Z-1.816
X17.202 Y17.286 Z-1.898
X17.19 Y17.258 Z-1.98
X17.194 Y17.227 Z-2.061
X17.213 Y17.203 Z-2.143
X17.24 Y17.191 Z-2.224
X17.271 Y17.194 Z-2.306
X17.296 Y17.211 Z-2.388
X17.309 Y17.239 Z-2.469
X17.307 Y17.269 Z-2.551
X17.29 Y17.294 Z-2.633
X17.263 Y17.308 Z-2.714
X17.233 Z-2.796
X17.207 Y17.292 Z-2.878
X17.192 Y17.265 Z-2.959
Y17.235 Z-3.041
X17.207 Y17.208 Z-3.122
X17.233 Y17.192 Z-3.204
X17.263 Z-3.286
X17.29 Y17.206 Z-3.367
X17.307 Y17.231 Z-3.449
X17.309 Y17.261 Z-3.531
X17.296 Y17.289 Z-3.612
X17.271 Y17.306 Z-3.694
X17.24 Y17.309 Z-3.776
X17.213 Y17.297 Z-3.857
X17.194 Y17.273 Z-3.939
X17.19 Y17.242 Z-4.02
X17.202 Y17.214 Z-4.102
X17.226 Y17.195 Z-4.184
X17.256 Y17.19 Z-4.265
X17.284 Y17.201 Z-4.347
X17.304 Y17.224 Z-4.429
X17.31 Y17.254 Z-4.51
X17.3 Y17.283 Z-4.592
X17.278 Y17.303 Z-4.673
X17.248 Y17.31 Z-4.755
X17.219 Y17.301 Z-4.837
X17.198 Y17.279 Z-4.918
X17.19 Y17.25 Z-5
X17.198 Y17.221 Z-5.082
X17.219 Y17.199 Z-5.163
X17.248 Y17.19 Z-5.245
X17.278 Y17.197 Z-5.327
X17.3 Y17.217 Z-5.408
X17.31 Y17.246 Z-5.49
X17.304 Y17.276 Z-5.571
X17.284 Y17.299 Z-5.653
X17.256 Y17.31 Z-5.735
X17.226 Y17.305 Z-5.816
X17.202 Y17.286 Z-5.898
X17.19 Y17.258 Z-5.98
X17.194 Y17.227 Z-6.061
X17.213 Y17.203 Z-6.143
X17.24 Y17.191 Z-6.224
X17.271 Y17.194 Z-6.306
X17.296 Y17.211 Z-6.388
X17.309 Y17.239 Z-6.469
X17.307 Y17.269 Z-6.551
X17.29 Y17.294 Z-6.633
X17.263 Y17.308 Z-6.714
X17.233 Z-6.796
X17.207 Y17.292 Z-6.878
X17.192 Y17.265 Z-6.959
Y17.235 Z-7.041
X17.207 Y17.208 Z-7.122
X17.233 Y17.192 Z-7.204
X17.263 Z-7.286
X17.29 Y17.206 Z-7.367
X17.307 Y17.231 Z-7.449
X17.309 Y17.261 Z-7.531
X17.296 Y17.289 Z-7.612
X17.271 Y17.306 Z-7.694
X17.24 Y17.309 Z-7.776
X17.213 Y17.297 Z-7.857
X17.194 Y17.273 Z-7.939
X17.19 Y17.242 Z-8.02
X17.202 Y17.214 Z-8.102
X17.226 Y17.195 Z-8.184
X17.256 Y17.19 Z-8.265
X17.284 Y17.201 Z-8.347
X17.304 Y17.224 Z-8.429
X17.31 Y17.254 Z-8.51
X17.3 Y17.283 Z-8.592
X17.278 Y17.303 Z-8.673
X17.248 Y17.31 Z-8.755
X17.219 Y17.301 Z-8.837
X17.198 Y17.279 Z-8.918
X17.19 Y17.25 Z-9
G3 X17.31 Y17.25 I0.06 J0
X17.19 Y17.25 I-0.06 J0
G1 X17.194 Y17.235
X17.205 Y17.224
X17.22 Y17.22
X17.25 Y17.25
Z5
X35.25
Z0.522
Z-1 F50
X35.22 Y17.28
X35.205 Y17.276
X35.194 Y17.265
X35.19 Y17.25
X35.198 Y17.221 Z-1.081 F150
X35.218 Y17.199 Z-1.162
X35.247 Y17.19 Z-1.242
X35.277 Y17.196 Z-1.323
X35.299 Y17.216 Z-1.404
X35.31 Y17.244 Z-1.485
X35.305 Y17.274 Z-1.566
X35.286 Y17.298 Z-1.646
X35.259 Y17.309 Z-1.727
X35.229 Y17.306 Z-1.808
X35.204 Y17.289 Z-1.889
X35.191 Y17.261 Z-1.97
X35.193 Y17.231 Z-2.051
X35.209 Y17.206 Z-2.131
X35.236 Y17.192 Z-2.212
X35.266 Z-2.293
X35.292 Y17.207 Z-2.374
X35.308 Y17.233 Z-2.455
Y17.264 Z-2.536
X35.294 Y17.291 Z-2.618
X35.269 Y17.307 Z-2.7
X35.238 Y17.309 Z-2.782
X35.211 Y17.295 Z-2.864
X35.193 Y17.27 Z-2.945
X35.191 Y17.24 Z-3.027
X35.204 Y17.212 Z-3.109
X35.228 Y17.194 Z-3.191
X35.259 Y17.191 Z-3.273
X35.287 Y17.202 Z-3.355
X35.305 Y17.227 Z-3.436
X35.31 Y17.257 Z-3.518
X35.299 Y17.285 Z-3.6
X35.275 Y17.305 Z-3.682
X35.245 Y17.31 Z-3.764
X35.216 Y17.3 Z-3.845
X35.196 Y17.276 Z-3.927
X35.19 Y17.247 Z-4.009
X35.2 Y17.218 Z-4.091
X35.222 Y17.197 Z-4.173
X35.252 Y17.19 Z-4.255
X35.281 Y17.199 Z-4.336
X35.302 Y17.22 Z-4.418
X35.31 Y17.25 Z-4.5
X35.302 Y17.28 Z-4.582
X35.281 Y17.301 Z-4.664
X35.252 Y17.31 Z-4.745
X35.222 Y17.303 Z-4.827
X35.2 Y17.282 Z-4.909
X35.19 Y17.253 Z-4.991
X35.196 Y17.224 Z-5.073
X35.216 Y17.2 Z-5.155
X35.245 Y17.19 Z-5.236
X35.275 Y17.195 Z-5.318
X35.299 Y17.215 Z-5.4
X35.31 Y17.243 Z-5.482
X35.305 Y17.273 Z-5.564
X35.287 Y17.298 Z-5.645
X35.259 Y17.309 Z-5.727
X35.228 Y17.306 Z-5.809
X35.204 Y17.288 Z-5.891
X35.191 Y17.26 Z-5.973
X35.193 Y17.23 Z-6.055
X35.211 Y17.205 Z-6.136
X35.238 Y17.191 Z-6.218
X35.269 Y17.193 Z-6.3
X35.294 Y17.209 Z-6.382
X35.308 Y17.236 Z-6.464
Y17.267 Z-6.545
X35.292 Y17.293 Z-6.627
X35.265 Y17.308 Z-6.709
X35.235 Z-6.791
X35.208 Y17.293 Z-6.873
X35.192 Y17.267 Z-6.955
Y17.236 Z-7.036
X35.206 Y17.209 Z-7.118
X35.231 Y17.193 Z-7.2
X35.262 Y17.191 Z-7.282
X35.289 Y17.205 Z-7.364
X35.307 Y17.23 Z-7.445
X35.309 Y17.26 Z-7.527
X35.296 Y17.288 Z-7.609
X35.272 Y17.306 Z-7.691
X35.241 Y17.309 Z-7.773
X35.213 Y17.298 Z-7.855
X35.195 Y17.273 Z-7.936
X35.19 Y17.243 Z-8.018
X35.201 Y17.215 Z-8.1
X35.225 Y17.195 Z-8.182
X35.255 Y17.19 Z-8.264
X35.284 Y17.2 Z-8.345
X35.304 Y17.224 Z-8.427
X35.31 Y17.253 Z-8.509
X35.3 Y17.282 Z-8.591
X35.278 Y17.303 Z-8.673
X35.248 Y17.31 Z-8.755
X35.219 Y17.301 Z-8.836
X35.198 Y17.28 Z-8.918
X35.19 Y17.25 Z-9
G3 X35.31 Y17.25 I0.06 J0
X35.19 Y17.25 I-0.06 J0
G1 X35.194 Y17.235
X35.205 Y17.224
X35.22 Y17.22
X35.25 Y17.25
Z5
Y35.25
Z0.522
Z-1 F50
X35.22 Y35.28
X35.205 Y35.276
X35.194 Y35.265
X35.19 Y35.25
X35.198 Y35.221 Z-1.082 F150
X35.219 Y35.199 Z-1.163
X35.248 Y35.19 Z-1.245
X35.278 Y35.197 Z-1.327
X35.3 Y35.217 Z-1.408
X35.31 Y35.246 Z-1.49
X35.304 Y35.276 Z-1.571
X35.284 Y35.299 Z-1.653
X35.256 Y35.31 Z-1.735
X35.226 Y35.305 Z-1.816
X35.202 Y35.286 Z-1.898
X35.19 Y35.258 Z-1.98
X35.194 Y35.227 Z-2.061
X35.213 Y35.203 Z-2.143
X35.24 Y35.191 Z-2.224
X35.271 Y35.194 Z-2.306
X35.296 Y35.211 Z-2.388
X35.309 Y35.239 Z-2.469
X35.307 Y35.269 Z-2.551
X35.29 Y35.294 Z-2.633
X35.263 Y35.308 Z-2.714
X35.233 Z-2.796
X35.207 Y35.292 Z-2.878
X35.192 Y35.265 Z-2.959
Y35.235 Z-3.041
X35.207 Y35.208 Z-3.122
X35.233 Y35.192 Z-3.204
X35.263 Z-3.286
X35.29 Y35.206 Z-3.367
X35.307 Y35.231 Z-3.449
X35.309 Y35.261 Z-3.531
X35.296 Y35.289 Z-3.612
X35.271 Y35.306 Z-3.694
X35.24 Y35.309 Z-3.776
X35.213 Y35.297 Z-3.857
X35.194 Y35.273 Z-3.939
X35.19 Y35.242 Z-4.02
X35.202 Y35.214 Z-4.102
X35.226 Y35.195 Z-4.184
X35.256 Y35.19 Z-4.265
X35.284 Y35.201 Z-4.347
X35.304 Y35.224 Z-4.429
X35.31 Y35.254 Z-4.51
X35.3 Y35.283 Z-4.592
X35.278 Y35.303 Z-4.673
X35.248 Y35.31 Z-4.755
X35.219 Y35.301 Z-4.837
X35.198 Y35.279 Z-4.918
X35.19 Y35.25 Z-5
X35.198 Y35.221 Z-5.082
X35.219 Y35.199 Z-5.163
X35.248 Y35.19 Z-5.245
X35.278 Y35.197 Z-5.327
X35.3 Y35.217 Z-5.408
X35.31 Y35.246 Z-5.49
X35.304 Y35.276 Z-5.571
X35.284 Y35.299 Z-5.653
X35.256 Y35.31 Z-5.735
X35.226 Y35.305 Z-5.816
X35.202 Y35.286 Z-5.898
X35.19 Y35.258 Z-5.98
X35.194 Y35.227 Z-6.061
X35.213 Y35.203 Z-6.143
X35.24 Y35.191 Z-6.224
X35.271 Y35.194 Z-6.306
X35.296 Y35.211 Z-6.388
X35.309 Y35.239 Z-6.469
X35.307 Y35.269 Z-6.551
X35.29 Y35.294 Z-6.633
X35.263 Y35.308 Z-6.714
X35.233 Z-6.796
X35.207 Y35.292 Z-6.878
X35.192 Y35.265 Z-6.959
Y35.235 Z-7.041
X35.207 Y35.208 Z-7.122
X35.233 Y35.192 Z-7.204
X35.263 Z-7.286
X35.29 Y35.206 Z-7.367
X35.307 Y35.231 Z-7.449
X35.309 Y35.261 Z-7.531
X35.296 Y35.289 Z-7.612
X35.271 Y35.306 Z-7.694
X35.24 Y35.309 Z-7.776
X35.213 Y35.297 Z-7.857
X35.194 Y35.273 Z-7.939
X35.19 Y35.242 Z-8.02
X35.202 Y35.214 Z-8.102
X35.226 Y35.195 Z-8.184
X35.256 Y35.19 Z-8.265
X35.284 Y35.201 Z-8.347
X35.304 Y35.224 Z-8.429
X35.31 Y35.254 Z-8.51
X35.3 Y35.283 Z-8.592
X35.278 Y35.303 Z-8.673
X35.248 Y35.31 Z-8.755
X35.219 Y35.301 Z-8.837
X35.198 Y35.279 Z-8.918
X35.19 Y35.25 Z-9
G3 X35.31 Y35.25 I0.06 J0
X35.19 Y35.25 I-0.06 J0
G1 X35.194 Y35.235
X35.205 Y35.224
X35.22 Y35.22
X35.25 Y35.25
Z5
X17.25
Z0.522
Z-1 F50
X17.22 Y35.28
X17.205 Y35.276
X17.194 Y35.265
X17.19 Y35.25
X17.198 Y35.221 Z-1.082 F150
X17.219 Y35.199 Z-1.163
X17.248 Y35.19 Z-1.245
X17.278 Y35.197 Z-1.327
X17.3 Y35.217 Z-1.408
X17.31 Y35.246 Z-1.49
X17.304 Y35.276 Z-1.571
X17.284 Y35.299 Z-1.653
X17.256 Y35.31 Z-1.735
X17.226 Y35.305 Z-1.816
X17.202 Y35.286 Z-1.898
X17.19 Y35.258 Z-1.98
X17.194 Y35.227 Z-2.061
X17.213 Y35.203 Z-2.143
X17.24 Y35.191 Z-2.224
X17.271 Y35.194 Z-2.306
X17.296 Y35.211 Z-2.388
X17.309 Y35.239 Z-2.469
X17.307 Y35.269 Z-2.551
X17.29 Y35.294 Z-2.633
X17.263 Y35.308 Z-2.714
X17.233 Z-2.796
X17.207 Y35.292 Z-2.878
X17.192 Y35.265 Z-2.959
Y35.235 Z-3.041
X17.207 Y35.208 Z-3.122
X17.233 Y35.192 Z-3.204
X17.263 Z-3.286
X17.29 Y35.206 Z-3.367
X17.307 Y35.231 Z-3.449
X17.309 Y35.261 Z-3.531
X17.296 Y35.289 Z-3.612
X17.271 Y35.306 Z-3.694
X17.24 Y35.309 Z-3.776
X17.213 Y35.297 Z-3.857
X17.194 Y35.273 Z-3.939
X17.19 Y35.242 Z-4.02
X17.202 Y35.214 Z-4.102
X17.226 Y35.195 Z-4.184
X17.256 Y35.19 Z-4.265
X17.284 Y35.201 Z-4.347
X17.304 Y35.224 Z-4.429
X17.31 Y35.254 Z-4.51
X17.3 Y35.283 Z-4.592
X17.278 Y35.303 Z-4.673
X17.248 Y35.31 Z-4.755
X17.219 Y35.301 Z-4.837
X17.198 Y35.279 Z-4.918
X17.19 Y35.25 Z-5
X17.198 Y35.221 Z-5.082
X17.219 Y35.199 Z-5.163
X17.248 Y35.19 Z-5.245
X17.278 Y35.197 Z-5.327
X17.3 Y35.217 Z-5.408
X17.31 Y35.246 Z-5.49
X17.304 Y35.276 Z-5.571
X17.284 Y35.299 Z-5.653
X17.256 Y35.31 Z-5.735
X17.226 Y35.305 Z-5.816
X17.202 Y35.286 Z-5.898
X17.19 Y35.258 Z-5.98
X17.194 Y35.227 Z-6.061
X17.213 Y35.203 Z-6.143
X17.24 Y35.191 Z-6.224
X17.271 Y35.194 Z-6.306
X17.296 Y35.211 Z-6.388
X17.309 Y35.239 Z-6.469
X17.307 Y35.269 Z-6.551
X17.29 Y35.294 Z-6.633
X17.263 Y35.308 Z-6.714
X17.233 Z-6.796
X17.207 Y35.292 Z-6.878
X17.192 Y35.265 Z-6.959
Y35.235 Z-7.041
X17.207 Y35.208 Z-7.122
X17.233 Y35.192 Z-7.204
X17.263 Z-7.286
X17.29 Y35.206 Z-7.367
X17.307 Y35.231 Z-7.449
X17.309 Y35.261 Z-7.531
X17.296 Y35.289 Z-7.612
X17.271 Y35.306 Z-7.694
X17.24 Y35.309 Z-7.776
X17.213 Y35.297 Z-7.857
X17.194 Y35.273 Z-7.939
X17.19 Y35.242 Z-8.02
X17.202 Y35.214 Z-8.102
X17.226 Y35.195 Z-8.184
X17.256 Y35.19 Z-8.265
X17.284 Y35.201 Z-8.347
X17.304 Y35.224 Z-8.429
X17.31 Y35.254 Z-8.51
X17.3 Y35.283 Z-8.592
X17.278 Y35.303 Z-8.673
X17.248 Y35.31 Z-8.755
X17.219 Y35.301 Z-8.837
X17.198 Y35.279 Z-8.918
X17.19 Y35.25 Z-9
G3 X17.31 Y35.25 I0.06 J0
X17.19 Y35.25 I-0.06 J0
G1 X17.194 Y35.235
X17.205 Y35.224
X17.22 Y35.22
X17.25 Y35.25
Z10
M9
G28 G91 Z0
G90
G28 G91 X0 Y0
G90
M5
M30
