(actuator_FULL_nodrill)
(Machine)
(  vendor: Autodesk)
(  model: Generic 3-axis)
(  description: This machine has XY axis on the Table and Z axis on the Head)
(T1  D=4.78 CR=0 - ZMIN=-9 - flat end mill)
G90 G94
G17
G21
(When using Fusion 360 for Personal Use, the feedrate of)
(rapid moves is reduced to match the feedrate of cutting)
(moves, which can increase machining time. Unrestricted rapid)
(moves are available with a Fusion 360 Subscription.)
G28 G91 Z0
G90

(2D Contour8)
T1
S24000 M3
G54
M8
G0 X26.676 Y25.772
Z10
G1 Z5 F150
Z1.6 F50
Z-0.122
G18 G2 X27.154 Z-0.6 I0.478 K0
G1 X27.632
G17 G3 X28.11 Y26.25 I0 J0.478
X24.39 Y26.25 I-1.86 J0 F150
X28.11 Y26.25 I1.86 J0
X27.632 Y26.728 I-0.478 J0
G1 X27.154
G18 G3 X26.676 Z-0.122 I0 K0.478
G1 Z5
Y25.772
Z1 F50
Z-0.722
G2 X27.154 Z-1.2 I0.478 K0
G1 X27.632
G17 G3 X28.11 Y26.25 I0 J0.478
X24.39 Y26.25 I-1.86 J0 F150
X28.11 Y26.25 I1.86 J0
X27.632 Y26.728 I-0.478 J0
G1 X27.154
G18 G3 X26.676 Z-0.722 I0 K0.478
G1 Z5
Y25.772
Z0.4 F50
Z-1.322
G2 X27.154 Z-1.8 I0.478 K0
G1 X27.632
G17 G3 X28.11 Y26.25 I0 J0.478
X24.39 Y26.25 I-1.86 J0 F150
X28.11 Y26.25 I1.86 J0
X27.632 Y26.728 I-0.478 J0
G1 X27.154
G18 G3 X26.676 Z-1.322 I0 K0.478
G1 Z5
Y25.772
Z-0.2 F50
Z-1.922
G2 X27.154 Z-2.4 I0.478 K0
G1 X27.632
G17 G3 X28.11 Y26.25 I0 J0.478
X24.39 Y26.25 I-1.86 J0 F150
X28.11 Y26.25 I1.86 J0
X27.632 Y26.728 I-0.478 J0
G1 X27.154
G18 G3 X26.676 Z-1.922 I0 K0.478
G1 Z5
Y25.772
Z-0.8 F50
Z-2.522
G2 X27.154 Z-3 I0.478 K0
G1 X27.632
G17 G3 X28.11 Y26.25 I0 J0.478
X24.39 Y26.25 I-1.86 J0 F150
X28.11 Y26.25 I1.86 J0
X27.632 Y26.728 I-0.478 J0
G1 X27.154
G18 G3 X26.676 Z-2.522 I0 K0.478
G1 Z5
Y25.772
Z-1.4 F50
Z-3.122
G2 X27.154 Z-3.6 I0.478 K0
G1 X27.632
G17 G3 X28.11 Y26.25 I0 J0.478
X24.39 Y26.25 I-1.86 J0 F150
X28.11 Y26.25 I1.86 J0
X27.632 Y26.728 I-0.478 J0
G1 X27.154
G18 G3 X26.676 Z-3.122 I0 K0.478
G1 Z5
Y25.772
Z-2 F50
Z-3.722
G2 X27.154 Z-4.2 I0.478 K0
G1 X27.632
G17 G3 X28.11 Y26.25 I0 J0.478
X24.39 Y26.25 I-1.86 J0 F150
X28.11 Y26.25 I1.86 J0
X27.632 Y26.728 I-0.478 J0
G1 X27.154
G18 G3 X26.676 Z-3.722 I0 K0.478
G1 Z5
Y25.772
Z-2.6 F50
Z-4.322
G2 X27.154 Z-4.8 I0.478 K0
G1 X27.632
G17 G3 X28.11 Y26.25 I0 J0.478
X24.39 Y26.25 I-1.86 J0 F150
X28.11 Y26.25 I1.86 J0
X27.632 Y26.728 I-0.478 J0
G1 X27.154
G18 G3 X26.676 Z-4.322 I0 K0.478
G1 Z5
Y25.772
Z-3.2 F50
Z-4.922
G2 X27.154 Z-5.4 I0.478 K0
G1 X27.632
G17 G3 X28.11 Y26.25 I0 J0.478
X24.39 Y26.25 I-1.86 J0 F150
X28.11 Y26.25 I1.86 J0
X27.632 Y26.728 I-0.478 J0
G1 X27.154
G18 G3 X26.676 Z-4.922 I0 K0.478
G1 Z5
Y25.772
Z-3.8 F50
Z-5.522
G2 X27.154 Z-6 I0.478 K0
G1 X27.632
G17 G3 X28.11 Y26.25 I0 J0.478
X24.39 Y26.25 I-1.86 J0 F150
X28.11 Y26.25 I1.86 J0
X27.632 Y26.728 I-0.478 J0
G1 X27.154
G18 G3 X26.676 Z-5.522 I0 K0.478
G1 Z5
Y25.772
Z-4.4 F50
Z-6.122
G2 X27.154 Z-6.6 I0.478 K0
G1 X27.632
G17 G3 X28.11 Y26.25 I0 J0.478
X24.39 Y26.25 I-1.86 J0 F150
X28.11 Y26.25 I1.86 J0
X27.632 Y26.728 I-0.478 J0
G1 X27.154
G18 G3 X26.676 Z-6.122 I0 K0.478
G1 Z5
Y25.772
Z-5 F50
Z-6.722
G2 X27.154 Z-7.2 I0.478 K0
G1 X27.632
G17 G3 X28.11 Y26.25 I0 J0.478
X24.39 Y26.25 I-1.86 J0 F150
X28.11 Y26.25 I1.86 J0
X27.632 Y26.728 I-0.478 J0
G1 X27.154
G18 G3 X26.676 Z-6.722 I0 K0.478
G1 Z5
Y25.772
Z-5.6 F50
Z-7.322
G2 X27.154 Z-7.8 I0.478 K0
G1 X27.632
G17 G3 X28.11 Y26.25 I0 J0.478
X24.39 Y26.25 I-1.86 J0 F150
X28.11 Y26.25 I1.86 J0
X27.632 Y26.728 I-0.478 J0
G1 X27.154
G18 G3 X26.676 Z-7.322 I0 K0.478
G1 Z5
Y25.772
Z-6.2 F50
Z-7.922
G2 X27.154 Z-8.4 I0.478 K0
G1 X27.632
G17 G3 X28.11 Y26.25 I0 J0.478
X24.39 Y26.25 I-1.86 J0 F150
X28.11 Y26.25 I1.86 J0
X27.632 Y26.728 I-0.478 J0
G1 X27.154
G18 G3 X26.676 Z-7.922 I0 K0.478
G1 Z5
Y25.772
Z-6.8 F50
Z-8.522
G2 X27.154 Z-9 I0.478 K0
G1 X27.632
G17 G3 X28.11 Y26.25 I0 J0.478
X24.39 Y26.25 I-1.86 J0 F150
X28.11 Y26.25 I1.86 J0
X27.632 Y26.728 I-0.478 J0
G1 X27.154
G18 G3 X26.676 Z-8.522 I0 K0.478
G1 Z10
G17
(When using Fusion 360 for Personal Use, the feedrate of)
(rapid moves is reduced to match the feedrate of cutting)
(moves, which can increase machining time. Unrestricted rapid)
(moves are available with a Fusion 360 Subscription.)

(2D Pocket1)
G0 X44.201 Y47.582
G1 Z10 F150
Z5
Z1.6 F50
Z-0.122
G19 G2 Y47.104 Z-0.6 J-0.478 K0
G17 G3 X45.052 Y45.052 I2.903 J0
G2 X52.881 Y26.15 I-18.902 J-18.902 F150
X26.25 Y-0.381 I-26.531 J0
X26.15 Y52.881 I0 J26.631
X45.052 Y45.052 I0 J-26.731
X45.771 Y40.831 I-2.617 J-2.617
G3 X45.848 Y36.551 I4.295 J-2.064
G2 X6.652 Y15.949 I-19.598 J-10.301
X4.11 Y26.25 I19.598 J10.301
G1 Y26.35
G2 X26.25 Y48.39 I22.14 J-0.1
X45.848 Y36.551 I0 J-22.14
S5000
G3 X50.108 Y37.906 Z-0.758 I2.01 J1.056 F50
G1 X48.908 Y46.956 Z-0.985
G3 X44.406 Y46.359 Z-1.163 I-2.251 J-0.299
X45.052 Y45.052 Z-1.2 I2.251 J0.299
S24000
G2 X52.881 Y26.15 I-18.902 J-18.902 F150
X26.25 Y-0.381 I-26.531 J0
X26.15 Y52.881 I0 J26.631
X45.052 Y45.052 I0 J-26.731
X45.771 Y40.831 I-2.617 J-2.617
G3 X45.848 Y36.551 I4.295 J-2.064
G2 X6.652 Y15.949 I-19.598 J-10.301
X4.11 Y26.25 I19.598 J10.301
G1 Y26.35
G2 X26.25 Y48.39 I22.14 J-0.1
X45.848 Y36.551 I0 J-22.14
S5000
G3 X50.108 Y37.906 Z-1.358 I2.01 J1.056 F50
G1 X48.908 Y46.956 Z-1.585
G3 X44.406 Y46.359 Z-1.763 I-2.251 J-0.299
X45.052 Y45.052 Z-1.8 I2.251 J0.299
S24000
G2 X52.881 Y26.15 I-18.902 J-18.902 F150
X26.25 Y-0.381 I-26.531 J0
X26.15 Y52.881 I0 J26.631
X45.052 Y45.052 I0 J-26.731
X45.771 Y40.831 I-2.617 J-2.617
G3 X45.848 Y36.551 I4.295 J-2.064
G2 X6.652 Y15.949 I-19.598 J-10.301
X4.11 Y26.25 I19.598 J10.301
G1 Y26.35
G2 X26.25 Y48.39 I22.14 J-0.1
X45.848 Y36.551 I0 J-22.14
S5000
G3 X50.108 Y37.906 Z-1.958 I2.01 J1.056 F50
G1 X48.908 Y46.956 Z-2.185
G3 X44.406 Y46.359 Z-2.363 I-2.251 J-0.299
X45.052 Y45.052 Z-2.4 I2.251 J0.299
S24000
G2 X52.881 Y26.15 I-18.902 J-18.902 F150
X26.25 Y-0.381 I-26.531 J0
X26.15 Y52.881 I0 J26.631
X45.052 Y45.052 I0 J-26.731
X45.771 Y40.831 I-2.617 J-2.617
G3 X45.848 Y36.551 I4.295 J-2.064
G2 X6.652 Y15.949 I-19.598 J-10.301
X4.11 Y26.25 I19.598 J10.301
G1 Y26.35
G2 X26.25 Y48.39 I22.14 J-0.1
X45.848 Y36.551 I0 J-22.14
S5000
G3 X50.108 Y37.906 Z-2.558 I2.01 J1.056 F50
G1 X48.908 Y46.956 Z-2.785
G3 X44.406 Y46.359 Z-2.963 I-2.251 J-0.299
X45.052 Y45.052 Z-3 I2.251 J0.299
S24000
G2 X52.881 Y26.15 I-18.902 J-18.902 F150
X26.25 Y-0.381 I-26.531 J0
X26.15 Y52.881 I0 J26.631
X45.052 Y45.052 I0 J-26.731
X45.771 Y40.831 I-2.617 J-2.617
G3 X45.848 Y36.551 I4.295 J-2.064
G2 X6.652 Y15.949 I-19.598 J-10.301
X4.11 Y26.25 I19.598 J10.301
G1 Y26.35
G2 X26.25 Y48.39 I22.14 J-0.1
X45.848 Y36.551 I0 J-22.14
S5000
G3 X50.108 Y37.906 Z-3.158 I2.01 J1.056 F50
G1 X48.908 Y46.956 Z-3.385
G3 X44.406 Y46.359 Z-3.563 I-2.251 J-0.299
X45.052 Y45.052 Z-3.6 I2.251 J0.299
S24000
G2 X52.881 Y26.15 I-18.902 J-18.902 F150
X26.25 Y-0.381 I-26.531 J0
X26.15 Y52.881 I0 J26.631
X45.052 Y45.052 I0 J-26.731
X45.771 Y40.831 I-2.617 J-2.617
G3 X45.848 Y36.551 I4.295 J-2.064
G2 X6.652 Y15.949 I-19.598 J-10.301
X4.11 Y26.25 I19.598 J10.301
G1 Y26.35
G2 X26.25 Y48.39 I22.14 J-0.1
X45.848 Y36.551 I0 J-22.14
S5000
G3 X50.108 Y37.906 Z-3.758 I2.01 J1.056 F50
G1 X48.908 Y46.956 Z-3.985
G3 X44.406 Y46.359 Z-4.163 I-2.251 J-0.299
X45.052 Y45.052 Z-4.2 I2.251 J0.299
S24000
G2 X52.881 Y26.15 I-18.902 J-18.902 F150
X26.25 Y-0.381 I-26.531 J0
X26.15 Y52.881 I0 J26.631
X45.052 Y45.052 I0 J-26.731
X45.771 Y40.831 I-2.617 J-2.617
G3 X45.848 Y36.551 I4.295 J-2.064
G2 X6.652 Y15.949 I-19.598 J-10.301
X4.11 Y26.25 I19.598 J10.301
G1 Y26.35
G2 X26.25 Y48.39 I22.14 J-0.1
X45.848 Y36.551 I0 J-22.14
S5000
G3 X50.108 Y37.906 Z-4.358 I2.01 J1.056 F50
G1 X48.908 Y46.956 Z-4.585
G3 X44.406 Y46.359 Z-4.763 I-2.251 J-0.299
X45.052 Y45.052 Z-4.8 I2.251 J0.299
S24000
G2 X52.881 Y26.15 I-18.902 J-18.902 F150
X26.25 Y-0.381 I-26.531 J0
X26.15 Y52.881 I0 J26.631
X45.052 Y45.052 I0 J-26.731
X45.771 Y40.831 I-2.617 J-2.617
G3 X45.848 Y36.551 I4.295 J-2.064
G2 X6.652 Y15.949 I-19.598 J-10.301
X4.11 Y26.25 I19.598 J10.301
G1 Y26.35
G2 X26.25 Y48.39 I22.14 J-0.1
X45.848 Y36.551 I0 J-22.14
S5000
G3 X50.108 Y37.906 Z-4.853 I2.01 J1.056 F50
G1 X48.908 Y46.956 Z-4.928
G3 X44.406 Y46.359 Z-4.988 I-2.251 J-0.299
X45.052 Y45.052 Z-5 I2.251 J0.299
S24000
G2 X52.881 Y26.15 I-18.902 J-18.902 F150
X26.25 Y-0.381 I-26.531 J0
X26.15 Y52.881 I0 J26.631
X45.052 Y45.052 I0 J-26.731
X45.771 Y40.831 I-2.617 J-2.617
G3 X45.848 Y36.551 I4.295 J-2.064
G2 X6.652 Y15.949 I-19.598 J-10.301
X4.11 Y26.25 I19.598 J10.301
G1 Y26.35
G2 X26.25 Y48.39 I22.14 J-0.1
X45.848 Y36.551 I0 J-22.14
G1 X45.879 Y36.499 Z-4.988
X45.917 Y36.451 Z-4.976
X45.961 Y36.409 Z-4.964
X46.024 Y36.364 Z-4.912
X46.094 Y36.33 Z-4.86
X46.143 Y36.313 Z-4.782
X46.193 Y36.302 Z-4.705
X46.229 Y36.297 Z-4.522
Z10
(When using Fusion 360 for Personal Use, the feedrate of)
(rapid moves is reduced to match the feedrate of cutting)
(moves, which can increase machining time. Unrestricted rapid)
(moves are available with a Fusion 360 Subscription.)

(2D Contour7)
G0 X26.728 Y-2.824
G1 Z10 F150
Z5
Z1.6 F50
Z-0.122
G19 G3 Y-2.346 Z-0.6 J0.478 K0
G1 Y-1.868
G17 G3 X26.25 Y-1.39 I-0.478 J0
G2 X26.25 Y53.89 I0 J27.64 F150
X26.25 Y-1.39 I0 J-27.64
G3 X25.772 Y-1.868 I0 J-0.478
G1 Y-2.346
G19 G2 Y-2.824 Z-0.122 J0 K0.478
G1 Z5
X26.728
Z1 F50
Z-0.722
G3 Y-2.346 Z-1.2 J0.478 K0
G1 Y-1.868
G17 G3 X26.25 Y-1.39 I-0.478 J0
G2 X26.25 Y53.89 I0 J27.64 F150
X26.25 Y-1.39 I0 J-27.64
G3 X25.772 Y-1.868 I0 J-0.478
G1 Y-2.346
G19 G2 Y-2.824 Z-0.722 J0 K0.478
G1 Z5
X26.728
Z0.4 F50
Z-1.322
G3 Y-2.346 Z-1.8 J0.478 K0
G1 Y-1.868
G17 G3 X26.25 Y-1.39 I-0.478 J0
G2 X26.25 Y53.89 I0 J27.64 F150
X26.25 Y-1.39 I0 J-27.64
G3 X25.772 Y-1.868 I0 J-0.478
G1 Y-2.346
G19 G2 Y-2.824 Z-1.322 J0 K0.478
G1 Z5
X26.728
Z-0.2 F50
Z-1.922
G3 Y-2.346 Z-2.4 J0.478 K0
G1 Y-1.868
G17 G3 X26.25 Y-1.39 I-0.478 J0
G2 X26.25 Y53.89 I0 J27.64 F150
X26.25 Y-1.39 I0 J-27.64
G3 X25.772 Y-1.868 I0 J-0.478
G1 Y-2.346
G19 G2 Y-2.824 Z-1.922 J0 K0.478
G1 Z5
X26.728
Z-0.8 F50
Z-2.522
G3 Y-2.346 Z-3 J0.478 K0
G1 Y-1.868
G17 G3 X26.25 Y-1.39 I-0.478 J0
G2 X26.25 Y53.89 I0 J27.64 F150
X26.25 Y-1.39 I0 J-27.64
G3 X25.772 Y-1.868 I0 J-0.478
G1 Y-2.346
G19 G2 Y-2.824 Z-2.522 J0 K0.478
G1 Z5
X26.728
Z-1.4 F50
Z-3.122
G3 Y-2.346 Z-3.6 J0.478 K0
G1 Y-1.868
G17 G3 X26.25 Y-1.39 I-0.478 J0
G2 X26.25 Y53.89 I0 J27.64 F150
X26.25 Y-1.39 I0 J-27.64
G3 X25.772 Y-1.868 I0 J-0.478
G1 Y-2.346
G19 G2 Y-2.824 Z-3.122 J0 K0.478
G1 Z5
X26.728
Z-2 F50
Z-3.722
G3 Y-2.346 Z-4.2 J0.478 K0
G1 Y-1.868
G17 G3 X26.25 Y-1.39 I-0.478 J0
G2 X26.25 Y53.89 I0 J27.64 F150
X26.25 Y-1.39 I0 J-27.64
G3 X25.772 Y-1.868 I0 J-0.478
G1 Y-2.346
G19 G2 Y-2.824 Z-3.722 J0 K0.478
G1 Z5
X26.728
Z-2.6 F50
Z-4.322
G3 Y-2.346 Z-4.8 J0.478 K0
G1 Y-1.868
G17 G3 X26.25 Y-1.39 I-0.478 J0
G2 X26.25 Y53.89 I0 J27.64 F150
X26.25 Y-1.39 I0 J-27.64
G3 X25.772 Y-1.868 I0 J-0.478
G1 Y-2.346
G19 G2 Y-2.824 Z-4.322 J0 K0.478
G1 Z5
X26.728
Z-3.2 F50
Z-4.922
G3 Y-2.346 Z-5.4 J0.478 K0
G1 Y-1.868
G17 G3 X26.25 Y-1.39 I-0.478 J0
G2 X26.25 Y53.89 I0 J27.64 F150
X26.25 Y-1.39 I0 J-27.64
G3 X25.772 Y-1.868 I0 J-0.478
G1 Y-2.346
G19 G2 Y-2.824 Z-4.922 J0 K0.478
G1 Z5
X26.728
Z-3.8 F50
Z-5.522
G3 Y-2.346 Z-6 J0.478 K0
G1 Y-1.868
G17 G3 X26.25 Y-1.39 I-0.478 J0
G2 X26.25 Y53.89 I0 J27.64 F150
X26.25 Y-1.39 I0 J-27.64
G3 X25.772 Y-1.868 I0 J-0.478
G1 Y-2.346
G19 G2 Y-2.824 Z-5.522 J0 K0.478
G1 Z5
X26.728
Z-4.4 F50
Z-6.122
G3 Y-2.346 Z-6.6 J0.478 K0
G1 Y-1.868
G17 G3 X26.25 Y-1.39 I-0.478 J0
G2 X26.25 Y53.89 I0 J27.64 F150
X26.25 Y-1.39 I0 J-27.64
G3 X25.772 Y-1.868 I0 J-0.478
G1 Y-2.346
G19 G2 Y-2.824 Z-6.122 J0 K0.478
G1 Z5
X26.728
Z-5 F50
Z-6.722
G3 Y-2.346 Z-7.2 J0.478 K0
G1 Y-1.868
G17 G3 X26.25 Y-1.39 I-0.478 J0
G2 X26.25 Y53.89 I0 J27.64 F150
X26.25 Y-1.39 I0 J-27.64
G3 X25.772 Y-1.868 I0 J-0.478
G1 Y-2.346
G19 G2 Y-2.824 Z-6.722 J0 K0.478
G1 Z5
X26.728
Z-5.6 F50
Z-7.322
G3 Y-2.346 Z-7.8 J0.478 K0
G1 Y-1.868
G17 G3 X26.25 Y-1.39 I-0.478 J0
G2 X26.25 Y53.89 I0 J27.64 F150
X26.25 Y-1.39 I0 J-27.64
G3 X25.772 Y-1.868 I0 J-0.478
G1 Y-2.346
G19 G2 Y-2.824 Z-7.322 J0 K0.478
G1 Z5
X26.728
Z-6.2 F50
Z-7.922
G3 Y-2.346 Z-8.4 J0.478 K0
G1 Y-1.868
G17 G3 X26.25 Y-1.39 I-0.478 J0
G2 X26.25 Y53.89 I0 J27.64 F150
X26.25 Y-1.39 I0 J-27.64
G3 X25.772 Y-1.868 I0 J-0.478
G1 Y-2.346
G19 G2 Y-2.824 Z-7.922 J0 K0.478
G1 Z5
X26.728
Z-6.8 F50
Z-8.522
G3 Y-2.346 Z-9 J0.478 K0
G1 Y-1.868
G17 G3 X26.25 Y-1.39 I-0.478 J0
G2 X26.25 Y53.89 I0 J27.64 F150
X26.25 Y-1.39 I0 J-27.64
G3 X25.772 Y-1.868 I0 J-0.478
G1 Y-2.346
G19 G2 Y-2.824 Z-8.522 J0 K0.478
G1 Z10
G17
M9
G28 G91 Z0
G90
G28 G91 X0 Y0
G90
M5
M30
