(actuator_ln_outside)
(T1  D=4.78 CR=2.39 - ZMIN=-8 - ball end mill)
G90 G94
G17
G21
(When using Fusion 360 for Personal Use, the feedrate of)
(rapid moves is reduced to match the feedrate of cutting)
(moves, which can increase machining time. Unrestricted rapid)
(moves are available with a Fusion 360 Subscription.)
G28 G91 Z0
G90

(2D Contour1)
T1
S24000 M3
G54
M8
G0 X20.272 Y44.324
Z10
G1 Z5 F150
Z1.6 F50
Z-0.122
G19 G2 Y43.846 Z-0.6 J-0.478 K0
G1 Y43.368
G17 G3 X20.75 Y42.89 I0.478 J0
G2 X20.75 Y-1.39 I0 J-22.14 F150
X20.75 Y42.89 I0 J22.14
G3 X21.228 Y43.368 I0 J0.478
G1 Y43.846
G19 G3 Y44.324 Z-0.122 J0 K0.478
G1 Z5
X20.272
Z2.859 F50
Z-0.722
G2 Y43.846 Z-1.2 J-0.478 K0
G1 Y43.368
G17 G3 X20.75 Y42.89 I0.478 J0
G2 X20.75 Y-1.39 I0 J-22.14 F150
X20.75 Y42.89 I0 J22.14
G3 X21.228 Y43.368 I0 J0.478
G1 Y43.846
G19 G3 Y44.324 Z-0.722 J0 K0.478
G1 Z5
X20.272
Z2.259 F50
Z-1.322
G2 Y43.846 Z-1.8 J-0.478 K0
G1 Y43.368
G17 G3 X20.75 Y42.89 I0.478 J0
G2 X20.75 Y-1.39 I0 J-22.14 F150
X20.75 Y42.89 I0 J22.14
G3 X21.228 Y43.368 I0 J0.478
G1 Y43.846
G19 G3 Y44.324 Z-1.322 J0 K0.478
G1 Z5
X20.272
Z1.659 F50
Z-1.922
G2 Y43.846 Z-2.4 J-0.478 K0
G1 Y43.368
G17 G3 X20.75 Y42.89 I0.478 J0
G2 X20.75 Y-1.39 I0 J-22.14 F150
X20.75 Y42.89 I0 J22.14
G3 X21.228 Y43.368 I0 J0.478
G1 Y43.846
G19 G3 Y44.324 Z-1.922 J0 K0.478
G1 Z5
X20.272
Z1.059 F50
Z-2.522
G2 Y43.846 Z-3 J-0.478 K0
G1 Y43.368
G17 G3 X20.75 Y42.89 I0.478 J0
G2 X20.75 Y-1.39 I0 J-22.14 F150
X20.75 Y42.89 I0 J22.14
G3 X21.228 Y43.368 I0 J0.478
G1 Y43.846
G19 G3 Y44.324 Z-2.522 J0 K0.478
G1 Z5
X20.272
Z0.459 F50
Z-3.122
G2 Y43.846 Z-3.6 J-0.478 K0
G1 Y43.368
G17 G3 X20.75 Y42.89 I0.478 J0
G2 X20.75 Y-1.39 I0 J-22.14 F150
X20.75 Y42.89 I0 J22.14
G3 X21.228 Y43.368 I0 J0.478
G1 Y43.846
G19 G3 Y44.324 Z-3.122 J0 K0.478
G1 Z5
X20.272
Z-0.141 F50
Z-3.722
G2 Y43.846 Z-4.2 J-0.478 K0
G1 Y43.368
G17 G3 X20.75 Y42.89 I0.478 J0
G2 X20.75 Y-1.39 I0 J-22.14 F150
X20.75 Y42.89 I0 J22.14
G3 X21.228 Y43.368 I0 J0.478
G1 Y43.846
G19 G3 Y44.324 Z-3.722 J0 K0.478
G1 Z5
X20.272
Z-0.741 F50
Z-4.322
G2 Y43.846 Z-4.8 J-0.478 K0
G1 Y43.368
G17 G3 X20.75 Y42.89 I0.478 J0
G2 X20.75 Y-1.39 I0 J-22.14 F150
X20.75 Y42.89 I0 J22.14
G3 X21.228 Y43.368 I0 J0.478
G1 Y43.846
G19 G3 Y44.324 Z-4.322 J0 K0.478
G1 Z5
X20.272
Z-1.341 F50
Z-4.922
G2 Y43.846 Z-5.4 J-0.478 K0
G1 Y43.368
G17 G3 X20.75 Y42.89 I0.478 J0
G2 X20.75 Y-1.39 I0 J-22.14 F150
X20.75 Y42.89 I0 J22.14
G3 X21.228 Y43.368 I0 J0.478
G1 Y43.846
G19 G3 Y44.324 Z-4.922 J0 K0.478
G1 Z5
X20.272
Z-1.941 F50
Z-5.522
G2 Y43.846 Z-6 J-0.478 K0
G1 Y43.368
G17 G3 X20.75 Y42.89 I0.478 J0
G2 X20.75 Y-1.39 I0 J-22.14 F150
X20.75 Y42.89 I0 J22.14
G3 X21.228 Y43.368 I0 J0.478
G1 Y43.846
G19 G3 Y44.324 Z-5.522 J0 K0.478
G1 Z5
X20.272
Z-2.541 F50
Z-6.122
G2 Y43.846 Z-6.6 J-0.478 K0
G1 Y43.368
G17 G3 X20.75 Y42.89 I0.478 J0
G2 X20.75 Y-1.39 I0 J-22.14 F150
X20.75 Y42.89 I0 J22.14
G3 X21.228 Y43.368 I0 J0.478
G1 Y43.846
G19 G3 Y44.324 Z-6.122 J0 K0.478
G1 Z5
X20.272
Z-3.141 F50
Z-6.722
G2 Y43.846 Z-7.2 J-0.478 K0
G1 Y43.368
G17 G3 X20.75 Y42.89 I0.478 J0
G2 X20.75 Y-1.39 I0 J-22.14 F150
X20.75 Y42.89 I0 J22.14
G3 X21.228 Y43.368 I0 J0.478
G1 Y43.846
G19 G3 Y44.324 Z-6.722 J0 K0.478
G1 Z5
X20.272
Z-3.741 F50
Z-7.322
G2 Y43.846 Z-7.8 J-0.478 K0
G1 Y43.368
G17 G3 X20.75 Y42.89 I0.478 J0
G2 X20.75 Y-1.39 I0 J-22.14 F150
X20.75 Y42.89 I0 J22.14
G3 X21.228 Y43.368 I0 J0.478
G1 Y43.846
G19 G3 Y44.324 Z-7.322 J0 K0.478
G1 Z5
X20.272
Z-4.341 F50
Z-7.522
G2 Y43.846 Z-8 J-0.478 K0
G1 Y43.368
G17 G3 X20.75 Y42.89 I0.478 J0
G2 X20.75 Y-1.39 I0 J-22.14 F150
X20.75 Y42.89 I0 J22.14
G3 X21.228 Y43.368 I0 J0.478
G1 Y43.846
G19 G3 Y44.324 Z-7.522 J0 K0.478
G1 Z10
G17
M9
G28 G91 Z0
G90
G28 G91 X0 Y0
G90
M5
M30
