(actuator_ln_inside)
(T1  D=4.78 CR=2.39 - ZMIN=-9 - ball end mill)
G90 G94
G17
G21
(When using Fusion 360 for Personal Use, the feedrate of)
(rapid moves is reduced to match the feedrate of cutting)
(moves, which can increase machining time. Unrestricted rapid)
(moves are available with a Fusion 360 Subscription.)
G28 G91 Z0
G90

(2D Contour2)
T1
S24000 M3
G54
M8
G0 X21.176 Y20.272
Z10
G1 Z5 F150
Z1.6 F50
Z-0.122
G18 G2 X21.654 Z-0.6 I0.478 K0
G1 X22.132
G17 G3 X22.61 Y20.75 I0 J0.478
X18.89 Y20.75 I-1.86 J0 F150
X22.61 Y20.75 I1.86 J0
X22.132 Y21.228 I-0.478 J0
G1 X21.654
G18 G3 X21.176 Z-0.122 I0 K0.478
G1 Z5
Y20.272
Z2.859 F50
Z-0.722
G2 X21.654 Z-1.2 I0.478 K0
G1 X22.132
G17 G3 X22.61 Y20.75 I0 J0.478
X18.89 Y20.75 I-1.86 J0 F150
X22.61 Y20.75 I1.86 J0
X22.132 Y21.228 I-0.478 J0
G1 X21.654
G18 G3 X21.176 Z-0.722 I0 K0.478
G1 Z5
Y20.272
Z2.259 F50
Z-1.322
G2 X21.654 Z-1.8 I0.478 K0
G1 X22.132
G17 G3 X22.61 Y20.75 I0 J0.478
X18.89 Y20.75 I-1.86 J0 F150
X22.61 Y20.75 I1.86 J0
X22.132 Y21.228 I-0.478 J0
G1 X21.654
G18 G3 X21.176 Z-1.322 I0 K0.478
G1 Z5
Y20.272
Z1.659 F50
Z-1.922
G2 X21.654 Z-2.4 I0.478 K0
G1 X22.132
G17 G3 X22.61 Y20.75 I0 J0.478
X18.89 Y20.75 I-1.86 J0 F150
X22.61 Y20.75 I1.86 J0
X22.132 Y21.228 I-0.478 J0
G1 X21.654
G18 G3 X21.176 Z-1.922 I0 K0.478
G1 Z5
Y20.272
Z1.059 F50
Z-2.522
G2 X21.654 Z-3 I0.478 K0
G1 X22.132
G17 G3 X22.61 Y20.75 I0 J0.478
X18.89 Y20.75 I-1.86 J0 F150
X22.61 Y20.75 I1.86 J0
X22.132 Y21.228 I-0.478 J0
G1 X21.654
G18 G3 X21.176 Z-2.522 I0 K0.478
G1 Z5
Y20.272
Z0.459 F50
Z-3.122
G2 X21.654 Z-3.6 I0.478 K0
G1 X22.132
G17 G3 X22.61 Y20.75 I0 J0.478
X18.89 Y20.75 I-1.86 J0 F150
X22.61 Y20.75 I1.86 J0
X22.132 Y21.228 I-0.478 J0
G1 X21.654
G18 G3 X21.176 Z-3.122 I0 K0.478
G1 Z5
Y20.272
Z-0.141 F50
Z-3.722
G2 X21.654 Z-4.2 I0.478 K0
G1 X22.132
G17 G3 X22.61 Y20.75 I0 J0.478
X18.89 Y20.75 I-1.86 J0 F150
X22.61 Y20.75 I1.86 J0
X22.132 Y21.228 I-0.478 J0
G1 X21.654
G18 G3 X21.176 Z-3.722 I0 K0.478
G1 Z5
Y20.272
Z-0.741 F50
Z-4.322
G2 X21.654 Z-4.8 I0.478 K0
G1 X22.132
G17 G3 X22.61 Y20.75 I0 J0.478
X18.89 Y20.75 I-1.86 J0 F150
X22.61 Y20.75 I1.86 J0
X22.132 Y21.228 I-0.478 J0
G1 X21.654
G18 G3 X21.176 Z-4.322 I0 K0.478
G1 Z5
Y20.272
Z-1.341 F50
Z-4.922
G2 X21.654 Z-5.4 I0.478 K0
G1 X22.132
G17 G3 X22.61 Y20.75 I0 J0.478
X18.89 Y20.75 I-1.86 J0 F150
X22.61 Y20.75 I1.86 J0
X22.132 Y21.228 I-0.478 J0
G1 X21.654
G18 G3 X21.176 Z-4.922 I0 K0.478
G1 Z5
Y20.272
Z-1.941 F50
Z-5.522
G2 X21.654 Z-6 I0.478 K0
G1 X22.132
G17 G3 X22.61 Y20.75 I0 J0.478
X18.89 Y20.75 I-1.86 J0 F150
X22.61 Y20.75 I1.86 J0
X22.132 Y21.228 I-0.478 J0
G1 X21.654
G18 G3 X21.176 Z-5.522 I0 K0.478
G1 Z5
Y20.272
Z-2.541 F50
Z-6.122
G2 X21.654 Z-6.6 I0.478 K0
G1 X22.132
G17 G3 X22.61 Y20.75 I0 J0.478
X18.89 Y20.75 I-1.86 J0 F150
X22.61 Y20.75 I1.86 J0
X22.132 Y21.228 I-0.478 J0
G1 X21.654
G18 G3 X21.176 Z-6.122 I0 K0.478
G1 Z5
Y20.272
Z-3.141 F50
Z-6.722
G2 X21.654 Z-7.2 I0.478 K0
G1 X22.132
G17 G3 X22.61 Y20.75 I0 J0.478
X18.89 Y20.75 I-1.86 J0 F150
X22.61 Y20.75 I1.86 J0
X22.132 Y21.228 I-0.478 J0
G1 X21.654
G18 G3 X21.176 Z-6.722 I0 K0.478
G1 Z5
Y20.272
Z-3.741 F50
Z-7.322
G2 X21.654 Z-7.8 I0.478 K0
G1 X22.132
G17 G3 X22.61 Y20.75 I0 J0.478
X18.89 Y20.75 I-1.86 J0 F150
X22.61 Y20.75 I1.86 J0
X22.132 Y21.228 I-0.478 J0
G1 X21.654
G18 G3 X21.176 Z-7.322 I0 K0.478
G1 Z5
Y20.272
Z-4.341 F50
Z-7.922
G2 X21.654 Z-8.4 I0.478 K0
G1 X22.132
G17 G3 X22.61 Y20.75 I0 J0.478
X18.89 Y20.75 I-1.86 J0 F150
X22.61 Y20.75 I1.86 J0
X22.132 Y21.228 I-0.478 J0
G1 X21.654
G18 G3 X21.176 Z-7.922 I0 K0.478
G1 Z5
Y20.272
Z-4.941 F50
Z-8.522
G2 X21.654 Z-9 I0.478 K0
G1 X22.132
G17 G3 X22.61 Y20.75 I0 J0.478
X18.89 Y20.75 I-1.86 J0 F150
X22.61 Y20.75 I1.86 J0
X22.132 Y21.228 I-0.478 J0
G1 X21.654
G18 G3 X21.176 Z-8.522 I0 K0.478
G1 Z10
G17
M9
G28 G91 Z0
G90
G28 G91 X0 Y0
G90
M5
M30
