(actuator_ln_drill)
(T1  D=4.78 CR=2.39 - ZMIN=-9 - ball end mill)
G90 G94
G17
G21
(When using Fusion 360 for Personal Use, the feedrate of)
(rapid moves is reduced to match the feedrate of cutting)
(moves, which can increase machining time. Unrestricted rapid)
(moves are available with a Fusion 360 Subscription.)
G28 G91 Z0
G90

(Bore1)
T1
S24000 M3
G54
M8
G0 X11.75 Y11.75
Z10
G1 Z0.522 F150
Z-1 F50
X11.72 Y11.78
X11.705 Y11.776
X11.694 Y11.765
X11.69 Y11.75
X11.698 Y11.721 Z-1.082 F150
X11.719 Y11.699 Z-1.163
X11.748 Y11.69 Z-1.245
X11.778 Y11.697 Z-1.327
X11.8 Y11.717 Z-1.408
X11.81 Y11.746 Z-1.49
X11.804 Y11.776 Z-1.571
X11.784 Y11.799 Z-1.653
X11.756 Y11.81 Z-1.735
X11.726 Y11.805 Z-1.816
X11.702 Y11.786 Z-1.898
X11.69 Y11.758 Z-1.98
X11.694 Y11.727 Z-2.061
X11.713 Y11.703 Z-2.143
X11.74 Y11.691 Z-2.224
X11.771 Y11.694 Z-2.306
X11.796 Y11.711 Z-2.388
X11.809 Y11.739 Z-2.469
X11.807 Y11.769 Z-2.551
X11.79 Y11.794 Z-2.633
X11.763 Y11.808 Z-2.714
X11.733 Z-2.796
X11.707 Y11.792 Z-2.878
X11.692 Y11.765 Z-2.959
Y11.735 Z-3.041
X11.707 Y11.708 Z-3.122
X11.733 Y11.692 Z-3.204
X11.763 Z-3.286
X11.79 Y11.706 Z-3.367
X11.807 Y11.731 Z-3.449
X11.809 Y11.761 Z-3.531
X11.796 Y11.789 Z-3.612
X11.771 Y11.806 Z-3.694
X11.74 Y11.809 Z-3.776
X11.713 Y11.797 Z-3.857
X11.694 Y11.773 Z-3.939
X11.69 Y11.742 Z-4.02
X11.702 Y11.714 Z-4.102
X11.726 Y11.695 Z-4.184
X11.756 Y11.69 Z-4.265
X11.784 Y11.701 Z-4.347
X11.804 Y11.724 Z-4.429
X11.81 Y11.754 Z-4.51
X11.8 Y11.783 Z-4.592
X11.778 Y11.803 Z-4.673
X11.748 Y11.81 Z-4.755
X11.719 Y11.801 Z-4.837
X11.698 Y11.779 Z-4.918
X11.69 Y11.75 Z-5
X11.698 Y11.721 Z-5.082
X11.719 Y11.699 Z-5.163
X11.748 Y11.69 Z-5.245
X11.778 Y11.697 Z-5.327
X11.8 Y11.717 Z-5.408
X11.81 Y11.746 Z-5.49
X11.804 Y11.776 Z-5.571
X11.784 Y11.799 Z-5.653
X11.756 Y11.81 Z-5.735
X11.726 Y11.805 Z-5.816
X11.702 Y11.786 Z-5.898
X11.69 Y11.758 Z-5.98
X11.694 Y11.727 Z-6.061
X11.713 Y11.703 Z-6.143
X11.74 Y11.691 Z-6.224
X11.771 Y11.694 Z-6.306
X11.796 Y11.711 Z-6.388
X11.809 Y11.739 Z-6.469
X11.807 Y11.769 Z-6.551
X11.79 Y11.794 Z-6.633
X11.763 Y11.808 Z-6.714
X11.733 Z-6.796
X11.707 Y11.792 Z-6.878
X11.692 Y11.765 Z-6.959
Y11.735 Z-7.041
X11.707 Y11.708 Z-7.122
X11.733 Y11.692 Z-7.204
X11.763 Z-7.286
X11.79 Y11.706 Z-7.367
X11.807 Y11.731 Z-7.449
X11.809 Y11.761 Z-7.531
X11.796 Y11.789 Z-7.612
X11.771 Y11.806 Z-7.694
X11.74 Y11.809 Z-7.776
X11.713 Y11.797 Z-7.857
X11.694 Y11.773 Z-7.939
X11.69 Y11.742 Z-8.02
X11.702 Y11.714 Z-8.102
X11.726 Y11.695 Z-8.184
X11.756 Y11.69 Z-8.265
X11.784 Y11.701 Z-8.347
X11.804 Y11.724 Z-8.429
X11.81 Y11.754 Z-8.51
X11.8 Y11.783 Z-8.592
X11.778 Y11.803 Z-8.673
X11.748 Y11.81 Z-8.755
X11.719 Y11.801 Z-8.837
X11.698 Y11.779 Z-8.918
X11.69 Y11.75 Z-9
G3 X11.81 Y11.75 I0.06 J0
X11.69 Y11.75 I-0.06 J0
G1 X11.694 Y11.735
X11.705 Y11.724
X11.72 Y11.72
X11.75 Y11.75
Z5
X29.75
Z0.522
Z-1 F50
X29.72 Y11.78
X29.705 Y11.776
X29.694 Y11.765
X29.69 Y11.75
X29.698 Y11.721 Z-1.082 F150
X29.719 Y11.699 Z-1.163
X29.748 Y11.69 Z-1.245
X29.778 Y11.697 Z-1.327
X29.8 Y11.717 Z-1.408
X29.81 Y11.746 Z-1.49
X29.804 Y11.776 Z-1.571
X29.784 Y11.799 Z-1.653
X29.756 Y11.81 Z-1.735
X29.726 Y11.805 Z-1.816
X29.702 Y11.786 Z-1.898
X29.69 Y11.758 Z-1.98
X29.694 Y11.727 Z-2.061
X29.713 Y11.703 Z-2.143
X29.74 Y11.691 Z-2.224
X29.771 Y11.694 Z-2.306
X29.796 Y11.711 Z-2.388
X29.809 Y11.739 Z-2.469
X29.807 Y11.769 Z-2.551
X29.79 Y11.794 Z-2.633
X29.763 Y11.808 Z-2.714
X29.733 Z-2.796
X29.707 Y11.792 Z-2.878
X29.692 Y11.765 Z-2.959
Y11.735 Z-3.041
X29.707 Y11.708 Z-3.122
X29.733 Y11.692 Z-3.204
X29.763 Z-3.286
X29.79 Y11.706 Z-3.367
X29.807 Y11.731 Z-3.449
X29.809 Y11.761 Z-3.531
X29.796 Y11.789 Z-3.612
X29.771 Y11.806 Z-3.694
X29.74 Y11.809 Z-3.776
X29.713 Y11.797 Z-3.857
X29.694 Y11.773 Z-3.939
X29.69 Y11.742 Z-4.02
X29.702 Y11.714 Z-4.102
X29.726 Y11.695 Z-4.184
X29.756 Y11.69 Z-4.265
X29.784 Y11.701 Z-4.347
X29.804 Y11.724 Z-4.429
X29.81 Y11.754 Z-4.51
X29.8 Y11.783 Z-4.592
X29.778 Y11.803 Z-4.673
X29.748 Y11.81 Z-4.755
X29.719 Y11.801 Z-4.837
X29.698 Y11.779 Z-4.918
X29.69 Y11.75 Z-5
X29.698 Y11.721 Z-5.082
X29.719 Y11.699 Z-5.163
X29.748 Y11.69 Z-5.245
X29.778 Y11.697 Z-5.327
X29.8 Y11.717 Z-5.408
X29.81 Y11.746 Z-5.49
X29.804 Y11.776 Z-5.571
X29.784 Y11.799 Z-5.653
X29.756 Y11.81 Z-5.735
X29.726 Y11.805 Z-5.816
X29.702 Y11.786 Z-5.898
X29.69 Y11.758 Z-5.98
X29.694 Y11.727 Z-6.061
X29.713 Y11.703 Z-6.143
X29.74 Y11.691 Z-6.224
X29.771 Y11.694 Z-6.306
X29.796 Y11.711 Z-6.388
X29.809 Y11.739 Z-6.469
X29.807 Y11.769 Z-6.551
X29.79 Y11.794 Z-6.633
X29.763 Y11.808 Z-6.714
X29.733 Z-6.796
X29.707 Y11.792 Z-6.878
X29.692 Y11.765 Z-6.959
Y11.735 Z-7.041
X29.707 Y11.708 Z-7.122
X29.733 Y11.692 Z-7.204
X29.763 Z-7.286
X29.79 Y11.706 Z-7.367
X29.807 Y11.731 Z-7.449
X29.809 Y11.761 Z-7.531
X29.796 Y11.789 Z-7.612
X29.771 Y11.806 Z-7.694
X29.74 Y11.809 Z-7.776
X29.713 Y11.797 Z-7.857
X29.694 Y11.773 Z-7.939
X29.69 Y11.742 Z-8.02
X29.702 Y11.714 Z-8.102
X29.726 Y11.695 Z-8.184
X29.756 Y11.69 Z-8.265
X29.784 Y11.701 Z-8.347
X29.804 Y11.724 Z-8.429
X29.81 Y11.754 Z-8.51
X29.8 Y11.783 Z-8.592
X29.778 Y11.803 Z-8.673
X29.748 Y11.81 Z-8.755
X29.719 Y11.801 Z-8.837
X29.698 Y11.779 Z-8.918
X29.69 Y11.75 Z-9
G3 X29.81 Y11.75 I0.06 J0
X29.69 Y11.75 I-0.06 J0
G1 X29.694 Y11.735
X29.705 Y11.724
X29.72 Y11.72
X29.75 Y11.75
Z5
Y29.75
Z0.522
Z-1 F50
X29.72 Y29.78
X29.705 Y29.776
X29.694 Y29.765
X29.69 Y29.75
X29.698 Y29.721 Z-1.082 F150
X29.719 Y29.699 Z-1.163
X29.748 Y29.69 Z-1.245
X29.778 Y29.697 Z-1.327
X29.8 Y29.717 Z-1.408
X29.81 Y29.746 Z-1.49
X29.804 Y29.776 Z-1.571
X29.784 Y29.799 Z-1.653
X29.756 Y29.81 Z-1.735
X29.726 Y29.805 Z-1.816
X29.702 Y29.786 Z-1.898
X29.69 Y29.758 Z-1.98
X29.694 Y29.727 Z-2.061
X29.713 Y29.703 Z-2.143
X29.74 Y29.691 Z-2.224
X29.771 Y29.694 Z-2.306
X29.796 Y29.711 Z-2.388
X29.809 Y29.739 Z-2.469
X29.807 Y29.769 Z-2.551
X29.79 Y29.794 Z-2.633
X29.763 Y29.808 Z-2.714
X29.733 Z-2.796
X29.707 Y29.792 Z-2.878
X29.692 Y29.765 Z-2.959
Y29.735 Z-3.041
X29.707 Y29.708 Z-3.122
X29.733 Y29.692 Z-3.204
X29.763 Z-3.286
X29.79 Y29.706 Z-3.367
X29.807 Y29.731 Z-3.449
X29.809 Y29.761 Z-3.531
X29.796 Y29.789 Z-3.612
X29.771 Y29.806 Z-3.694
X29.74 Y29.809 Z-3.776
X29.713 Y29.797 Z-3.857
X29.694 Y29.773 Z-3.939
X29.69 Y29.742 Z-4.02
X29.702 Y29.714 Z-4.102
X29.726 Y29.695 Z-4.184
X29.756 Y29.69 Z-4.265
X29.784 Y29.701 Z-4.347
X29.804 Y29.724 Z-4.429
X29.81 Y29.754 Z-4.51
X29.8 Y29.783 Z-4.592
X29.778 Y29.803 Z-4.673
X29.748 Y29.81 Z-4.755
X29.719 Y29.801 Z-4.837
X29.698 Y29.779 Z-4.918
X29.69 Y29.75 Z-5
X29.698 Y29.721 Z-5.082
X29.719 Y29.699 Z-5.163
X29.748 Y29.69 Z-5.245
X29.778 Y29.697 Z-5.327
X29.8 Y29.717 Z-5.408
X29.81 Y29.746 Z-5.49
X29.804 Y29.776 Z-5.571
X29.784 Y29.799 Z-5.653
X29.756 Y29.81 Z-5.735
X29.726 Y29.805 Z-5.816
X29.702 Y29.786 Z-5.898
X29.69 Y29.758 Z-5.98
X29.694 Y29.727 Z-6.061
X29.713 Y29.703 Z-6.143
X29.74 Y29.691 Z-6.224
X29.771 Y29.694 Z-6.306
X29.796 Y29.711 Z-6.388
X29.809 Y29.739 Z-6.469
X29.807 Y29.769 Z-6.551
X29.79 Y29.794 Z-6.633
X29.763 Y29.808 Z-6.714
X29.733 Z-6.796
X29.707 Y29.792 Z-6.878
X29.692 Y29.765 Z-6.959
Y29.735 Z-7.041
X29.707 Y29.708 Z-7.122
X29.733 Y29.692 Z-7.204
X29.763 Z-7.286
X29.79 Y29.706 Z-7.367
X29.807 Y29.731 Z-7.449
X29.809 Y29.761 Z-7.531
X29.796 Y29.789 Z-7.612
X29.771 Y29.806 Z-7.694
X29.74 Y29.809 Z-7.776
X29.713 Y29.797 Z-7.857
X29.694 Y29.773 Z-7.939
X29.69 Y29.742 Z-8.02
X29.702 Y29.714 Z-8.102
X29.726 Y29.695 Z-8.184
X29.756 Y29.69 Z-8.265
X29.784 Y29.701 Z-8.347
X29.804 Y29.724 Z-8.429
X29.81 Y29.754 Z-8.51
X29.8 Y29.783 Z-8.592
X29.778 Y29.803 Z-8.673
X29.748 Y29.81 Z-8.755
X29.719 Y29.801 Z-8.837
X29.698 Y29.779 Z-8.918
X29.69 Y29.75 Z-9
G3 X29.81 Y29.75 I0.06 J0
X29.69 Y29.75 I-0.06 J0
G1 X29.694 Y29.735
X29.705 Y29.724
X29.72 Y29.72
X29.75 Y29.75
Z5
X11.75
Z0.522
Z-1 F50
X11.72 Y29.78
X11.705 Y29.776
X11.694 Y29.765
X11.69 Y29.75
X11.698 Y29.721 Z-1.082 F150
X11.719 Y29.699 Z-1.163
X11.748 Y29.69 Z-1.245
X11.778 Y29.697 Z-1.327
X11.8 Y29.717 Z-1.408
X11.81 Y29.746 Z-1.49
X11.804 Y29.776 Z-1.571
X11.784 Y29.799 Z-1.653
X11.756 Y29.81 Z-1.735
X11.726 Y29.805 Z-1.816
X11.702 Y29.786 Z-1.898
X11.69 Y29.758 Z-1.98
X11.694 Y29.727 Z-2.061
X11.713 Y29.703 Z-2.143
X11.74 Y29.691 Z-2.224
X11.771 Y29.694 Z-2.306
X11.796 Y29.711 Z-2.388
X11.809 Y29.739 Z-2.469
X11.807 Y29.769 Z-2.551
X11.79 Y29.794 Z-2.633
X11.763 Y29.808 Z-2.714
X11.733 Z-2.796
X11.707 Y29.792 Z-2.878
X11.692 Y29.765 Z-2.959
Y29.735 Z-3.041
X11.707 Y29.708 Z-3.122
X11.733 Y29.692 Z-3.204
X11.763 Z-3.286
X11.79 Y29.706 Z-3.367
X11.807 Y29.731 Z-3.449
X11.809 Y29.761 Z-3.531
X11.796 Y29.789 Z-3.612
X11.771 Y29.806 Z-3.694
X11.74 Y29.809 Z-3.776
X11.713 Y29.797 Z-3.857
X11.694 Y29.773 Z-3.939
X11.69 Y29.742 Z-4.02
X11.702 Y29.714 Z-4.102
X11.726 Y29.695 Z-4.184
X11.756 Y29.69 Z-4.265
X11.784 Y29.701 Z-4.347
X11.804 Y29.724 Z-4.429
X11.81 Y29.754 Z-4.51
X11.8 Y29.783 Z-4.592
X11.778 Y29.803 Z-4.673
X11.748 Y29.81 Z-4.755
X11.719 Y29.801 Z-4.837
X11.698 Y29.779 Z-4.918
X11.69 Y29.75 Z-5
X11.698 Y29.721 Z-5.082
X11.719 Y29.699 Z-5.163
X11.748 Y29.69 Z-5.245
X11.778 Y29.697 Z-5.327
X11.8 Y29.717 Z-5.408
X11.81 Y29.746 Z-5.49
X11.804 Y29.776 Z-5.571
X11.784 Y29.799 Z-5.653
X11.756 Y29.81 Z-5.735
X11.726 Y29.805 Z-5.816
X11.702 Y29.786 Z-5.898
X11.69 Y29.758 Z-5.98
X11.694 Y29.727 Z-6.061
X11.713 Y29.703 Z-6.143
X11.74 Y29.691 Z-6.224
X11.771 Y29.694 Z-6.306
X11.796 Y29.711 Z-6.388
X11.809 Y29.739 Z-6.469
X11.807 Y29.769 Z-6.551
X11.79 Y29.794 Z-6.633
X11.763 Y29.808 Z-6.714
X11.733 Z-6.796
X11.707 Y29.792 Z-6.878
X11.692 Y29.765 Z-6.959
Y29.735 Z-7.041
X11.707 Y29.708 Z-7.122
X11.733 Y29.692 Z-7.204
X11.763 Z-7.286
X11.79 Y29.706 Z-7.367
X11.807 Y29.731 Z-7.449
X11.809 Y29.761 Z-7.531
X11.796 Y29.789 Z-7.612
X11.771 Y29.806 Z-7.694
X11.74 Y29.809 Z-7.776
X11.713 Y29.797 Z-7.857
X11.694 Y29.773 Z-7.939
X11.69 Y29.742 Z-8.02
X11.702 Y29.714 Z-8.102
X11.726 Y29.695 Z-8.184
X11.756 Y29.69 Z-8.265
X11.784 Y29.701 Z-8.347
X11.804 Y29.724 Z-8.429
X11.81 Y29.754 Z-8.51
X11.8 Y29.783 Z-8.592
X11.778 Y29.803 Z-8.673
X11.748 Y29.81 Z-8.755
X11.719 Y29.801 Z-8.837
X11.698 Y29.779 Z-8.918
X11.69 Y29.75 Z-9
G3 X11.81 Y29.75 I0.06 J0
X11.69 Y29.75 I-0.06 J0
G1 X11.694 Y29.735
X11.705 Y29.724
X11.72 Y29.72
X11.75 Y29.75
Z10
M9
G28 G91 Z0
G90
G28 G91 X0 Y0
G90
M5
M30
