(nema_17_mount_full)
(Machine)
(  vendor: Autodesk)
(  model: Generic 3-axis)
(  description: This machine has XY axis on the Table and Z axis on the Head)
(T1  D=4.76 CR=0 - ZMIN=-9 - flat end mill)
G90 G94
G17
G21
(When using Fusion 360 for Personal Use, the feedrate of)
(rapid moves is reduced to match the feedrate of cutting)
(moves, which can increase machining time. Unrestricted rapid)
(moves are available with a Fusion 360 Subscription.)
G28 G91 Z0
G90

(2D Pocket1)
T1
S24000 M3
G54
M8
G0 X39.953 Y29.782
Z10
G1 Z5 F150
Z2.976 F50
S5000
X39.987 Y29.776 Z2.797
X40.085 Y29.76 Z2.645
X40.233 Y29.745 Z2.541
X40.409 Y29.739 Z2.5
G3 X40.376 Y34.261 Z2.252 I-0.017 J2.261
X40.409 Y29.739 Z2.004 I0.017 J-2.261
X40.376 Y34.261 Z1.756 I-0.017 J2.261
X40.409 Y29.739 Z1.508 I0.017 J-2.261
X40.376 Y34.261 Z1.26 I-0.017 J2.261
X40.409 Y29.739 Z1.012 I0.017 J-2.261
X40.376 Y34.261 Z0.764 I-0.017 J2.261
X40.409 Y29.739 Z0.516 I0.017 J-2.261
X40.376 Y34.261 Z0.268 I-0.017 J2.261
X40.409 Y29.739 Z0.02 I0.017 J-2.261
X40.376 Y34.261 Z-0.229 I-0.017 J2.261
X40.409 Y29.739 Z-0.477 I0.017 J-2.261
X42.654 Y32 Z-0.6 I-0.017 J2.261
S24000
X21.346 Y32 I-10.654 J0 F150
X42.654 Y32 I10.654 J0
G2 X44.501 Y35.046 I3.434 J0
G3 X45.64 Y38.421 I-1.188 J2.28
X18.36 Y25.579 I-13.64 J-6.421
X45.64 Y38.421 I13.64 J6.421
G2 X46.06 Y42.059 I3.143 J1.48
G3 X45.859 Y45.715 I-2.164 J1.714
X18.141 Y18.285 I-13.859 J-13.715
X45.859 Y45.715 I13.859 J13.715
G2 X45.04 Y49.388 I2.514 J2.488
G3 X43.717 Y52.91 I-2.749 J0.978
X20.283 Y11.09 I-11.717 J-20.91
X43.717 Y52.91 I11.717 J20.91
S5000
X40.366 Y51.201 Z-0.686 I-1.105 J-1.972 F50
G1 X38.147 Y32.263 Z-1.057
G3 X40.261 Y29.743 Z-1.128 I2.246 J-0.263
X42.654 Y32 Z-1.2 I0.132 J2.257
S24000
X21.346 Y32 I-10.654 J0 F150
X42.654 Y32 I10.654 J0
G2 X44.501 Y35.046 I3.434 J0
G3 X45.64 Y38.421 I-1.188 J2.28
X18.36 Y25.579 I-13.64 J-6.421
X45.64 Y38.421 I13.64 J6.421
G2 X46.06 Y42.059 I3.143 J1.48
G3 X45.859 Y45.715 I-2.164 J1.714
X18.141 Y18.285 I-13.859 J-13.715
X45.859 Y45.715 I13.859 J13.715
G2 X45.04 Y49.388 I2.514 J2.488
G3 X43.717 Y52.91 I-2.749 J0.978
X20.283 Y11.09 I-11.717 J-20.91
X43.717 Y52.91 I11.717 J20.91
S5000
X40.366 Y51.201 Z-1.286 I-1.105 J-1.972 F50
G1 X38.147 Y32.263 Z-1.657
G3 X40.261 Y29.743 Z-1.728 I2.246 J-0.263
X42.654 Y32 Z-1.8 I0.132 J2.257
S24000
X21.346 Y32 I-10.654 J0 F150
X42.654 Y32 I10.654 J0
G2 X44.501 Y35.046 I3.434 J0
G3 X45.64 Y38.421 I-1.188 J2.28
X18.36 Y25.579 I-13.64 J-6.421
X45.64 Y38.421 I13.64 J6.421
G2 X46.06 Y42.059 I3.143 J1.48
G3 X45.859 Y45.715 I-2.164 J1.714
X18.141 Y18.285 I-13.859 J-13.715
X45.859 Y45.715 I13.859 J13.715
G2 X45.04 Y49.388 I2.514 J2.488
G3 X43.717 Y52.91 I-2.749 J0.978
X20.283 Y11.09 I-11.717 J-20.91
X43.717 Y52.91 I11.717 J20.91
S5000
X40.366 Y51.201 Z-1.886 I-1.105 J-1.972 F50
G1 X38.147 Y32.263 Z-2.257
G3 X40.261 Y29.743 Z-2.328 I2.246 J-0.263
X42.654 Y32 Z-2.4 I0.132 J2.257
S24000
X21.346 Y32 I-10.654 J0 F150
X42.654 Y32 I10.654 J0
G2 X44.501 Y35.046 I3.434 J0
G3 X45.64 Y38.421 I-1.188 J2.28
X18.36 Y25.579 I-13.64 J-6.421
X45.64 Y38.421 I13.64 J6.421
G2 X46.06 Y42.059 I3.143 J1.48
G3 X45.859 Y45.715 I-2.164 J1.714
X18.141 Y18.285 I-13.859 J-13.715
X45.859 Y45.715 I13.859 J13.715
G2 X45.04 Y49.388 I2.514 J2.488
G3 X43.717 Y52.91 I-2.749 J0.978
X20.283 Y11.09 I-11.717 J-20.91
X43.717 Y52.91 I11.717 J20.91
S5000
X40.366 Y51.201 Z-2.486 I-1.105 J-1.972 F50
G1 X38.147 Y32.263 Z-2.857
G3 X40.261 Y29.743 Z-2.928 I2.246 J-0.263
X42.654 Y32 Z-3 I0.132 J2.257
S24000
X21.346 Y32 I-10.654 J0 F150
X42.654 Y32 I10.654 J0
G2 X44.501 Y35.046 I3.434 J0
G3 X45.64 Y38.421 I-1.188 J2.28
X18.36 Y25.579 I-13.64 J-6.421
X45.64 Y38.421 I13.64 J6.421
G2 X46.06 Y42.059 I3.143 J1.48
G3 X45.859 Y45.715 I-2.164 J1.714
X18.141 Y18.285 I-13.859 J-13.715
X45.859 Y45.715 I13.859 J13.715
G2 X45.04 Y49.388 I2.514 J2.488
G3 X43.717 Y52.91 I-2.749 J0.978
X20.283 Y11.09 I-11.717 J-20.91
X43.717 Y52.91 I11.717 J20.91
S5000
X40.366 Y51.201 Z-3.086 I-1.105 J-1.972 F50
G1 X38.147 Y32.263 Z-3.457
G3 X40.261 Y29.743 Z-3.528 I2.246 J-0.263
X42.654 Y32 Z-3.6 I0.132 J2.257
S24000
X21.346 Y32 I-10.654 J0 F150
X42.654 Y32 I10.654 J0
G2 X44.501 Y35.046 I3.434 J0
G3 X45.64 Y38.421 I-1.188 J2.28
X18.36 Y25.579 I-13.64 J-6.421
X45.64 Y38.421 I13.64 J6.421
G2 X46.06 Y42.059 I3.143 J1.48
G3 X45.859 Y45.715 I-2.164 J1.714
X18.141 Y18.285 I-13.859 J-13.715
X45.859 Y45.715 I13.859 J13.715
G2 X45.04 Y49.388 I2.514 J2.488
G3 X43.717 Y52.91 I-2.749 J0.978
X20.283 Y11.09 I-11.717 J-20.91
X43.717 Y52.91 I11.717 J20.91
S5000
X40.366 Y51.201 Z-3.686 I-1.105 J-1.972 F50
G1 X38.147 Y32.263 Z-4.057
G3 X40.261 Y29.743 Z-4.128 I2.246 J-0.263
X42.654 Y32 Z-4.2 I0.132 J2.257
S24000
X21.346 Y32 I-10.654 J0 F150
X42.654 Y32 I10.654 J0
G2 X44.501 Y35.046 I3.434 J0
G3 X45.64 Y38.421 I-1.188 J2.28
X18.36 Y25.579 I-13.64 J-6.421
X45.64 Y38.421 I13.64 J6.421
G2 X46.06 Y42.059 I3.143 J1.48
G3 X45.859 Y45.715 I-2.164 J1.714
X18.141 Y18.285 I-13.859 J-13.715
X45.859 Y45.715 I13.859 J13.715
G2 X45.04 Y49.388 I2.514 J2.488
G3 X43.717 Y52.91 I-2.749 J0.978
X20.283 Y11.09 I-11.717 J-20.91
X43.717 Y52.91 I11.717 J20.91
S5000
X40.366 Y51.201 Z-4.286 I-1.105 J-1.972 F50
G1 X38.147 Y32.263 Z-4.657
G3 X40.261 Y29.743 Z-4.728 I2.246 J-0.263
X42.654 Y32 Z-4.8 I0.132 J2.257
S24000
X21.346 Y32 I-10.654 J0 F150
X42.654 Y32 I10.654 J0
G2 X44.501 Y35.046 I3.434 J0
G3 X45.64 Y38.421 I-1.188 J2.28
X18.36 Y25.579 I-13.64 J-6.421
X45.64 Y38.421 I13.64 J6.421
G2 X46.06 Y42.059 I3.143 J1.48
G3 X45.859 Y45.715 I-2.164 J1.714
X18.141 Y18.285 I-13.859 J-13.715
X45.859 Y45.715 I13.859 J13.715
G2 X45.04 Y49.388 I2.514 J2.488
G3 X43.717 Y52.91 I-2.749 J0.978
X20.283 Y11.09 I-11.717 J-20.91
X43.717 Y52.91 I11.717 J20.91
S5000
X40.366 Y51.201 Z-4.85 I-1.105 J-1.972 F50
G1 X38.147 Y32.263 Z-5.066
G3 X40.261 Y29.743 Z-5.108 I2.246 J-0.263
X42.654 Y32 Z-5.15 I0.132 J2.257
S24000
X21.346 Y32 I-10.654 J0 F150
X42.654 Y32 I10.654 J0
G2 X44.501 Y35.046 I3.434 J0
G3 X45.64 Y38.421 I-1.188 J2.28
X18.36 Y25.579 I-13.64 J-6.421
X45.64 Y38.421 I13.64 J6.421
G2 X46.06 Y42.059 I3.143 J1.48
G3 X45.859 Y45.715 I-2.164 J1.714
X18.141 Y18.285 I-13.859 J-13.715
X45.859 Y45.715 I13.859 J13.715
G2 X45.04 Y49.388 I2.514 J2.488
G3 X43.717 Y52.91 I-2.749 J0.978
X20.283 Y11.09 I-11.717 J-20.91
X43.717 Y52.91 I11.717 J20.91
S5000
X40.366 Y51.201 Z-5.2 I-1.105 J-1.972 F50
G1 X38.147 Y32.263 Z-5.416
G3 X40.261 Y29.743 Z-5.458 I2.246 J-0.263
X42.654 Y32 Z-5.5 I0.132 J2.257
S24000
X21.346 Y32 I-10.654 J0 F150
X42.654 Y32 I10.654 J0
G2 X44.501 Y35.046 I3.434 J0
G3 X45.64 Y38.421 I-1.188 J2.28
X18.36 Y25.579 I-13.64 J-6.421
X45.64 Y38.421 I13.64 J6.421
G2 X46.06 Y42.059 I3.143 J1.48
G3 X45.859 Y45.715 I-2.164 J1.714
X18.141 Y18.285 I-13.859 J-13.715
X45.859 Y45.715 I13.859 J13.715
G2 X45.04 Y49.388 I2.514 J2.488
G3 X43.717 Y52.91 I-2.749 J0.978
X20.283 Y11.09 I-11.717 J-20.91
X43.717 Y52.91 I11.717 J20.91
G1 X43.663 Y52.937 Z-5.488
X43.605 Y52.956 Z-5.476
X43.545 Y52.967 Z-5.464
X43.468 Y52.971 Z-5.412
X43.392 Y52.962 Z-5.361
X43.342 Y52.949 Z-5.283
X43.294 Y52.931 Z-5.206
X43.261 Y52.915 Z-5.024
Z10
(When using Fusion 360 for Personal Use, the feedrate of)
(rapid moves is reduced to match the feedrate of cutting)
(moves, which can increase machining time. Unrestricted rapid)
(moves are available with a Fusion 360 Subscription.)

(2D Contour3)
G0 X39.567 Y31.524
G1 Z4 F150
Z2
Z1.6 F50
Z-0.124
G18 G2 X40.043 Z-0.6 I0.476 K0
G1 X40.519
G17 G3 X40.995 Y32 I0 J0.476
X23.005 Y32 I-8.995 J0 F150
X40.995 Y32 I8.995 J0
X40.519 Y32.476 I-0.476 J0
G1 X40.043
G18 G3 X39.567 Z-0.124 I0 K0.476
G1 Z2
Y31.524
Z1 F50
Z-0.724
G2 X40.043 Z-1.2 I0.476 K0
G1 X40.519
G17 G3 X40.995 Y32 I0 J0.476
X23.005 Y32 I-8.995 J0 F150
X40.995 Y32 I8.995 J0
X40.519 Y32.476 I-0.476 J0
G1 X40.043
G18 G3 X39.567 Z-0.724 I0 K0.476
G1 Z2
Y31.524
Z0.4 F50
Z-1.324
G2 X40.043 Z-1.8 I0.476 K0
G1 X40.519
G17 G3 X40.995 Y32 I0 J0.476
X23.005 Y32 I-8.995 J0 F150
X40.995 Y32 I8.995 J0
X40.519 Y32.476 I-0.476 J0
G1 X40.043
G18 G3 X39.567 Z-1.324 I0 K0.476
G1 Z2
Y31.524
Z-0.2 F50
Z-1.924
G2 X40.043 Z-2.4 I0.476 K0
G1 X40.519
G17 G3 X40.995 Y32 I0 J0.476
X23.005 Y32 I-8.995 J0 F150
X40.995 Y32 I8.995 J0
X40.519 Y32.476 I-0.476 J0
G1 X40.043
G18 G3 X39.567 Z-1.924 I0 K0.476
G1 Z2
Y31.524
Z-0.8 F50
Z-2.524
G2 X40.043 Z-3 I0.476 K0
G1 X40.519
G17 G3 X40.995 Y32 I0 J0.476
X23.005 Y32 I-8.995 J0 F150
X40.995 Y32 I8.995 J0
X40.519 Y32.476 I-0.476 J0
G1 X40.043
G18 G3 X39.567 Z-2.524 I0 K0.476
G1 Z2
Y31.524
Z-1.4 F50
Z-3.124
G2 X40.043 Z-3.6 I0.476 K0
G1 X40.519
G17 G3 X40.995 Y32 I0 J0.476
X23.005 Y32 I-8.995 J0 F150
X40.995 Y32 I8.995 J0
X40.519 Y32.476 I-0.476 J0
G1 X40.043
G18 G3 X39.567 Z-3.124 I0 K0.476
G1 Z2
Y31.524
Z-2 F50
Z-3.724
G2 X40.043 Z-4.2 I0.476 K0
G1 X40.519
G17 G3 X40.995 Y32 I0 J0.476
X23.005 Y32 I-8.995 J0 F150
X40.995 Y32 I8.995 J0
X40.519 Y32.476 I-0.476 J0
G1 X40.043
G18 G3 X39.567 Z-3.724 I0 K0.476
G1 Z2
Y31.524
Z-2.6 F50
Z-4.324
G2 X40.043 Z-4.8 I0.476 K0
G1 X40.519
G17 G3 X40.995 Y32 I0 J0.476
X23.005 Y32 I-8.995 J0 F150
X40.995 Y32 I8.995 J0
X40.519 Y32.476 I-0.476 J0
G1 X40.043
G18 G3 X39.567 Z-4.324 I0 K0.476
G1 Z2
Y31.524
Z-3.2 F50
Z-4.924
G2 X40.043 Z-5.4 I0.476 K0
G1 X40.519
G17 G3 X40.995 Y32 I0 J0.476
X23.005 Y32 I-8.995 J0 F150
X40.995 Y32 I8.995 J0
X40.519 Y32.476 I-0.476 J0
G1 X40.043
G18 G3 X39.567 Z-4.924 I0 K0.476
G1 Z2
Y31.524
Z-3.8 F50
Z-5.524
G2 X40.043 Z-6 I0.476 K0
G1 X40.519
G17 G3 X40.995 Y32 I0 J0.476
X23.005 Y32 I-8.995 J0 F150
X40.995 Y32 I8.995 J0
X40.519 Y32.476 I-0.476 J0
G1 X40.043
G18 G3 X39.567 Z-5.524 I0 K0.476
G1 Z2
Y31.524
Z-4.4 F50
Z-6.124
G2 X40.043 Z-6.6 I0.476 K0
G1 X40.519
G17 G3 X40.995 Y32 I0 J0.476
X23.005 Y32 I-8.995 J0 F150
X40.995 Y32 I8.995 J0
X40.519 Y32.476 I-0.476 J0
G1 X40.043
G18 G3 X39.567 Z-6.124 I0 K0.476
G1 Z2
Y31.524
Z-5 F50
Z-6.724
G2 X40.043 Z-7.2 I0.476 K0
G1 X40.519
G17 G3 X40.995 Y32 I0 J0.476
X23.005 Y32 I-8.995 J0 F150
X40.995 Y32 I8.995 J0
X40.519 Y32.476 I-0.476 J0
G1 X40.043
G18 G3 X39.567 Z-6.724 I0 K0.476
G1 Z2
Y31.524
Z-5.6 F50
Z-7.324
G2 X40.043 Z-7.8 I0.476 K0
G1 X40.519
G17 G3 X40.995 Y32 I0 J0.476
X23.005 Y32 I-8.995 J0 F150
X40.995 Y32 I8.995 J0
X40.519 Y32.476 I-0.476 J0
G1 X40.043
G18 G3 X39.567 Z-7.324 I0 K0.476
G1 Z2
Y31.524
Z-6.2 F50
Z-7.924
G2 X40.043 Z-8.4 I0.476 K0
G1 X40.519
G17 G3 X40.995 Y32 I0 J0.476
X23.005 Y32 I-8.995 J0 F150
X40.995 Y32 I8.995 J0
X40.519 Y32.476 I-0.476 J0
G1 X40.043
G18 G3 X39.567 Z-7.924 I0 K0.476
G1 Z2
Y31.524
Z-6.8 F50
Z-8.524
G2 X40.043 Z-9 I0.476 K0
G1 X40.519
G17 G3 X40.995 Y32 I0 J0.476
X23.005 Y32 I-8.995 J0 F150
X40.995 Y32 I8.995 J0
X40.519 Y32.476 I-0.476 J0
G1 X40.043
G18 G3 X39.567 Z-8.524 I0 K0.476
G1 Z4
G17
(When using Fusion 360 for Personal Use, the feedrate of)
(rapid moves is reduced to match the feedrate of cutting)
(moves, which can increase machining time. Unrestricted rapid)
(moves are available with a Fusion 360 Subscription.)

(2D Contour4)
G0 Z10
X69.808 Y32.476
G1 Z5 F150
Z1.6 F50
Z-0.124
G18 G3 X69.332 Z-0.6 I-0.476 K0
G1 X68.856
G17 G3 X68.38 Y32 I0 J-0.476
G1 Y1 F150
G2 X66 Y-1.38 I-2.38 J0
G1 X1
G2 X-1.38 Y1 I0 J2.38
G1 Y63
G2 X1 Y65.38 I2.38 J0
G1 X66
G2 X68.38 Y63 I0 J-2.38
G1 Y32
G3 X68.856 Y31.524 I0.476 J0
G1 X69.332
G18 G2 X69.808 Z-0.124 I0 K0.476
G1 Z5
Y32.476
Z1 F50
Z-0.724
G3 X69.332 Z-1.2 I-0.476 K0
G1 X68.856
G17 G3 X68.38 Y32 I0 J-0.476
G1 Y1 F150
G2 X66 Y-1.38 I-2.38 J0
G1 X1
G2 X-1.38 Y1 I0 J2.38
G1 Y63
G2 X1 Y65.38 I2.38 J0
G1 X66
G2 X68.38 Y63 I0 J-2.38
G1 Y32
G3 X68.856 Y31.524 I0.476 J0
G1 X69.332
G18 G2 X69.808 Z-0.724 I0 K0.476
G1 Z5
Y32.476
Z0.4 F50
Z-1.324
G3 X69.332 Z-1.8 I-0.476 K0
G1 X68.856
G17 G3 X68.38 Y32 I0 J-0.476
G1 Y1 F150
G2 X66 Y-1.38 I-2.38 J0
G1 X1
G2 X-1.38 Y1 I0 J2.38
G1 Y63
G2 X1 Y65.38 I2.38 J0
G1 X66
G2 X68.38 Y63 I0 J-2.38
G1 Y32
G3 X68.856 Y31.524 I0.476 J0
G1 X69.332
G18 G2 X69.808 Z-1.324 I0 K0.476
G1 Z5
Y32.476
Z-0.2 F50
Z-1.924
G3 X69.332 Z-2.4 I-0.476 K0
G1 X68.856
G17 G3 X68.38 Y32 I0 J-0.476
G1 Y1 F150
G2 X66 Y-1.38 I-2.38 J0
G1 X1
G2 X-1.38 Y1 I0 J2.38
G1 Y63
G2 X1 Y65.38 I2.38 J0
G1 X66
G2 X68.38 Y63 I0 J-2.38
G1 Y32
G3 X68.856 Y31.524 I0.476 J0
G1 X69.332
G18 G2 X69.808 Z-1.924 I0 K0.476
G1 Z5
Y32.476
Z-0.8 F50
Z-2.524
G3 X69.332 Z-3 I-0.476 K0
G1 X68.856
G17 G3 X68.38 Y32 I0 J-0.476
G1 Y1 F150
G2 X66 Y-1.38 I-2.38 J0
G1 X1
G2 X-1.38 Y1 I0 J2.38
G1 Y63
G2 X1 Y65.38 I2.38 J0
G1 X66
G2 X68.38 Y63 I0 J-2.38
G1 Y32
G3 X68.856 Y31.524 I0.476 J0
G1 X69.332
G18 G2 X69.808 Z-2.524 I0 K0.476
G1 Z5
Y32.476
Z-1.4 F50
Z-3.124
G3 X69.332 Z-3.6 I-0.476 K0
G1 X68.856
G17 G3 X68.38 Y32 I0 J-0.476
G1 Y1 F150
G2 X66 Y-1.38 I-2.38 J0
G1 X1
G2 X-1.38 Y1 I0 J2.38
G1 Y63
G2 X1 Y65.38 I2.38 J0
G1 X66
G2 X68.38 Y63 I0 J-2.38
G1 Y32
G3 X68.856 Y31.524 I0.476 J0
G1 X69.332
G18 G2 X69.808 Z-3.124 I0 K0.476
G1 Z5
Y32.476
Z-2 F50
Z-3.724
G3 X69.332 Z-4.2 I-0.476 K0
G1 X68.856
G17 G3 X68.38 Y32 I0 J-0.476
G1 Y1 F150
G2 X66 Y-1.38 I-2.38 J0
G1 X1
G2 X-1.38 Y1 I0 J2.38
G1 Y63
G2 X1 Y65.38 I2.38 J0
G1 X66
G2 X68.38 Y63 I0 J-2.38
G1 Y32
G3 X68.856 Y31.524 I0.476 J0
G1 X69.332
G18 G2 X69.808 Z-3.724 I0 K0.476
G1 Z5
Y32.476
Z-2.6 F50
Z-4.324
G3 X69.332 Z-4.8 I-0.476 K0
G1 X68.856
G17 G3 X68.38 Y32 I0 J-0.476
G1 Y1 F150
G2 X66 Y-1.38 I-2.38 J0
G1 X1
G2 X-1.38 Y1 I0 J2.38
G1 Y63
G2 X1 Y65.38 I2.38 J0
G1 X66
G2 X68.38 Y63 I0 J-2.38
G1 Y32
G3 X68.856 Y31.524 I0.476 J0
G1 X69.332
G18 G2 X69.808 Z-4.324 I0 K0.476
G1 Z5
Y32.476
Z-3.2 F50
Z-4.924
G3 X69.332 Z-5.4 I-0.476 K0
G1 X68.856
G17 G3 X68.38 Y32 I0 J-0.476
G1 Y1 F150
G2 X66 Y-1.38 I-2.38 J0
G1 X1
G2 X-1.38 Y1 I0 J2.38
G1 Y63
G2 X1 Y65.38 I2.38 J0
G1 X66
G2 X68.38 Y63 I0 J-2.38
G1 Y32
G3 X68.856 Y31.524 I0.476 J0
G1 X69.332
G18 G2 X69.808 Z-4.924 I0 K0.476
G1 Z5
Y32.476
Z-3.8 F50
Z-5.524
G3 X69.332 Z-6 I-0.476 K0
G1 X68.856
G17 G3 X68.38 Y32 I0 J-0.476
G1 Y1 F150
G2 X66 Y-1.38 I-2.38 J0
G1 X1
G2 X-1.38 Y1 I0 J2.38
G1 Y63
G2 X1 Y65.38 I2.38 J0
G1 X66
G2 X68.38 Y63 I0 J-2.38
G1 Y32
G3 X68.856 Y31.524 I0.476 J0
G1 X69.332
G18 G2 X69.808 Z-5.524 I0 K0.476
G1 Z5
Y32.476
Z-4.4 F50
Z-6.124
G3 X69.332 Z-6.6 I-0.476 K0
G1 X68.856
G17 G3 X68.38 Y32 I0 J-0.476
G1 Y1 F150
G2 X66 Y-1.38 I-2.38 J0
G1 X1
G2 X-1.38 Y1 I0 J2.38
G1 Y63
G2 X1 Y65.38 I2.38 J0
G1 X66
G2 X68.38 Y63 I0 J-2.38
G1 Y32
G3 X68.856 Y31.524 I0.476 J0
G1 X69.332
G18 G2 X69.808 Z-6.124 I0 K0.476
G1 Z5
Y32.476
Z-5 F50
Z-6.724
G3 X69.332 Z-7.2 I-0.476 K0
G1 X68.856
G17 G3 X68.38 Y32 I0 J-0.476
G1 Y1 F150
G2 X66 Y-1.38 I-2.38 J0
G1 X1
G2 X-1.38 Y1 I0 J2.38
G1 Y63
G2 X1 Y65.38 I2.38 J0
G1 X66
G2 X68.38 Y63 I0 J-2.38
G1 Y32
G3 X68.856 Y31.524 I0.476 J0
G1 X69.332
G18 G2 X69.808 Z-6.724 I0 K0.476
G1 Z5
Y32.476
Z-5.6 F50
Z-7.324
G3 X69.332 Z-7.8 I-0.476 K0
G1 X68.856
G17 G3 X68.38 Y32 I0 J-0.476
G1 Y1 F150
G2 X66 Y-1.38 I-2.38 J0
G1 X1
G2 X-1.38 Y1 I0 J2.38
G1 Y63
G2 X1 Y65.38 I2.38 J0
G1 X66
G2 X68.38 Y63 I0 J-2.38
G1 Y32
G3 X68.856 Y31.524 I0.476 J0
G1 X69.332
G18 G2 X69.808 Z-7.324 I0 K0.476
G1 Z5
Y32.476
Z-6.2 F50
Z-7.924
G3 X69.332 Z-8.4 I-0.476 K0
G1 X68.856
G17 G3 X68.38 Y32 I0 J-0.476
G1 Y1 F150
G2 X66 Y-1.38 I-2.38 J0
G1 X1
G2 X-1.38 Y1 I0 J2.38
G1 Y63
G2 X1 Y65.38 I2.38 J0
G1 X66
G2 X68.38 Y63 I0 J-2.38
G1 Y32
G3 X68.856 Y31.524 I0.476 J0
G1 X69.332
G18 G2 X69.808 Z-7.924 I0 K0.476
G1 Z5
Y32.476
Z-6.8 F50
Z-8.524
G3 X69.332 Z-9 I-0.476 K0
G1 X68.856
G17 G3 X68.38 Y32 I0 J-0.476
G1 Y1 F150
G2 X66 Y-1.38 I-2.38 J0
G1 X1
G2 X-1.38 Y1 I0 J2.38
G1 Y63
G2 X1 Y65.38 I2.38 J0
G1 X66
G2 X68.38 Y63 I0 J-2.38
G1 Y32
G3 X68.856 Y31.524 I0.476 J0
G1 X69.332
G18 G2 X69.808 Z-8.524 I0 K0.476
G1 Z10
G17
M9
G28 G91 Z0
G90
G28 G91 X0 Y0
G90
M5
M30
