(nema_17_mount_drill)
(T1  D=2 CR=0 - ZMIN=-8 - flat end mill)
G90 G94
G17
G21
(When using Fusion 360 for Personal Use, the feedrate of)
(rapid moves is reduced to match the feedrate of cutting)
(moves, which can increase machining time. Unrestricted rapid)
(moves are available with a Fusion 360 Subscription.)
G28 G91 Z0
G90

(Bore2)
T1
S24000 M3
G54
M8
G0 X42.086 Y42.2
Z10
G1 Z-3.5 F150
Z-5.3 F50
G18 G3 X41.886 Z-5.5 I-0.2 K0
G1 X41.786
G17 G3 X41.586 Y42 I0 J-0.2
X42.414 Y42 Z-6 I0.414 J0 F150
X41.586 Y42 Z-6.5 I-0.414 J0
X42.414 Y42 Z-7 I0.414 J0
X41.586 Y42 Z-7.5 I-0.414 J0
X42.414 Y42 Z-8 I0.414 J0
X41.586 Y42 I-0.414 J0
X42.414 Y42 I0.414 J0
X42.214 Y42.2 I-0.2 J0
G1 X42.114
G18 G3 X41.914 Z-7.8 I0 K0.2
G1 Z5
X22.086
Z-3.5
Z-5.3 F50
G3 X21.886 Z-5.5 I-0.2 K0
G1 X21.786
G17 G3 X21.586 Y42 I0 J-0.2
X22.414 Y42 Z-6 I0.414 J0 F150
X21.586 Y42 Z-6.5 I-0.414 J0
X22.414 Y42 Z-7 I0.414 J0
X21.586 Y42 Z-7.5 I-0.414 J0
X22.414 Y42 Z-8 I0.414 J0
X21.586 Y42 I-0.414 J0
X22.414 Y42 I0.414 J0
X22.214 Y42.2 I-0.2 J0
G1 X22.114
G18 G3 X21.914 Z-7.8 I0 K0.2
G1 Z5
X22.086 Y22.2
Z-3.5
Z-5.3 F50
G3 X21.886 Z-5.5 I-0.2 K0
G1 X21.786
G17 G3 X21.586 Y22 I0 J-0.2
X22.414 Y22 Z-6 I0.414 J0 F150
X21.586 Y22 Z-6.5 I-0.414 J0
X22.414 Y22 Z-7 I0.414 J0
X21.586 Y22 Z-7.5 I-0.414 J0
X22.414 Y22 Z-8 I0.414 J0
X21.586 Y22 I-0.414 J0
X22.414 Y22 I0.414 J0
X22.214 Y22.2 I-0.2 J0
G1 X22.114
G18 G3 X21.914 Z-7.8 I0 K0.2
G1 Z5
X42.037
Z-3.5
Z-5.3 F50
G3 X41.837 Z-5.5 I-0.2 K0
G1 X41.737
G17 G3 X41.537 Y22 I0 J-0.2
X42.365 Y22 Z-6 I0.414 J0 F150
X41.537 Y22 Z-6.5 I-0.414 J0
X42.365 Y22 Z-7 I0.414 J0
X41.537 Y22 Z-7.5 I-0.414 J0
X42.365 Y22 Z-8 I0.414 J0
X41.537 Y22 I-0.414 J0
X42.365 Y22 I0.414 J0
X42.165 Y22.2 I-0.2 J0
G1 X42.065
G18 G3 X41.865 Z-7.8 I0 K0.2
G1 Z10
G17
M9
G28 G91 Z0
G90
G28 G91 X0 Y0
G90
M5
M30
