(metal_coupler_12mm)
(Machine)
(  vendor: Autodesk)
(  model: GARAGE CNC)
(  description: GARAGE CNC)
(T3 D=3.1 CR=0 - ZMIN=-14 - flat end mill)
G90 G94
G17
G21
(-Attention- Property Safe Retracts is set to Clearance Height.)
(Ensure the clearance height will clear the part and or fixtures.)
(Raise the Z-axis to a safe height before starting the program.)

(Drill1)
T3
S24000 M3
G17 G90 G94
G54
M8
G0 X35.5 Y27.5
Z10
G0 Z5
Z2
G1 Z-0.3 F150
G0 Z5
Z1.7
G1 Z-0.6 F150
G0 Z5
Z1.4
G1 Z-0.9 F150
G0 Z5
Z1.1
G1 Z-1.2 F150
G0 Z5
Z0.8
G1 Z-1.5 F150
G0 Z5
Z0.5
G1 Z-1.8 F150
G0 Z5
Z0.2
G1 Z-2.1 F150
G0 Z5
Z-0.1
G1 Z-2.4 F150
G0 Z5
Z-0.4
G1 Z-2.7 F150
G0 Z5
Z-0.7
G1 Z-3 F150
G0 Z5
Z-1
G1 Z-3.3 F150
G0 Z5
Z-1.3
G1 Z-3.6 F150
G0 Z5
Z-1.6
G1 Z-3.9 F150
G0 Z5
Z-1.9
G1 Z-4.2 F150
G0 Z5
Z-2.2
G1 Z-4.5 F150
G0 Z5
Z-2.5
G1 Z-4.8 F150
G0 Z5
Z-2.8
G1 Z-5.1 F150
G0 Z5
Z-3.1
G1 Z-5.4 F150
G0 Z5
Z-3.4
G1 Z-5.7 F150
G0 Z5
Z-3.7
G1 Z-6 F150
G0 Z5
Z-4
G1 Z-6.3 F150
G0 Z5
Z-4.3
G1 Z-6.6 F150
G0 Z5
Z-4.6
G1 Z-6.9 F150
G0 Z5
Z-4.9
G1 Z-7.2 F150
G0 Z5
Z-5.2
G1 Z-7.5 F150
G0 Z5
Z-5.5
G1 Z-7.8 F150
G0 Z5
Z-5.8
G1 Z-8.1 F150
G0 Z5
Z-6.1
G1 Z-8.4 F150
G0 Z5
Z-6.4
G1 Z-8.7 F150
G0 Z5
Z-6.7
G1 Z-9 F150
G0 Z5
Z-7
G1 Z-9.3 F150
G0 Z5
Z-7.3
G1 Z-9.6 F150
G0 Z5
Z-7.6
G1 Z-9.9 F150
G0 Z5
Z-7.9
G1 Z-10.2 F150
G0 Z5
Z-8.2
G1 Z-10.5 F150
G0 Z5
Z-8.5
G1 Z-10.8 F150
G0 Z5
Z-8.8
G1 Z-11.1 F150
G0 Z5
Z-9.1
G1 Z-11.4 F150
G0 Z5
Z-9.4
G1 Z-11.7 F150
G0 Z5
Z-9.7
G1 Z-12 F150
G0 Z5
Z-10
G1 Z-12.3 F150
G0 Z5
Z-10.3
G1 Z-12.6 F150
G0 Z5
Z-10.6
G1 Z-12.9 F150
G0 Z5
Z-10.9
G1 Z-13.2 F150
G0 Z5
Z-11.2
G1 Z-13.5 F150
G0 Z5
Z-11.5
G1 Z-13.8 F150
G0 Z5
Z-11.8
G1 Z-14 F150
G4 P1.
G0 Z5
X16.5
Z2
G1 Z-0.3 F150
G0 Z5
Z1.7
G1 Z-0.6 F150
G0 Z5
Z1.4
G1 Z-0.9 F150
G0 Z5
Z1.1
G1 Z-1.2 F150
G0 Z5
Z0.8
G1 Z-1.5 F150
G0 Z5
Z0.5
G1 Z-1.8 F150
G0 Z5
Z0.2
G1 Z-2.1 F150
G0 Z5
Z-0.1
G1 Z-2.4 F150
G0 Z5
Z-0.4
G1 Z-2.7 F150
G0 Z5
Z-0.7
G1 Z-3 F150
G0 Z5
Z-1
G1 Z-3.3 F150
G0 Z5
Z-1.3
G1 Z-3.6 F150
G0 Z5
Z-1.6
G1 Z-3.9 F150
G0 Z5
Z-1.9
G1 Z-4.2 F150
G0 Z5
Z-2.2
G1 Z-4.5 F150
G0 Z5
Z-2.5
G1 Z-4.8 F150
G0 Z5
Z-2.8
G1 Z-5.1 F150
G0 Z5
Z-3.1
G1 Z-5.4 F150
G0 Z5
Z-3.4
G1 Z-5.7 F150
G0 Z5
Z-3.7
G1 Z-6 F150
G0 Z5
Z-4
G1 Z-6.3 F150
G0 Z5
Z-4.3
G1 Z-6.6 F150
G0 Z5
Z-4.6
G1 Z-6.9 F150
G0 Z5
Z-4.9
G1 Z-7.2 F150
G0 Z5
Z-5.2
G1 Z-7.5 F150
G0 Z5
Z-5.5
G1 Z-7.8 F150
G0 Z5
Z-5.8
G1 Z-8.1 F150
G0 Z5
Z-6.1
G1 Z-8.4 F150
G0 Z5
Z-6.4
G1 Z-8.7 F150
G0 Z5
Z-6.7
G1 Z-9 F150
G0 Z5
Z-7
G1 Z-9.3 F150
G0 Z5
Z-7.3
G1 Z-9.6 F150
G0 Z5
Z-7.6
G1 Z-9.9 F150
G0 Z5
Z-7.9
G1 Z-10.2 F150
G0 Z5
Z-8.2
G1 Z-10.5 F150
G0 Z5
Z-8.5
G1 Z-10.8 F150
G0 Z5
Z-8.8
G1 Z-11.1 F150
G0 Z5
Z-9.1
G1 Z-11.4 F150
G0 Z5
Z-9.4
G1 Z-11.7 F150
G0 Z5
Z-9.7
G1 Z-12 F150
G0 Z5
Z-10
G1 Z-12.3 F150
G0 Z5
Z-10.3
G1 Z-12.6 F150
G0 Z5
Z-10.6
G1 Z-12.9 F150
G0 Z5
Z-10.9
G1 Z-13.2 F150
G0 Z5
Z-11.2
G1 Z-13.5 F150
G0 Z5
Z-11.5
G1 Z-13.8 F150
G0 Z5
Z-11.8
G1 Z-14 F150
G4 P1.
G0 Z5
Y8.5
Z2
G1 Z-0.3 F150
G0 Z5
Z1.7
G1 Z-0.6 F150
G0 Z5
Z1.4
G1 Z-0.9 F150
G0 Z5
Z1.1
G1 Z-1.2 F150
G0 Z5
Z0.8
G1 Z-1.5 F150
G0 Z5
Z0.5
G1 Z-1.8 F150
G0 Z5
Z0.2
G1 Z-2.1 F150
G0 Z5
Z-0.1
G1 Z-2.4 F150
G0 Z5
Z-0.4
G1 Z-2.7 F150
G0 Z5
Z-0.7
G1 Z-3 F150
G0 Z5
Z-1
G1 Z-3.3 F150
G0 Z5
Z-1.3
G1 Z-3.6 F150
G0 Z5
Z-1.6
G1 Z-3.9 F150
G0 Z5
Z-1.9
G1 Z-4.2 F150
G0 Z5
Z-2.2
G1 Z-4.5 F150
G0 Z5
Z-2.5
G1 Z-4.8 F150
G0 Z5
Z-2.8
G1 Z-5.1 F150
G0 Z5
Z-3.1
G1 Z-5.4 F150
G0 Z5
Z-3.4
G1 Z-5.7 F150
G0 Z5
Z-3.7
G1 Z-6 F150
G0 Z5
Z-4
G1 Z-6.3 F150
G0 Z5
Z-4.3
G1 Z-6.6 F150
G0 Z5
Z-4.6
G1 Z-6.9 F150
G0 Z5
Z-4.9
G1 Z-7.2 F150
G0 Z5
Z-5.2
G1 Z-7.5 F150
G0 Z5
Z-5.5
G1 Z-7.8 F150
G0 Z5
Z-5.8
G1 Z-8.1 F150
G0 Z5
Z-6.1
G1 Z-8.4 F150
G0 Z5
Z-6.4
G1 Z-8.7 F150
G0 Z5
Z-6.7
G1 Z-9 F150
G0 Z5
Z-7
G1 Z-9.3 F150
G0 Z5
Z-7.3
G1 Z-9.6 F150
G0 Z5
Z-7.6
G1 Z-9.9 F150
G0 Z5
Z-7.9
G1 Z-10.2 F150
G0 Z5
Z-8.2
G1 Z-10.5 F150
G0 Z5
Z-8.5
G1 Z-10.8 F150
G0 Z5
Z-8.8
G1 Z-11.1 F150
G0 Z5
Z-9.1
G1 Z-11.4 F150
G0 Z5
Z-9.4
G1 Z-11.7 F150
G0 Z5
Z-9.7
G1 Z-12 F150
G0 Z5
Z-10
G1 Z-12.3 F150
G0 Z5
Z-10.3
G1 Z-12.6 F150
G0 Z5
Z-10.6
G1 Z-12.9 F150
G0 Z5
Z-10.9
G1 Z-13.2 F150
G0 Z5
Z-11.2
G1 Z-13.5 F150
G0 Z5
Z-11.5
G1 Z-13.8 F150
G0 Z5
Z-11.8
G1 Z-14 F150
G4 P1.
G0 Z5
X35.5
Z2
G1 Z-0.3 F150
G0 Z5
Z1.7
G1 Z-0.6 F150
G0 Z5
Z1.4
G1 Z-0.9 F150
G0 Z5
Z1.1
G1 Z-1.2 F150
G0 Z5
Z0.8
G1 Z-1.5 F150
G0 Z5
Z0.5
G1 Z-1.8 F150
G0 Z5
Z0.2
G1 Z-2.1 F150
G0 Z5
Z-0.1
G1 Z-2.4 F150
G0 Z5
Z-0.4
G1 Z-2.7 F150
G0 Z5
Z-0.7
G1 Z-3 F150
G0 Z5
Z-1
G1 Z-3.3 F150
G0 Z5
Z-1.3
G1 Z-3.6 F150
G0 Z5
Z-1.6
G1 Z-3.9 F150
G0 Z5
Z-1.9
G1 Z-4.2 F150
G0 Z5
Z-2.2
G1 Z-4.5 F150
G0 Z5
Z-2.5
G1 Z-4.8 F150
G0 Z5
Z-2.8
G1 Z-5.1 F150
G0 Z5
Z-3.1
G1 Z-5.4 F150
G0 Z5
Z-3.4
G1 Z-5.7 F150
G0 Z5
Z-3.7
G1 Z-6 F150
G0 Z5
Z-4
G1 Z-6.3 F150
G0 Z5
Z-4.3
G1 Z-6.6 F150
G0 Z5
Z-4.6
G1 Z-6.9 F150
G0 Z5
Z-4.9
G1 Z-7.2 F150
G0 Z5
Z-5.2
G1 Z-7.5 F150
G0 Z5
Z-5.5
G1 Z-7.8 F150
G0 Z5
Z-5.8
G1 Z-8.1 F150
G0 Z5
Z-6.1
G1 Z-8.4 F150
G0 Z5
Z-6.4
G1 Z-8.7 F150
G0 Z5
Z-6.7
G1 Z-9 F150
G0 Z5
Z-7
G1 Z-9.3 F150
G0 Z5
Z-7.3
G1 Z-9.6 F150
G0 Z5
Z-7.6
G1 Z-9.9 F150
G0 Z5
Z-7.9
G1 Z-10.2 F150
G0 Z5
Z-8.2
G1 Z-10.5 F150
G0 Z5
Z-8.5
G1 Z-10.8 F150
G0 Z5
Z-8.8
G1 Z-11.1 F150
G0 Z5
Z-9.1
G1 Z-11.4 F150
G0 Z5
Z-9.4
G1 Z-11.7 F150
G0 Z5
Z-9.7
G1 Z-12 F150
G0 Z5
Z-10
G1 Z-12.3 F150
G0 Z5
Z-10.3
G1 Z-12.6 F150
G0 Z5
Z-10.6
G1 Z-12.9 F150
G0 Z5
Z-10.9
G1 Z-13.2 F150
G0 Z5
Z-11.2
G1 Z-13.5 F150
G0 Z5
Z-11.5
G1 Z-13.8 F150
G0 Z5
Z-11.8
G1 Z-14 F150
G4 P1.
G0 Z5
Z10
(When using Fusion 360 for Personal Use, the feedrate of)
(rapid moves is reduced to match the feedrate of cutting)
(moves, which can increase machining time. Unrestricted rapid)
(moves are available with a Fusion 360 Subscription.)

(2D Contour5)
G0 X22.245 Y17.795
G1 Z10 F300
Z5
Z1.3 F150
Z0.01
X22.238 Y17.792 Z-0.059
X22.218 Y17.78 Z-0.125
X22.186 Y17.762 Z-0.183
X22.144 Y17.737 Z-0.232
X22.093 Y17.708 Z-0.269
X22.036 Y17.676 Z-0.292
X21.976 Y17.641 Z-0.3
X21.707 Y17.487
G3 X21.593 Y17.064 I0.154 J-0.269
G2 X21.734 Y16.734 I-1.345 J-0.771 F300
G3 X30.221 Y16.592 I4.266 J1.266
G2 X31.691 Y17.651 I1.47 J-0.491
G1 X32.95
Y18.349
X31.691
G2 X30.221 Y19.408 I0 J1.55
G3 X21.727 Y19.242 I-4.221 J-1.408
G2 X20.238 Y18.125 I-1.488 J0.433
G1 X1
G2 X-0.55 Y19.675 I0 J1.55
G1 Y25
G2 X1 Y26.55 I1.55 J0
G1 X9.538
G2 X42.462 Y9.45 I16.462 J-8.55
X9.553 Y9.42 I-16.462 J8.55
G1 X1
G2 X-0.55 Y10.97 I0 J1.55
G1 Y16.293
G2 X1 Y17.843 I1.55 J0
G1 X20.248
G2 X21.593 Y17.064 I0 J-1.55
G3 X22.016 Y16.949 I0.269 J0.154
G1 X22.285 Y17.103
X22.344 Y17.138 Z-0.292
X22.401 Y17.17 Z-0.269
X22.452 Y17.2 Z-0.232
X22.495 Y17.224 Z-0.183
X22.527 Y17.242 Z-0.125
X22.547 Y17.254 Z-0.059
X22.554 Y17.258 Z0.01
Z5
X22.245 Y17.795
Z1 F150
Z-0.29
X22.238 Y17.792 Z-0.359
X22.218 Y17.78 Z-0.425
X22.186 Y17.762 Z-0.483
X22.144 Y17.737 Z-0.532
X22.093 Y17.708 Z-0.569
X22.036 Y17.676 Z-0.592
X21.976 Y17.641 Z-0.6
X21.707 Y17.487
G3 X21.593 Y17.064 I0.154 J-0.269
G2 X21.734 Y16.734 I-1.345 J-0.771 F300
G3 X30.221 Y16.592 I4.266 J1.266
G2 X31.691 Y17.651 I1.47 J-0.491
G1 X32.95
Y18.349
X31.691
G2 X30.221 Y19.408 I0 J1.55
G3 X21.727 Y19.242 I-4.221 J-1.408
G2 X20.238 Y18.125 I-1.488 J0.433
G1 X1
G2 X-0.55 Y19.675 I0 J1.55
G1 Y25
G2 X1 Y26.55 I1.55 J0
G1 X9.538
G2 X42.462 Y9.45 I16.462 J-8.55
X9.553 Y9.42 I-16.462 J8.55
G1 X1
G2 X-0.55 Y10.97 I0 J1.55
G1 Y16.293
G2 X1 Y17.843 I1.55 J0
G1 X20.248
G2 X21.593 Y17.064 I0 J-1.55
G3 X22.016 Y16.949 I0.269 J0.154
G1 X22.285 Y17.103
X22.344 Y17.138 Z-0.592
X22.401 Y17.17 Z-0.569
X22.452 Y17.2 Z-0.532
X22.495 Y17.224 Z-0.483
X22.527 Y17.242 Z-0.425
X22.547 Y17.254 Z-0.359
X22.554 Y17.258 Z-0.29
Z5
X22.245 Y17.795
Z0.7 F150
Z-0.59
X22.238 Y17.792 Z-0.659
X22.218 Y17.78 Z-0.725
X22.186 Y17.762 Z-0.783
X22.144 Y17.737 Z-0.832
X22.093 Y17.708 Z-0.869
X22.036 Y17.676 Z-0.892
X21.976 Y17.641 Z-0.9
X21.707 Y17.487
G3 X21.593 Y17.064 I0.154 J-0.269
G2 X21.734 Y16.734 I-1.345 J-0.771 F300
G3 X30.221 Y16.592 I4.266 J1.266
G2 X31.691 Y17.651 I1.47 J-0.491
G1 X32.95
Y18.349
X31.691
G2 X30.221 Y19.408 I0 J1.55
G3 X21.727 Y19.242 I-4.221 J-1.408
G2 X20.238 Y18.125 I-1.488 J0.433
G1 X1
G2 X-0.55 Y19.675 I0 J1.55
G1 Y25
G2 X1 Y26.55 I1.55 J0
G1 X9.538
G2 X42.462 Y9.45 I16.462 J-8.55
X9.553 Y9.42 I-16.462 J8.55
G1 X1
G2 X-0.55 Y10.97 I0 J1.55
G1 Y16.293
G2 X1 Y17.843 I1.55 J0
G1 X20.248
G2 X21.593 Y17.064 I0 J-1.55
G3 X22.016 Y16.949 I0.269 J0.154
G1 X22.285 Y17.103
X22.344 Y17.138 Z-0.892
X22.401 Y17.17 Z-0.869
X22.452 Y17.2 Z-0.832
X22.495 Y17.224 Z-0.783
X22.527 Y17.242 Z-0.725
X22.547 Y17.254 Z-0.659
X22.554 Y17.258 Z-0.59
Z5
X22.245 Y17.795
Z0.4 F150
Z-0.89
X22.238 Y17.792 Z-0.959
X22.218 Y17.78 Z-1.025
X22.186 Y17.762 Z-1.083
X22.144 Y17.737 Z-1.132
X22.093 Y17.708 Z-1.169
X22.036 Y17.676 Z-1.192
X21.976 Y17.641 Z-1.2
X21.707 Y17.487
G3 X21.593 Y17.064 I0.154 J-0.269
G2 X21.734 Y16.734 I-1.345 J-0.771 F300
G3 X30.221 Y16.592 I4.266 J1.266
G2 X31.691 Y17.651 I1.47 J-0.491
G1 X32.95
Y18.349
X31.691
G2 X30.221 Y19.408 I0 J1.55
G3 X21.727 Y19.242 I-4.221 J-1.408
G2 X20.238 Y18.125 I-1.488 J0.433
G1 X1
G2 X-0.55 Y19.675 I0 J1.55
G1 Y25
G2 X1 Y26.55 I1.55 J0
G1 X9.538
G2 X42.462 Y9.45 I16.462 J-8.55
X9.553 Y9.42 I-16.462 J8.55
G1 X1
G2 X-0.55 Y10.97 I0 J1.55
G1 Y16.293
G2 X1 Y17.843 I1.55 J0
G1 X20.248
G2 X21.593 Y17.064 I0 J-1.55
G3 X22.016 Y16.949 I0.269 J0.154
G1 X22.285 Y17.103
X22.344 Y17.138 Z-1.192
X22.401 Y17.17 Z-1.169
X22.452 Y17.2 Z-1.132
X22.495 Y17.224 Z-1.083
X22.527 Y17.242 Z-1.025
X22.547 Y17.254 Z-0.959
X22.554 Y17.258 Z-0.89
Z5
X22.245 Y17.795
Z0.1 F150
Z-1.19
X22.238 Y17.792 Z-1.259
X22.218 Y17.78 Z-1.325
X22.186 Y17.762 Z-1.383
X22.144 Y17.737 Z-1.432
X22.093 Y17.708 Z-1.469
X22.036 Y17.676 Z-1.492
X21.976 Y17.641 Z-1.5
X21.707 Y17.487
G3 X21.593 Y17.064 I0.154 J-0.269
G2 X21.734 Y16.734 I-1.345 J-0.771 F300
G3 X30.221 Y16.592 I4.266 J1.266
G2 X31.691 Y17.651 I1.47 J-0.491
G1 X32.95
Y18.349
X31.691
G2 X30.221 Y19.408 I0 J1.55
G3 X21.727 Y19.242 I-4.221 J-1.408
G2 X20.238 Y18.125 I-1.488 J0.433
G1 X1
G2 X-0.55 Y19.675 I0 J1.55
G1 Y25
G2 X1 Y26.55 I1.55 J0
G1 X9.538
G2 X42.462 Y9.45 I16.462 J-8.55
X9.553 Y9.42 I-16.462 J8.55
G1 X1
G2 X-0.55 Y10.97 I0 J1.55
G1 Y16.293
G2 X1 Y17.843 I1.55 J0
G1 X20.248
G2 X21.593 Y17.064 I0 J-1.55
G3 X22.016 Y16.949 I0.269 J0.154
G1 X22.285 Y17.103
X22.344 Y17.138 Z-1.492
X22.401 Y17.17 Z-1.469
X22.452 Y17.2 Z-1.432
X22.495 Y17.224 Z-1.383
X22.527 Y17.242 Z-1.325
X22.547 Y17.254 Z-1.259
X22.554 Y17.258 Z-1.19
Z5
X22.245 Y17.795
Z-0.2 F150
Z-1.49
X22.238 Y17.792 Z-1.559
X22.218 Y17.78 Z-1.625
X22.186 Y17.762 Z-1.683
X22.144 Y17.737 Z-1.732
X22.093 Y17.708 Z-1.769
X22.036 Y17.676 Z-1.792
X21.976 Y17.641 Z-1.8
X21.707 Y17.487
G3 X21.593 Y17.064 I0.154 J-0.269
G2 X21.734 Y16.734 I-1.345 J-0.771 F300
G3 X30.221 Y16.592 I4.266 J1.266
G2 X31.691 Y17.651 I1.47 J-0.491
G1 X32.95
Y18.349
X31.691
G2 X30.221 Y19.408 I0 J1.55
G3 X21.727 Y19.242 I-4.221 J-1.408
G2 X20.238 Y18.125 I-1.488 J0.433
G1 X1
G2 X-0.55 Y19.675 I0 J1.55
G1 Y25
G2 X1 Y26.55 I1.55 J0
G1 X9.538
G2 X42.462 Y9.45 I16.462 J-8.55
X9.553 Y9.42 I-16.462 J8.55
G1 X1
G2 X-0.55 Y10.97 I0 J1.55
G1 Y16.293
G2 X1 Y17.843 I1.55 J0
G1 X20.248
G2 X21.593 Y17.064 I0 J-1.55
G3 X22.016 Y16.949 I0.269 J0.154
G1 X22.285 Y17.103
X22.344 Y17.138 Z-1.792
X22.401 Y17.17 Z-1.769
X22.452 Y17.2 Z-1.732
X22.495 Y17.224 Z-1.683
X22.527 Y17.242 Z-1.625
X22.547 Y17.254 Z-1.559
X22.554 Y17.258 Z-1.49
Z5
X22.245 Y17.795
Z-0.5 F150
Z-1.79
X22.238 Y17.792 Z-1.859
X22.218 Y17.78 Z-1.925
X22.186 Y17.762 Z-1.983
X22.144 Y17.737 Z-2.032
X22.093 Y17.708 Z-2.069
X22.036 Y17.676 Z-2.092
X21.976 Y17.641 Z-2.1
X21.707 Y17.487
G3 X21.593 Y17.064 I0.154 J-0.269
G2 X21.734 Y16.734 I-1.345 J-0.771 F300
G3 X30.221 Y16.592 I4.266 J1.266
G2 X31.691 Y17.651 I1.47 J-0.491
G1 X32.95
Y18.349
X31.691
G2 X30.221 Y19.408 I0 J1.55
G3 X21.727 Y19.242 I-4.221 J-1.408
G2 X20.238 Y18.125 I-1.488 J0.433
G1 X1
G2 X-0.55 Y19.675 I0 J1.55
G1 Y25
G2 X1 Y26.55 I1.55 J0
G1 X9.538
G2 X42.462 Y9.45 I16.462 J-8.55
X9.553 Y9.42 I-16.462 J8.55
G1 X1
G2 X-0.55 Y10.97 I0 J1.55
G1 Y16.293
G2 X1 Y17.843 I1.55 J0
G1 X20.248
G2 X21.593 Y17.064 I0 J-1.55
G3 X22.016 Y16.949 I0.269 J0.154
G1 X22.285 Y17.103
X22.344 Y17.138 Z-2.092
X22.401 Y17.17 Z-2.069
X22.452 Y17.2 Z-2.032
X22.495 Y17.224 Z-1.983
X22.527 Y17.242 Z-1.925
X22.547 Y17.254 Z-1.859
X22.554 Y17.258 Z-1.79
Z5
X22.245 Y17.795
Z-0.8 F150
Z-2.09
X22.238 Y17.792 Z-2.159
X22.218 Y17.78 Z-2.225
X22.186 Y17.762 Z-2.283
X22.144 Y17.737 Z-2.332
X22.093 Y17.708 Z-2.369
X22.036 Y17.676 Z-2.392
X21.976 Y17.641 Z-2.4
X21.707 Y17.487
G3 X21.593 Y17.064 I0.154 J-0.269
G2 X21.734 Y16.734 I-1.345 J-0.771 F300
G3 X30.221 Y16.592 I4.266 J1.266
G2 X31.691 Y17.651 I1.47 J-0.491
G1 X32.95
Y18.349
X31.691
G2 X30.221 Y19.408 I0 J1.55
G3 X21.727 Y19.242 I-4.221 J-1.408
G2 X20.238 Y18.125 I-1.488 J0.433
G1 X1
G2 X-0.55 Y19.675 I0 J1.55
G1 Y25
G2 X1 Y26.55 I1.55 J0
G1 X9.538
G2 X42.462 Y9.45 I16.462 J-8.55
X9.553 Y9.42 I-16.462 J8.55
G1 X1
G2 X-0.55 Y10.97 I0 J1.55
G1 Y16.293
G2 X1 Y17.843 I1.55 J0
G1 X20.248
G2 X21.593 Y17.064 I0 J-1.55
G3 X22.016 Y16.949 I0.269 J0.154
G1 X22.285 Y17.103
X22.344 Y17.138 Z-2.392
X22.401 Y17.17 Z-2.369
X22.452 Y17.2 Z-2.332
X22.495 Y17.224 Z-2.283
X22.527 Y17.242 Z-2.225
X22.547 Y17.254 Z-2.159
X22.554 Y17.258 Z-2.09
Z5
X22.245 Y17.795
Z-1.1 F150
Z-2.39
X22.238 Y17.792 Z-2.459
X22.218 Y17.78 Z-2.525
X22.186 Y17.762 Z-2.583
X22.144 Y17.737 Z-2.632
X22.093 Y17.708 Z-2.669
X22.036 Y17.676 Z-2.692
X21.976 Y17.641 Z-2.7
X21.707 Y17.487
G3 X21.593 Y17.064 I0.154 J-0.269
G2 X21.734 Y16.734 I-1.345 J-0.771 F300
G3 X30.221 Y16.592 I4.266 J1.266
G2 X31.691 Y17.651 I1.47 J-0.491
G1 X32.95
Y18.349
X31.691
G2 X30.221 Y19.408 I0 J1.55
G3 X21.727 Y19.242 I-4.221 J-1.408
G2 X20.238 Y18.125 I-1.488 J0.433
G1 X1
G2 X-0.55 Y19.675 I0 J1.55
G1 Y25
G2 X1 Y26.55 I1.55 J0
G1 X9.538
G2 X42.462 Y9.45 I16.462 J-8.55
X9.553 Y9.42 I-16.462 J8.55
G1 X1
G2 X-0.55 Y10.97 I0 J1.55
G1 Y16.293
G2 X1 Y17.843 I1.55 J0
G1 X20.248
G2 X21.593 Y17.064 I0 J-1.55
G3 X22.016 Y16.949 I0.269 J0.154
G1 X22.285 Y17.103
X22.344 Y17.138 Z-2.692
X22.401 Y17.17 Z-2.669
X22.452 Y17.2 Z-2.632
X22.495 Y17.224 Z-2.583
X22.527 Y17.242 Z-2.525
X22.547 Y17.254 Z-2.459
X22.554 Y17.258 Z-2.39
Z5
X22.245 Y17.795
Z-1.4 F150
Z-2.69
X22.238 Y17.792 Z-2.759
X22.218 Y17.78 Z-2.825
X22.186 Y17.762 Z-2.883
X22.144 Y17.737 Z-2.932
X22.093 Y17.708 Z-2.969
X22.036 Y17.676 Z-2.992
X21.976 Y17.641 Z-3
X21.707 Y17.487
G3 X21.593 Y17.064 I0.154 J-0.269
G2 X21.734 Y16.734 I-1.345 J-0.771 F300
G3 X30.221 Y16.592 I4.266 J1.266
G2 X31.691 Y17.651 I1.47 J-0.491
G1 X32.95
Y18.349
X31.691
G2 X30.221 Y19.408 I0 J1.55
G3 X21.727 Y19.242 I-4.221 J-1.408
G2 X20.238 Y18.125 I-1.488 J0.433
G1 X1
G2 X-0.55 Y19.675 I0 J1.55
G1 Y25
G2 X1 Y26.55 I1.55 J0
G1 X9.538
G2 X42.462 Y9.45 I16.462 J-8.55
X9.553 Y9.42 I-16.462 J8.55
G1 X1
G2 X-0.55 Y10.97 I0 J1.55
G1 Y16.293
G2 X1 Y17.843 I1.55 J0
G1 X20.248
G2 X21.593 Y17.064 I0 J-1.55
G3 X22.016 Y16.949 I0.269 J0.154
G1 X22.285 Y17.103
X22.344 Y17.138 Z-2.992
X22.401 Y17.17 Z-2.969
X22.452 Y17.2 Z-2.932
X22.495 Y17.224 Z-2.883
X22.527 Y17.242 Z-2.825
X22.547 Y17.254 Z-2.759
X22.554 Y17.258 Z-2.69
Z5
X22.245 Y17.795
Z-1.7 F150
Z-2.99
X22.238 Y17.792 Z-3.059
X22.218 Y17.78 Z-3.125
X22.186 Y17.762 Z-3.183
X22.144 Y17.737 Z-3.232
X22.093 Y17.708 Z-3.269
X22.036 Y17.676 Z-3.292
X21.976 Y17.641 Z-3.3
X21.707 Y17.487
G3 X21.593 Y17.064 I0.154 J-0.269
G2 X21.734 Y16.734 I-1.345 J-0.771 F300
G3 X30.221 Y16.592 I4.266 J1.266
G2 X31.691 Y17.651 I1.47 J-0.491
G1 X32.95
Y18.349
X31.691
G2 X30.221 Y19.408 I0 J1.55
G3 X21.727 Y19.242 I-4.221 J-1.408
G2 X20.238 Y18.125 I-1.488 J0.433
G1 X1
G2 X-0.55 Y19.675 I0 J1.55
G1 Y25
G2 X1 Y26.55 I1.55 J0
G1 X9.538
G2 X42.462 Y9.45 I16.462 J-8.55
X9.553 Y9.42 I-16.462 J8.55
G1 X1
G2 X-0.55 Y10.97 I0 J1.55
G1 Y16.293
G2 X1 Y17.843 I1.55 J0
G1 X20.248
G2 X21.593 Y17.064 I0 J-1.55
G3 X22.016 Y16.949 I0.269 J0.154
G1 X22.285 Y17.103
X22.344 Y17.138 Z-3.292
X22.401 Y17.17 Z-3.269
X22.452 Y17.2 Z-3.232
X22.495 Y17.224 Z-3.183
X22.527 Y17.242 Z-3.125
X22.547 Y17.254 Z-3.059
X22.554 Y17.258 Z-2.99
Z5
X22.245 Y17.795
Z-2 F150
Z-3.29
X22.238 Y17.792 Z-3.359
X22.218 Y17.78 Z-3.425
X22.186 Y17.762 Z-3.483
X22.144 Y17.737 Z-3.532
X22.093 Y17.708 Z-3.569
X22.036 Y17.676 Z-3.592
X21.976 Y17.641 Z-3.6
X21.707 Y17.487
G3 X21.593 Y17.064 I0.154 J-0.269
G2 X21.734 Y16.734 I-1.345 J-0.771 F300
G3 X30.221 Y16.592 I4.266 J1.266
G2 X31.691 Y17.651 I1.47 J-0.491
G1 X32.95
Y18.349
X31.691
G2 X30.221 Y19.408 I0 J1.55
G3 X21.727 Y19.242 I-4.221 J-1.408
G2 X20.238 Y18.125 I-1.488 J0.433
G1 X1
G2 X-0.55 Y19.675 I0 J1.55
G1 Y25
G2 X1 Y26.55 I1.55 J0
G1 X9.538
G2 X42.462 Y9.45 I16.462 J-8.55
X9.553 Y9.42 I-16.462 J8.55
G1 X1
G2 X-0.55 Y10.97 I0 J1.55
G1 Y16.293
G2 X1 Y17.843 I1.55 J0
G1 X20.248
G2 X21.593 Y17.064 I0 J-1.55
G3 X22.016 Y16.949 I0.269 J0.154
G1 X22.285 Y17.103
X22.344 Y17.138 Z-3.592
X22.401 Y17.17 Z-3.569
X22.452 Y17.2 Z-3.532
X22.495 Y17.224 Z-3.483
X22.527 Y17.242 Z-3.425
X22.547 Y17.254 Z-3.359
X22.554 Y17.258 Z-3.29
Z5
X22.245 Y17.795
Z-2.3 F150
Z-3.59
X22.238 Y17.792 Z-3.659
X22.218 Y17.78 Z-3.725
X22.186 Y17.762 Z-3.783
X22.144 Y17.737 Z-3.832
X22.093 Y17.708 Z-3.869
X22.036 Y17.676 Z-3.892
X21.976 Y17.641 Z-3.9
X21.707 Y17.487
G3 X21.593 Y17.064 I0.154 J-0.269
G2 X21.734 Y16.734 I-1.345 J-0.771 F300
G3 X30.221 Y16.592 I4.266 J1.266
G2 X31.691 Y17.651 I1.47 J-0.491
G1 X32.95
Y18.349
X31.691
G2 X30.221 Y19.408 I0 J1.55
G3 X21.727 Y19.242 I-4.221 J-1.408
G2 X20.238 Y18.125 I-1.488 J0.433
G1 X1
G2 X-0.55 Y19.675 I0 J1.55
G1 Y25
G2 X1 Y26.55 I1.55 J0
G1 X9.538
G2 X42.462 Y9.45 I16.462 J-8.55
X9.553 Y9.42 I-16.462 J8.55
G1 X1
G2 X-0.55 Y10.97 I0 J1.55
G1 Y16.293
G2 X1 Y17.843 I1.55 J0
G1 X20.248
G2 X21.593 Y17.064 I0 J-1.55
G3 X22.016 Y16.949 I0.269 J0.154
G1 X22.285 Y17.103
X22.344 Y17.138 Z-3.892
X22.401 Y17.17 Z-3.869
X22.452 Y17.2 Z-3.832
X22.495 Y17.224 Z-3.783
X22.527 Y17.242 Z-3.725
X22.547 Y17.254 Z-3.659
X22.554 Y17.258 Z-3.59
Z5
X22.245 Y17.795
Z-2.6 F150
Z-3.89
X22.238 Y17.792 Z-3.959
X22.218 Y17.78 Z-4.025
X22.186 Y17.762 Z-4.083
X22.144 Y17.737 Z-4.132
X22.093 Y17.708 Z-4.169
X22.036 Y17.676 Z-4.192
X21.976 Y17.641 Z-4.2
X21.707 Y17.487
G3 X21.593 Y17.064 I0.154 J-0.269
G2 X21.734 Y16.734 I-1.345 J-0.771 F300
G3 X30.221 Y16.592 I4.266 J1.266
G2 X31.691 Y17.651 I1.47 J-0.491
G1 X32.95
Y18.349
X31.691
G2 X30.221 Y19.408 I0 J1.55
G3 X21.727 Y19.242 I-4.221 J-1.408
G2 X20.238 Y18.125 I-1.488 J0.433
G1 X1
G2 X-0.55 Y19.675 I0 J1.55
G1 Y25
G2 X1 Y26.55 I1.55 J0
G1 X9.538
G2 X42.462 Y9.45 I16.462 J-8.55
X9.553 Y9.42 I-16.462 J8.55
G1 X1
G2 X-0.55 Y10.97 I0 J1.55
G1 Y16.293
G2 X1 Y17.843 I1.55 J0
G1 X20.248
G2 X21.593 Y17.064 I0 J-1.55
G3 X22.016 Y16.949 I0.269 J0.154
G1 X22.285 Y17.103
X22.344 Y17.138 Z-4.192
X22.401 Y17.17 Z-4.169
X22.452 Y17.2 Z-4.132
X22.495 Y17.224 Z-4.083
X22.527 Y17.242 Z-4.025
X22.547 Y17.254 Z-3.959
X22.554 Y17.258 Z-3.89
Z5
X22.245 Y17.795
Z-2.9 F150
Z-4.19
X22.238 Y17.792 Z-4.259
X22.218 Y17.78 Z-4.325
X22.186 Y17.762 Z-4.383
X22.144 Y17.737 Z-4.432
X22.093 Y17.708 Z-4.469
X22.036 Y17.676 Z-4.492
X21.976 Y17.641 Z-4.5
X21.707 Y17.487
G3 X21.593 Y17.064 I0.154 J-0.269
G2 X21.734 Y16.734 I-1.345 J-0.771 F300
G3 X30.221 Y16.592 I4.266 J1.266
G2 X31.691 Y17.651 I1.47 J-0.491
G1 X32.95
Y18.349
X31.691
G2 X30.221 Y19.408 I0 J1.55
G3 X21.727 Y19.242 I-4.221 J-1.408
G2 X20.238 Y18.125 I-1.488 J0.433
G1 X1
G2 X-0.55 Y19.675 I0 J1.55
G1 Y25
G2 X1 Y26.55 I1.55 J0
G1 X9.538
G2 X42.462 Y9.45 I16.462 J-8.55
X9.553 Y9.42 I-16.462 J8.55
G1 X1
G2 X-0.55 Y10.97 I0 J1.55
G1 Y16.293
G2 X1 Y17.843 I1.55 J0
G1 X20.248
G2 X21.593 Y17.064 I0 J-1.55
G3 X22.016 Y16.949 I0.269 J0.154
G1 X22.285 Y17.103
X22.344 Y17.138 Z-4.492
X22.401 Y17.17 Z-4.469
X22.452 Y17.2 Z-4.432
X22.495 Y17.224 Z-4.383
X22.527 Y17.242 Z-4.325
X22.547 Y17.254 Z-4.259
X22.554 Y17.258 Z-4.19
Z5
X22.245 Y17.795
Z-3.2 F150
Z-4.49
X22.238 Y17.792 Z-4.559
X22.218 Y17.78 Z-4.625
X22.186 Y17.762 Z-4.683
X22.144 Y17.737 Z-4.732
X22.093 Y17.708 Z-4.769
X22.036 Y17.676 Z-4.792
X21.976 Y17.641 Z-4.8
X21.707 Y17.487
G3 X21.593 Y17.064 I0.154 J-0.269
G2 X21.734 Y16.734 I-1.345 J-0.771 F300
G3 X30.221 Y16.592 I4.266 J1.266
G2 X31.691 Y17.651 I1.47 J-0.491
G1 X32.95
Y18.349
X31.691
G2 X30.221 Y19.408 I0 J1.55
G3 X21.727 Y19.242 I-4.221 J-1.408
G2 X20.238 Y18.125 I-1.488 J0.433
G1 X1
G2 X-0.55 Y19.675 I0 J1.55
G1 Y25
G2 X1 Y26.55 I1.55 J0
G1 X9.538
G2 X42.462 Y9.45 I16.462 J-8.55
X9.553 Y9.42 I-16.462 J8.55
G1 X1
G2 X-0.55 Y10.97 I0 J1.55
G1 Y16.293
G2 X1 Y17.843 I1.55 J0
G1 X20.248
G2 X21.593 Y17.064 I0 J-1.55
G3 X22.016 Y16.949 I0.269 J0.154
G1 X22.285 Y17.103
X22.344 Y17.138 Z-4.792
X22.401 Y17.17 Z-4.769
X22.452 Y17.2 Z-4.732
X22.495 Y17.224 Z-4.683
X22.527 Y17.242 Z-4.625
X22.547 Y17.254 Z-4.559
X22.554 Y17.258 Z-4.49
Z5
X22.245 Y17.795
Z-3.5 F150
Z-4.79
X22.238 Y17.792 Z-4.859
X22.218 Y17.78 Z-4.925
X22.186 Y17.762 Z-4.983
X22.144 Y17.737 Z-5.032
X22.093 Y17.708 Z-5.069
X22.036 Y17.676 Z-5.092
X21.976 Y17.641 Z-5.1
X21.707 Y17.487
G3 X21.593 Y17.064 I0.154 J-0.269
G2 X21.734 Y16.734 I-1.345 J-0.771 F300
G3 X30.221 Y16.592 I4.266 J1.266
G2 X31.691 Y17.651 I1.47 J-0.491
G1 X32.95
Y18.349
X31.691
G2 X30.221 Y19.408 I0 J1.55
G3 X21.727 Y19.242 I-4.221 J-1.408
G2 X20.238 Y18.125 I-1.488 J0.433
G1 X1
G2 X-0.55 Y19.675 I0 J1.55
G1 Y25
G2 X1 Y26.55 I1.55 J0
G1 X9.538
G2 X42.462 Y9.45 I16.462 J-8.55
X9.553 Y9.42 I-16.462 J8.55
G1 X1
G2 X-0.55 Y10.97 I0 J1.55
G1 Y16.293
G2 X1 Y17.843 I1.55 J0
G1 X20.248
G2 X21.593 Y17.064 I0 J-1.55
G3 X22.016 Y16.949 I0.269 J0.154
G1 X22.285 Y17.103
X22.344 Y17.138 Z-5.092
X22.401 Y17.17 Z-5.069
X22.452 Y17.2 Z-5.032
X22.495 Y17.224 Z-4.983
X22.527 Y17.242 Z-4.925
X22.547 Y17.254 Z-4.859
X22.554 Y17.258 Z-4.79
Z5
X22.245 Y17.795
Z-3.8 F150
Z-5.09
X22.238 Y17.792 Z-5.159
X22.218 Y17.78 Z-5.225
X22.186 Y17.762 Z-5.283
X22.144 Y17.737 Z-5.332
X22.093 Y17.708 Z-5.369
X22.036 Y17.676 Z-5.392
X21.976 Y17.641 Z-5.4
X21.707 Y17.487
G3 X21.593 Y17.064 I0.154 J-0.269
G2 X21.734 Y16.734 I-1.345 J-0.771 F300
G3 X30.221 Y16.592 I4.266 J1.266
G2 X31.691 Y17.651 I1.47 J-0.491
G1 X32.95
Y18.349
X31.691
G2 X30.221 Y19.408 I0 J1.55
G3 X21.727 Y19.242 I-4.221 J-1.408
G2 X20.238 Y18.125 I-1.488 J0.433
G1 X1
G2 X-0.55 Y19.675 I0 J1.55
G1 Y25
G2 X1 Y26.55 I1.55 J0
G1 X9.538
G2 X42.462 Y9.45 I16.462 J-8.55
X9.553 Y9.42 I-16.462 J8.55
G1 X1
G2 X-0.55 Y10.97 I0 J1.55
G1 Y16.293
G2 X1 Y17.843 I1.55 J0
G1 X20.248
G2 X21.593 Y17.064 I0 J-1.55
G3 X22.016 Y16.949 I0.269 J0.154
G1 X22.285 Y17.103
X22.344 Y17.138 Z-5.392
X22.401 Y17.17 Z-5.369
X22.452 Y17.2 Z-5.332
X22.495 Y17.224 Z-5.283
X22.527 Y17.242 Z-5.225
X22.547 Y17.254 Z-5.159
X22.554 Y17.258 Z-5.09
Z5
X22.245 Y17.795
Z-4.1 F150
Z-5.39
X22.238 Y17.792 Z-5.459
X22.218 Y17.78 Z-5.525
X22.186 Y17.762 Z-5.583
X22.144 Y17.737 Z-5.632
X22.093 Y17.708 Z-5.669
X22.036 Y17.676 Z-5.692
X21.976 Y17.641 Z-5.7
X21.707 Y17.487
G3 X21.593 Y17.064 I0.154 J-0.269
G2 X21.734 Y16.734 I-1.345 J-0.771 F300
G3 X30.221 Y16.592 I4.266 J1.266
G2 X31.691 Y17.651 I1.47 J-0.491
G1 X32.95
Y18.349
X31.691
G2 X30.221 Y19.408 I0 J1.55
G3 X21.727 Y19.242 I-4.221 J-1.408
G2 X20.238 Y18.125 I-1.488 J0.433
G1 X1
G2 X-0.55 Y19.675 I0 J1.55
G1 Y25
G2 X1 Y26.55 I1.55 J0
G1 X9.538
G2 X42.462 Y9.45 I16.462 J-8.55
X9.553 Y9.42 I-16.462 J8.55
G1 X1
G2 X-0.55 Y10.97 I0 J1.55
G1 Y16.293
G2 X1 Y17.843 I1.55 J0
G1 X20.248
G2 X21.593 Y17.064 I0 J-1.55
G3 X22.016 Y16.949 I0.269 J0.154
G1 X22.285 Y17.103
X22.344 Y17.138 Z-5.692
X22.401 Y17.17 Z-5.669
X22.452 Y17.2 Z-5.632
X22.495 Y17.224 Z-5.583
X22.527 Y17.242 Z-5.525
X22.547 Y17.254 Z-5.459
X22.554 Y17.258 Z-5.39
Z5
X22.245 Y17.795
Z-4.4 F150
Z-5.69
X22.238 Y17.792 Z-5.759
X22.218 Y17.78 Z-5.825
X22.186 Y17.762 Z-5.883
X22.144 Y17.737 Z-5.932
X22.093 Y17.708 Z-5.969
X22.036 Y17.676 Z-5.992
X21.976 Y17.641 Z-6
X21.707 Y17.487
G3 X21.593 Y17.064 I0.154 J-0.269
G2 X21.734 Y16.734 I-1.345 J-0.771 F300
G3 X30.221 Y16.592 I4.266 J1.266
G2 X31.691 Y17.651 I1.47 J-0.491
G1 X32.95
Y18.349
X31.691
G2 X30.221 Y19.408 I0 J1.55
G3 X21.727 Y19.242 I-4.221 J-1.408
G2 X20.238 Y18.125 I-1.488 J0.433
G1 X1
G2 X-0.55 Y19.675 I0 J1.55
G1 Y25
G2 X1 Y26.55 I1.55 J0
G1 X9.538
G2 X42.462 Y9.45 I16.462 J-8.55
X9.553 Y9.42 I-16.462 J8.55
G1 X1
G2 X-0.55 Y10.97 I0 J1.55
G1 Y16.293
G2 X1 Y17.843 I1.55 J0
G1 X20.248
G2 X21.593 Y17.064 I0 J-1.55
G3 X22.016 Y16.949 I0.269 J0.154
G1 X22.285 Y17.103
X22.344 Y17.138 Z-5.992
X22.401 Y17.17 Z-5.969
X22.452 Y17.2 Z-5.932
X22.495 Y17.224 Z-5.883
X22.527 Y17.242 Z-5.825
X22.547 Y17.254 Z-5.759
X22.554 Y17.258 Z-5.69
Z5
X22.245 Y17.795
Z-4.7 F150
Z-5.99
X22.238 Y17.792 Z-6.059
X22.218 Y17.78 Z-6.125
X22.186 Y17.762 Z-6.183
X22.144 Y17.737 Z-6.232
X22.093 Y17.708 Z-6.269
X22.036 Y17.676 Z-6.292
X21.976 Y17.641 Z-6.3
X21.707 Y17.487
G3 X21.593 Y17.064 I0.154 J-0.269
G2 X21.734 Y16.734 I-1.345 J-0.771 F300
G3 X30.221 Y16.592 I4.266 J1.266
G2 X31.691 Y17.651 I1.47 J-0.491
G1 X32.95
Y18.349
X31.691
G2 X30.221 Y19.408 I0 J1.55
G3 X21.727 Y19.242 I-4.221 J-1.408
G2 X20.238 Y18.125 I-1.488 J0.433
G1 X1
G2 X-0.55 Y19.675 I0 J1.55
G1 Y25
G2 X1 Y26.55 I1.55 J0
G1 X9.538
G2 X42.462 Y9.45 I16.462 J-8.55
X9.553 Y9.42 I-16.462 J8.55
G1 X1
G2 X-0.55 Y10.97 I0 J1.55
G1 Y16.293
G2 X1 Y17.843 I1.55 J0
G1 X20.248
G2 X21.593 Y17.064 I0 J-1.55
G3 X22.016 Y16.949 I0.269 J0.154
G1 X22.285 Y17.103
X22.344 Y17.138 Z-6.292
X22.401 Y17.17 Z-6.269
X22.452 Y17.2 Z-6.232
X22.495 Y17.224 Z-6.183
X22.527 Y17.242 Z-6.125
X22.547 Y17.254 Z-6.059
X22.554 Y17.258 Z-5.99
Z5
X22.245 Y17.795
Z-5 F150
Z-6.29
X22.238 Y17.792 Z-6.359
X22.218 Y17.78 Z-6.425
X22.186 Y17.762 Z-6.483
X22.144 Y17.737 Z-6.532
X22.093 Y17.708 Z-6.569
X22.036 Y17.676 Z-6.592
X21.976 Y17.641 Z-6.6
X21.707 Y17.487
G3 X21.593 Y17.064 I0.154 J-0.269
G2 X21.734 Y16.734 I-1.345 J-0.771 F300
G3 X30.221 Y16.592 I4.266 J1.266
G2 X31.691 Y17.651 I1.47 J-0.491
G1 X32.95
Y18.349
X31.691
G2 X30.221 Y19.408 I0 J1.55
G3 X21.727 Y19.242 I-4.221 J-1.408
G2 X20.238 Y18.125 I-1.488 J0.433
G1 X1
G2 X-0.55 Y19.675 I0 J1.55
G1 Y25
G2 X1 Y26.55 I1.55 J0
G1 X9.538
G2 X42.462 Y9.45 I16.462 J-8.55
X9.553 Y9.42 I-16.462 J8.55
G1 X1
G2 X-0.55 Y10.97 I0 J1.55
G1 Y16.293
G2 X1 Y17.843 I1.55 J0
G1 X20.248
G2 X21.593 Y17.064 I0 J-1.55
G3 X22.016 Y16.949 I0.269 J0.154
G1 X22.285 Y17.103
X22.344 Y17.138 Z-6.592
X22.401 Y17.17 Z-6.569
X22.452 Y17.2 Z-6.532
X22.495 Y17.224 Z-6.483
X22.527 Y17.242 Z-6.425
X22.547 Y17.254 Z-6.359
X22.554 Y17.258 Z-6.29
Z5
X22.245 Y17.795
Z-5.3 F150
Z-6.59
X22.238 Y17.792 Z-6.659
X22.218 Y17.78 Z-6.725
X22.186 Y17.762 Z-6.783
X22.144 Y17.737 Z-6.832
X22.093 Y17.708 Z-6.869
X22.036 Y17.676 Z-6.892
X21.976 Y17.641 Z-6.9
X21.707 Y17.487
G3 X21.593 Y17.064 I0.154 J-0.269
G2 X21.734 Y16.734 I-1.345 J-0.771 F300
G3 X30.221 Y16.592 I4.266 J1.266
G2 X31.691 Y17.651 I1.47 J-0.491
G1 X32.95
Y18.349
X31.691
G2 X30.221 Y19.408 I0 J1.55
G3 X21.727 Y19.242 I-4.221 J-1.408
G2 X20.238 Y18.125 I-1.488 J0.433
G1 X1
G2 X-0.55 Y19.675 I0 J1.55
G1 Y25
G2 X1 Y26.55 I1.55 J0
G1 X9.538
G2 X42.462 Y9.45 I16.462 J-8.55
X9.553 Y9.42 I-16.462 J8.55
G1 X1
G2 X-0.55 Y10.97 I0 J1.55
G1 Y16.293
G2 X1 Y17.843 I1.55 J0
G1 X20.248
G2 X21.593 Y17.064 I0 J-1.55
G3 X22.016 Y16.949 I0.269 J0.154
G1 X22.285 Y17.103
X22.344 Y17.138 Z-6.892
X22.401 Y17.17 Z-6.869
X22.452 Y17.2 Z-6.832
X22.495 Y17.224 Z-6.783
X22.527 Y17.242 Z-6.725
X22.547 Y17.254 Z-6.659
X22.554 Y17.258 Z-6.59
Z5
X22.245 Y17.795
Z-5.6 F150
Z-6.89
X22.238 Y17.792 Z-6.959
X22.218 Y17.78 Z-7.025
X22.186 Y17.762 Z-7.083
X22.144 Y17.737 Z-7.132
X22.093 Y17.708 Z-7.169
X22.036 Y17.676 Z-7.192
X21.976 Y17.641 Z-7.2
X21.707 Y17.487
G3 X21.593 Y17.064 I0.154 J-0.269
G2 X21.734 Y16.734 I-1.345 J-0.771 F300
G3 X30.221 Y16.592 I4.266 J1.266
G2 X31.691 Y17.651 I1.47 J-0.491
G1 X32.95
Y18.349
X31.691
G2 X30.221 Y19.408 I0 J1.55
G3 X21.727 Y19.242 I-4.221 J-1.408
G2 X20.238 Y18.125 I-1.488 J0.433
G1 X1
G2 X-0.55 Y19.675 I0 J1.55
G1 Y25
G2 X1 Y26.55 I1.55 J0
G1 X9.538
G2 X42.462 Y9.45 I16.462 J-8.55
X9.553 Y9.42 I-16.462 J8.55
G1 X1
G2 X-0.55 Y10.97 I0 J1.55
G1 Y16.293
G2 X1 Y17.843 I1.55 J0
G1 X20.248
G2 X21.593 Y17.064 I0 J-1.55
G3 X22.016 Y16.949 I0.269 J0.154
G1 X22.285 Y17.103
X22.344 Y17.138 Z-7.192
X22.401 Y17.17 Z-7.169
X22.452 Y17.2 Z-7.132
X22.495 Y17.224 Z-7.083
X22.527 Y17.242 Z-7.025
X22.547 Y17.254 Z-6.959
X22.554 Y17.258 Z-6.89
Z5
X22.245 Y17.795
Z-5.9 F150
Z-7.19
X22.238 Y17.792 Z-7.259
X22.218 Y17.78 Z-7.325
X22.186 Y17.762 Z-7.383
X22.144 Y17.737 Z-7.432
X22.093 Y17.708 Z-7.469
X22.036 Y17.676 Z-7.492
X21.976 Y17.641 Z-7.5
X21.707 Y17.487
G3 X21.593 Y17.064 I0.154 J-0.269
G2 X21.734 Y16.734 I-1.345 J-0.771 F300
G3 X30.221 Y16.592 I4.266 J1.266
G2 X31.691 Y17.651 I1.47 J-0.491
G1 X32.95
Y18.349
X31.691
G2 X30.221 Y19.408 I0 J1.55
G3 X21.727 Y19.242 I-4.221 J-1.408
G2 X20.238 Y18.125 I-1.488 J0.433
G1 X1
G2 X-0.55 Y19.675 I0 J1.55
G1 Y25
G2 X1 Y26.55 I1.55 J0
G1 X9.538
G2 X42.462 Y9.45 I16.462 J-8.55
X9.553 Y9.42 I-16.462 J8.55
G1 X1
G2 X-0.55 Y10.97 I0 J1.55
G1 Y16.293
G2 X1 Y17.843 I1.55 J0
G1 X20.248
G2 X21.593 Y17.064 I0 J-1.55
G3 X22.016 Y16.949 I0.269 J0.154
G1 X22.285 Y17.103
X22.344 Y17.138 Z-7.492
X22.401 Y17.17 Z-7.469
X22.452 Y17.2 Z-7.432
X22.495 Y17.224 Z-7.383
X22.527 Y17.242 Z-7.325
X22.547 Y17.254 Z-7.259
X22.554 Y17.258 Z-7.19
Z5
X22.245 Y17.795
Z-6.2 F150
Z-7.49
X22.238 Y17.792 Z-7.559
X22.218 Y17.78 Z-7.625
X22.186 Y17.762 Z-7.683
X22.144 Y17.737 Z-7.732
X22.093 Y17.708 Z-7.769
X22.036 Y17.676 Z-7.792
X21.976 Y17.641 Z-7.8
X21.707 Y17.487
G3 X21.593 Y17.064 I0.154 J-0.269
G2 X21.734 Y16.734 I-1.345 J-0.771 F300
G3 X30.221 Y16.592 I4.266 J1.266
G2 X31.691 Y17.651 I1.47 J-0.491
G1 X32.95
Y18.349
X31.691
G2 X30.221 Y19.408 I0 J1.55
G3 X21.727 Y19.242 I-4.221 J-1.408
G2 X20.238 Y18.125 I-1.488 J0.433
G1 X1
G2 X-0.55 Y19.675 I0 J1.55
G1 Y25
G2 X1 Y26.55 I1.55 J0
G1 X9.538
G2 X42.462 Y9.45 I16.462 J-8.55
X9.553 Y9.42 I-16.462 J8.55
G1 X1
G2 X-0.55 Y10.97 I0 J1.55
G1 Y16.293
G2 X1 Y17.843 I1.55 J0
G1 X20.248
G2 X21.593 Y17.064 I0 J-1.55
G3 X22.016 Y16.949 I0.269 J0.154
G1 X22.285 Y17.103
X22.344 Y17.138 Z-7.792
X22.401 Y17.17 Z-7.769
X22.452 Y17.2 Z-7.732
X22.495 Y17.224 Z-7.683
X22.527 Y17.242 Z-7.625
X22.547 Y17.254 Z-7.559
X22.554 Y17.258 Z-7.49
Z5
X22.245 Y17.795
Z-6.5 F150
Z-7.79
X22.238 Y17.792 Z-7.859
X22.218 Y17.78 Z-7.925
X22.186 Y17.762 Z-7.983
X22.144 Y17.737 Z-8.032
X22.093 Y17.708 Z-8.069
X22.036 Y17.676 Z-8.092
X21.976 Y17.641 Z-8.1
X21.707 Y17.487
G3 X21.593 Y17.064 I0.154 J-0.269
G2 X21.734 Y16.734 I-1.345 J-0.771 F300
G3 X30.221 Y16.592 I4.266 J1.266
G2 X31.691 Y17.651 I1.47 J-0.491
G1 X32.95
Y18.349
X31.691
G2 X30.221 Y19.408 I0 J1.55
G3 X21.727 Y19.242 I-4.221 J-1.408
G2 X20.238 Y18.125 I-1.488 J0.433
G1 X1
G2 X-0.55 Y19.675 I0 J1.55
G1 Y25
G2 X1 Y26.55 I1.55 J0
G1 X9.538
G2 X42.462 Y9.45 I16.462 J-8.55
X9.553 Y9.42 I-16.462 J8.55
G1 X1
G2 X-0.55 Y10.97 I0 J1.55
G1 Y16.293
G2 X1 Y17.843 I1.55 J0
G1 X20.248
G2 X21.593 Y17.064 I0 J-1.55
G3 X22.016 Y16.949 I0.269 J0.154
G1 X22.285 Y17.103
X22.344 Y17.138 Z-8.092
X22.401 Y17.17 Z-8.069
X22.452 Y17.2 Z-8.032
X22.495 Y17.224 Z-7.983
X22.527 Y17.242 Z-7.925
X22.547 Y17.254 Z-7.859
X22.554 Y17.258 Z-7.79
Z5
X22.245 Y17.795
Z-6.8 F150
Z-8.09
X22.238 Y17.792 Z-8.159
X22.218 Y17.78 Z-8.225
X22.186 Y17.762 Z-8.283
X22.144 Y17.737 Z-8.332
X22.093 Y17.708 Z-8.369
X22.036 Y17.676 Z-8.392
X21.976 Y17.641 Z-8.4
X21.707 Y17.487
G3 X21.593 Y17.064 I0.154 J-0.269
G2 X21.734 Y16.734 I-1.345 J-0.771 F300
G3 X30.221 Y16.592 I4.266 J1.266
G2 X31.691 Y17.651 I1.47 J-0.491
G1 X32.95
Y18.349
X31.691
G2 X30.221 Y19.408 I0 J1.55
G3 X21.727 Y19.242 I-4.221 J-1.408
G2 X20.238 Y18.125 I-1.488 J0.433
G1 X1
G2 X-0.55 Y19.675 I0 J1.55
G1 Y25
G2 X1 Y26.55 I1.55 J0
G1 X9.538
G2 X42.462 Y9.45 I16.462 J-8.55
X9.553 Y9.42 I-16.462 J8.55
G1 X1
G2 X-0.55 Y10.97 I0 J1.55
G1 Y16.293
G2 X1 Y17.843 I1.55 J0
G1 X20.248
G2 X21.593 Y17.064 I0 J-1.55
G3 X22.016 Y16.949 I0.269 J0.154
G1 X22.285 Y17.103
X22.344 Y17.138 Z-8.392
X22.401 Y17.17 Z-8.369
X22.452 Y17.2 Z-8.332
X22.495 Y17.224 Z-8.283
X22.527 Y17.242 Z-8.225
X22.547 Y17.254 Z-8.159
X22.554 Y17.258 Z-8.09
Z5
X22.245 Y17.795
Z-7.1 F150
Z-8.39
X22.238 Y17.792 Z-8.459
X22.218 Y17.78 Z-8.525
X22.186 Y17.762 Z-8.583
X22.144 Y17.737 Z-8.632
X22.093 Y17.708 Z-8.669
X22.036 Y17.676 Z-8.692
X21.976 Y17.641 Z-8.7
X21.707 Y17.487
G3 X21.593 Y17.064 I0.154 J-0.269
G2 X21.734 Y16.734 I-1.345 J-0.771 F300
G3 X30.221 Y16.592 I4.266 J1.266
G2 X31.691 Y17.651 I1.47 J-0.491
G1 X32.95
Y18.349
X31.691
G2 X30.221 Y19.408 I0 J1.55
G3 X21.727 Y19.242 I-4.221 J-1.408
G2 X20.238 Y18.125 I-1.488 J0.433
G1 X1
G2 X-0.55 Y19.675 I0 J1.55
G1 Y25
G2 X1 Y26.55 I1.55 J0
G1 X9.538
G2 X42.462 Y9.45 I16.462 J-8.55
X9.553 Y9.42 I-16.462 J8.55
G1 X1
G2 X-0.55 Y10.97 I0 J1.55
G1 Y16.293
G2 X1 Y17.843 I1.55 J0
G1 X20.248
G2 X21.593 Y17.064 I0 J-1.55
G3 X22.016 Y16.949 I0.269 J0.154
G1 X22.285 Y17.103
X22.344 Y17.138 Z-8.692
X22.401 Y17.17 Z-8.669
X22.452 Y17.2 Z-8.632
X22.495 Y17.224 Z-8.583
X22.527 Y17.242 Z-8.525
X22.547 Y17.254 Z-8.459
X22.554 Y17.258 Z-8.39
Z5
X22.245 Y17.795
Z-7.4 F150
Z-8.69
X22.238 Y17.792 Z-8.759
X22.218 Y17.78 Z-8.825
X22.186 Y17.762 Z-8.883
X22.144 Y17.737 Z-8.932
X22.093 Y17.708 Z-8.969
X22.036 Y17.676 Z-8.992
X21.976 Y17.641 Z-9
X21.707 Y17.487
G3 X21.593 Y17.064 I0.154 J-0.269
G2 X21.734 Y16.734 I-1.345 J-0.771 F300
G3 X30.221 Y16.592 I4.266 J1.266
G2 X31.691 Y17.651 I1.47 J-0.491
G1 X32.95
Y18.349
X31.691
G2 X30.221 Y19.408 I0 J1.55
G3 X21.727 Y19.242 I-4.221 J-1.408
G2 X20.238 Y18.125 I-1.488 J0.433
G1 X1
G2 X-0.55 Y19.675 I0 J1.55
G1 Y25
G2 X1 Y26.55 I1.55 J0
G1 X9.538
G2 X42.462 Y9.45 I16.462 J-8.55
X9.553 Y9.42 I-16.462 J8.55
G1 X1
G2 X-0.55 Y10.97 I0 J1.55
G1 Y16.293
G2 X1 Y17.843 I1.55 J0
G1 X20.248
G2 X21.593 Y17.064 I0 J-1.55
G3 X22.016 Y16.949 I0.269 J0.154
G1 X22.285 Y17.103
X22.344 Y17.138 Z-8.992
X22.401 Y17.17 Z-8.969
X22.452 Y17.2 Z-8.932
X22.495 Y17.224 Z-8.883
X22.527 Y17.242 Z-8.825
X22.547 Y17.254 Z-8.759
X22.554 Y17.258 Z-8.69
Z5
X22.245 Y17.795
Z-7.7 F150
Z-8.99
X22.238 Y17.792 Z-9.059
X22.218 Y17.78 Z-9.125
X22.186 Y17.762 Z-9.183
X22.144 Y17.737 Z-9.232
X22.093 Y17.708 Z-9.269
X22.036 Y17.676 Z-9.292
X21.976 Y17.641 Z-9.3
X21.707 Y17.487
G3 X21.593 Y17.064 I0.154 J-0.269
G2 X21.734 Y16.734 I-1.345 J-0.771 F300
G3 X30.221 Y16.592 I4.266 J1.266
G2 X31.691 Y17.651 I1.47 J-0.491
G1 X32.95
Y18.349
X31.691
G2 X30.221 Y19.408 I0 J1.55
G3 X21.727 Y19.242 I-4.221 J-1.408
G2 X20.238 Y18.125 I-1.488 J0.433
G1 X1
G2 X-0.55 Y19.675 I0 J1.55
G1 Y25
G2 X1 Y26.55 I1.55 J0
G1 X9.538
G2 X42.462 Y9.45 I16.462 J-8.55
X9.553 Y9.42 I-16.462 J8.55
G1 X1
G2 X-0.55 Y10.97 I0 J1.55
G1 Y16.293
G2 X1 Y17.843 I1.55 J0
G1 X20.248
G2 X21.593 Y17.064 I0 J-1.55
G3 X22.016 Y16.949 I0.269 J0.154
G1 X22.285 Y17.103
X22.344 Y17.138 Z-9.292
X22.401 Y17.17 Z-9.269
X22.452 Y17.2 Z-9.232
X22.495 Y17.224 Z-9.183
X22.527 Y17.242 Z-9.125
X22.547 Y17.254 Z-9.059
X22.554 Y17.258 Z-8.99
Z5
X22.245 Y17.795
Z-8 F150
Z-9.29
X22.238 Y17.792 Z-9.359
X22.218 Y17.78 Z-9.425
X22.186 Y17.762 Z-9.483
X22.144 Y17.737 Z-9.532
X22.093 Y17.708 Z-9.569
X22.036 Y17.676 Z-9.592
X21.976 Y17.641 Z-9.6
X21.707 Y17.487
G3 X21.593 Y17.064 I0.154 J-0.269
G2 X21.734 Y16.734 I-1.345 J-0.771 F300
G3 X30.221 Y16.592 I4.266 J1.266
G2 X31.691 Y17.651 I1.47 J-0.491
G1 X32.95
Y18.349
X31.691
G2 X30.221 Y19.408 I0 J1.55
G3 X21.727 Y19.242 I-4.221 J-1.408
G2 X20.238 Y18.125 I-1.488 J0.433
G1 X1
G2 X-0.55 Y19.675 I0 J1.55
G1 Y25
G2 X1 Y26.55 I1.55 J0
G1 X9.538
G2 X42.462 Y9.45 I16.462 J-8.55
X9.553 Y9.42 I-16.462 J8.55
G1 X1
G2 X-0.55 Y10.97 I0 J1.55
G1 Y16.293
G2 X1 Y17.843 I1.55 J0
G1 X20.248
G2 X21.593 Y17.064 I0 J-1.55
G3 X22.016 Y16.949 I0.269 J0.154
G1 X22.285 Y17.103
X22.344 Y17.138 Z-9.592
X22.401 Y17.17 Z-9.569
X22.452 Y17.2 Z-9.532
X22.495 Y17.224 Z-9.483
X22.527 Y17.242 Z-9.425
X22.547 Y17.254 Z-9.359
X22.554 Y17.258 Z-9.29
Z5
X22.245 Y17.795
Z-8.3 F150
Z-9.59
X22.238 Y17.792 Z-9.659
X22.218 Y17.78 Z-9.725
X22.186 Y17.762 Z-9.783
X22.144 Y17.737 Z-9.832
X22.093 Y17.708 Z-9.869
X22.036 Y17.676 Z-9.892
X21.976 Y17.641 Z-9.9
X21.707 Y17.487
G3 X21.593 Y17.064 I0.154 J-0.269
G2 X21.734 Y16.734 I-1.345 J-0.771 F300
G3 X30.221 Y16.592 I4.266 J1.266
G2 X31.691 Y17.651 I1.47 J-0.491
G1 X32.95
Y18.349
X31.691
G2 X30.221 Y19.408 I0 J1.55
G3 X21.727 Y19.242 I-4.221 J-1.408
G2 X20.238 Y18.125 I-1.488 J0.433
G1 X1
G2 X-0.55 Y19.675 I0 J1.55
G1 Y25
G2 X1 Y26.55 I1.55 J0
G1 X9.538
G2 X42.462 Y9.45 I16.462 J-8.55
X9.553 Y9.42 I-16.462 J8.55
G1 X1
G2 X-0.55 Y10.97 I0 J1.55
G1 Y16.293
G2 X1 Y17.843 I1.55 J0
G1 X20.248
G2 X21.593 Y17.064 I0 J-1.55
G3 X22.016 Y16.949 I0.269 J0.154
G1 X22.285 Y17.103
X22.344 Y17.138 Z-9.892
X22.401 Y17.17 Z-9.869
X22.452 Y17.2 Z-9.832
X22.495 Y17.224 Z-9.783
X22.527 Y17.242 Z-9.725
X22.547 Y17.254 Z-9.659
X22.554 Y17.258 Z-9.59
Z5
X22.245 Y17.795
Z-8.6 F150
Z-9.89
X22.238 Y17.792 Z-9.959
X22.218 Y17.78 Z-10.025
X22.186 Y17.762 Z-10.083
X22.144 Y17.737 Z-10.132
X22.093 Y17.708 Z-10.169
X22.036 Y17.676 Z-10.192
X21.976 Y17.641 Z-10.2
X21.707 Y17.487
G3 X21.593 Y17.064 I0.154 J-0.269
G2 X21.734 Y16.734 I-1.345 J-0.771 F300
G3 X30.221 Y16.592 I4.266 J1.266
G2 X31.691 Y17.651 I1.47 J-0.491
G1 X32.95
Y18.349
X31.691
G2 X30.221 Y19.408 I0 J1.55
G3 X21.727 Y19.242 I-4.221 J-1.408
G2 X20.238 Y18.125 I-1.488 J0.433
G1 X1
G2 X-0.55 Y19.675 I0 J1.55
G1 Y25
G2 X1 Y26.55 I1.55 J0
G1 X9.538
G2 X42.462 Y9.45 I16.462 J-8.55
X9.553 Y9.42 I-16.462 J8.55
G1 X1
G2 X-0.55 Y10.97 I0 J1.55
G1 Y16.293
G2 X1 Y17.843 I1.55 J0
G1 X20.248
G2 X21.593 Y17.064 I0 J-1.55
G3 X22.016 Y16.949 I0.269 J0.154
G1 X22.285 Y17.103
X22.344 Y17.138 Z-10.192
X22.401 Y17.17 Z-10.169
X22.452 Y17.2 Z-10.132
X22.495 Y17.224 Z-10.083
X22.527 Y17.242 Z-10.025
X22.547 Y17.254 Z-9.959
X22.554 Y17.258 Z-9.89
Z5
X22.245 Y17.795
Z-8.9 F150
Z-10.19
X22.238 Y17.792 Z-10.259
X22.218 Y17.78 Z-10.325
X22.186 Y17.762 Z-10.383
X22.144 Y17.737 Z-10.432
X22.093 Y17.708 Z-10.469
X22.036 Y17.676 Z-10.492
X21.976 Y17.641 Z-10.5
X21.707 Y17.487
G3 X21.593 Y17.064 I0.154 J-0.269
G2 X21.734 Y16.734 I-1.345 J-0.771 F300
G3 X30.221 Y16.592 I4.266 J1.266
G2 X31.691 Y17.651 I1.47 J-0.491
G1 X32.95
Y18.349
X31.691
G2 X30.221 Y19.408 I0 J1.55
G3 X21.727 Y19.242 I-4.221 J-1.408
G2 X20.238 Y18.125 I-1.488 J0.433
G1 X1
G2 X-0.55 Y19.675 I0 J1.55
G1 Y25
G2 X1 Y26.55 I1.55 J0
G1 X9.538
G2 X42.462 Y9.45 I16.462 J-8.55
X9.553 Y9.42 I-16.462 J8.55
G1 X1
G2 X-0.55 Y10.97 I0 J1.55
G1 Y16.293
G2 X1 Y17.843 I1.55 J0
G1 X20.248
G2 X21.593 Y17.064 I0 J-1.55
G3 X22.016 Y16.949 I0.269 J0.154
G1 X22.285 Y17.103
X22.344 Y17.138 Z-10.492
X22.401 Y17.17 Z-10.469
X22.452 Y17.2 Z-10.432
X22.495 Y17.224 Z-10.383
X22.527 Y17.242 Z-10.325
X22.547 Y17.254 Z-10.259
X22.554 Y17.258 Z-10.19
Z5
X22.245 Y17.795
Z-9.2 F150
Z-10.49
X22.238 Y17.792 Z-10.559
X22.218 Y17.78 Z-10.625
X22.186 Y17.762 Z-10.683
X22.144 Y17.737 Z-10.732
X22.093 Y17.708 Z-10.769
X22.036 Y17.676 Z-10.792
X21.976 Y17.641 Z-10.8
X21.707 Y17.487
G3 X21.593 Y17.064 I0.154 J-0.269
G2 X21.734 Y16.734 I-1.345 J-0.771 F300
G3 X30.221 Y16.592 I4.266 J1.266
G2 X31.691 Y17.651 I1.47 J-0.491
G1 X32.95
Y18.349
X31.691
G2 X30.221 Y19.408 I0 J1.55
G3 X21.727 Y19.242 I-4.221 J-1.408
G2 X20.238 Y18.125 I-1.488 J0.433
G1 X1
G2 X-0.55 Y19.675 I0 J1.55
G1 Y25
G2 X1 Y26.55 I1.55 J0
G1 X9.538
G2 X42.462 Y9.45 I16.462 J-8.55
X9.553 Y9.42 I-16.462 J8.55
G1 X1
G2 X-0.55 Y10.97 I0 J1.55
G1 Y16.293
G2 X1 Y17.843 I1.55 J0
G1 X20.248
G2 X21.593 Y17.064 I0 J-1.55
G3 X22.016 Y16.949 I0.269 J0.154
G1 X22.285 Y17.103
X22.344 Y17.138 Z-10.792
X22.401 Y17.17 Z-10.769
X22.452 Y17.2 Z-10.732
X22.495 Y17.224 Z-10.683
X22.527 Y17.242 Z-10.625
X22.547 Y17.254 Z-10.559
X22.554 Y17.258 Z-10.49
Z5
X22.245 Y17.795
Z-9.5 F150
Z-10.79
X22.238 Y17.792 Z-10.859
X22.218 Y17.78 Z-10.925
X22.186 Y17.762 Z-10.983
X22.144 Y17.737 Z-11.032
X22.093 Y17.708 Z-11.069
X22.036 Y17.676 Z-11.092
X21.976 Y17.641 Z-11.1
X21.707 Y17.487
G3 X21.593 Y17.064 I0.154 J-0.269
G2 X21.734 Y16.734 I-1.345 J-0.771 F300
G3 X30.221 Y16.592 I4.266 J1.266
G2 X31.691 Y17.651 I1.47 J-0.491
G1 X32.95
Y18.349
X31.691
G2 X30.221 Y19.408 I0 J1.55
G3 X21.727 Y19.242 I-4.221 J-1.408
G2 X20.238 Y18.125 I-1.488 J0.433
G1 X1
G2 X-0.55 Y19.675 I0 J1.55
G1 Y25
G2 X1 Y26.55 I1.55 J0
G1 X9.538
G2 X42.462 Y9.45 I16.462 J-8.55
X9.553 Y9.42 I-16.462 J8.55
G1 X1
G2 X-0.55 Y10.97 I0 J1.55
G1 Y16.293
G2 X1 Y17.843 I1.55 J0
G1 X20.248
G2 X21.593 Y17.064 I0 J-1.55
G3 X22.016 Y16.949 I0.269 J0.154
G1 X22.285 Y17.103
X22.344 Y17.138 Z-11.092
X22.401 Y17.17 Z-11.069
X22.452 Y17.2 Z-11.032
X22.495 Y17.224 Z-10.983
X22.527 Y17.242 Z-10.925
X22.547 Y17.254 Z-10.859
X22.554 Y17.258 Z-10.79
Z5
X22.245 Y17.795
Z-9.8 F150
Z-11.09
X22.238 Y17.792 Z-11.159
X22.218 Y17.78 Z-11.225
X22.186 Y17.762 Z-11.283
X22.144 Y17.737 Z-11.332
X22.093 Y17.708 Z-11.369
X22.036 Y17.676 Z-11.392
X21.976 Y17.641 Z-11.4
X21.707 Y17.487
G3 X21.593 Y17.064 I0.154 J-0.269
G2 X21.734 Y16.734 I-1.345 J-0.771 F300
G3 X30.221 Y16.592 I4.266 J1.266
G2 X31.691 Y17.651 I1.47 J-0.491
G1 X32.95
Y18.349
X31.691
G2 X30.221 Y19.408 I0 J1.55
G3 X21.727 Y19.242 I-4.221 J-1.408
G2 X20.238 Y18.125 I-1.488 J0.433
G1 X1
G2 X-0.55 Y19.675 I0 J1.55
G1 Y25
G2 X1 Y26.55 I1.55 J0
G1 X9.538
G2 X42.462 Y9.45 I16.462 J-8.55
X9.553 Y9.42 I-16.462 J8.55
G1 X1
G2 X-0.55 Y10.97 I0 J1.55
G1 Y16.293
G2 X1 Y17.843 I1.55 J0
G1 X20.248
G2 X21.593 Y17.064 I0 J-1.55
G3 X22.016 Y16.949 I0.269 J0.154
G1 X22.285 Y17.103
X22.344 Y17.138 Z-11.392
X22.401 Y17.17 Z-11.369
X22.452 Y17.2 Z-11.332
X22.495 Y17.224 Z-11.283
X22.527 Y17.242 Z-11.225
X22.547 Y17.254 Z-11.159
X22.554 Y17.258 Z-11.09
Z5
X22.245 Y17.795
Z-10.1 F150
Z-11.39
X22.238 Y17.792 Z-11.459
X22.218 Y17.78 Z-11.525
X22.186 Y17.762 Z-11.583
X22.144 Y17.737 Z-11.632
X22.093 Y17.708 Z-11.669
X22.036 Y17.676 Z-11.692
X21.976 Y17.641 Z-11.7
X21.707 Y17.487
G3 X21.593 Y17.064 I0.154 J-0.269
G2 X21.734 Y16.734 I-1.345 J-0.771 F300
G3 X30.221 Y16.592 I4.266 J1.266
G2 X31.691 Y17.651 I1.47 J-0.491
G1 X32.95
Y18.349
X31.691
G2 X30.221 Y19.408 I0 J1.55
G3 X21.727 Y19.242 I-4.221 J-1.408
G2 X20.238 Y18.125 I-1.488 J0.433
G1 X1
G2 X-0.55 Y19.675 I0 J1.55
G1 Y25
G2 X1 Y26.55 I1.55 J0
G1 X9.538
G2 X42.462 Y9.45 I16.462 J-8.55
X9.553 Y9.42 I-16.462 J8.55
G1 X1
G2 X-0.55 Y10.97 I0 J1.55
G1 Y16.293
G2 X1 Y17.843 I1.55 J0
G1 X20.248
G2 X21.593 Y17.064 I0 J-1.55
G3 X22.016 Y16.949 I0.269 J0.154
G1 X22.285 Y17.103
X22.344 Y17.138 Z-11.692
X22.401 Y17.17 Z-11.669
X22.452 Y17.2 Z-11.632
X22.495 Y17.224 Z-11.583
X22.527 Y17.242 Z-11.525
X22.547 Y17.254 Z-11.459
X22.554 Y17.258 Z-11.39
Z5
X22.245 Y17.795
Z-10.4 F150
Z-11.69
X22.238 Y17.792 Z-11.759
X22.218 Y17.78 Z-11.825
X22.186 Y17.762 Z-11.883
X22.144 Y17.737 Z-11.932
X22.093 Y17.708 Z-11.969
X22.036 Y17.676 Z-11.992
X21.976 Y17.641 Z-12
X21.707 Y17.487
G3 X21.593 Y17.064 I0.154 J-0.269
G2 X21.734 Y16.734 I-1.345 J-0.771 F300
G3 X30.221 Y16.592 I4.266 J1.266
G2 X31.691 Y17.651 I1.47 J-0.491
G1 X32.95
Y18.349
X31.691
G2 X30.221 Y19.408 I0 J1.55
G3 X21.727 Y19.242 I-4.221 J-1.408
G2 X20.238 Y18.125 I-1.488 J0.433
G1 X1
G2 X-0.55 Y19.675 I0 J1.55
G1 Y25
G2 X1 Y26.55 I1.55 J0
G1 X9.538
G2 X42.462 Y9.45 I16.462 J-8.55
X9.553 Y9.42 I-16.462 J8.55
G1 X1
G2 X-0.55 Y10.97 I0 J1.55
G1 Y16.293
G2 X1 Y17.843 I1.55 J0
G1 X20.248
G2 X21.593 Y17.064 I0 J-1.55
G3 X22.016 Y16.949 I0.269 J0.154
G1 X22.285 Y17.103
X22.344 Y17.138 Z-11.992
X22.401 Y17.17 Z-11.969
X22.452 Y17.2 Z-11.932
X22.495 Y17.224 Z-11.883
X22.527 Y17.242 Z-11.825
X22.547 Y17.254 Z-11.759
X22.554 Y17.258 Z-11.69
Z5
X22.245 Y17.795
Z-10.7 F150
Z-11.99
X22.238 Y17.792 Z-12.059
X22.218 Y17.78 Z-12.125
X22.186 Y17.762 Z-12.183
X22.144 Y17.737 Z-12.232
X22.093 Y17.708 Z-12.269
X22.036 Y17.676 Z-12.292
X21.976 Y17.641 Z-12.3
X21.707 Y17.487
G3 X21.593 Y17.064 I0.154 J-0.269
G2 X21.734 Y16.734 I-1.345 J-0.771 F300
G3 X30.221 Y16.592 I4.266 J1.266
G2 X31.691 Y17.651 I1.47 J-0.491
G1 X32.95
Y18.349
X31.691
G2 X30.221 Y19.408 I0 J1.55
G3 X21.727 Y19.242 I-4.221 J-1.408
G2 X20.238 Y18.125 I-1.488 J0.433
G1 X1
G2 X-0.55 Y19.675 I0 J1.55
G1 Y25
G2 X1 Y26.55 I1.55 J0
G1 X9.538
G2 X42.462 Y9.45 I16.462 J-8.55
X9.553 Y9.42 I-16.462 J8.55
G1 X1
G2 X-0.55 Y10.97 I0 J1.55
G1 Y16.293
G2 X1 Y17.843 I1.55 J0
G1 X20.248
G2 X21.593 Y17.064 I0 J-1.55
G3 X22.016 Y16.949 I0.269 J0.154
G1 X22.285 Y17.103
X22.344 Y17.138 Z-12.292
X22.401 Y17.17 Z-12.269
X22.452 Y17.2 Z-12.232
X22.495 Y17.224 Z-12.183
X22.527 Y17.242 Z-12.125
X22.547 Y17.254 Z-12.059
X22.554 Y17.258 Z-11.99
Z5
X22.245 Y17.795
Z-11 F150
Z-12.29
X22.238 Y17.792 Z-12.359
X22.218 Y17.78 Z-12.425
X22.186 Y17.762 Z-12.483
X22.144 Y17.737 Z-12.532
X22.093 Y17.708 Z-12.569
X22.036 Y17.676 Z-12.592
X21.976 Y17.641 Z-12.6
X21.707 Y17.487
G3 X21.593 Y17.064 I0.154 J-0.269
G2 X21.734 Y16.734 I-1.345 J-0.771 F300
G3 X30.221 Y16.592 I4.266 J1.266
G2 X31.691 Y17.651 I1.47 J-0.491
G1 X32.95
Y18.349
X31.691
G2 X30.221 Y19.408 I0 J1.55
G3 X21.727 Y19.242 I-4.221 J-1.408
G2 X20.238 Y18.125 I-1.488 J0.433
G1 X1
G2 X-0.55 Y19.675 I0 J1.55
G1 Y25
G2 X1 Y26.55 I1.55 J0
G1 X9.538
G2 X42.462 Y9.45 I16.462 J-8.55
X9.553 Y9.42 I-16.462 J8.55
G1 X1
G2 X-0.55 Y10.97 I0 J1.55
G1 Y16.293
G2 X1 Y17.843 I1.55 J0
G1 X20.248
G2 X21.593 Y17.064 I0 J-1.55
G3 X22.016 Y16.949 I0.269 J0.154
G1 X22.285 Y17.103
X22.344 Y17.138 Z-12.592
X22.401 Y17.17 Z-12.569
X22.452 Y17.2 Z-12.532
X22.495 Y17.224 Z-12.483
X22.527 Y17.242 Z-12.425
X22.547 Y17.254 Z-12.359
X22.554 Y17.258 Z-12.29
Z5
X22.245 Y17.795
Z-11.3 F150
Z-12.59
X22.238 Y17.792 Z-12.659
X22.218 Y17.78 Z-12.725
X22.186 Y17.762 Z-12.783
X22.144 Y17.737 Z-12.832
X22.093 Y17.708 Z-12.869
X22.036 Y17.676 Z-12.892
X21.976 Y17.641 Z-12.9
X21.707 Y17.487
G3 X21.593 Y17.064 I0.154 J-0.269
G2 X21.734 Y16.734 I-1.345 J-0.771 F300
G3 X30.221 Y16.592 I4.266 J1.266
G2 X31.691 Y17.651 I1.47 J-0.491
G1 X32.95
Y18.349
X31.691
G2 X30.221 Y19.408 I0 J1.55
G3 X21.727 Y19.242 I-4.221 J-1.408
G2 X20.238 Y18.125 I-1.488 J0.433
G1 X1
G2 X-0.55 Y19.675 I0 J1.55
G1 Y25
G2 X1 Y26.55 I1.55 J0
G1 X9.538
G2 X42.462 Y9.45 I16.462 J-8.55
X9.553 Y9.42 I-16.462 J8.55
G1 X1
G2 X-0.55 Y10.97 I0 J1.55
G1 Y16.293
G2 X1 Y17.843 I1.55 J0
G1 X20.248
G2 X21.593 Y17.064 I0 J-1.55
G3 X22.016 Y16.949 I0.269 J0.154
G1 X22.285 Y17.103
X22.344 Y17.138 Z-12.892
X22.401 Y17.17 Z-12.869
X22.452 Y17.2 Z-12.832
X22.495 Y17.224 Z-12.783
X22.527 Y17.242 Z-12.725
X22.547 Y17.254 Z-12.659
X22.554 Y17.258 Z-12.59
Z5
X22.245 Y17.795
Z-11.6 F150
Z-12.89
X22.238 Y17.792 Z-12.959
X22.218 Y17.78 Z-13.025
X22.186 Y17.762 Z-13.083
X22.144 Y17.737 Z-13.132
X22.093 Y17.708 Z-13.169
X22.036 Y17.676 Z-13.192
X21.976 Y17.641 Z-13.2
X21.707 Y17.487
G3 X21.593 Y17.064 I0.154 J-0.269
G2 X21.734 Y16.734 I-1.345 J-0.771 F300
G3 X30.221 Y16.592 I4.266 J1.266
G2 X31.691 Y17.651 I1.47 J-0.491
G1 X32.95
Y18.349
X31.691
G2 X30.221 Y19.408 I0 J1.55
G3 X21.727 Y19.242 I-4.221 J-1.408
G2 X20.238 Y18.125 I-1.488 J0.433
G1 X1
G2 X-0.55 Y19.675 I0 J1.55
G1 Y25
G2 X1 Y26.55 I1.55 J0
G1 X9.538
G2 X42.462 Y9.45 I16.462 J-8.55
X9.553 Y9.42 I-16.462 J8.55
G1 X1
G2 X-0.55 Y10.97 I0 J1.55
G1 Y16.293
G2 X1 Y17.843 I1.55 J0
G1 X20.248
G2 X21.593 Y17.064 I0 J-1.55
G3 X22.016 Y16.949 I0.269 J0.154
G1 X22.285 Y17.103
X22.344 Y17.138 Z-13.192
X22.401 Y17.17 Z-13.169
X22.452 Y17.2 Z-13.132
X22.495 Y17.224 Z-13.083
X22.527 Y17.242 Z-13.025
X22.547 Y17.254 Z-12.959
X22.554 Y17.258 Z-12.89
Z5
X22.245 Y17.795
Z-11.9 F150
Z-13.19
X22.238 Y17.792 Z-13.259
X22.218 Y17.78 Z-13.325
X22.186 Y17.762 Z-13.383
X22.144 Y17.737 Z-13.432
X22.093 Y17.708 Z-13.469
X22.036 Y17.676 Z-13.492
X21.976 Y17.641 Z-13.5
X21.707 Y17.487
G3 X21.593 Y17.064 I0.154 J-0.269
G2 X21.734 Y16.734 I-1.345 J-0.771 F300
G3 X30.221 Y16.592 I4.266 J1.266
G2 X31.691 Y17.651 I1.47 J-0.491
G1 X32.95
Y18.349
X31.691
G2 X30.221 Y19.408 I0 J1.55
G3 X21.727 Y19.242 I-4.221 J-1.408
G2 X20.238 Y18.125 I-1.488 J0.433
G1 X1
G2 X-0.55 Y19.675 I0 J1.55
G1 Y25
G2 X1 Y26.55 I1.55 J0
G1 X9.538
G2 X42.462 Y9.45 I16.462 J-8.55
X9.553 Y9.42 I-16.462 J8.55
G1 X1
G2 X-0.55 Y10.97 I0 J1.55
G1 Y16.293
G2 X1 Y17.843 I1.55 J0
G1 X20.248
G2 X21.593 Y17.064 I0 J-1.55
G3 X22.016 Y16.949 I0.269 J0.154
G1 X22.285 Y17.103
X22.344 Y17.138 Z-13.492
X22.401 Y17.17 Z-13.469
X22.452 Y17.2 Z-13.432
X22.495 Y17.224 Z-13.383
X22.527 Y17.242 Z-13.325
X22.547 Y17.254 Z-13.259
X22.554 Y17.258 Z-13.19
Z5
X22.245 Y17.795
Z-12.2 F150
Z-13.49
X22.238 Y17.792 Z-13.559
X22.218 Y17.78 Z-13.625
X22.186 Y17.762 Z-13.683
X22.144 Y17.737 Z-13.732
X22.093 Y17.708 Z-13.769
X22.036 Y17.676 Z-13.792
X21.976 Y17.641 Z-13.8
X21.707 Y17.487
G3 X21.593 Y17.064 I0.154 J-0.269
G2 X21.734 Y16.734 I-1.345 J-0.771 F300
G3 X30.221 Y16.592 I4.266 J1.266
G2 X31.691 Y17.651 I1.47 J-0.491
G1 X32.95
Y18.349
X31.691
G2 X30.221 Y19.408 I0 J1.55
G3 X21.727 Y19.242 I-4.221 J-1.408
G2 X20.238 Y18.125 I-1.488 J0.433
G1 X1
G2 X-0.55 Y19.675 I0 J1.55
G1 Y25
G2 X1 Y26.55 I1.55 J0
G1 X9.538
G2 X42.462 Y9.45 I16.462 J-8.55
X9.553 Y9.42 I-16.462 J8.55
G1 X1
G2 X-0.55 Y10.97 I0 J1.55
G1 Y16.293
G2 X1 Y17.843 I1.55 J0
G1 X20.248
G2 X21.593 Y17.064 I0 J-1.55
G3 X22.016 Y16.949 I0.269 J0.154
G1 X22.285 Y17.103
X22.344 Y17.138 Z-13.792
X22.401 Y17.17 Z-13.769
X22.452 Y17.2 Z-13.732
X22.495 Y17.224 Z-13.683
X22.527 Y17.242 Z-13.625
X22.547 Y17.254 Z-13.559
X22.554 Y17.258 Z-13.49
Z5
X22.245 Y17.795
Z-12.5 F150
Z-13.69
X22.238 Y17.792 Z-13.759
X22.218 Y17.78 Z-13.825
X22.186 Y17.762 Z-13.883
X22.144 Y17.737 Z-13.932
X22.093 Y17.708 Z-13.969
X22.036 Y17.676 Z-13.992
X21.976 Y17.641 Z-14
X21.707 Y17.487
G3 X21.593 Y17.064 I0.154 J-0.269
G2 X21.734 Y16.734 I-1.345 J-0.771 F300
G3 X30.221 Y16.592 I4.266 J1.266
G2 X31.691 Y17.651 I1.47 J-0.491
G1 X32.95
Y18.349
X31.691
G2 X30.221 Y19.408 I0 J1.55
G3 X21.727 Y19.242 I-4.221 J-1.408
G2 X20.238 Y18.125 I-1.488 J0.433
G1 X1
G2 X-0.55 Y19.675 I0 J1.55
G1 Y25
G2 X1 Y26.55 I1.55 J0
G1 X9.538
G2 X42.462 Y9.45 I16.462 J-8.55
X9.553 Y9.42 I-16.462 J8.55
G1 X1
G2 X-0.55 Y10.97 I0 J1.55
G1 Y16.293
G2 X1 Y17.843 I1.55 J0
G1 X20.248
G2 X21.593 Y17.064 I0 J-1.55
G3 X22.016 Y16.949 I0.269 J0.154
G1 X22.285 Y17.103
X22.344 Y17.138 Z-13.992
X22.401 Y17.17 Z-13.969
X22.452 Y17.2 Z-13.932
X22.495 Y17.224 Z-13.883
X22.527 Y17.242 Z-13.825
X22.547 Y17.254 Z-13.759
X22.554 Y17.258 Z-13.69
Z10
M9
M5
M30
