(metal_coupler_12mm_drill)
(Machine)
(  vendor: Autodesk)
(  model: GARAGE CNC)
(  description: GARAGE CNC)
(T3 D=3.1 CR=0 - ZMIN=-14 - flat end mill)
G90 G94
G17
G21
(-Attention- Property Safe Retracts is set to Clearance Height.)
(Ensure the clearance height will clear the part and or fixtures.)
(Raise the Z-axis to a safe height before starting the program.)

(Drill1)
T3
S24000 M3
G17 G90 G94
G54
M8
G0 X32.5 Y27.5
Z10
G0 Z5
Z2
G1 Z-0.3 F150
G0 Z5
Z1.7
G1 Z-0.6 F150
G0 Z5
Z1.4
G1 Z-0.9 F150
G0 Z5
Z1.1
G1 Z-1.2 F150
G0 Z5
Z0.8
G1 Z-1.5 F150
G0 Z5
Z0.5
G1 Z-1.8 F150
G0 Z5
Z0.2
G1 Z-2.1 F150
G0 Z5
Z-0.1
G1 Z-2.4 F150
G0 Z5
Z-0.4
G1 Z-2.7 F150
G0 Z5
Z-0.7
G1 Z-3 F150
G0 Z5
Z-1
G1 Z-3.3 F150
G0 Z5
Z-1.3
G1 Z-3.6 F150
G0 Z5
Z-1.6
G1 Z-3.9 F150
G0 Z5
Z-1.9
G1 Z-4.2 F150
G0 Z5
Z-2.2
G1 Z-4.5 F150
G0 Z5
Z-2.5
G1 Z-4.8 F150
G0 Z5
Z-2.8
G1 Z-5.1 F150
G0 Z5
Z-3.1
G1 Z-5.4 F150
G0 Z5
Z-3.4
G1 Z-5.7 F150
G0 Z5
Z-3.7
G1 Z-6 F150
G0 Z5
Z-4
G1 Z-6.3 F150
G0 Z5
Z-4.3
G1 Z-6.6 F150
G0 Z5
Z-4.6
G1 Z-6.9 F150
G0 Z5
Z-4.9
G1 Z-7.2 F150
G0 Z5
Z-5.2
G1 Z-7.5 F150
G0 Z5
Z-5.5
G1 Z-7.8 F150
G0 Z5
Z-5.8
G1 Z-8.1 F150
G0 Z5
Z-6.1
G1 Z-8.4 F150
G0 Z5
Z-6.4
G1 Z-8.7 F150
G0 Z5
Z-6.7
G1 Z-9 F150
G0 Z5
Z-7
G1 Z-9.3 F150
G0 Z5
Z-7.3
G1 Z-9.6 F150
G0 Z5
Z-7.6
G1 Z-9.9 F150
G0 Z5
Z-7.9
G1 Z-10.2 F150
G0 Z5
Z-8.2
G1 Z-10.5 F150
G0 Z5
Z-8.5
G1 Z-10.8 F150
G0 Z5
Z-8.8
G1 Z-11.1 F150
G0 Z5
Z-9.1
G1 Z-11.4 F150
G0 Z5
Z-9.4
G1 Z-11.7 F150
G0 Z5
Z-9.7
G1 Z-12 F150
G0 Z5
Z-10
G1 Z-12.3 F150
G0 Z5
Z-10.3
G1 Z-12.6 F150
G0 Z5
Z-10.6
G1 Z-12.9 F150
G0 Z5
Z-10.9
G1 Z-13.2 F150
G0 Z5
Z-11.2
G1 Z-13.5 F150
G0 Z5
Z-11.5
G1 Z-13.8 F150
G0 Z5
Z-11.8
G1 Z-14 F150
G4 P1.
G0 Z5
X13.5
Z2
G1 Z-0.3 F150
G0 Z5
Z1.7
G1 Z-0.6 F150
G0 Z5
Z1.4
G1 Z-0.9 F150
G0 Z5
Z1.1
G1 Z-1.2 F150
G0 Z5
Z0.8
G1 Z-1.5 F150
G0 Z5
Z0.5
G1 Z-1.8 F150
G0 Z5
Z0.2
G1 Z-2.1 F150
G0 Z5
Z-0.1
G1 Z-2.4 F150
G0 Z5
Z-0.4
G1 Z-2.7 F150
G0 Z5
Z-0.7
G1 Z-3 F150
G0 Z5
Z-1
G1 Z-3.3 F150
G0 Z5
Z-1.3
G1 Z-3.6 F150
G0 Z5
Z-1.6
G1 Z-3.9 F150
G0 Z5
Z-1.9
G1 Z-4.2 F150
G0 Z5
Z-2.2
G1 Z-4.5 F150
G0 Z5
Z-2.5
G1 Z-4.8 F150
G0 Z5
Z-2.8
G1 Z-5.1 F150
G0 Z5
Z-3.1
G1 Z-5.4 F150
G0 Z5
Z-3.4
G1 Z-5.7 F150
G0 Z5
Z-3.7
G1 Z-6 F150
G0 Z5
Z-4
G1 Z-6.3 F150
G0 Z5
Z-4.3
G1 Z-6.6 F150
G0 Z5
Z-4.6
G1 Z-6.9 F150
G0 Z5
Z-4.9
G1 Z-7.2 F150
G0 Z5
Z-5.2
G1 Z-7.5 F150
G0 Z5
Z-5.5
G1 Z-7.8 F150
G0 Z5
Z-5.8
G1 Z-8.1 F150
G0 Z5
Z-6.1
G1 Z-8.4 F150
G0 Z5
Z-6.4
G1 Z-8.7 F150
G0 Z5
Z-6.7
G1 Z-9 F150
G0 Z5
Z-7
G1 Z-9.3 F150
G0 Z5
Z-7.3
G1 Z-9.6 F150
G0 Z5
Z-7.6
G1 Z-9.9 F150
G0 Z5
Z-7.9
G1 Z-10.2 F150
G0 Z5
Z-8.2
G1 Z-10.5 F150
G0 Z5
Z-8.5
G1 Z-10.8 F150
G0 Z5
Z-8.8
G1 Z-11.1 F150
G0 Z5
Z-9.1
G1 Z-11.4 F150
G0 Z5
Z-9.4
G1 Z-11.7 F150
G0 Z5
Z-9.7
G1 Z-12 F150
G0 Z5
Z-10
G1 Z-12.3 F150
G0 Z5
Z-10.3
G1 Z-12.6 F150
G0 Z5
Z-10.6
G1 Z-12.9 F150
G0 Z5
Z-10.9
G1 Z-13.2 F150
G0 Z5
Z-11.2
G1 Z-13.5 F150
G0 Z5
Z-11.5
G1 Z-13.8 F150
G0 Z5
Z-11.8
G1 Z-14 F150
G4 P1.
G0 Z5
Y8.5
Z2
G1 Z-0.3 F150
G0 Z5
Z1.7
G1 Z-0.6 F150
G0 Z5
Z1.4
G1 Z-0.9 F150
G0 Z5
Z1.1
G1 Z-1.2 F150
G0 Z5
Z0.8
G1 Z-1.5 F150
G0 Z5
Z0.5
G1 Z-1.8 F150
G0 Z5
Z0.2
G1 Z-2.1 F150
G0 Z5
Z-0.1
G1 Z-2.4 F150
G0 Z5
Z-0.4
G1 Z-2.7 F150
G0 Z5
Z-0.7
G1 Z-3 F150
G0 Z5
Z-1
G1 Z-3.3 F150
G0 Z5
Z-1.3
G1 Z-3.6 F150
G0 Z5
Z-1.6
G1 Z-3.9 F150
G0 Z5
Z-1.9
G1 Z-4.2 F150
G0 Z5
Z-2.2
G1 Z-4.5 F150
G0 Z5
Z-2.5
G1 Z-4.8 F150
G0 Z5
Z-2.8
G1 Z-5.1 F150
G0 Z5
Z-3.1
G1 Z-5.4 F150
G0 Z5
Z-3.4
G1 Z-5.7 F150
G0 Z5
Z-3.7
G1 Z-6 F150
G0 Z5
Z-4
G1 Z-6.3 F150
G0 Z5
Z-4.3
G1 Z-6.6 F150
G0 Z5
Z-4.6
G1 Z-6.9 F150
G0 Z5
Z-4.9
G1 Z-7.2 F150
G0 Z5
Z-5.2
G1 Z-7.5 F150
G0 Z5
Z-5.5
G1 Z-7.8 F150
G0 Z5
Z-5.8
G1 Z-8.1 F150
G0 Z5
Z-6.1
G1 Z-8.4 F150
G0 Z5
Z-6.4
G1 Z-8.7 F150
G0 Z5
Z-6.7
G1 Z-9 F150
G0 Z5
Z-7
G1 Z-9.3 F150
G0 Z5
Z-7.3
G1 Z-9.6 F150
G0 Z5
Z-7.6
G1 Z-9.9 F150
G0 Z5
Z-7.9
G1 Z-10.2 F150
G0 Z5
Z-8.2
G1 Z-10.5 F150
G0 Z5
Z-8.5
G1 Z-10.8 F150
G0 Z5
Z-8.8
G1 Z-11.1 F150
G0 Z5
Z-9.1
G1 Z-11.4 F150
G0 Z5
Z-9.4
G1 Z-11.7 F150
G0 Z5
Z-9.7
G1 Z-12 F150
G0 Z5
Z-10
G1 Z-12.3 F150
G0 Z5
Z-10.3
G1 Z-12.6 F150
G0 Z5
Z-10.6
G1 Z-12.9 F150
G0 Z5
Z-10.9
G1 Z-13.2 F150
G0 Z5
Z-11.2
G1 Z-13.5 F150
G0 Z5
Z-11.5
G1 Z-13.8 F150
G0 Z5
Z-11.8
G1 Z-14 F150
G4 P1.
G0 Z5
X32.5
Z2
G1 Z-0.3 F150
G0 Z5
Z1.7
G1 Z-0.6 F150
G0 Z5
Z1.4
G1 Z-0.9 F150
G0 Z5
Z1.1
G1 Z-1.2 F150
G0 Z5
Z0.8
G1 Z-1.5 F150
G0 Z5
Z0.5
G1 Z-1.8 F150
G0 Z5
Z0.2
G1 Z-2.1 F150
G0 Z5
Z-0.1
G1 Z-2.4 F150
G0 Z5
Z-0.4
G1 Z-2.7 F150
G0 Z5
Z-0.7
G1 Z-3 F150
G0 Z5
Z-1
G1 Z-3.3 F150
G0 Z5
Z-1.3
G1 Z-3.6 F150
G0 Z5
Z-1.6
G1 Z-3.9 F150
G0 Z5
Z-1.9
G1 Z-4.2 F150
G0 Z5
Z-2.2
G1 Z-4.5 F150
G0 Z5
Z-2.5
G1 Z-4.8 F150
G0 Z5
Z-2.8
G1 Z-5.1 F150
G0 Z5
Z-3.1
G1 Z-5.4 F150
G0 Z5
Z-3.4
G1 Z-5.7 F150
G0 Z5
Z-3.7
G1 Z-6 F150
G0 Z5
Z-4
G1 Z-6.3 F150
G0 Z5
Z-4.3
G1 Z-6.6 F150
G0 Z5
Z-4.6
G1 Z-6.9 F150
G0 Z5
Z-4.9
G1 Z-7.2 F150
G0 Z5
Z-5.2
G1 Z-7.5 F150
G0 Z5
Z-5.5
G1 Z-7.8 F150
G0 Z5
Z-5.8
G1 Z-8.1 F150
G0 Z5
Z-6.1
G1 Z-8.4 F150
G0 Z5
Z-6.4
G1 Z-8.7 F150
G0 Z5
Z-6.7
G1 Z-9 F150
G0 Z5
Z-7
G1 Z-9.3 F150
G0 Z5
Z-7.3
G1 Z-9.6 F150
G0 Z5
Z-7.6
G1 Z-9.9 F150
G0 Z5
Z-7.9
G1 Z-10.2 F150
G0 Z5
Z-8.2
G1 Z-10.5 F150
G0 Z5
Z-8.5
G1 Z-10.8 F150
G0 Z5
Z-8.8
G1 Z-11.1 F150
G0 Z5
Z-9.1
G1 Z-11.4 F150
G0 Z5
Z-9.4
G1 Z-11.7 F150
G0 Z5
Z-9.7
G1 Z-12 F150
G0 Z5
Z-10
G1 Z-12.3 F150
G0 Z5
Z-10.3
G1 Z-12.6 F150
G0 Z5
Z-10.6
G1 Z-12.9 F150
G0 Z5
Z-10.9
G1 Z-13.2 F150
G0 Z5
Z-11.2
G1 Z-13.5 F150
G0 Z5
Z-11.5
G1 Z-13.8 F150
G0 Z5
Z-11.8
G1 Z-14 F150
G4 P1.
G0 Z5
Z10
(When using Fusion 360 for Personal Use, the feedrate of)
(rapid moves is reduced to match the feedrate of cutting)
(moves, which can increase machining time. Unrestricted rapid)
(moves are available with a Fusion 360 Subscription.)

(2D Contour5)
T3
S24000 M3
G54
M8
G0 X26.241 Y16.592
G1 Z10 F300
Z5
Z1.3 F150
Z0.01
X26.248 Y16.589 Z-0.059
X26.27 Y16.582 Z-0.125
X26.305 Y16.57 Z-0.183
X26.352 Y16.555 Z-0.232
X26.407 Y16.536 Z-0.269
X26.47 Y16.516 Z-0.292
X26.535 Y16.494 Z-0.3
X26.829 Y16.396
G3 X27.221 Y16.592 I0.098 J0.294
G2 X28.691 Y17.651 I1.47 J-0.491 F300
G1 X29.95
Y18.349
X28.691
G2 X27.221 Y19.408 I0 J1.55
G3 X18.727 Y19.242 I-4.221 J-1.408
G2 X17.238 Y18.125 I-1.488 J0.433
G1 X1
G2 X-0.55 Y19.675 I0 J1.55
G1 Y26
G2 X1 Y27.55 I1.55 J0
G1 X7.097
G2 X38.903 Y8.45 I15.903 J-9.55
X7.115 Y8.42 I-15.903 J9.55
G1 X1
G2 X-0.55 Y9.97 I0 J1.55
G1 Y16.293
G2 X1 Y17.843 I1.55 J0
G1 X17.248
G2 X18.734 Y16.734 I0 J-1.55
G3 X27.221 Y16.592 I4.266 J1.266
X27.025 Y16.984 I-0.294 J0.098
G1 X26.731 Y17.082
X26.666 Y17.104 Z-0.292
X26.604 Y17.124 Z-0.269
X26.548 Y17.143 Z-0.232
X26.501 Y17.159 Z-0.183
X26.466 Y17.17 Z-0.125
X26.444 Y17.178 Z-0.059
X26.437 Y17.18 Z0.01
Z5
Y18.82
Z1 F150
Z-0.29
X26.444 Y18.823 Z-0.359
X26.466 Y18.83 Z-0.425
X26.501 Y18.841 Z-0.483
X26.548 Y18.857 Z-0.532
X26.604 Y18.876 Z-0.569
X26.666 Y18.896 Z-0.592
X26.731 Y18.918 Z-0.6
X27.025 Y19.016
G3 X27.221 Y19.408 I-0.098 J0.294
X18.727 Y19.242 I-4.221 J-1.408 F300
G2 X17.238 Y18.125 I-1.488 J0.433
G1 X1
G2 X-0.55 Y19.675 I0 J1.55
G1 Y26
G2 X1 Y27.55 I1.55 J0
G1 X7.097
G2 X38.903 Y8.45 I15.903 J-9.55
X7.115 Y8.42 I-15.903 J9.55
G1 X1
G2 X-0.55 Y9.97 I0 J1.55
G1 Y16.293
G2 X1 Y17.843 I1.55 J0
G1 X17.248
G2 X18.734 Y16.734 I0 J-1.55
G3 X27.221 Y16.592 I4.266 J1.266
G2 X28.691 Y17.651 I1.47 J-0.491
G1 X29.95
Y18.349
X28.691
G2 X27.221 Y19.408 I0 J1.55
G3 X26.829 Y19.604 I-0.294 J-0.098
G1 X26.535 Y19.506
X26.47 Y19.484 Z-0.592
X26.407 Y19.464 Z-0.569
X26.352 Y19.445 Z-0.532
X26.305 Y19.43 Z-0.483
X26.27 Y19.418 Z-0.425
X26.248 Y19.411 Z-0.359
X26.241 Y19.408 Z-0.29
Z5
X26.437 Y18.82
Z0.7 F150
Z-0.59
X26.444 Y18.823 Z-0.659
X26.466 Y18.83 Z-0.725
X26.501 Y18.841 Z-0.783
X26.548 Y18.857 Z-0.832
X26.604 Y18.876 Z-0.869
X26.666 Y18.896 Z-0.892
X26.731 Y18.918 Z-0.9
X27.025 Y19.016
G3 X27.221 Y19.408 I-0.098 J0.294
X18.727 Y19.242 I-4.221 J-1.408 F300
G2 X17.238 Y18.125 I-1.488 J0.433
G1 X1
G2 X-0.55 Y19.675 I0 J1.55
G1 Y26
G2 X1 Y27.55 I1.55 J0
G1 X7.097
G2 X38.903 Y8.45 I15.903 J-9.55
X7.115 Y8.42 I-15.903 J9.55
G1 X1
G2 X-0.55 Y9.97 I0 J1.55
G1 Y16.293
G2 X1 Y17.843 I1.55 J0
G1 X17.248
G2 X18.734 Y16.734 I0 J-1.55
G3 X27.221 Y16.592 I4.266 J1.266
G2 X28.691 Y17.651 I1.47 J-0.491
G1 X29.95
Y18.349
X28.691
G2 X27.221 Y19.408 I0 J1.55
G3 X26.829 Y19.604 I-0.294 J-0.098
G1 X26.535 Y19.506
X26.47 Y19.484 Z-0.892
X26.407 Y19.464 Z-0.869
X26.352 Y19.445 Z-0.832
X26.305 Y19.43 Z-0.783
X26.27 Y19.418 Z-0.725
X26.248 Y19.411 Z-0.659
X26.241 Y19.408 Z-0.59
Z5
X26.437 Y18.82
Z0.4 F150
Z-0.89
X26.444 Y18.823 Z-0.959
X26.466 Y18.83 Z-1.025
X26.501 Y18.841 Z-1.083
X26.548 Y18.857 Z-1.132
X26.604 Y18.876 Z-1.169
X26.666 Y18.896 Z-1.192
X26.731 Y18.918 Z-1.2
X27.025 Y19.016
G3 X27.221 Y19.408 I-0.098 J0.294
X18.727 Y19.242 I-4.221 J-1.408 F300
G2 X17.238 Y18.125 I-1.488 J0.433
G1 X1
G2 X-0.55 Y19.675 I0 J1.55
G1 Y26
G2 X1 Y27.55 I1.55 J0
G1 X7.097
G2 X38.903 Y8.45 I15.903 J-9.55
X7.115 Y8.42 I-15.903 J9.55
G1 X1
G2 X-0.55 Y9.97 I0 J1.55
G1 Y16.293
G2 X1 Y17.843 I1.55 J0
G1 X17.248
G2 X18.734 Y16.734 I0 J-1.55
G3 X27.221 Y16.592 I4.266 J1.266
G2 X28.691 Y17.651 I1.47 J-0.491
G1 X29.95
Y18.349
X28.691
G2 X27.221 Y19.408 I0 J1.55
G3 X26.829 Y19.604 I-0.294 J-0.098
G1 X26.535 Y19.506
X26.47 Y19.484 Z-1.192
X26.407 Y19.464 Z-1.169
X26.352 Y19.445 Z-1.132
X26.305 Y19.43 Z-1.083
X26.27 Y19.418 Z-1.025
X26.248 Y19.411 Z-0.959
X26.241 Y19.408 Z-0.89
Z5
X26.437 Y18.82
Z0.1 F150
Z-1.19
X26.444 Y18.823 Z-1.259
X26.466 Y18.83 Z-1.325
X26.501 Y18.841 Z-1.383
X26.548 Y18.857 Z-1.432
X26.604 Y18.876 Z-1.469
X26.666 Y18.896 Z-1.492
X26.731 Y18.918 Z-1.5
X27.025 Y19.016
G3 X27.221 Y19.408 I-0.098 J0.294
X18.727 Y19.242 I-4.221 J-1.408 F300
G2 X17.238 Y18.125 I-1.488 J0.433
G1 X1
G2 X-0.55 Y19.675 I0 J1.55
G1 Y26
G2 X1 Y27.55 I1.55 J0
G1 X7.097
G2 X38.903 Y8.45 I15.903 J-9.55
X7.115 Y8.42 I-15.903 J9.55
G1 X1
G2 X-0.55 Y9.97 I0 J1.55
G1 Y16.293
G2 X1 Y17.843 I1.55 J0
G1 X17.248
G2 X18.734 Y16.734 I0 J-1.55
G3 X27.221 Y16.592 I4.266 J1.266
G2 X28.691 Y17.651 I1.47 J-0.491
G1 X29.95
Y18.349
X28.691
G2 X27.221 Y19.408 I0 J1.55
G3 X26.829 Y19.604 I-0.294 J-0.098
G1 X26.535 Y19.506
X26.47 Y19.484 Z-1.492
X26.407 Y19.464 Z-1.469
X26.352 Y19.445 Z-1.432
X26.305 Y19.43 Z-1.383
X26.27 Y19.418 Z-1.325
X26.248 Y19.411 Z-1.259
X26.241 Y19.408 Z-1.19
Z5
X26.437 Y18.82
Z-0.2 F150
Z-1.49
X26.444 Y18.823 Z-1.559
X26.466 Y18.83 Z-1.625
X26.501 Y18.841 Z-1.683
X26.548 Y18.857 Z-1.732
X26.604 Y18.876 Z-1.769
X26.666 Y18.896 Z-1.792
X26.731 Y18.918 Z-1.8
X27.025 Y19.016
G3 X27.221 Y19.408 I-0.098 J0.294
X18.727 Y19.242 I-4.221 J-1.408 F300
G2 X17.238 Y18.125 I-1.488 J0.433
G1 X1
G2 X-0.55 Y19.675 I0 J1.55
G1 Y26
G2 X1 Y27.55 I1.55 J0
G1 X7.097
G2 X38.903 Y8.45 I15.903 J-9.55
X7.115 Y8.42 I-15.903 J9.55
G1 X1
G2 X-0.55 Y9.97 I0 J1.55
G1 Y16.293
G2 X1 Y17.843 I1.55 J0
G1 X17.248
G2 X18.734 Y16.734 I0 J-1.55
G3 X27.221 Y16.592 I4.266 J1.266
G2 X28.691 Y17.651 I1.47 J-0.491
G1 X29.95
Y18.349
X28.691
G2 X27.221 Y19.408 I0 J1.55
G3 X26.829 Y19.604 I-0.294 J-0.098
G1 X26.535 Y19.506
X26.47 Y19.484 Z-1.792
X26.407 Y19.464 Z-1.769
X26.352 Y19.445 Z-1.732
X26.305 Y19.43 Z-1.683
X26.27 Y19.418 Z-1.625
X26.248 Y19.411 Z-1.559
X26.241 Y19.408 Z-1.49
Z5
X26.437 Y18.82
Z-0.5 F150
Z-1.79
X26.444 Y18.823 Z-1.859
X26.466 Y18.83 Z-1.925
X26.501 Y18.841 Z-1.983
X26.548 Y18.857 Z-2.032
X26.604 Y18.876 Z-2.069
X26.666 Y18.896 Z-2.092
X26.731 Y18.918 Z-2.1
X27.025 Y19.016
G3 X27.221 Y19.408 I-0.098 J0.294
X18.727 Y19.242 I-4.221 J-1.408 F300
G2 X17.238 Y18.125 I-1.488 J0.433
G1 X1
G2 X-0.55 Y19.675 I0 J1.55
G1 Y26
G2 X1 Y27.55 I1.55 J0
G1 X7.097
G2 X38.903 Y8.45 I15.903 J-9.55
X7.115 Y8.42 I-15.903 J9.55
G1 X1
G2 X-0.55 Y9.97 I0 J1.55
G1 Y16.293
G2 X1 Y17.843 I1.55 J0
G1 X17.248
G2 X18.734 Y16.734 I0 J-1.55
G3 X27.221 Y16.592 I4.266 J1.266
G2 X28.691 Y17.651 I1.47 J-0.491
G1 X29.95
Y18.349
X28.691
G2 X27.221 Y19.408 I0 J1.55
G3 X26.829 Y19.604 I-0.294 J-0.098
G1 X26.535 Y19.506
X26.47 Y19.484 Z-2.092
X26.407 Y19.464 Z-2.069
X26.352 Y19.445 Z-2.032
X26.305 Y19.43 Z-1.983
X26.27 Y19.418 Z-1.925
X26.248 Y19.411 Z-1.859
X26.241 Y19.408 Z-1.79
Z5
X26.437 Y18.82
Z-0.8 F150
Z-2.09
X26.444 Y18.823 Z-2.159
X26.466 Y18.83 Z-2.225
X26.501 Y18.841 Z-2.283
X26.548 Y18.857 Z-2.332
X26.604 Y18.876 Z-2.369
X26.666 Y18.896 Z-2.392
X26.731 Y18.918 Z-2.4
X27.025 Y19.016
G3 X27.221 Y19.408 I-0.098 J0.294
X18.727 Y19.242 I-4.221 J-1.408 F300
G2 X17.238 Y18.125 I-1.488 J0.433
G1 X1
G2 X-0.55 Y19.675 I0 J1.55
G1 Y26
G2 X1 Y27.55 I1.55 J0
G1 X7.097
G2 X38.903 Y8.45 I15.903 J-9.55
X7.115 Y8.42 I-15.903 J9.55
G1 X1
G2 X-0.55 Y9.97 I0 J1.55
G1 Y16.293
G2 X1 Y17.843 I1.55 J0
G1 X17.248
G2 X18.734 Y16.734 I0 J-1.55
G3 X27.221 Y16.592 I4.266 J1.266
G2 X28.691 Y17.651 I1.47 J-0.491
G1 X29.95
Y18.349
X28.691
G2 X27.221 Y19.408 I0 J1.55
G3 X26.829 Y19.604 I-0.294 J-0.098
G1 X26.535 Y19.506
X26.47 Y19.484 Z-2.392
X26.407 Y19.464 Z-2.369
X26.352 Y19.445 Z-2.332
X26.305 Y19.43 Z-2.283
X26.27 Y19.418 Z-2.225
X26.248 Y19.411 Z-2.159
X26.241 Y19.408 Z-2.09
Z5
X26.437 Y18.82
Z-1.1 F150
Z-2.39
X26.444 Y18.823 Z-2.459
X26.466 Y18.83 Z-2.525
X26.501 Y18.841 Z-2.583
X26.548 Y18.857 Z-2.632
X26.604 Y18.876 Z-2.669
X26.666 Y18.896 Z-2.692
X26.731 Y18.918 Z-2.7
X27.025 Y19.016
G3 X27.221 Y19.408 I-0.098 J0.294
X18.727 Y19.242 I-4.221 J-1.408 F300
G2 X17.238 Y18.125 I-1.488 J0.433
G1 X1
G2 X-0.55 Y19.675 I0 J1.55
G1 Y26
G2 X1 Y27.55 I1.55 J0
G1 X7.097
G2 X38.903 Y8.45 I15.903 J-9.55
X7.115 Y8.42 I-15.903 J9.55
G1 X1
G2 X-0.55 Y9.97 I0 J1.55
G1 Y16.293
G2 X1 Y17.843 I1.55 J0
G1 X17.248
G2 X18.734 Y16.734 I0 J-1.55
G3 X27.221 Y16.592 I4.266 J1.266
G2 X28.691 Y17.651 I1.47 J-0.491
G1 X29.95
Y18.349
X28.691
G2 X27.221 Y19.408 I0 J1.55
G3 X26.829 Y19.604 I-0.294 J-0.098
G1 X26.535 Y19.506
X26.47 Y19.484 Z-2.692
X26.407 Y19.464 Z-2.669
X26.352 Y19.445 Z-2.632
X26.305 Y19.43 Z-2.583
X26.27 Y19.418 Z-2.525
X26.248 Y19.411 Z-2.459
X26.241 Y19.408 Z-2.39
Z5
X26.437 Y18.82
Z-1.4 F150
Z-2.69
X26.444 Y18.823 Z-2.759
X26.466 Y18.83 Z-2.825
X26.501 Y18.841 Z-2.883
X26.548 Y18.857 Z-2.932
X26.604 Y18.876 Z-2.969
X26.666 Y18.896 Z-2.992
X26.731 Y18.918 Z-3
X27.025 Y19.016
G3 X27.221 Y19.408 I-0.098 J0.294
X18.727 Y19.242 I-4.221 J-1.408 F300
G2 X17.238 Y18.125 I-1.488 J0.433
G1 X1
G2 X-0.55 Y19.675 I0 J1.55
G1 Y26
G2 X1 Y27.55 I1.55 J0
G1 X7.097
G2 X38.903 Y8.45 I15.903 J-9.55
X7.115 Y8.42 I-15.903 J9.55
G1 X1
G2 X-0.55 Y9.97 I0 J1.55
G1 Y16.293
G2 X1 Y17.843 I1.55 J0
G1 X17.248
G2 X18.734 Y16.734 I0 J-1.55
G3 X27.221 Y16.592 I4.266 J1.266
G2 X28.691 Y17.651 I1.47 J-0.491
G1 X29.95
Y18.349
X28.691
G2 X27.221 Y19.408 I0 J1.55
G3 X26.829 Y19.604 I-0.294 J-0.098
G1 X26.535 Y19.506
X26.47 Y19.484 Z-2.992
X26.407 Y19.464 Z-2.969
X26.352 Y19.445 Z-2.932
X26.305 Y19.43 Z-2.883
X26.27 Y19.418 Z-2.825
X26.248 Y19.411 Z-2.759
X26.241 Y19.408 Z-2.69
Z5
X26.437 Y18.82
Z-1.7 F150
Z-2.99
X26.444 Y18.823 Z-3.059
X26.466 Y18.83 Z-3.125
X26.501 Y18.841 Z-3.183
X26.548 Y18.857 Z-3.232
X26.604 Y18.876 Z-3.269
X26.666 Y18.896 Z-3.292
X26.731 Y18.918 Z-3.3
X27.025 Y19.016
G3 X27.221 Y19.408 I-0.098 J0.294
X18.727 Y19.242 I-4.221 J-1.408 F300
G2 X17.238 Y18.125 I-1.488 J0.433
G1 X1
G2 X-0.55 Y19.675 I0 J1.55
G1 Y26
G2 X1 Y27.55 I1.55 J0
G1 X7.097
G2 X38.903 Y8.45 I15.903 J-9.55
X7.115 Y8.42 I-15.903 J9.55
G1 X1
G2 X-0.55 Y9.97 I0 J1.55
G1 Y16.293
G2 X1 Y17.843 I1.55 J0
G1 X17.248
G2 X18.734 Y16.734 I0 J-1.55
G3 X27.221 Y16.592 I4.266 J1.266
G2 X28.691 Y17.651 I1.47 J-0.491
G1 X29.95
Y18.349
X28.691
G2 X27.221 Y19.408 I0 J1.55
G3 X26.829 Y19.604 I-0.294 J-0.098
G1 X26.535 Y19.506
X26.47 Y19.484 Z-3.292
X26.407 Y19.464 Z-3.269
X26.352 Y19.445 Z-3.232
X26.305 Y19.43 Z-3.183
X26.27 Y19.418 Z-3.125
X26.248 Y19.411 Z-3.059
X26.241 Y19.408 Z-2.99
Z5
X26.437 Y18.82
Z-2 F150
Z-3.29
X26.444 Y18.823 Z-3.359
X26.466 Y18.83 Z-3.425
X26.501 Y18.841 Z-3.483
X26.548 Y18.857 Z-3.532
X26.604 Y18.876 Z-3.569
X26.666 Y18.896 Z-3.592
X26.731 Y18.918 Z-3.6
X27.025 Y19.016
G3 X27.221 Y19.408 I-0.098 J0.294
X18.727 Y19.242 I-4.221 J-1.408 F300
G2 X17.238 Y18.125 I-1.488 J0.433
G1 X1
G2 X-0.55 Y19.675 I0 J1.55
G1 Y26
G2 X1 Y27.55 I1.55 J0
G1 X7.097
G2 X38.903 Y8.45 I15.903 J-9.55
X7.115 Y8.42 I-15.903 J9.55
G1 X1
G2 X-0.55 Y9.97 I0 J1.55
G1 Y16.293
G2 X1 Y17.843 I1.55 J0
G1 X17.248
G2 X18.734 Y16.734 I0 J-1.55
G3 X27.221 Y16.592 I4.266 J1.266
G2 X28.691 Y17.651 I1.47 J-0.491
G1 X29.95
Y18.349
X28.691
G2 X27.221 Y19.408 I0 J1.55
G3 X26.829 Y19.604 I-0.294 J-0.098
G1 X26.535 Y19.506
X26.47 Y19.484 Z-3.592
X26.407 Y19.464 Z-3.569
X26.352 Y19.445 Z-3.532
X26.305 Y19.43 Z-3.483
X26.27 Y19.418 Z-3.425
X26.248 Y19.411 Z-3.359
X26.241 Y19.408 Z-3.29
Z5
X26.437 Y18.82
Z-2.3 F150
Z-3.59
X26.444 Y18.823 Z-3.659
X26.466 Y18.83 Z-3.725
X26.501 Y18.841 Z-3.783
X26.548 Y18.857 Z-3.832
X26.604 Y18.876 Z-3.869
X26.666 Y18.896 Z-3.892
X26.731 Y18.918 Z-3.9
X27.025 Y19.016
G3 X27.221 Y19.408 I-0.098 J0.294
X18.727 Y19.242 I-4.221 J-1.408 F300
G2 X17.238 Y18.125 I-1.488 J0.433
G1 X1
G2 X-0.55 Y19.675 I0 J1.55
G1 Y26
G2 X1 Y27.55 I1.55 J0
G1 X7.097
G2 X38.903 Y8.45 I15.903 J-9.55
X7.115 Y8.42 I-15.903 J9.55
G1 X1
G2 X-0.55 Y9.97 I0 J1.55
G1 Y16.293
G2 X1 Y17.843 I1.55 J0
G1 X17.248
G2 X18.734 Y16.734 I0 J-1.55
G3 X27.221 Y16.592 I4.266 J1.266
G2 X28.691 Y17.651 I1.47 J-0.491
G1 X29.95
Y18.349
X28.691
G2 X27.221 Y19.408 I0 J1.55
G3 X26.829 Y19.604 I-0.294 J-0.098
G1 X26.535 Y19.506
X26.47 Y19.484 Z-3.892
X26.407 Y19.464 Z-3.869
X26.352 Y19.445 Z-3.832
X26.305 Y19.43 Z-3.783
X26.27 Y19.418 Z-3.725
X26.248 Y19.411 Z-3.659
X26.241 Y19.408 Z-3.59
Z5
X26.437 Y18.82
Z-2.6 F150
Z-3.89
X26.444 Y18.823 Z-3.959
X26.466 Y18.83 Z-4.025
X26.501 Y18.841 Z-4.083
X26.548 Y18.857 Z-4.132
X26.604 Y18.876 Z-4.169
X26.666 Y18.896 Z-4.192
X26.731 Y18.918 Z-4.2
X27.025 Y19.016
G3 X27.221 Y19.408 I-0.098 J0.294
X18.727 Y19.242 I-4.221 J-1.408 F300
G2 X17.238 Y18.125 I-1.488 J0.433
G1 X1
G2 X-0.55 Y19.675 I0 J1.55
G1 Y26
G2 X1 Y27.55 I1.55 J0
G1 X7.097
G2 X38.903 Y8.45 I15.903 J-9.55
X7.115 Y8.42 I-15.903 J9.55
G1 X1
G2 X-0.55 Y9.97 I0 J1.55
G1 Y16.293
G2 X1 Y17.843 I1.55 J0
G1 X17.248
G2 X18.734 Y16.734 I0 J-1.55
G3 X27.221 Y16.592 I4.266 J1.266
G2 X28.691 Y17.651 I1.47 J-0.491
G1 X29.95
Y18.349
X28.691
G2 X27.221 Y19.408 I0 J1.55
G3 X26.829 Y19.604 I-0.294 J-0.098
G1 X26.535 Y19.506
X26.47 Y19.484 Z-4.192
X26.407 Y19.464 Z-4.169
X26.352 Y19.445 Z-4.132
X26.305 Y19.43 Z-4.083
X26.27 Y19.418 Z-4.025
X26.248 Y19.411 Z-3.959
X26.241 Y19.408 Z-3.89
Z5
X26.437 Y18.82
Z-2.9 F150
Z-4.19
X26.444 Y18.823 Z-4.259
X26.466 Y18.83 Z-4.325
X26.501 Y18.841 Z-4.383
X26.548 Y18.857 Z-4.432
X26.604 Y18.876 Z-4.469
X26.666 Y18.896 Z-4.492
X26.731 Y18.918 Z-4.5
X27.025 Y19.016
G3 X27.221 Y19.408 I-0.098 J0.294
X18.727 Y19.242 I-4.221 J-1.408 F300
G2 X17.238 Y18.125 I-1.488 J0.433
G1 X1
G2 X-0.55 Y19.675 I0 J1.55
G1 Y26
G2 X1 Y27.55 I1.55 J0
G1 X7.097
G2 X38.903 Y8.45 I15.903 J-9.55
X7.115 Y8.42 I-15.903 J9.55
G1 X1
G2 X-0.55 Y9.97 I0 J1.55
G1 Y16.293
G2 X1 Y17.843 I1.55 J0
G1 X17.248
G2 X18.734 Y16.734 I0 J-1.55
G3 X27.221 Y16.592 I4.266 J1.266
G2 X28.691 Y17.651 I1.47 J-0.491
G1 X29.95
Y18.349
X28.691
G2 X27.221 Y19.408 I0 J1.55
G3 X26.829 Y19.604 I-0.294 J-0.098
G1 X26.535 Y19.506
X26.47 Y19.484 Z-4.492
X26.407 Y19.464 Z-4.469
X26.352 Y19.445 Z-4.432
X26.305 Y19.43 Z-4.383
X26.27 Y19.418 Z-4.325
X26.248 Y19.411 Z-4.259
X26.241 Y19.408 Z-4.19
Z5
X26.437 Y18.82
Z-3.2 F150
Z-4.49
X26.444 Y18.823 Z-4.559
X26.466 Y18.83 Z-4.625
X26.501 Y18.841 Z-4.683
X26.548 Y18.857 Z-4.732
X26.604 Y18.876 Z-4.769
X26.666 Y18.896 Z-4.792
X26.731 Y18.918 Z-4.8
X27.025 Y19.016
G3 X27.221 Y19.408 I-0.098 J0.294
X18.727 Y19.242 I-4.221 J-1.408 F300
G2 X17.238 Y18.125 I-1.488 J0.433
G1 X1
G2 X-0.55 Y19.675 I0 J1.55
G1 Y26
G2 X1 Y27.55 I1.55 J0
G1 X7.097
G2 X38.903 Y8.45 I15.903 J-9.55
X7.115 Y8.42 I-15.903 J9.55
G1 X1
G2 X-0.55 Y9.97 I0 J1.55
G1 Y16.293
G2 X1 Y17.843 I1.55 J0
G1 X17.248
G2 X18.734 Y16.734 I0 J-1.55
G3 X27.221 Y16.592 I4.266 J1.266
G2 X28.691 Y17.651 I1.47 J-0.491
G1 X29.95
Y18.349
X28.691
G2 X27.221 Y19.408 I0 J1.55
G3 X26.829 Y19.604 I-0.294 J-0.098
G1 X26.535 Y19.506
X26.47 Y19.484 Z-4.792
X26.407 Y19.464 Z-4.769
X26.352 Y19.445 Z-4.732
X26.305 Y19.43 Z-4.683
X26.27 Y19.418 Z-4.625
X26.248 Y19.411 Z-4.559
X26.241 Y19.408 Z-4.49
Z5
X26.437 Y18.82
Z-3.5 F150
Z-4.79
X26.444 Y18.823 Z-4.859
X26.466 Y18.83 Z-4.925
X26.501 Y18.841 Z-4.983
X26.548 Y18.857 Z-5.032
X26.604 Y18.876 Z-5.069
X26.666 Y18.896 Z-5.092
X26.731 Y18.918 Z-5.1
X27.025 Y19.016
G3 X27.221 Y19.408 I-0.098 J0.294
X18.727 Y19.242 I-4.221 J-1.408 F300
G2 X17.238 Y18.125 I-1.488 J0.433
G1 X1
G2 X-0.55 Y19.675 I0 J1.55
G1 Y26
G2 X1 Y27.55 I1.55 J0
G1 X7.097
G2 X38.903 Y8.45 I15.903 J-9.55
X7.115 Y8.42 I-15.903 J9.55
G1 X1
G2 X-0.55 Y9.97 I0 J1.55
G1 Y16.293
G2 X1 Y17.843 I1.55 J0
G1 X17.248
G2 X18.734 Y16.734 I0 J-1.55
G3 X27.221 Y16.592 I4.266 J1.266
G2 X28.691 Y17.651 I1.47 J-0.491
G1 X29.95
Y18.349
X28.691
G2 X27.221 Y19.408 I0 J1.55
G3 X26.829 Y19.604 I-0.294 J-0.098
G1 X26.535 Y19.506
X26.47 Y19.484 Z-5.092
X26.407 Y19.464 Z-5.069
X26.352 Y19.445 Z-5.032
X26.305 Y19.43 Z-4.983
X26.27 Y19.418 Z-4.925
X26.248 Y19.411 Z-4.859
X26.241 Y19.408 Z-4.79
Z5
X26.437 Y18.82
Z-3.8 F150
Z-5.09
X26.444 Y18.823 Z-5.159
X26.466 Y18.83 Z-5.225
X26.501 Y18.841 Z-5.283
X26.548 Y18.857 Z-5.332
X26.604 Y18.876 Z-5.369
X26.666 Y18.896 Z-5.392
X26.731 Y18.918 Z-5.4
X27.025 Y19.016
G3 X27.221 Y19.408 I-0.098 J0.294
X18.727 Y19.242 I-4.221 J-1.408 F300
G2 X17.238 Y18.125 I-1.488 J0.433
G1 X1
G2 X-0.55 Y19.675 I0 J1.55
G1 Y26
G2 X1 Y27.55 I1.55 J0
G1 X7.097
G2 X38.903 Y8.45 I15.903 J-9.55
X7.115 Y8.42 I-15.903 J9.55
G1 X1
G2 X-0.55 Y9.97 I0 J1.55
G1 Y16.293
G2 X1 Y17.843 I1.55 J0
G1 X17.248
G2 X18.734 Y16.734 I0 J-1.55
G3 X27.221 Y16.592 I4.266 J1.266
G2 X28.691 Y17.651 I1.47 J-0.491
G1 X29.95
Y18.349
X28.691
G2 X27.221 Y19.408 I0 J1.55
G3 X26.829 Y19.604 I-0.294 J-0.098
G1 X26.535 Y19.506
X26.47 Y19.484 Z-5.392
X26.407 Y19.464 Z-5.369
X26.352 Y19.445 Z-5.332
X26.305 Y19.43 Z-5.283
X26.27 Y19.418 Z-5.225
X26.248 Y19.411 Z-5.159
X26.241 Y19.408 Z-5.09
Z5
X26.437 Y18.82
Z-4.1 F150
Z-5.39
X26.444 Y18.823 Z-5.459
X26.466 Y18.83 Z-5.525
X26.501 Y18.841 Z-5.583
X26.548 Y18.857 Z-5.632
X26.604 Y18.876 Z-5.669
X26.666 Y18.896 Z-5.692
X26.731 Y18.918 Z-5.7
X27.025 Y19.016
G3 X27.221 Y19.408 I-0.098 J0.294
X18.727 Y19.242 I-4.221 J-1.408 F300
G2 X17.238 Y18.125 I-1.488 J0.433
G1 X1
G2 X-0.55 Y19.675 I0 J1.55
G1 Y26
G2 X1 Y27.55 I1.55 J0
G1 X7.097
G2 X38.903 Y8.45 I15.903 J-9.55
X7.115 Y8.42 I-15.903 J9.55
G1 X1
G2 X-0.55 Y9.97 I0 J1.55
G1 Y16.293
G2 X1 Y17.843 I1.55 J0
G1 X17.248
G2 X18.734 Y16.734 I0 J-1.55
G3 X27.221 Y16.592 I4.266 J1.266
G2 X28.691 Y17.651 I1.47 J-0.491
G1 X29.95
Y18.349
X28.691
G2 X27.221 Y19.408 I0 J1.55
G3 X26.829 Y19.604 I-0.294 J-0.098
G1 X26.535 Y19.506
X26.47 Y19.484 Z-5.692
X26.407 Y19.464 Z-5.669
X26.352 Y19.445 Z-5.632
X26.305 Y19.43 Z-5.583
X26.27 Y19.418 Z-5.525
X26.248 Y19.411 Z-5.459
X26.241 Y19.408 Z-5.39
Z5
X26.437 Y18.82
Z-4.4 F150
Z-5.69
X26.444 Y18.823 Z-5.759
X26.466 Y18.83 Z-5.825
X26.501 Y18.841 Z-5.883
X26.548 Y18.857 Z-5.932
X26.604 Y18.876 Z-5.969
X26.666 Y18.896 Z-5.992
X26.731 Y18.918 Z-6
X27.025 Y19.016
G3 X27.221 Y19.408 I-0.098 J0.294
X18.727 Y19.242 I-4.221 J-1.408 F300
G2 X17.238 Y18.125 I-1.488 J0.433
G1 X1
G2 X-0.55 Y19.675 I0 J1.55
G1 Y26
G2 X1 Y27.55 I1.55 J0
G1 X7.097
G2 X38.903 Y8.45 I15.903 J-9.55
X7.115 Y8.42 I-15.903 J9.55
G1 X1
G2 X-0.55 Y9.97 I0 J1.55
G1 Y16.293
G2 X1 Y17.843 I1.55 J0
G1 X17.248
G2 X18.734 Y16.734 I0 J-1.55
G3 X27.221 Y16.592 I4.266 J1.266
G2 X28.691 Y17.651 I1.47 J-0.491
G1 X29.95
Y18.349
X28.691
G2 X27.221 Y19.408 I0 J1.55
G3 X26.829 Y19.604 I-0.294 J-0.098
G1 X26.535 Y19.506
X26.47 Y19.484 Z-5.992
X26.407 Y19.464 Z-5.969
X26.352 Y19.445 Z-5.932
X26.305 Y19.43 Z-5.883
X26.27 Y19.418 Z-5.825
X26.248 Y19.411 Z-5.759
X26.241 Y19.408 Z-5.69
Z5
X26.437 Y18.82
Z-4.7 F150
Z-5.99
X26.444 Y18.823 Z-6.059
X26.466 Y18.83 Z-6.125
X26.501 Y18.841 Z-6.183
X26.548 Y18.857 Z-6.232
X26.604 Y18.876 Z-6.269
X26.666 Y18.896 Z-6.292
X26.731 Y18.918 Z-6.3
X27.025 Y19.016
G3 X27.221 Y19.408 I-0.098 J0.294
X18.727 Y19.242 I-4.221 J-1.408 F300
G2 X17.238 Y18.125 I-1.488 J0.433
G1 X1
G2 X-0.55 Y19.675 I0 J1.55
G1 Y26
G2 X1 Y27.55 I1.55 J0
G1 X7.097
G2 X38.903 Y8.45 I15.903 J-9.55
X7.115 Y8.42 I-15.903 J9.55
G1 X1
G2 X-0.55 Y9.97 I0 J1.55
G1 Y16.293
G2 X1 Y17.843 I1.55 J0
G1 X17.248
G2 X18.734 Y16.734 I0 J-1.55
G3 X27.221 Y16.592 I4.266 J1.266
G2 X28.691 Y17.651 I1.47 J-0.491
G1 X29.95
Y18.349
X28.691
G2 X27.221 Y19.408 I0 J1.55
G3 X26.829 Y19.604 I-0.294 J-0.098
G1 X26.535 Y19.506
X26.47 Y19.484 Z-6.292
X26.407 Y19.464 Z-6.269
X26.352 Y19.445 Z-6.232
X26.305 Y19.43 Z-6.183
X26.27 Y19.418 Z-6.125
X26.248 Y19.411 Z-6.059
X26.241 Y19.408 Z-5.99
Z5
X26.437 Y18.82
Z-5 F150
Z-6.29
X26.444 Y18.823 Z-6.359
X26.466 Y18.83 Z-6.425
X26.501 Y18.841 Z-6.483
X26.548 Y18.857 Z-6.532
X26.604 Y18.876 Z-6.569
X26.666 Y18.896 Z-6.592
X26.731 Y18.918 Z-6.6
X27.025 Y19.016
G3 X27.221 Y19.408 I-0.098 J0.294
X18.727 Y19.242 I-4.221 J-1.408 F300
G2 X17.238 Y18.125 I-1.488 J0.433
G1 X1
G2 X-0.55 Y19.675 I0 J1.55
G1 Y26
G2 X1 Y27.55 I1.55 J0
G1 X7.097
G2 X38.903 Y8.45 I15.903 J-9.55
X7.115 Y8.42 I-15.903 J9.55
G1 X1
G2 X-0.55 Y9.97 I0 J1.55
G1 Y16.293
G2 X1 Y17.843 I1.55 J0
G1 X17.248
G2 X18.734 Y16.734 I0 J-1.55
G3 X27.221 Y16.592 I4.266 J1.266
G2 X28.691 Y17.651 I1.47 J-0.491
G1 X29.95
Y18.349
X28.691
G2 X27.221 Y19.408 I0 J1.55
G3 X26.829 Y19.604 I-0.294 J-0.098
G1 X26.535 Y19.506
X26.47 Y19.484 Z-6.592
X26.407 Y19.464 Z-6.569
X26.352 Y19.445 Z-6.532
X26.305 Y19.43 Z-6.483
X26.27 Y19.418 Z-6.425
X26.248 Y19.411 Z-6.359
X26.241 Y19.408 Z-6.29
Z5
X26.437 Y18.82
Z-5.3 F150
Z-6.59
X26.444 Y18.823 Z-6.659
X26.466 Y18.83 Z-6.725
X26.501 Y18.841 Z-6.783
X26.548 Y18.857 Z-6.832
X26.604 Y18.876 Z-6.869
X26.666 Y18.896 Z-6.892
X26.731 Y18.918 Z-6.9
X27.025 Y19.016
G3 X27.221 Y19.408 I-0.098 J0.294
X18.727 Y19.242 I-4.221 J-1.408 F300
G2 X17.238 Y18.125 I-1.488 J0.433
G1 X1
G2 X-0.55 Y19.675 I0 J1.55
G1 Y26
G2 X1 Y27.55 I1.55 J0
G1 X7.097
G2 X38.903 Y8.45 I15.903 J-9.55
X7.115 Y8.42 I-15.903 J9.55
G1 X1
G2 X-0.55 Y9.97 I0 J1.55
G1 Y16.293
G2 X1 Y17.843 I1.55 J0
G1 X17.248
G2 X18.734 Y16.734 I0 J-1.55
G3 X27.221 Y16.592 I4.266 J1.266
G2 X28.691 Y17.651 I1.47 J-0.491
G1 X29.95
Y18.349
X28.691
G2 X27.221 Y19.408 I0 J1.55
G3 X26.829 Y19.604 I-0.294 J-0.098
G1 X26.535 Y19.506
X26.47 Y19.484 Z-6.892
X26.407 Y19.464 Z-6.869
X26.352 Y19.445 Z-6.832
X26.305 Y19.43 Z-6.783
X26.27 Y19.418 Z-6.725
X26.248 Y19.411 Z-6.659
X26.241 Y19.408 Z-6.59
Z5
X26.437 Y18.82
Z-5.6 F150
Z-6.89
X26.444 Y18.823 Z-6.959
X26.466 Y18.83 Z-7.025
X26.501 Y18.841 Z-7.083
X26.548 Y18.857 Z-7.132
X26.604 Y18.876 Z-7.169
X26.666 Y18.896 Z-7.192
X26.731 Y18.918 Z-7.2
X27.025 Y19.016
G3 X27.221 Y19.408 I-0.098 J0.294
X18.727 Y19.242 I-4.221 J-1.408 F300
G2 X17.238 Y18.125 I-1.488 J0.433
G1 X1
G2 X-0.55 Y19.675 I0 J1.55
G1 Y26
G2 X1 Y27.55 I1.55 J0
G1 X7.097
G2 X38.903 Y8.45 I15.903 J-9.55
X7.115 Y8.42 I-15.903 J9.55
G1 X1
G2 X-0.55 Y9.97 I0 J1.55
G1 Y16.293
G2 X1 Y17.843 I1.55 J0
G1 X17.248
G2 X18.734 Y16.734 I0 J-1.55
G3 X27.221 Y16.592 I4.266 J1.266
G2 X28.691 Y17.651 I1.47 J-0.491
G1 X29.95
Y18.349
X28.691
G2 X27.221 Y19.408 I0 J1.55
G3 X26.829 Y19.604 I-0.294 J-0.098
G1 X26.535 Y19.506
X26.47 Y19.484 Z-7.192
X26.407 Y19.464 Z-7.169
X26.352 Y19.445 Z-7.132
X26.305 Y19.43 Z-7.083
X26.27 Y19.418 Z-7.025
X26.248 Y19.411 Z-6.959
X26.241 Y19.408 Z-6.89
Z5
X26.437 Y18.82
Z-5.9 F150
Z-7.19
X26.444 Y18.823 Z-7.259
X26.466 Y18.83 Z-7.325
X26.501 Y18.841 Z-7.383
X26.548 Y18.857 Z-7.432
X26.604 Y18.876 Z-7.469
X26.666 Y18.896 Z-7.492
X26.731 Y18.918 Z-7.5
X27.025 Y19.016
G3 X27.221 Y19.408 I-0.098 J0.294
X18.727 Y19.242 I-4.221 J-1.408 F300
G2 X17.238 Y18.125 I-1.488 J0.433
G1 X1
G2 X-0.55 Y19.675 I0 J1.55
G1 Y26
G2 X1 Y27.55 I1.55 J0
G1 X7.097
G2 X38.903 Y8.45 I15.903 J-9.55
X7.115 Y8.42 I-15.903 J9.55
G1 X1
G2 X-0.55 Y9.97 I0 J1.55
G1 Y16.293
G2 X1 Y17.843 I1.55 J0
G1 X17.248
G2 X18.734 Y16.734 I0 J-1.55
G3 X27.221 Y16.592 I4.266 J1.266
G2 X28.691 Y17.651 I1.47 J-0.491
G1 X29.95
Y18.349
X28.691
G2 X27.221 Y19.408 I0 J1.55
G3 X26.829 Y19.604 I-0.294 J-0.098
G1 X26.535 Y19.506
X26.47 Y19.484 Z-7.492
X26.407 Y19.464 Z-7.469
X26.352 Y19.445 Z-7.432
X26.305 Y19.43 Z-7.383
X26.27 Y19.418 Z-7.325
X26.248 Y19.411 Z-7.259
X26.241 Y19.408 Z-7.19
Z5
X26.437 Y18.82
Z-6.2 F150
Z-7.49
X26.444 Y18.823 Z-7.559
X26.466 Y18.83 Z-7.625
X26.501 Y18.841 Z-7.683
X26.548 Y18.857 Z-7.732
X26.604 Y18.876 Z-7.769
X26.666 Y18.896 Z-7.792
X26.731 Y18.918 Z-7.8
X27.025 Y19.016
G3 X27.221 Y19.408 I-0.098 J0.294
X18.727 Y19.242 I-4.221 J-1.408 F300
G2 X17.238 Y18.125 I-1.488 J0.433
G1 X1
G2 X-0.55 Y19.675 I0 J1.55
G1 Y26
G2 X1 Y27.55 I1.55 J0
G1 X7.097
G2 X38.903 Y8.45 I15.903 J-9.55
X7.115 Y8.42 I-15.903 J9.55
G1 X1
G2 X-0.55 Y9.97 I0 J1.55
G1 Y16.293
G2 X1 Y17.843 I1.55 J0
G1 X17.248
G2 X18.734 Y16.734 I0 J-1.55
G3 X27.221 Y16.592 I4.266 J1.266
G2 X28.691 Y17.651 I1.47 J-0.491
G1 X29.95
Y18.349
X28.691
G2 X27.221 Y19.408 I0 J1.55
G3 X26.829 Y19.604 I-0.294 J-0.098
G1 X26.535 Y19.506
X26.47 Y19.484 Z-7.792
X26.407 Y19.464 Z-7.769
X26.352 Y19.445 Z-7.732
X26.305 Y19.43 Z-7.683
X26.27 Y19.418 Z-7.625
X26.248 Y19.411 Z-7.559
X26.241 Y19.408 Z-7.49
Z5
X26.437 Y18.82
Z-6.5 F150
Z-7.79
X26.444 Y18.823 Z-7.859
X26.466 Y18.83 Z-7.925
X26.501 Y18.841 Z-7.983
X26.548 Y18.857 Z-8.032
X26.604 Y18.876 Z-8.069
X26.666 Y18.896 Z-8.092
X26.731 Y18.918 Z-8.1
X27.025 Y19.016
G3 X27.221 Y19.408 I-0.098 J0.294
X18.727 Y19.242 I-4.221 J-1.408 F300
G2 X17.238 Y18.125 I-1.488 J0.433
G1 X1
G2 X-0.55 Y19.675 I0 J1.55
G1 Y26
G2 X1 Y27.55 I1.55 J0
G1 X7.097
G2 X38.903 Y8.45 I15.903 J-9.55
X7.115 Y8.42 I-15.903 J9.55
G1 X1
G2 X-0.55 Y9.97 I0 J1.55
G1 Y16.293
G2 X1 Y17.843 I1.55 J0
G1 X17.248
G2 X18.734 Y16.734 I0 J-1.55
G3 X27.221 Y16.592 I4.266 J1.266
G2 X28.691 Y17.651 I1.47 J-0.491
G1 X29.95
Y18.349
X28.691
G2 X27.221 Y19.408 I0 J1.55
G3 X26.829 Y19.604 I-0.294 J-0.098
G1 X26.535 Y19.506
X26.47 Y19.484 Z-8.092
X26.407 Y19.464 Z-8.069
X26.352 Y19.445 Z-8.032
X26.305 Y19.43 Z-7.983
X26.27 Y19.418 Z-7.925
X26.248 Y19.411 Z-7.859
X26.241 Y19.408 Z-7.79
Z5
X26.437 Y18.82
Z-6.8 F150
Z-8.09
X26.444 Y18.823 Z-8.159
X26.466 Y18.83 Z-8.225
X26.501 Y18.841 Z-8.283
X26.548 Y18.857 Z-8.332
X26.604 Y18.876 Z-8.369
X26.666 Y18.896 Z-8.392
X26.731 Y18.918 Z-8.4
X27.025 Y19.016
G3 X27.221 Y19.408 I-0.098 J0.294
X18.727 Y19.242 I-4.221 J-1.408 F300
G2 X17.238 Y18.125 I-1.488 J0.433
G1 X1
G2 X-0.55 Y19.675 I0 J1.55
G1 Y26
G2 X1 Y27.55 I1.55 J0
G1 X7.097
G2 X38.903 Y8.45 I15.903 J-9.55
X7.115 Y8.42 I-15.903 J9.55
G1 X1
G2 X-0.55 Y9.97 I0 J1.55
G1 Y16.293
G2 X1 Y17.843 I1.55 J0
G1 X17.248
G2 X18.734 Y16.734 I0 J-1.55
G3 X27.221 Y16.592 I4.266 J1.266
G2 X28.691 Y17.651 I1.47 J-0.491
G1 X29.95
Y18.349
X28.691
G2 X27.221 Y19.408 I0 J1.55
G3 X26.829 Y19.604 I-0.294 J-0.098
G1 X26.535 Y19.506
X26.47 Y19.484 Z-8.392
X26.407 Y19.464 Z-8.369
X26.352 Y19.445 Z-8.332
X26.305 Y19.43 Z-8.283
X26.27 Y19.418 Z-8.225
X26.248 Y19.411 Z-8.159
X26.241 Y19.408 Z-8.09
Z5
X26.437 Y18.82
Z-7.1 F150
Z-8.39
X26.444 Y18.823 Z-8.459
X26.466 Y18.83 Z-8.525
X26.501 Y18.841 Z-8.583
X26.548 Y18.857 Z-8.632
X26.604 Y18.876 Z-8.669
X26.666 Y18.896 Z-8.692
X26.731 Y18.918 Z-8.7
X27.025 Y19.016
G3 X27.221 Y19.408 I-0.098 J0.294
X18.727 Y19.242 I-4.221 J-1.408 F300
G2 X17.238 Y18.125 I-1.488 J0.433
G1 X1
G2 X-0.55 Y19.675 I0 J1.55
G1 Y26
G2 X1 Y27.55 I1.55 J0
G1 X7.097
G2 X38.903 Y8.45 I15.903 J-9.55
X7.115 Y8.42 I-15.903 J9.55
G1 X1
G2 X-0.55 Y9.97 I0 J1.55
G1 Y16.293
G2 X1 Y17.843 I1.55 J0
G1 X17.248
G2 X18.734 Y16.734 I0 J-1.55
G3 X27.221 Y16.592 I4.266 J1.266
G2 X28.691 Y17.651 I1.47 J-0.491
G1 X29.95
Y18.349
X28.691
G2 X27.221 Y19.408 I0 J1.55
G3 X26.829 Y19.604 I-0.294 J-0.098
G1 X26.535 Y19.506
X26.47 Y19.484 Z-8.692
X26.407 Y19.464 Z-8.669
X26.352 Y19.445 Z-8.632
X26.305 Y19.43 Z-8.583
X26.27 Y19.418 Z-8.525
X26.248 Y19.411 Z-8.459
X26.241 Y19.408 Z-8.39
Z5
X26.437 Y18.82
Z-7.4 F150
Z-8.69
X26.444 Y18.823 Z-8.759
X26.466 Y18.83 Z-8.825
X26.501 Y18.841 Z-8.883
X26.548 Y18.857 Z-8.932
X26.604 Y18.876 Z-8.969
X26.666 Y18.896 Z-8.992
X26.731 Y18.918 Z-9
X27.025 Y19.016
G3 X27.221 Y19.408 I-0.098 J0.294
X18.727 Y19.242 I-4.221 J-1.408 F300
G2 X17.238 Y18.125 I-1.488 J0.433
G1 X1
G2 X-0.55 Y19.675 I0 J1.55
G1 Y26
G2 X1 Y27.55 I1.55 J0
G1 X7.097
G2 X38.903 Y8.45 I15.903 J-9.55
X7.115 Y8.42 I-15.903 J9.55
G1 X1
G2 X-0.55 Y9.97 I0 J1.55
G1 Y16.293
G2 X1 Y17.843 I1.55 J0
G1 X17.248
G2 X18.734 Y16.734 I0 J-1.55
G3 X27.221 Y16.592 I4.266 J1.266
G2 X28.691 Y17.651 I1.47 J-0.491
G1 X29.95
Y18.349
X28.691
G2 X27.221 Y19.408 I0 J1.55
G3 X26.829 Y19.604 I-0.294 J-0.098
G1 X26.535 Y19.506
X26.47 Y19.484 Z-8.992
X26.407 Y19.464 Z-8.969
X26.352 Y19.445 Z-8.932
X26.305 Y19.43 Z-8.883
X26.27 Y19.418 Z-8.825
X26.248 Y19.411 Z-8.759
X26.241 Y19.408 Z-8.69
Z5
X26.437 Y18.82
Z-7.7 F150
Z-8.99
X26.444 Y18.823 Z-9.059
X26.466 Y18.83 Z-9.125
X26.501 Y18.841 Z-9.183
X26.548 Y18.857 Z-9.232
X26.604 Y18.876 Z-9.269
X26.666 Y18.896 Z-9.292
X26.731 Y18.918 Z-9.3
X27.025 Y19.016
G3 X27.221 Y19.408 I-0.098 J0.294
X18.727 Y19.242 I-4.221 J-1.408 F300
G2 X17.238 Y18.125 I-1.488 J0.433
G1 X1
G2 X-0.55 Y19.675 I0 J1.55
G1 Y26
G2 X1 Y27.55 I1.55 J0
G1 X7.097
G2 X38.903 Y8.45 I15.903 J-9.55
X7.115 Y8.42 I-15.903 J9.55
G1 X1
G2 X-0.55 Y9.97 I0 J1.55
G1 Y16.293
G2 X1 Y17.843 I1.55 J0
G1 X17.248
G2 X18.734 Y16.734 I0 J-1.55
G3 X27.221 Y16.592 I4.266 J1.266
G2 X28.691 Y17.651 I1.47 J-0.491
G1 X29.95
Y18.349
X28.691
G2 X27.221 Y19.408 I0 J1.55
G3 X26.829 Y19.604 I-0.294 J-0.098
G1 X26.535 Y19.506
X26.47 Y19.484 Z-9.292
X26.407 Y19.464 Z-9.269
X26.352 Y19.445 Z-9.232
X26.305 Y19.43 Z-9.183
X26.27 Y19.418 Z-9.125
X26.248 Y19.411 Z-9.059
X26.241 Y19.408 Z-8.99
Z5
X26.437 Y18.82
Z-8 F150
Z-9.29
X26.444 Y18.823 Z-9.359
X26.466 Y18.83 Z-9.425
X26.501 Y18.841 Z-9.483
X26.548 Y18.857 Z-9.532
X26.604 Y18.876 Z-9.569
X26.666 Y18.896 Z-9.592
X26.731 Y18.918 Z-9.6
X27.025 Y19.016
G3 X27.221 Y19.408 I-0.098 J0.294
X18.727 Y19.242 I-4.221 J-1.408 F300
G2 X17.238 Y18.125 I-1.488 J0.433
G1 X1
G2 X-0.55 Y19.675 I0 J1.55
G1 Y26
G2 X1 Y27.55 I1.55 J0
G1 X7.097
G2 X38.903 Y8.45 I15.903 J-9.55
X7.115 Y8.42 I-15.903 J9.55
G1 X1
G2 X-0.55 Y9.97 I0 J1.55
G1 Y16.293
G2 X1 Y17.843 I1.55 J0
G1 X17.248
G2 X18.734 Y16.734 I0 J-1.55
G3 X27.221 Y16.592 I4.266 J1.266
G2 X28.691 Y17.651 I1.47 J-0.491
G1 X29.95
Y18.349
X28.691
G2 X27.221 Y19.408 I0 J1.55
G3 X26.829 Y19.604 I-0.294 J-0.098
G1 X26.535 Y19.506
X26.47 Y19.484 Z-9.592
X26.407 Y19.464 Z-9.569
X26.352 Y19.445 Z-9.532
X26.305 Y19.43 Z-9.483
X26.27 Y19.418 Z-9.425
X26.248 Y19.411 Z-9.359
X26.241 Y19.408 Z-9.29
Z5
X26.437 Y18.82
Z-8.3 F150
Z-9.59
X26.444 Y18.823 Z-9.659
X26.466 Y18.83 Z-9.725
X26.501 Y18.841 Z-9.783
X26.548 Y18.857 Z-9.832
X26.604 Y18.876 Z-9.869
X26.666 Y18.896 Z-9.892
X26.731 Y18.918 Z-9.9
X27.025 Y19.016
G3 X27.221 Y19.408 I-0.098 J0.294
X18.727 Y19.242 I-4.221 J-1.408 F300
G2 X17.238 Y18.125 I-1.488 J0.433
G1 X1
G2 X-0.55 Y19.675 I0 J1.55
G1 Y26
G2 X1 Y27.55 I1.55 J0
G1 X7.097
G2 X38.903 Y8.45 I15.903 J-9.55
X7.115 Y8.42 I-15.903 J9.55
G1 X1
G2 X-0.55 Y9.97 I0 J1.55
G1 Y16.293
G2 X1 Y17.843 I1.55 J0
G1 X17.248
G2 X18.734 Y16.734 I0 J-1.55
G3 X27.221 Y16.592 I4.266 J1.266
G2 X28.691 Y17.651 I1.47 J-0.491
G1 X29.95
Y18.349
X28.691
G2 X27.221 Y19.408 I0 J1.55
G3 X26.829 Y19.604 I-0.294 J-0.098
G1 X26.535 Y19.506
X26.47 Y19.484 Z-9.892
X26.407 Y19.464 Z-9.869
X26.352 Y19.445 Z-9.832
X26.305 Y19.43 Z-9.783
X26.27 Y19.418 Z-9.725
X26.248 Y19.411 Z-9.659
X26.241 Y19.408 Z-9.59
Z5
X26.437 Y18.82
Z-8.6 F150
Z-9.89
X26.444 Y18.823 Z-9.959
X26.466 Y18.83 Z-10.025
X26.501 Y18.841 Z-10.083
X26.548 Y18.857 Z-10.132
X26.604 Y18.876 Z-10.169
X26.666 Y18.896 Z-10.192
X26.731 Y18.918 Z-10.2
X27.025 Y19.016
G3 X27.221 Y19.408 I-0.098 J0.294
X18.727 Y19.242 I-4.221 J-1.408 F300
G2 X17.238 Y18.125 I-1.488 J0.433
G1 X1
G2 X-0.55 Y19.675 I0 J1.55
G1 Y26
G2 X1 Y27.55 I1.55 J0
G1 X7.097
G2 X38.903 Y8.45 I15.903 J-9.55
X7.115 Y8.42 I-15.903 J9.55
G1 X1
G2 X-0.55 Y9.97 I0 J1.55
G1 Y16.293
G2 X1 Y17.843 I1.55 J0
G1 X17.248
G2 X18.734 Y16.734 I0 J-1.55
G3 X27.221 Y16.592 I4.266 J1.266
G2 X28.691 Y17.651 I1.47 J-0.491
G1 X29.95
Y18.349
X28.691
G2 X27.221 Y19.408 I0 J1.55
G3 X26.829 Y19.604 I-0.294 J-0.098
G1 X26.535 Y19.506
X26.47 Y19.484 Z-10.192
X26.407 Y19.464 Z-10.169
X26.352 Y19.445 Z-10.132
X26.305 Y19.43 Z-10.083
X26.27 Y19.418 Z-10.025
X26.248 Y19.411 Z-9.959
X26.241 Y19.408 Z-9.89
Z5
X26.437 Y18.82
Z-8.9 F150
Z-10.19
X26.444 Y18.823 Z-10.259
X26.466 Y18.83 Z-10.325
X26.501 Y18.841 Z-10.383
X26.548 Y18.857 Z-10.432
X26.604 Y18.876 Z-10.469
X26.666 Y18.896 Z-10.492
X26.731 Y18.918 Z-10.5
X27.025 Y19.016
G3 X27.221 Y19.408 I-0.098 J0.294
X18.727 Y19.242 I-4.221 J-1.408 F300
G2 X17.238 Y18.125 I-1.488 J0.433
G1 X1
G2 X-0.55 Y19.675 I0 J1.55
G1 Y26
G2 X1 Y27.55 I1.55 J0
G1 X7.097
G2 X38.903 Y8.45 I15.903 J-9.55
X7.115 Y8.42 I-15.903 J9.55
G1 X1
G2 X-0.55 Y9.97 I0 J1.55
G1 Y16.293
G2 X1 Y17.843 I1.55 J0
G1 X17.248
G2 X18.734 Y16.734 I0 J-1.55
G3 X27.221 Y16.592 I4.266 J1.266
G2 X28.691 Y17.651 I1.47 J-0.491
G1 X29.95
Y18.349
X28.691
G2 X27.221 Y19.408 I0 J1.55
G3 X26.829 Y19.604 I-0.294 J-0.098
G1 X26.535 Y19.506
X26.47 Y19.484 Z-10.492
X26.407 Y19.464 Z-10.469
X26.352 Y19.445 Z-10.432
X26.305 Y19.43 Z-10.383
X26.27 Y19.418 Z-10.325
X26.248 Y19.411 Z-10.259
X26.241 Y19.408 Z-10.19
Z5
X26.437 Y18.82
Z-9.2 F150
Z-10.49
X26.444 Y18.823 Z-10.559
X26.466 Y18.83 Z-10.625
X26.501 Y18.841 Z-10.683
X26.548 Y18.857 Z-10.732
X26.604 Y18.876 Z-10.769
X26.666 Y18.896 Z-10.792
X26.731 Y18.918 Z-10.8
X27.025 Y19.016
G3 X27.221 Y19.408 I-0.098 J0.294
X18.727 Y19.242 I-4.221 J-1.408 F300
G2 X17.238 Y18.125 I-1.488 J0.433
G1 X1
G2 X-0.55 Y19.675 I0 J1.55
G1 Y26
G2 X1 Y27.55 I1.55 J0
G1 X7.097
G2 X38.903 Y8.45 I15.903 J-9.55
X7.115 Y8.42 I-15.903 J9.55
G1 X1
G2 X-0.55 Y9.97 I0 J1.55
G1 Y16.293
G2 X1 Y17.843 I1.55 J0
G1 X17.248
G2 X18.734 Y16.734 I0 J-1.55
G3 X27.221 Y16.592 I4.266 J1.266
G2 X28.691 Y17.651 I1.47 J-0.491
G1 X29.95
Y18.349
X28.691
G2 X27.221 Y19.408 I0 J1.55
G3 X26.829 Y19.604 I-0.294 J-0.098
G1 X26.535 Y19.506
X26.47 Y19.484 Z-10.792
X26.407 Y19.464 Z-10.769
X26.352 Y19.445 Z-10.732
X26.305 Y19.43 Z-10.683
X26.27 Y19.418 Z-10.625
X26.248 Y19.411 Z-10.559
X26.241 Y19.408 Z-10.49
Z5
X26.437 Y18.82
Z-9.5 F150
Z-10.79
X26.444 Y18.823 Z-10.859
X26.466 Y18.83 Z-10.925
X26.501 Y18.841 Z-10.983
X26.548 Y18.857 Z-11.032
X26.604 Y18.876 Z-11.069
X26.666 Y18.896 Z-11.092
X26.731 Y18.918 Z-11.1
X27.025 Y19.016
G3 X27.221 Y19.408 I-0.098 J0.294
X18.727 Y19.242 I-4.221 J-1.408 F300
G2 X17.238 Y18.125 I-1.488 J0.433
G1 X1
G2 X-0.55 Y19.675 I0 J1.55
G1 Y26
G2 X1 Y27.55 I1.55 J0
G1 X7.097
G2 X38.903 Y8.45 I15.903 J-9.55
X7.115 Y8.42 I-15.903 J9.55
G1 X1
G2 X-0.55 Y9.97 I0 J1.55
G1 Y16.293
G2 X1 Y17.843 I1.55 J0
G1 X17.248
G2 X18.734 Y16.734 I0 J-1.55
G3 X27.221 Y16.592 I4.266 J1.266
G2 X28.691 Y17.651 I1.47 J-0.491
G1 X29.95
Y18.349
X28.691
G2 X27.221 Y19.408 I0 J1.55
G3 X26.829 Y19.604 I-0.294 J-0.098
G1 X26.535 Y19.506
X26.47 Y19.484 Z-11.092
X26.407 Y19.464 Z-11.069
X26.352 Y19.445 Z-11.032
X26.305 Y19.43 Z-10.983
X26.27 Y19.418 Z-10.925
X26.248 Y19.411 Z-10.859
X26.241 Y19.408 Z-10.79
Z5
X26.437 Y18.82
Z-9.8 F150
Z-11.09
X26.444 Y18.823 Z-11.159
X26.466 Y18.83 Z-11.225
X26.501 Y18.841 Z-11.283
X26.548 Y18.857 Z-11.332
X26.604 Y18.876 Z-11.369
X26.666 Y18.896 Z-11.392
X26.731 Y18.918 Z-11.4
X27.025 Y19.016
G3 X27.221 Y19.408 I-0.098 J0.294
X18.727 Y19.242 I-4.221 J-1.408 F300
G2 X17.238 Y18.125 I-1.488 J0.433
G1 X1
G2 X-0.55 Y19.675 I0 J1.55
G1 Y26
G2 X1 Y27.55 I1.55 J0
G1 X7.097
G2 X38.903 Y8.45 I15.903 J-9.55
X7.115 Y8.42 I-15.903 J9.55
G1 X1
G2 X-0.55 Y9.97 I0 J1.55
G1 Y16.293
G2 X1 Y17.843 I1.55 J0
G1 X17.248
G2 X18.734 Y16.734 I0 J-1.55
G3 X27.221 Y16.592 I4.266 J1.266
G2 X28.691 Y17.651 I1.47 J-0.491
G1 X29.95
Y18.349
X28.691
G2 X27.221 Y19.408 I0 J1.55
G3 X26.829 Y19.604 I-0.294 J-0.098
G1 X26.535 Y19.506
X26.47 Y19.484 Z-11.392
X26.407 Y19.464 Z-11.369
X26.352 Y19.445 Z-11.332
X26.305 Y19.43 Z-11.283
X26.27 Y19.418 Z-11.225
X26.248 Y19.411 Z-11.159
X26.241 Y19.408 Z-11.09
Z5
X26.437 Y18.82
Z-10.1 F150
Z-11.39
X26.444 Y18.823 Z-11.459
X26.466 Y18.83 Z-11.525
X26.501 Y18.841 Z-11.583
X26.548 Y18.857 Z-11.632
X26.604 Y18.876 Z-11.669
X26.666 Y18.896 Z-11.692
X26.731 Y18.918 Z-11.7
X27.025 Y19.016
G3 X27.221 Y19.408 I-0.098 J0.294
X18.727 Y19.242 I-4.221 J-1.408 F300
G2 X17.238 Y18.125 I-1.488 J0.433
G1 X1
G2 X-0.55 Y19.675 I0 J1.55
G1 Y26
G2 X1 Y27.55 I1.55 J0
G1 X7.097
G2 X38.903 Y8.45 I15.903 J-9.55
X7.115 Y8.42 I-15.903 J9.55
G1 X1
G2 X-0.55 Y9.97 I0 J1.55
G1 Y16.293
G2 X1 Y17.843 I1.55 J0
G1 X17.248
G2 X18.734 Y16.734 I0 J-1.55
G3 X27.221 Y16.592 I4.266 J1.266
G2 X28.691 Y17.651 I1.47 J-0.491
G1 X29.95
Y18.349
X28.691
G2 X27.221 Y19.408 I0 J1.55
G3 X26.829 Y19.604 I-0.294 J-0.098
G1 X26.535 Y19.506
X26.47 Y19.484 Z-11.692
X26.407 Y19.464 Z-11.669
X26.352 Y19.445 Z-11.632
X26.305 Y19.43 Z-11.583
X26.27 Y19.418 Z-11.525
X26.248 Y19.411 Z-11.459
X26.241 Y19.408 Z-11.39
Z5
X26.437 Y18.82
Z-10.4 F150
Z-11.69
X26.444 Y18.823 Z-11.759
X26.466 Y18.83 Z-11.825
X26.501 Y18.841 Z-11.883
X26.548 Y18.857 Z-11.932
X26.604 Y18.876 Z-11.969
X26.666 Y18.896 Z-11.992
X26.731 Y18.918 Z-12
X27.025 Y19.016
G3 X27.221 Y19.408 I-0.098 J0.294
X18.727 Y19.242 I-4.221 J-1.408 F300
G2 X17.238 Y18.125 I-1.488 J0.433
G1 X1
G2 X-0.55 Y19.675 I0 J1.55
G1 Y26
G2 X1 Y27.55 I1.55 J0
G1 X7.097
G2 X38.903 Y8.45 I15.903 J-9.55
X7.115 Y8.42 I-15.903 J9.55
G1 X1
G2 X-0.55 Y9.97 I0 J1.55
G1 Y16.293
G2 X1 Y17.843 I1.55 J0
G1 X17.248
G2 X18.734 Y16.734 I0 J-1.55
G3 X27.221 Y16.592 I4.266 J1.266
G2 X28.691 Y17.651 I1.47 J-0.491
G1 X29.95
Y18.349
X28.691
G2 X27.221 Y19.408 I0 J1.55
G3 X26.829 Y19.604 I-0.294 J-0.098
G1 X26.535 Y19.506
X26.47 Y19.484 Z-11.992
X26.407 Y19.464 Z-11.969
X26.352 Y19.445 Z-11.932
X26.305 Y19.43 Z-11.883
X26.27 Y19.418 Z-11.825
X26.248 Y19.411 Z-11.759
X26.241 Y19.408 Z-11.69
Z5
X26.437 Y18.82
Z-10.7 F150
Z-11.99
X26.444 Y18.823 Z-12.059
X26.466 Y18.83 Z-12.125
X26.501 Y18.841 Z-12.183
X26.548 Y18.857 Z-12.232
X26.604 Y18.876 Z-12.269
X26.666 Y18.896 Z-12.292
X26.731 Y18.918 Z-12.3
X27.025 Y19.016
G3 X27.221 Y19.408 I-0.098 J0.294
X18.727 Y19.242 I-4.221 J-1.408 F300
G2 X17.238 Y18.125 I-1.488 J0.433
G1 X1
G2 X-0.55 Y19.675 I0 J1.55
G1 Y26
G2 X1 Y27.55 I1.55 J0
G1 X7.097
G2 X38.903 Y8.45 I15.903 J-9.55
X7.115 Y8.42 I-15.903 J9.55
G1 X1
G2 X-0.55 Y9.97 I0 J1.55
G1 Y16.293
G2 X1 Y17.843 I1.55 J0
G1 X17.248
G2 X18.734 Y16.734 I0 J-1.55
G3 X27.221 Y16.592 I4.266 J1.266
G2 X28.691 Y17.651 I1.47 J-0.491
G1 X29.95
Y18.349
X28.691
G2 X27.221 Y19.408 I0 J1.55
G3 X26.829 Y19.604 I-0.294 J-0.098
G1 X26.535 Y19.506
X26.47 Y19.484 Z-12.292
X26.407 Y19.464 Z-12.269
X26.352 Y19.445 Z-12.232
X26.305 Y19.43 Z-12.183
X26.27 Y19.418 Z-12.125
X26.248 Y19.411 Z-12.059
X26.241 Y19.408 Z-11.99
Z5
X26.437 Y18.82
Z-11 F150
Z-12.29
X26.444 Y18.823 Z-12.359
X26.466 Y18.83 Z-12.425
X26.501 Y18.841 Z-12.483
X26.548 Y18.857 Z-12.532
X26.604 Y18.876 Z-12.569
X26.666 Y18.896 Z-12.592
X26.731 Y18.918 Z-12.6
X27.025 Y19.016
G3 X27.221 Y19.408 I-0.098 J0.294
X18.727 Y19.242 I-4.221 J-1.408 F300
G2 X17.238 Y18.125 I-1.488 J0.433
G1 X1
G2 X-0.55 Y19.675 I0 J1.55
G1 Y26
G2 X1 Y27.55 I1.55 J0
G1 X7.097
G2 X38.903 Y8.45 I15.903 J-9.55
X7.115 Y8.42 I-15.903 J9.55
G1 X1
G2 X-0.55 Y9.97 I0 J1.55
G1 Y16.293
G2 X1 Y17.843 I1.55 J0
G1 X17.248
G2 X18.734 Y16.734 I0 J-1.55
G3 X27.221 Y16.592 I4.266 J1.266
G2 X28.691 Y17.651 I1.47 J-0.491
G1 X29.95
Y18.349
X28.691
G2 X27.221 Y19.408 I0 J1.55
G3 X26.829 Y19.604 I-0.294 J-0.098
G1 X26.535 Y19.506
X26.47 Y19.484 Z-12.592
X26.407 Y19.464 Z-12.569
X26.352 Y19.445 Z-12.532
X26.305 Y19.43 Z-12.483
X26.27 Y19.418 Z-12.425
X26.248 Y19.411 Z-12.359
X26.241 Y19.408 Z-12.29
Z5
X26.437 Y18.82
Z-11.3 F150
Z-12.59
X26.444 Y18.823 Z-12.659
X26.466 Y18.83 Z-12.725
X26.501 Y18.841 Z-12.783
X26.548 Y18.857 Z-12.832
X26.604 Y18.876 Z-12.869
X26.666 Y18.896 Z-12.892
X26.731 Y18.918 Z-12.9
X27.025 Y19.016
G3 X27.221 Y19.408 I-0.098 J0.294
X18.727 Y19.242 I-4.221 J-1.408 F300
G2 X17.238 Y18.125 I-1.488 J0.433
G1 X1
G2 X-0.55 Y19.675 I0 J1.55
G1 Y26
G2 X1 Y27.55 I1.55 J0
G1 X7.097
G2 X38.903 Y8.45 I15.903 J-9.55
X7.115 Y8.42 I-15.903 J9.55
G1 X1
G2 X-0.55 Y9.97 I0 J1.55
G1 Y16.293
G2 X1 Y17.843 I1.55 J0
G1 X17.248
G2 X18.734 Y16.734 I0 J-1.55
G3 X27.221 Y16.592 I4.266 J1.266
G2 X28.691 Y17.651 I1.47 J-0.491
G1 X29.95
Y18.349
X28.691
G2 X27.221 Y19.408 I0 J1.55
G3 X26.829 Y19.604 I-0.294 J-0.098
G1 X26.535 Y19.506
X26.47 Y19.484 Z-12.892
X26.407 Y19.464 Z-12.869
X26.352 Y19.445 Z-12.832
X26.305 Y19.43 Z-12.783
X26.27 Y19.418 Z-12.725
X26.248 Y19.411 Z-12.659
X26.241 Y19.408 Z-12.59
Z5
X26.437 Y18.82
Z-11.6 F150
Z-12.89
X26.444 Y18.823 Z-12.959
X26.466 Y18.83 Z-13.025
X26.501 Y18.841 Z-13.083
X26.548 Y18.857 Z-13.132
X26.604 Y18.876 Z-13.169
X26.666 Y18.896 Z-13.192
X26.731 Y18.918 Z-13.2
X27.025 Y19.016
G3 X27.221 Y19.408 I-0.098 J0.294
X18.727 Y19.242 I-4.221 J-1.408 F300
G2 X17.238 Y18.125 I-1.488 J0.433
G1 X1
G2 X-0.55 Y19.675 I0 J1.55
G1 Y26
G2 X1 Y27.55 I1.55 J0
G1 X7.097
G2 X38.903 Y8.45 I15.903 J-9.55
X7.115 Y8.42 I-15.903 J9.55
G1 X1
G2 X-0.55 Y9.97 I0 J1.55
G1 Y16.293
G2 X1 Y17.843 I1.55 J0
G1 X17.248
G2 X18.734 Y16.734 I0 J-1.55
G3 X27.221 Y16.592 I4.266 J1.266
G2 X28.691 Y17.651 I1.47 J-0.491
G1 X29.95
Y18.349
X28.691
G2 X27.221 Y19.408 I0 J1.55
G3 X26.829 Y19.604 I-0.294 J-0.098
G1 X26.535 Y19.506
X26.47 Y19.484 Z-13.192
X26.407 Y19.464 Z-13.169
X26.352 Y19.445 Z-13.132
X26.305 Y19.43 Z-13.083
X26.27 Y19.418 Z-13.025
X26.248 Y19.411 Z-12.959
X26.241 Y19.408 Z-12.89
Z5
X26.437 Y18.82
Z-11.9 F150
Z-13.19
X26.444 Y18.823 Z-13.259
X26.466 Y18.83 Z-13.325
X26.501 Y18.841 Z-13.383
X26.548 Y18.857 Z-13.432
X26.604 Y18.876 Z-13.469
X26.666 Y18.896 Z-13.492
X26.731 Y18.918 Z-13.5
X27.025 Y19.016
G3 X27.221 Y19.408 I-0.098 J0.294
X18.727 Y19.242 I-4.221 J-1.408 F300
G2 X17.238 Y18.125 I-1.488 J0.433
G1 X1
G2 X-0.55 Y19.675 I0 J1.55
G1 Y26
G2 X1 Y27.55 I1.55 J0
G1 X7.097
G2 X38.903 Y8.45 I15.903 J-9.55
X7.115 Y8.42 I-15.903 J9.55
G1 X1
G2 X-0.55 Y9.97 I0 J1.55
G1 Y16.293
G2 X1 Y17.843 I1.55 J0
G1 X17.248
G2 X18.734 Y16.734 I0 J-1.55
G3 X27.221 Y16.592 I4.266 J1.266
G2 X28.691 Y17.651 I1.47 J-0.491
G1 X29.95
Y18.349
X28.691
G2 X27.221 Y19.408 I0 J1.55
G3 X26.829 Y19.604 I-0.294 J-0.098
G1 X26.535 Y19.506
X26.47 Y19.484 Z-13.492
X26.407 Y19.464 Z-13.469
X26.352 Y19.445 Z-13.432
X26.305 Y19.43 Z-13.383
X26.27 Y19.418 Z-13.325
X26.248 Y19.411 Z-13.259
X26.241 Y19.408 Z-13.19
Z5
X26.437 Y18.82
Z-12.2 F150
Z-13.49
X26.444 Y18.823 Z-13.559
X26.466 Y18.83 Z-13.625
X26.501 Y18.841 Z-13.683
X26.548 Y18.857 Z-13.732
X26.604 Y18.876 Z-13.769
X26.666 Y18.896 Z-13.792
X26.731 Y18.918 Z-13.8
X27.025 Y19.016
G3 X27.221 Y19.408 I-0.098 J0.294
X18.727 Y19.242 I-4.221 J-1.408 F300
G2 X17.238 Y18.125 I-1.488 J0.433
G1 X1
G2 X-0.55 Y19.675 I0 J1.55
G1 Y26
G2 X1 Y27.55 I1.55 J0
G1 X7.097
G2 X38.903 Y8.45 I15.903 J-9.55
X7.115 Y8.42 I-15.903 J9.55
G1 X1
G2 X-0.55 Y9.97 I0 J1.55
G1 Y16.293
G2 X1 Y17.843 I1.55 J0
G1 X17.248
G2 X18.734 Y16.734 I0 J-1.55
G3 X27.221 Y16.592 I4.266 J1.266
G2 X28.691 Y17.651 I1.47 J-0.491
G1 X29.95
Y18.349
X28.691
G2 X27.221 Y19.408 I0 J1.55
G3 X26.829 Y19.604 I-0.294 J-0.098
G1 X26.535 Y19.506
X26.47 Y19.484 Z-13.792
X26.407 Y19.464 Z-13.769
X26.352 Y19.445 Z-13.732
X26.305 Y19.43 Z-13.683
X26.27 Y19.418 Z-13.625
X26.248 Y19.411 Z-13.559
X26.241 Y19.408 Z-13.49
Z5
X26.437 Y18.82
Z-12.5 F150
Z-13.69
X26.444 Y18.823 Z-13.759
X26.466 Y18.83 Z-13.825
X26.501 Y18.841 Z-13.883
X26.548 Y18.857 Z-13.932
X26.604 Y18.876 Z-13.969
X26.666 Y18.896 Z-13.992
X26.731 Y18.918 Z-14
X27.025 Y19.016
G3 X27.221 Y19.408 I-0.098 J0.294
X18.727 Y19.242 I-4.221 J-1.408 F300
G2 X17.238 Y18.125 I-1.488 J0.433
G1 X1
G2 X-0.55 Y19.675 I0 J1.55
G1 Y26
G2 X1 Y27.55 I1.55 J0
G1 X7.097
G2 X38.903 Y8.45 I15.903 J-9.55
X7.115 Y8.42 I-15.903 J9.55
G1 X1
G2 X-0.55 Y9.97 I0 J1.55
G1 Y16.293
G2 X1 Y17.843 I1.55 J0
G1 X17.248
G2 X18.734 Y16.734 I0 J-1.55
G3 X27.221 Y16.592 I4.266 J1.266
G2 X28.691 Y17.651 I1.47 J-0.491
G1 X29.95
Y18.349
X28.691
G2 X27.221 Y19.408 I0 J1.55
G3 X26.829 Y19.604 I-0.294 J-0.098
G1 X26.535 Y19.506
X26.47 Y19.484 Z-13.992
X26.407 Y19.464 Z-13.969
X26.352 Y19.445 Z-13.932
X26.305 Y19.43 Z-13.883
X26.27 Y19.418 Z-13.825
X26.248 Y19.411 Z-13.759
X26.241 Y19.408 Z-13.69
Z10
M9
M5
M30
