(metal_coupler_12mm)
(Machine)
(  vendor: Autodesk)
(  model: GARAGE CNC)
(  description: GARAGE CNC)
(T3  D=3.1 CR=0 - ZMIN=-14 - flat end mill)
G90 G94
G17
G21
(When using Fusion 360 for Personal Use, the feedrate of)
(rapid moves is reduced to match the feedrate of cutting)
(moves, which can increase machining time. Unrestricted rapid)
(moves are available with a Fusion 360 Subscription.)

(2D Pocket3)
T3
S24000 M3
G54
M8
G0 X16.599 Y19.397
Z10
G1 Z5 F300
Z2.81 F150
X16.577 Y19.389 Z2.694
X16.517 Y19.367 Z2.594
X16.428 Y19.328 Z2.527
X16.326 Y19.274 Z2.5
G3 X17.803 Y16.726 Z2.338 I0.738 J-1.274
X16.326 Y19.274 Z2.177 I-0.738 J1.274
X17.803 Y16.726 Z2.015 I0.738 J-1.274
X16.326 Y19.274 Z1.854 I-0.738 J1.274
X17.803 Y16.726 Z1.692 I0.738 J-1.274
X16.326 Y19.274 Z1.531 I-0.738 J1.274
X17.803 Y16.726 Z1.369 I0.738 J-1.274
X16.326 Y19.274 Z1.208 I-0.738 J1.274
X17.803 Y16.726 Z1.046 I0.738 J-1.274
X16.326 Y19.274 Z0.885 I-0.738 J1.274
X17.803 Y16.726 Z0.723 I0.738 J-1.274
X16.326 Y19.274 Z0.561 I-0.738 J1.274
X17.803 Y16.726 Z0.4 I0.738 J-1.274
X16.326 Y19.274 Z0.238 I-0.738 J1.274
X17.803 Y16.726 Z0.077 I0.738 J-1.274
X16.326 Y19.274 Z-0.085 I-0.738 J1.274
X17.803 Y16.726 Z-0.246 I0.738 J-1.274
X18.537 Y18 Z-0.3 I-0.738 J1.274
X17.463 Y18 I-0.537 J0 F300
X18.537 Y18 I0.537 J0
G2 X18.897 Y18.741 I0.944 J0
G3 X18.817 Y19.561 I-0.303 J0.384
X16.27 Y18 I-0.799 J-1.555
X19.666 Y17.411 I1.749 J0
G1 X19.709 Y17.516
X19.754 Y17.62
G3 X19.754 Y18.38 I-0.916 J0.38
G1 X19.709 Y18.484
X19.666 Y18.589
G3 X18.817 Y19.561 I-1.648 J-0.583
G2 X17.77 Y21.111 I0.889 J1.729
G3 X16.152 Y22.048 I-1.142 J-0.106
X19.848 Y13.952 I1.848 J-4.048
X22.196 Y16.517 I-1.848 J4.048
G2 X23.657 Y17.55 I1.461 J-0.517
G1 X26.45
Y18.45
X23.657
G2 X22.196 Y19.483 I0 J1.55
G3 X16.152 Y22.048 I-4.196 J-1.483
X15.3 Y20.546 Z-0.361 I0.612 J-1.339 F150
G1 X15.601 Y17.837 Z-0.452
G3 X18.537 Y18 Z-0.6 I1.463 J0.163
X17.463 Y18 I-0.537 J0 F300
X18.537 Y18 I0.537 J0
G2 X18.897 Y18.741 I0.944 J0
G3 X18.817 Y19.561 I-0.303 J0.384
X16.27 Y18 I-0.799 J-1.555
X19.666 Y17.411 I1.749 J0
G1 X19.709 Y17.516
X19.754 Y17.62
G3 X19.754 Y18.38 I-0.916 J0.38
G1 X19.709 Y18.484
X19.666 Y18.589
G3 X18.817 Y19.561 I-1.648 J-0.583
G2 X17.77 Y21.111 I0.889 J1.729
G3 X16.152 Y22.048 I-1.142 J-0.106
X19.848 Y13.952 I1.848 J-4.048
X22.196 Y16.517 I-1.848 J4.048
G2 X23.657 Y17.55 I1.461 J-0.517
G1 X26.45
Y18.45
X23.657
G2 X22.196 Y19.483 I0 J1.55
G3 X16.152 Y22.048 I-4.196 J-1.483
X15.3 Y20.546 Z-0.661 I0.612 J-1.339 F150
G1 X15.601 Y17.837 Z-0.752
G3 X18.537 Y18 Z-0.9 I1.463 J0.163
X17.463 Y18 I-0.537 J0 F300
X18.537 Y18 I0.537 J0
G2 X18.897 Y18.741 I0.944 J0
G3 X18.817 Y19.561 I-0.303 J0.384
X16.27 Y18 I-0.799 J-1.555
X19.666 Y17.411 I1.749 J0
G1 X19.709 Y17.516
X19.754 Y17.62
G3 X19.754 Y18.38 I-0.916 J0.38
G1 X19.709 Y18.484
X19.666 Y18.589
G3 X18.817 Y19.561 I-1.648 J-0.583
G2 X17.77 Y21.111 I0.889 J1.729
G3 X16.152 Y22.048 I-1.142 J-0.106
X19.848 Y13.952 I1.848 J-4.048
X22.196 Y16.517 I-1.848 J4.048
G2 X23.657 Y17.55 I1.461 J-0.517
G1 X26.45
Y18.45
X23.657
G2 X22.196 Y19.483 I0 J1.55
G3 X16.152 Y22.048 I-4.196 J-1.483
X15.3 Y20.546 Z-0.961 I0.612 J-1.339 F150
G1 X15.601 Y17.837 Z-1.052
G3 X18.537 Y18 Z-1.2 I1.463 J0.163
X17.463 Y18 I-0.537 J0 F300
X18.537 Y18 I0.537 J0
G2 X18.897 Y18.741 I0.944 J0
G3 X18.817 Y19.561 I-0.303 J0.384
X16.27 Y18 I-0.799 J-1.555
X19.666 Y17.411 I1.749 J0
G1 X19.709 Y17.516
X19.754 Y17.62
G3 X19.754 Y18.38 I-0.916 J0.38
G1 X19.709 Y18.484
X19.666 Y18.589
G3 X18.817 Y19.561 I-1.648 J-0.583
G2 X17.77 Y21.111 I0.889 J1.729
G3 X16.152 Y22.048 I-1.142 J-0.106
X19.848 Y13.952 I1.848 J-4.048
X22.196 Y16.517 I-1.848 J4.048
G2 X23.657 Y17.55 I1.461 J-0.517
G1 X26.45
Y18.45
X23.657
G2 X22.196 Y19.483 I0 J1.55
G3 X16.152 Y22.048 I-4.196 J-1.483
X15.3 Y20.546 Z-1.261 I0.612 J-1.339 F150
G1 X15.601 Y17.837 Z-1.352
G3 X18.537 Y18 Z-1.5 I1.463 J0.163
X17.463 Y18 I-0.537 J0 F300
X18.537 Y18 I0.537 J0
G2 X18.897 Y18.741 I0.944 J0
G3 X18.817 Y19.561 I-0.303 J0.384
X16.27 Y18 I-0.799 J-1.555
X19.666 Y17.411 I1.749 J0
G1 X19.709 Y17.516
X19.754 Y17.62
G3 X19.754 Y18.38 I-0.916 J0.38
G1 X19.709 Y18.484
X19.666 Y18.589
G3 X18.817 Y19.561 I-1.648 J-0.583
G2 X17.77 Y21.111 I0.889 J1.729
G3 X16.152 Y22.048 I-1.142 J-0.106
X19.848 Y13.952 I1.848 J-4.048
X22.196 Y16.517 I-1.848 J4.048
G2 X23.657 Y17.55 I1.461 J-0.517
G1 X26.45
Y18.45
X23.657
G2 X22.196 Y19.483 I0 J1.55
G3 X16.152 Y22.048 I-4.196 J-1.483
X15.3 Y20.546 Z-1.561 I0.612 J-1.339 F150
G1 X15.601 Y17.837 Z-1.652
G3 X18.537 Y18 Z-1.8 I1.463 J0.163
X17.463 Y18 I-0.537 J0 F300
X18.537 Y18 I0.537 J0
G2 X18.897 Y18.741 I0.944 J0
G3 X18.817 Y19.561 I-0.303 J0.384
X16.27 Y18 I-0.799 J-1.555
X19.666 Y17.411 I1.749 J0
G1 X19.709 Y17.516
X19.754 Y17.62
G3 X19.754 Y18.38 I-0.916 J0.38
G1 X19.709 Y18.484
X19.666 Y18.589
G3 X18.817 Y19.561 I-1.648 J-0.583
G2 X17.77 Y21.111 I0.889 J1.729
G3 X16.152 Y22.048 I-1.142 J-0.106
X19.848 Y13.952 I1.848 J-4.048
X22.196 Y16.517 I-1.848 J4.048
G2 X23.657 Y17.55 I1.461 J-0.517
G1 X26.45
Y18.45
X23.657
G2 X22.196 Y19.483 I0 J1.55
G3 X16.152 Y22.048 I-4.196 J-1.483
X15.3 Y20.546 Z-1.861 I0.612 J-1.339 F150
G1 X15.601 Y17.837 Z-1.952
G3 X18.537 Y18 Z-2.1 I1.463 J0.163
X17.463 Y18 I-0.537 J0 F300
X18.537 Y18 I0.537 J0
G2 X18.897 Y18.741 I0.944 J0
G3 X18.817 Y19.561 I-0.303 J0.384
X16.27 Y18 I-0.799 J-1.555
X19.666 Y17.411 I1.749 J0
G1 X19.709 Y17.516
X19.754 Y17.62
G3 X19.754 Y18.38 I-0.916 J0.38
G1 X19.709 Y18.484
X19.666 Y18.589
G3 X18.817 Y19.561 I-1.648 J-0.583
G2 X17.77 Y21.111 I0.889 J1.729
G3 X16.152 Y22.048 I-1.142 J-0.106
X19.848 Y13.952 I1.848 J-4.048
X22.196 Y16.517 I-1.848 J4.048
G2 X23.657 Y17.55 I1.461 J-0.517
G1 X26.45
Y18.45
X23.657
G2 X22.196 Y19.483 I0 J1.55
G3 X16.152 Y22.048 I-4.196 J-1.483
X15.3 Y20.546 Z-2.161 I0.612 J-1.339 F150
G1 X15.601 Y17.837 Z-2.252
G3 X18.537 Y18 Z-2.4 I1.463 J0.163
X17.463 Y18 I-0.537 J0 F300
X18.537 Y18 I0.537 J0
G2 X18.897 Y18.741 I0.944 J0
G3 X18.817 Y19.561 I-0.303 J0.384
X16.27 Y18 I-0.799 J-1.555
X19.666 Y17.411 I1.749 J0
G1 X19.709 Y17.516
X19.754 Y17.62
G3 X19.754 Y18.38 I-0.916 J0.38
G1 X19.709 Y18.484
X19.666 Y18.589
G3 X18.817 Y19.561 I-1.648 J-0.583
G2 X17.77 Y21.111 I0.889 J1.729
G3 X16.152 Y22.048 I-1.142 J-0.106
X19.848 Y13.952 I1.848 J-4.048
X22.196 Y16.517 I-1.848 J4.048
G2 X23.657 Y17.55 I1.461 J-0.517
G1 X26.45
Y18.45
X23.657
G2 X22.196 Y19.483 I0 J1.55
G3 X16.152 Y22.048 I-4.196 J-1.483
X15.3 Y20.546 Z-2.461 I0.612 J-1.339 F150
G1 X15.601 Y17.837 Z-2.552
G3 X18.537 Y18 Z-2.7 I1.463 J0.163
X17.463 Y18 I-0.537 J0 F300
X18.537 Y18 I0.537 J0
G2 X18.897 Y18.741 I0.944 J0
G3 X18.817 Y19.561 I-0.303 J0.384
X16.27 Y18 I-0.799 J-1.555
X19.666 Y17.411 I1.749 J0
G1 X19.709 Y17.516
X19.754 Y17.62
G3 X19.754 Y18.38 I-0.916 J0.38
G1 X19.709 Y18.484
X19.666 Y18.589
G3 X18.817 Y19.561 I-1.648 J-0.583
G2 X17.77 Y21.111 I0.889 J1.729
G3 X16.152 Y22.048 I-1.142 J-0.106
X19.848 Y13.952 I1.848 J-4.048
X22.196 Y16.517 I-1.848 J4.048
G2 X23.657 Y17.55 I1.461 J-0.517
G1 X26.45
Y18.45
X23.657
G2 X22.196 Y19.483 I0 J1.55
G3 X16.152 Y22.048 I-4.196 J-1.483
X15.3 Y20.546 Z-2.761 I0.612 J-1.339 F150
G1 X15.601 Y17.837 Z-2.852
G3 X18.537 Y18 Z-3 I1.463 J0.163
X17.463 Y18 I-0.537 J0 F300
X18.537 Y18 I0.537 J0
G2 X18.897 Y18.741 I0.944 J0
G3 X18.817 Y19.561 I-0.303 J0.384
X16.27 Y18 I-0.799 J-1.555
X19.666 Y17.411 I1.749 J0
G1 X19.709 Y17.516
X19.754 Y17.62
G3 X19.754 Y18.38 I-0.916 J0.38
G1 X19.709 Y18.484
X19.666 Y18.589
G3 X18.817 Y19.561 I-1.648 J-0.583
G2 X17.77 Y21.111 I0.889 J1.729
G3 X16.152 Y22.048 I-1.142 J-0.106
X19.848 Y13.952 I1.848 J-4.048
X22.196 Y16.517 I-1.848 J4.048
G2 X23.657 Y17.55 I1.461 J-0.517
G1 X26.45
Y18.45
X23.657
G2 X22.196 Y19.483 I0 J1.55
G3 X16.152 Y22.048 I-4.196 J-1.483
X15.3 Y20.546 Z-3.061 I0.612 J-1.339 F150
G1 X15.601 Y17.837 Z-3.152
G3 X18.537 Y18 Z-3.3 I1.463 J0.163
X17.463 Y18 I-0.537 J0 F300
X18.537 Y18 I0.537 J0
G2 X18.897 Y18.741 I0.944 J0
G3 X18.817 Y19.561 I-0.303 J0.384
X16.27 Y18 I-0.799 J-1.555
X19.666 Y17.411 I1.749 J0
G1 X19.709 Y17.516
X19.754 Y17.62
G3 X19.754 Y18.38 I-0.916 J0.38
G1 X19.709 Y18.484
X19.666 Y18.589
G3 X18.817 Y19.561 I-1.648 J-0.583
G2 X17.77 Y21.111 I0.889 J1.729
G3 X16.152 Y22.048 I-1.142 J-0.106
X19.848 Y13.952 I1.848 J-4.048
X22.196 Y16.517 I-1.848 J4.048
G2 X23.657 Y17.55 I1.461 J-0.517
G1 X26.45
Y18.45
X23.657
G2 X22.196 Y19.483 I0 J1.55
G3 X16.152 Y22.048 I-4.196 J-1.483
X15.3 Y20.546 Z-3.361 I0.612 J-1.339 F150
G1 X15.601 Y17.837 Z-3.452
G3 X18.537 Y18 Z-3.6 I1.463 J0.163
X17.463 Y18 I-0.537 J0 F300
X18.537 Y18 I0.537 J0
G2 X18.897 Y18.741 I0.944 J0
G3 X18.817 Y19.561 I-0.303 J0.384
X16.27 Y18 I-0.799 J-1.555
X19.666 Y17.411 I1.749 J0
G1 X19.709 Y17.516
X19.754 Y17.62
G3 X19.754 Y18.38 I-0.916 J0.38
G1 X19.709 Y18.484
X19.666 Y18.589
G3 X18.817 Y19.561 I-1.648 J-0.583
G2 X17.77 Y21.111 I0.889 J1.729
G3 X16.152 Y22.048 I-1.142 J-0.106
X19.848 Y13.952 I1.848 J-4.048
X22.196 Y16.517 I-1.848 J4.048
G2 X23.657 Y17.55 I1.461 J-0.517
G1 X26.45
Y18.45
X23.657
G2 X22.196 Y19.483 I0 J1.55
G3 X16.152 Y22.048 I-4.196 J-1.483
X15.3 Y20.546 Z-3.661 I0.612 J-1.339 F150
G1 X15.601 Y17.837 Z-3.752
G3 X18.537 Y18 Z-3.9 I1.463 J0.163
X17.463 Y18 I-0.537 J0 F300
X18.537 Y18 I0.537 J0
G2 X18.897 Y18.741 I0.944 J0
G3 X18.817 Y19.561 I-0.303 J0.384
X16.27 Y18 I-0.799 J-1.555
X19.666 Y17.411 I1.749 J0
G1 X19.709 Y17.516
X19.754 Y17.62
G3 X19.754 Y18.38 I-0.916 J0.38
G1 X19.709 Y18.484
X19.666 Y18.589
G3 X18.817 Y19.561 I-1.648 J-0.583
G2 X17.77 Y21.111 I0.889 J1.729
G3 X16.152 Y22.048 I-1.142 J-0.106
X19.848 Y13.952 I1.848 J-4.048
X22.196 Y16.517 I-1.848 J4.048
G2 X23.657 Y17.55 I1.461 J-0.517
G1 X26.45
Y18.45
X23.657
G2 X22.196 Y19.483 I0 J1.55
G3 X16.152 Y22.048 I-4.196 J-1.483
X15.3 Y20.546 Z-3.961 I0.612 J-1.339 F150
G1 X15.601 Y17.837 Z-4.052
G3 X18.537 Y18 Z-4.2 I1.463 J0.163
X17.463 Y18 I-0.537 J0 F300
X18.537 Y18 I0.537 J0
G2 X18.897 Y18.741 I0.944 J0
G3 X18.817 Y19.561 I-0.303 J0.384
X16.27 Y18 I-0.799 J-1.555
X19.666 Y17.411 I1.749 J0
G1 X19.709 Y17.516
X19.754 Y17.62
G3 X19.754 Y18.38 I-0.916 J0.38
G1 X19.709 Y18.484
X19.666 Y18.589
G3 X18.817 Y19.561 I-1.648 J-0.583
G2 X17.77 Y21.111 I0.889 J1.729
G3 X16.152 Y22.048 I-1.142 J-0.106
X19.848 Y13.952 I1.848 J-4.048
X22.196 Y16.517 I-1.848 J4.048
G2 X23.657 Y17.55 I1.461 J-0.517
G1 X26.45
Y18.45
X23.657
G2 X22.196 Y19.483 I0 J1.55
G3 X16.152 Y22.048 I-4.196 J-1.483
X15.3 Y20.546 Z-4.261 I0.612 J-1.339 F150
G1 X15.601 Y17.837 Z-4.352
G3 X18.537 Y18 Z-4.5 I1.463 J0.163
X17.463 Y18 I-0.537 J0 F300
X18.537 Y18 I0.537 J0
G2 X18.897 Y18.741 I0.944 J0
G3 X18.817 Y19.561 I-0.303 J0.384
X16.27 Y18 I-0.799 J-1.555
X19.666 Y17.411 I1.749 J0
G1 X19.709 Y17.516
X19.754 Y17.62
G3 X19.754 Y18.38 I-0.916 J0.38
G1 X19.709 Y18.484
X19.666 Y18.589
G3 X18.817 Y19.561 I-1.648 J-0.583
G2 X17.77 Y21.111 I0.889 J1.729
G3 X16.152 Y22.048 I-1.142 J-0.106
X19.848 Y13.952 I1.848 J-4.048
X22.196 Y16.517 I-1.848 J4.048
G2 X23.657 Y17.55 I1.461 J-0.517
G1 X26.45
Y18.45
X23.657
G2 X22.196 Y19.483 I0 J1.55
G3 X16.152 Y22.048 I-4.196 J-1.483
X15.3 Y20.546 Z-4.561 I0.612 J-1.339 F150
G1 X15.601 Y17.837 Z-4.652
G3 X18.537 Y18 Z-4.8 I1.463 J0.163
X17.463 Y18 I-0.537 J0 F300
X18.537 Y18 I0.537 J0
G2 X18.897 Y18.741 I0.944 J0
G3 X18.817 Y19.561 I-0.303 J0.384
X16.27 Y18 I-0.799 J-1.555
X19.666 Y17.411 I1.749 J0
G1 X19.709 Y17.516
X19.754 Y17.62
G3 X19.754 Y18.38 I-0.916 J0.38
G1 X19.709 Y18.484
X19.666 Y18.589
G3 X18.817 Y19.561 I-1.648 J-0.583
G2 X17.77 Y21.111 I0.889 J1.729
G3 X16.152 Y22.048 I-1.142 J-0.106
X19.848 Y13.952 I1.848 J-4.048
X22.196 Y16.517 I-1.848 J4.048
G2 X23.657 Y17.55 I1.461 J-0.517
G1 X26.45
Y18.45
X23.657
G2 X22.196 Y19.483 I0 J1.55
G3 X16.152 Y22.048 I-4.196 J-1.483
X15.3 Y20.546 Z-4.861 I0.612 J-1.339 F150
G1 X15.601 Y17.837 Z-4.952
G3 X18.537 Y18 Z-5.1 I1.463 J0.163
X17.463 Y18 I-0.537 J0 F300
X18.537 Y18 I0.537 J0
G2 X18.897 Y18.741 I0.944 J0
G3 X18.817 Y19.561 I-0.303 J0.384
X16.27 Y18 I-0.799 J-1.555
X19.666 Y17.411 I1.749 J0
G1 X19.709 Y17.516
X19.754 Y17.62
G3 X19.754 Y18.38 I-0.916 J0.38
G1 X19.709 Y18.484
X19.666 Y18.589
G3 X18.817 Y19.561 I-1.648 J-0.583
G2 X17.77 Y21.111 I0.889 J1.729
G3 X16.152 Y22.048 I-1.142 J-0.106
X19.848 Y13.952 I1.848 J-4.048
X22.196 Y16.517 I-1.848 J4.048
G2 X23.657 Y17.55 I1.461 J-0.517
G1 X26.45
Y18.45
X23.657
G2 X22.196 Y19.483 I0 J1.55
G3 X16.152 Y22.048 I-4.196 J-1.483
X15.3 Y20.546 Z-5.161 I0.612 J-1.339 F150
G1 X15.601 Y17.837 Z-5.252
G3 X18.537 Y18 Z-5.4 I1.463 J0.163
X17.463 Y18 I-0.537 J0 F300
X18.537 Y18 I0.537 J0
G2 X18.897 Y18.741 I0.944 J0
G3 X18.817 Y19.561 I-0.303 J0.384
X16.27 Y18 I-0.799 J-1.555
X19.666 Y17.411 I1.749 J0
G1 X19.709 Y17.516
X19.754 Y17.62
G3 X19.754 Y18.38 I-0.916 J0.38
G1 X19.709 Y18.484
X19.666 Y18.589
G3 X18.817 Y19.561 I-1.648 J-0.583
G2 X17.77 Y21.111 I0.889 J1.729
G3 X16.152 Y22.048 I-1.142 J-0.106
X19.848 Y13.952 I1.848 J-4.048
X22.196 Y16.517 I-1.848 J4.048
G2 X23.657 Y17.55 I1.461 J-0.517
G1 X26.45
Y18.45
X23.657
G2 X22.196 Y19.483 I0 J1.55
G3 X16.152 Y22.048 I-4.196 J-1.483
X15.3 Y20.546 Z-5.461 I0.612 J-1.339 F150
G1 X15.601 Y17.837 Z-5.552
G3 X18.537 Y18 Z-5.7 I1.463 J0.163
X17.463 Y18 I-0.537 J0 F300
X18.537 Y18 I0.537 J0
G2 X18.897 Y18.741 I0.944 J0
G3 X18.817 Y19.561 I-0.303 J0.384
X16.27 Y18 I-0.799 J-1.555
X19.666 Y17.411 I1.749 J0
G1 X19.709 Y17.516
X19.754 Y17.62
G3 X19.754 Y18.38 I-0.916 J0.38
G1 X19.709 Y18.484
X19.666 Y18.589
G3 X18.817 Y19.561 I-1.648 J-0.583
G2 X17.77 Y21.111 I0.889 J1.729
G3 X16.152 Y22.048 I-1.142 J-0.106
X19.848 Y13.952 I1.848 J-4.048
X22.196 Y16.517 I-1.848 J4.048
G2 X23.657 Y17.55 I1.461 J-0.517
G1 X26.45
Y18.45
X23.657
G2 X22.196 Y19.483 I0 J1.55
G3 X16.152 Y22.048 I-4.196 J-1.483
X15.3 Y20.546 Z-5.761 I0.612 J-1.339 F150
G1 X15.601 Y17.837 Z-5.852
G3 X18.537 Y18 Z-6 I1.463 J0.163
X17.463 Y18 I-0.537 J0 F300
X18.537 Y18 I0.537 J0
G2 X18.897 Y18.741 I0.944 J0
G3 X18.817 Y19.561 I-0.303 J0.384
X16.27 Y18 I-0.799 J-1.555
X19.666 Y17.411 I1.749 J0
G1 X19.709 Y17.516
X19.754 Y17.62
G3 X19.754 Y18.38 I-0.916 J0.38
G1 X19.709 Y18.484
X19.666 Y18.589
G3 X18.817 Y19.561 I-1.648 J-0.583
G2 X17.77 Y21.111 I0.889 J1.729
G3 X16.152 Y22.048 I-1.142 J-0.106
X19.848 Y13.952 I1.848 J-4.048
X22.196 Y16.517 I-1.848 J4.048
G2 X23.657 Y17.55 I1.461 J-0.517
G1 X26.45
Y18.45
X23.657
G2 X22.196 Y19.483 I0 J1.55
G3 X16.152 Y22.048 I-4.196 J-1.483
X15.3 Y20.546 Z-6.061 I0.612 J-1.339 F150
G1 X15.601 Y17.837 Z-6.152
G3 X18.537 Y18 Z-6.3 I1.463 J0.163
X17.463 Y18 I-0.537 J0 F300
X18.537 Y18 I0.537 J0
G2 X18.897 Y18.741 I0.944 J0
G3 X18.817 Y19.561 I-0.303 J0.384
X16.27 Y18 I-0.799 J-1.555
X19.666 Y17.411 I1.749 J0
G1 X19.709 Y17.516
X19.754 Y17.62
G3 X19.754 Y18.38 I-0.916 J0.38
G1 X19.709 Y18.484
X19.666 Y18.589
G3 X18.817 Y19.561 I-1.648 J-0.583
G2 X17.77 Y21.111 I0.889 J1.729
G3 X16.152 Y22.048 I-1.142 J-0.106
X19.848 Y13.952 I1.848 J-4.048
X22.196 Y16.517 I-1.848 J4.048
G2 X23.657 Y17.55 I1.461 J-0.517
G1 X26.45
Y18.45
X23.657
G2 X22.196 Y19.483 I0 J1.55
G3 X16.152 Y22.048 I-4.196 J-1.483
X15.3 Y20.546 Z-6.361 I0.612 J-1.339 F150
G1 X15.601 Y17.837 Z-6.452
G3 X18.537 Y18 Z-6.6 I1.463 J0.163
X17.463 Y18 I-0.537 J0 F300
X18.537 Y18 I0.537 J0
G2 X18.897 Y18.741 I0.944 J0
G3 X18.817 Y19.561 I-0.303 J0.384
X16.27 Y18 I-0.799 J-1.555
X19.666 Y17.411 I1.749 J0
G1 X19.709 Y17.516
X19.754 Y17.62
G3 X19.754 Y18.38 I-0.916 J0.38
G1 X19.709 Y18.484
X19.666 Y18.589
G3 X18.817 Y19.561 I-1.648 J-0.583
G2 X17.77 Y21.111 I0.889 J1.729
G3 X16.152 Y22.048 I-1.142 J-0.106
X19.848 Y13.952 I1.848 J-4.048
X22.196 Y16.517 I-1.848 J4.048
G2 X23.657 Y17.55 I1.461 J-0.517
G1 X26.45
Y18.45
X23.657
G2 X22.196 Y19.483 I0 J1.55
G3 X16.152 Y22.048 I-4.196 J-1.483
X15.3 Y20.546 Z-6.661 I0.612 J-1.339 F150
G1 X15.601 Y17.837 Z-6.752
G3 X18.537 Y18 Z-6.9 I1.463 J0.163
X17.463 Y18 I-0.537 J0 F300
X18.537 Y18 I0.537 J0
G2 X18.897 Y18.741 I0.944 J0
G3 X18.817 Y19.561 I-0.303 J0.384
X16.27 Y18 I-0.799 J-1.555
X19.666 Y17.411 I1.749 J0
G1 X19.709 Y17.516
X19.754 Y17.62
G3 X19.754 Y18.38 I-0.916 J0.38
G1 X19.709 Y18.484
X19.666 Y18.589
G3 X18.817 Y19.561 I-1.648 J-0.583
G2 X17.77 Y21.111 I0.889 J1.729
G3 X16.152 Y22.048 I-1.142 J-0.106
X19.848 Y13.952 I1.848 J-4.048
X22.196 Y16.517 I-1.848 J4.048
G2 X23.657 Y17.55 I1.461 J-0.517
G1 X26.45
Y18.45
X23.657
G2 X22.196 Y19.483 I0 J1.55
G3 X16.152 Y22.048 I-4.196 J-1.483
X15.3 Y20.546 Z-6.961 I0.612 J-1.339 F150
G1 X15.601 Y17.837 Z-7.052
G3 X18.537 Y18 Z-7.2 I1.463 J0.163
X17.463 Y18 I-0.537 J0 F300
X18.537 Y18 I0.537 J0
G2 X18.897 Y18.741 I0.944 J0
G3 X18.817 Y19.561 I-0.303 J0.384
X16.27 Y18 I-0.799 J-1.555
X19.666 Y17.411 I1.749 J0
G1 X19.709 Y17.516
X19.754 Y17.62
G3 X19.754 Y18.38 I-0.916 J0.38
G1 X19.709 Y18.484
X19.666 Y18.589
G3 X18.817 Y19.561 I-1.648 J-0.583
G2 X17.77 Y21.111 I0.889 J1.729
G3 X16.152 Y22.048 I-1.142 J-0.106
X19.848 Y13.952 I1.848 J-4.048
X22.196 Y16.517 I-1.848 J4.048
G2 X23.657 Y17.55 I1.461 J-0.517
G1 X26.45
Y18.45
X23.657
G2 X22.196 Y19.483 I0 J1.55
G3 X16.152 Y22.048 I-4.196 J-1.483
X15.3 Y20.546 Z-7.261 I0.612 J-1.339 F150
G1 X15.601 Y17.837 Z-7.352
G3 X18.537 Y18 Z-7.5 I1.463 J0.163
X17.463 Y18 I-0.537 J0 F300
X18.537 Y18 I0.537 J0
G2 X18.897 Y18.741 I0.944 J0
G3 X18.817 Y19.561 I-0.303 J0.384
X16.27 Y18 I-0.799 J-1.555
X19.666 Y17.411 I1.749 J0
G1 X19.709 Y17.516
X19.754 Y17.62
G3 X19.754 Y18.38 I-0.916 J0.38
G1 X19.709 Y18.484
X19.666 Y18.589
G3 X18.817 Y19.561 I-1.648 J-0.583
G2 X17.77 Y21.111 I0.889 J1.729
G3 X16.152 Y22.048 I-1.142 J-0.106
X19.848 Y13.952 I1.848 J-4.048
X22.196 Y16.517 I-1.848 J4.048
G2 X23.657 Y17.55 I1.461 J-0.517
G1 X26.45
Y18.45
X23.657
G2 X22.196 Y19.483 I0 J1.55
G3 X16.152 Y22.048 I-4.196 J-1.483
X15.3 Y20.546 Z-7.561 I0.612 J-1.339 F150
G1 X15.601 Y17.837 Z-7.652
G3 X18.537 Y18 Z-7.8 I1.463 J0.163
X17.463 Y18 I-0.537 J0 F300
X18.537 Y18 I0.537 J0
G2 X18.897 Y18.741 I0.944 J0
G3 X18.817 Y19.561 I-0.303 J0.384
X16.27 Y18 I-0.799 J-1.555
X19.666 Y17.411 I1.749 J0
G1 X19.709 Y17.516
X19.754 Y17.62
G3 X19.754 Y18.38 I-0.916 J0.38
G1 X19.709 Y18.484
X19.666 Y18.589
G3 X18.817 Y19.561 I-1.648 J-0.583
G2 X17.77 Y21.111 I0.889 J1.729
G3 X16.152 Y22.048 I-1.142 J-0.106
X19.848 Y13.952 I1.848 J-4.048
X22.196 Y16.517 I-1.848 J4.048
G2 X23.657 Y17.55 I1.461 J-0.517
G1 X26.45
Y18.45
X23.657
G2 X22.196 Y19.483 I0 J1.55
G3 X16.152 Y22.048 I-4.196 J-1.483
X15.3 Y20.546 Z-7.861 I0.612 J-1.339 F150
G1 X15.601 Y17.837 Z-7.952
G3 X18.537 Y18 Z-8.1 I1.463 J0.163
X17.463 Y18 I-0.537 J0 F300
X18.537 Y18 I0.537 J0
G2 X18.897 Y18.741 I0.944 J0
G3 X18.817 Y19.561 I-0.303 J0.384
X16.27 Y18 I-0.799 J-1.555
X19.666 Y17.411 I1.749 J0
G1 X19.709 Y17.516
X19.754 Y17.62
G3 X19.754 Y18.38 I-0.916 J0.38
G1 X19.709 Y18.484
X19.666 Y18.589
G3 X18.817 Y19.561 I-1.648 J-0.583
G2 X17.77 Y21.111 I0.889 J1.729
G3 X16.152 Y22.048 I-1.142 J-0.106
X19.848 Y13.952 I1.848 J-4.048
X22.196 Y16.517 I-1.848 J4.048
G2 X23.657 Y17.55 I1.461 J-0.517
G1 X26.45
Y18.45
X23.657
G2 X22.196 Y19.483 I0 J1.55
G3 X16.152 Y22.048 I-4.196 J-1.483
X15.3 Y20.546 Z-8.161 I0.612 J-1.339 F150
G1 X15.601 Y17.837 Z-8.252
G3 X18.537 Y18 Z-8.4 I1.463 J0.163
X17.463 Y18 I-0.537 J0 F300
X18.537 Y18 I0.537 J0
G2 X18.897 Y18.741 I0.944 J0
G3 X18.817 Y19.561 I-0.303 J0.384
X16.27 Y18 I-0.799 J-1.555
X19.666 Y17.411 I1.749 J0
G1 X19.709 Y17.516
X19.754 Y17.62
G3 X19.754 Y18.38 I-0.916 J0.38
G1 X19.709 Y18.484
X19.666 Y18.589
G3 X18.817 Y19.561 I-1.648 J-0.583
G2 X17.77 Y21.111 I0.889 J1.729
G3 X16.152 Y22.048 I-1.142 J-0.106
X19.848 Y13.952 I1.848 J-4.048
X22.196 Y16.517 I-1.848 J4.048
G2 X23.657 Y17.55 I1.461 J-0.517
G1 X26.45
Y18.45
X23.657
G2 X22.196 Y19.483 I0 J1.55
G3 X16.152 Y22.048 I-4.196 J-1.483
X15.3 Y20.546 Z-8.461 I0.612 J-1.339 F150
G1 X15.601 Y17.837 Z-8.552
G3 X18.537 Y18 Z-8.7 I1.463 J0.163
X17.463 Y18 I-0.537 J0 F300
X18.537 Y18 I0.537 J0
G2 X18.897 Y18.741 I0.944 J0
G3 X18.817 Y19.561 I-0.303 J0.384
X16.27 Y18 I-0.799 J-1.555
X19.666 Y17.411 I1.749 J0
G1 X19.709 Y17.516
X19.754 Y17.62
G3 X19.754 Y18.38 I-0.916 J0.38
G1 X19.709 Y18.484
X19.666 Y18.589
G3 X18.817 Y19.561 I-1.648 J-0.583
G2 X17.77 Y21.111 I0.889 J1.729
G3 X16.152 Y22.048 I-1.142 J-0.106
X19.848 Y13.952 I1.848 J-4.048
X22.196 Y16.517 I-1.848 J4.048
G2 X23.657 Y17.55 I1.461 J-0.517
G1 X26.45
Y18.45
X23.657
G2 X22.196 Y19.483 I0 J1.55
G3 X16.152 Y22.048 I-4.196 J-1.483
X15.3 Y20.546 Z-8.761 I0.612 J-1.339 F150
G1 X15.601 Y17.837 Z-8.852
G3 X18.537 Y18 Z-9 I1.463 J0.163
X17.463 Y18 I-0.537 J0 F300
X18.537 Y18 I0.537 J0
G2 X18.897 Y18.741 I0.944 J0
G3 X18.817 Y19.561 I-0.303 J0.384
X16.27 Y18 I-0.799 J-1.555
X19.666 Y17.411 I1.749 J0
G1 X19.709 Y17.516
X19.754 Y17.62
G3 X19.754 Y18.38 I-0.916 J0.38
G1 X19.709 Y18.484
X19.666 Y18.589
G3 X18.817 Y19.561 I-1.648 J-0.583
G2 X17.77 Y21.111 I0.889 J1.729
G3 X16.152 Y22.048 I-1.142 J-0.106
X19.848 Y13.952 I1.848 J-4.048
X22.196 Y16.517 I-1.848 J4.048
G2 X23.657 Y17.55 I1.461 J-0.517
G1 X26.45
Y18.45
X23.657
G2 X22.196 Y19.483 I0 J1.55
G3 X16.152 Y22.048 I-4.196 J-1.483
X15.3 Y20.546 Z-9.061 I0.612 J-1.339 F150
G1 X15.601 Y17.837 Z-9.152
G3 X18.537 Y18 Z-9.3 I1.463 J0.163
X17.463 Y18 I-0.537 J0 F300
X18.537 Y18 I0.537 J0
G2 X18.897 Y18.741 I0.944 J0
G3 X18.817 Y19.561 I-0.303 J0.384
X16.27 Y18 I-0.799 J-1.555
X19.666 Y17.411 I1.749 J0
G1 X19.709 Y17.516
X19.754 Y17.62
G3 X19.754 Y18.38 I-0.916 J0.38
G1 X19.709 Y18.484
X19.666 Y18.589
G3 X18.817 Y19.561 I-1.648 J-0.583
G2 X17.77 Y21.111 I0.889 J1.729
G3 X16.152 Y22.048 I-1.142 J-0.106
X19.848 Y13.952 I1.848 J-4.048
X22.196 Y16.517 I-1.848 J4.048
G2 X23.657 Y17.55 I1.461 J-0.517
G1 X26.45
Y18.45
X23.657
G2 X22.196 Y19.483 I0 J1.55
G3 X16.152 Y22.048 I-4.196 J-1.483
X15.3 Y20.546 Z-9.361 I0.612 J-1.339 F150
G1 X15.601 Y17.837 Z-9.452
G3 X18.537 Y18 Z-9.6 I1.463 J0.163
X17.463 Y18 I-0.537 J0 F300
X18.537 Y18 I0.537 J0
G2 X18.897 Y18.741 I0.944 J0
G3 X18.817 Y19.561 I-0.303 J0.384
X16.27 Y18 I-0.799 J-1.555
X19.666 Y17.411 I1.749 J0
G1 X19.709 Y17.516
X19.754 Y17.62
G3 X19.754 Y18.38 I-0.916 J0.38
G1 X19.709 Y18.484
X19.666 Y18.589
G3 X18.817 Y19.561 I-1.648 J-0.583
G2 X17.77 Y21.111 I0.889 J1.729
G3 X16.152 Y22.048 I-1.142 J-0.106
X19.848 Y13.952 I1.848 J-4.048
X22.196 Y16.517 I-1.848 J4.048
G2 X23.657 Y17.55 I1.461 J-0.517
G1 X26.45
Y18.45
X23.657
G2 X22.196 Y19.483 I0 J1.55
G3 X16.152 Y22.048 I-4.196 J-1.483
X15.3 Y20.546 Z-9.661 I0.612 J-1.339 F150
G1 X15.601 Y17.837 Z-9.752
G3 X18.537 Y18 Z-9.9 I1.463 J0.163
X17.463 Y18 I-0.537 J0 F300
X18.537 Y18 I0.537 J0
G2 X18.897 Y18.741 I0.944 J0
G3 X18.817 Y19.561 I-0.303 J0.384
X16.27 Y18 I-0.799 J-1.555
X19.666 Y17.411 I1.749 J0
G1 X19.709 Y17.516
X19.754 Y17.62
G3 X19.754 Y18.38 I-0.916 J0.38
G1 X19.709 Y18.484
X19.666 Y18.589
G3 X18.817 Y19.561 I-1.648 J-0.583
G2 X17.77 Y21.111 I0.889 J1.729
G3 X16.152 Y22.048 I-1.142 J-0.106
X19.848 Y13.952 I1.848 J-4.048
X22.196 Y16.517 I-1.848 J4.048
G2 X23.657 Y17.55 I1.461 J-0.517
G1 X26.45
Y18.45
X23.657
G2 X22.196 Y19.483 I0 J1.55
G3 X16.152 Y22.048 I-4.196 J-1.483
X15.3 Y20.546 Z-9.961 I0.612 J-1.339 F150
G1 X15.601 Y17.837 Z-10.052
G3 X18.537 Y18 Z-10.2 I1.463 J0.163
X17.463 Y18 I-0.537 J0 F300
X18.537 Y18 I0.537 J0
G2 X18.897 Y18.741 I0.944 J0
G3 X18.817 Y19.561 I-0.303 J0.384
X16.27 Y18 I-0.799 J-1.555
X19.666 Y17.411 I1.749 J0
G1 X19.709 Y17.516
X19.754 Y17.62
G3 X19.754 Y18.38 I-0.916 J0.38
G1 X19.709 Y18.484
X19.666 Y18.589
G3 X18.817 Y19.561 I-1.648 J-0.583
G2 X17.77 Y21.111 I0.889 J1.729
G3 X16.152 Y22.048 I-1.142 J-0.106
X19.848 Y13.952 I1.848 J-4.048
X22.196 Y16.517 I-1.848 J4.048
G2 X23.657 Y17.55 I1.461 J-0.517
G1 X26.45
Y18.45
X23.657
G2 X22.196 Y19.483 I0 J1.55
G3 X16.152 Y22.048 I-4.196 J-1.483
X15.3 Y20.546 Z-10.261 I0.612 J-1.339 F150
G1 X15.601 Y17.837 Z-10.352
G3 X18.537 Y18 Z-10.5 I1.463 J0.163
X17.463 Y18 I-0.537 J0 F300
X18.537 Y18 I0.537 J0
G2 X18.897 Y18.741 I0.944 J0
G3 X18.817 Y19.561 I-0.303 J0.384
X16.27 Y18 I-0.799 J-1.555
X19.666 Y17.411 I1.749 J0
G1 X19.709 Y17.516
X19.754 Y17.62
G3 X19.754 Y18.38 I-0.916 J0.38
G1 X19.709 Y18.484
X19.666 Y18.589
G3 X18.817 Y19.561 I-1.648 J-0.583
G2 X17.77 Y21.111 I0.889 J1.729
G3 X16.152 Y22.048 I-1.142 J-0.106
X19.848 Y13.952 I1.848 J-4.048
X22.196 Y16.517 I-1.848 J4.048
G2 X23.657 Y17.55 I1.461 J-0.517
G1 X26.45
Y18.45
X23.657
G2 X22.196 Y19.483 I0 J1.55
G3 X16.152 Y22.048 I-4.196 J-1.483
X15.3 Y20.546 Z-10.561 I0.612 J-1.339 F150
G1 X15.601 Y17.837 Z-10.652
G3 X18.537 Y18 Z-10.8 I1.463 J0.163
X17.463 Y18 I-0.537 J0 F300
X18.537 Y18 I0.537 J0
G2 X18.897 Y18.741 I0.944 J0
G3 X18.817 Y19.561 I-0.303 J0.384
X16.27 Y18 I-0.799 J-1.555
X19.666 Y17.411 I1.749 J0
G1 X19.709 Y17.516
X19.754 Y17.62
G3 X19.754 Y18.38 I-0.916 J0.38
G1 X19.709 Y18.484
X19.666 Y18.589
G3 X18.817 Y19.561 I-1.648 J-0.583
G2 X17.77 Y21.111 I0.889 J1.729
G3 X16.152 Y22.048 I-1.142 J-0.106
X19.848 Y13.952 I1.848 J-4.048
X22.196 Y16.517 I-1.848 J4.048
G2 X23.657 Y17.55 I1.461 J-0.517
G1 X26.45
Y18.45
X23.657
G2 X22.196 Y19.483 I0 J1.55
G3 X16.152 Y22.048 I-4.196 J-1.483
X15.3 Y20.546 Z-10.861 I0.612 J-1.339 F150
G1 X15.601 Y17.837 Z-10.952
G3 X18.537 Y18 Z-11.1 I1.463 J0.163
X17.463 Y18 I-0.537 J0 F300
X18.537 Y18 I0.537 J0
G2 X18.897 Y18.741 I0.944 J0
G3 X18.817 Y19.561 I-0.303 J0.384
X16.27 Y18 I-0.799 J-1.555
X19.666 Y17.411 I1.749 J0
G1 X19.709 Y17.516
X19.754 Y17.62
G3 X19.754 Y18.38 I-0.916 J0.38
G1 X19.709 Y18.484
X19.666 Y18.589
G3 X18.817 Y19.561 I-1.648 J-0.583
G2 X17.77 Y21.111 I0.889 J1.729
G3 X16.152 Y22.048 I-1.142 J-0.106
X19.848 Y13.952 I1.848 J-4.048
X22.196 Y16.517 I-1.848 J4.048
G2 X23.657 Y17.55 I1.461 J-0.517
G1 X26.45
Y18.45
X23.657
G2 X22.196 Y19.483 I0 J1.55
G3 X16.152 Y22.048 I-4.196 J-1.483
X15.3 Y20.546 Z-11.161 I0.612 J-1.339 F150
G1 X15.601 Y17.837 Z-11.252
G3 X18.537 Y18 Z-11.4 I1.463 J0.163
X17.463 Y18 I-0.537 J0 F300
X18.537 Y18 I0.537 J0
G2 X18.897 Y18.741 I0.944 J0
G3 X18.817 Y19.561 I-0.303 J0.384
X16.27 Y18 I-0.799 J-1.555
X19.666 Y17.411 I1.749 J0
G1 X19.709 Y17.516
X19.754 Y17.62
G3 X19.754 Y18.38 I-0.916 J0.38
G1 X19.709 Y18.484
X19.666 Y18.589
G3 X18.817 Y19.561 I-1.648 J-0.583
G2 X17.77 Y21.111 I0.889 J1.729
G3 X16.152 Y22.048 I-1.142 J-0.106
X19.848 Y13.952 I1.848 J-4.048
X22.196 Y16.517 I-1.848 J4.048
G2 X23.657 Y17.55 I1.461 J-0.517
G1 X26.45
Y18.45
X23.657
G2 X22.196 Y19.483 I0 J1.55
G3 X16.152 Y22.048 I-4.196 J-1.483
X15.3 Y20.546 Z-11.461 I0.612 J-1.339 F150
G1 X15.601 Y17.837 Z-11.552
G3 X18.537 Y18 Z-11.7 I1.463 J0.163
X17.463 Y18 I-0.537 J0 F300
X18.537 Y18 I0.537 J0
G2 X18.897 Y18.741 I0.944 J0
G3 X18.817 Y19.561 I-0.303 J0.384
X16.27 Y18 I-0.799 J-1.555
X19.666 Y17.411 I1.749 J0
G1 X19.709 Y17.516
X19.754 Y17.62
G3 X19.754 Y18.38 I-0.916 J0.38
G1 X19.709 Y18.484
X19.666 Y18.589
G3 X18.817 Y19.561 I-1.648 J-0.583
G2 X17.77 Y21.111 I0.889 J1.729
G3 X16.152 Y22.048 I-1.142 J-0.106
X19.848 Y13.952 I1.848 J-4.048
X22.196 Y16.517 I-1.848 J4.048
G2 X23.657 Y17.55 I1.461 J-0.517
G1 X26.45
Y18.45
X23.657
G2 X22.196 Y19.483 I0 J1.55
G3 X16.152 Y22.048 I-4.196 J-1.483
X15.3 Y20.546 Z-11.761 I0.612 J-1.339 F150
G1 X15.601 Y17.837 Z-11.852
G3 X18.537 Y18 Z-12 I1.463 J0.163
X17.463 Y18 I-0.537 J0 F300
X18.537 Y18 I0.537 J0
G2 X18.897 Y18.741 I0.944 J0
G3 X18.817 Y19.561 I-0.303 J0.384
X16.27 Y18 I-0.799 J-1.555
X19.666 Y17.411 I1.749 J0
G1 X19.709 Y17.516
X19.754 Y17.62
G3 X19.754 Y18.38 I-0.916 J0.38
G1 X19.709 Y18.484
X19.666 Y18.589
G3 X18.817 Y19.561 I-1.648 J-0.583
G2 X17.77 Y21.111 I0.889 J1.729
G3 X16.152 Y22.048 I-1.142 J-0.106
X19.848 Y13.952 I1.848 J-4.048
X22.196 Y16.517 I-1.848 J4.048
G2 X23.657 Y17.55 I1.461 J-0.517
G1 X26.45
Y18.45
X23.657
G2 X22.196 Y19.483 I0 J1.55
G3 X16.152 Y22.048 I-4.196 J-1.483
X15.3 Y20.546 Z-12.061 I0.612 J-1.339 F150
G1 X15.601 Y17.837 Z-12.152
G3 X18.537 Y18 Z-12.3 I1.463 J0.163
X17.463 Y18 I-0.537 J0 F300
X18.537 Y18 I0.537 J0
G2 X18.897 Y18.741 I0.944 J0
G3 X18.817 Y19.561 I-0.303 J0.384
X16.27 Y18 I-0.799 J-1.555
X19.666 Y17.411 I1.749 J0
G1 X19.709 Y17.516
X19.754 Y17.62
G3 X19.754 Y18.38 I-0.916 J0.38
G1 X19.709 Y18.484
X19.666 Y18.589
G3 X18.817 Y19.561 I-1.648 J-0.583
G2 X17.77 Y21.111 I0.889 J1.729
G3 X16.152 Y22.048 I-1.142 J-0.106
X19.848 Y13.952 I1.848 J-4.048
X22.196 Y16.517 I-1.848 J4.048
G2 X23.657 Y17.55 I1.461 J-0.517
G1 X26.45
Y18.45
X23.657
G2 X22.196 Y19.483 I0 J1.55
G3 X16.152 Y22.048 I-4.196 J-1.483
X15.3 Y20.546 Z-12.361 I0.612 J-1.339 F150
G1 X15.601 Y17.837 Z-12.452
G3 X18.537 Y18 Z-12.6 I1.463 J0.163
X17.463 Y18 I-0.537 J0 F300
X18.537 Y18 I0.537 J0
G2 X18.897 Y18.741 I0.944 J0
G3 X18.817 Y19.561 I-0.303 J0.384
X16.27 Y18 I-0.799 J-1.555
X19.666 Y17.411 I1.749 J0
G1 X19.709 Y17.516
X19.754 Y17.62
G3 X19.754 Y18.38 I-0.916 J0.38
G1 X19.709 Y18.484
X19.666 Y18.589
G3 X18.817 Y19.561 I-1.648 J-0.583
G2 X17.77 Y21.111 I0.889 J1.729
G3 X16.152 Y22.048 I-1.142 J-0.106
X19.848 Y13.952 I1.848 J-4.048
X22.196 Y16.517 I-1.848 J4.048
G2 X23.657 Y17.55 I1.461 J-0.517
G1 X26.45
Y18.45
X23.657
G2 X22.196 Y19.483 I0 J1.55
G3 X16.152 Y22.048 I-4.196 J-1.483
X15.3 Y20.546 Z-12.661 I0.612 J-1.339 F150
G1 X15.601 Y17.837 Z-12.752
G3 X18.537 Y18 Z-12.9 I1.463 J0.163
X17.463 Y18 I-0.537 J0 F300
X18.537 Y18 I0.537 J0
G2 X18.897 Y18.741 I0.944 J0
G3 X18.817 Y19.561 I-0.303 J0.384
X16.27 Y18 I-0.799 J-1.555
X19.666 Y17.411 I1.749 J0
G1 X19.709 Y17.516
X19.754 Y17.62
G3 X19.754 Y18.38 I-0.916 J0.38
G1 X19.709 Y18.484
X19.666 Y18.589
G3 X18.817 Y19.561 I-1.648 J-0.583
G2 X17.77 Y21.111 I0.889 J1.729
G3 X16.152 Y22.048 I-1.142 J-0.106
X19.848 Y13.952 I1.848 J-4.048
X22.196 Y16.517 I-1.848 J4.048
G2 X23.657 Y17.55 I1.461 J-0.517
G1 X26.45
Y18.45
X23.657
G2 X22.196 Y19.483 I0 J1.55
G3 X16.152 Y22.048 I-4.196 J-1.483
X15.3 Y20.546 Z-12.961 I0.612 J-1.339 F150
G1 X15.601 Y17.837 Z-13.052
G3 X18.537 Y18 Z-13.2 I1.463 J0.163
X17.463 Y18 I-0.537 J0 F300
X18.537 Y18 I0.537 J0
G2 X18.897 Y18.741 I0.944 J0
G3 X18.817 Y19.561 I-0.303 J0.384
X16.27 Y18 I-0.799 J-1.555
X19.666 Y17.411 I1.749 J0
G1 X19.709 Y17.516
X19.754 Y17.62
G3 X19.754 Y18.38 I-0.916 J0.38
G1 X19.709 Y18.484
X19.666 Y18.589
G3 X18.817 Y19.561 I-1.648 J-0.583
G2 X17.77 Y21.111 I0.889 J1.729
G3 X16.152 Y22.048 I-1.142 J-0.106
X19.848 Y13.952 I1.848 J-4.048
X22.196 Y16.517 I-1.848 J4.048
G2 X23.657 Y17.55 I1.461 J-0.517
G1 X26.45
Y18.45
X23.657
G2 X22.196 Y19.483 I0 J1.55
G3 X16.152 Y22.048 I-4.196 J-1.483
X15.3 Y20.546 Z-13.261 I0.612 J-1.339 F150
G1 X15.601 Y17.837 Z-13.352
G3 X18.537 Y18 Z-13.5 I1.463 J0.163
X17.463 Y18 I-0.537 J0 F300
X18.537 Y18 I0.537 J0
G2 X18.897 Y18.741 I0.944 J0
G3 X18.817 Y19.561 I-0.303 J0.384
X16.27 Y18 I-0.799 J-1.555
X19.666 Y17.411 I1.749 J0
G1 X19.709 Y17.516
X19.754 Y17.62
G3 X19.754 Y18.38 I-0.916 J0.38
G1 X19.709 Y18.484
X19.666 Y18.589
G3 X18.817 Y19.561 I-1.648 J-0.583
G2 X17.77 Y21.111 I0.889 J1.729
G3 X16.152 Y22.048 I-1.142 J-0.106
X19.848 Y13.952 I1.848 J-4.048
X22.196 Y16.517 I-1.848 J4.048
G2 X23.657 Y17.55 I1.461 J-0.517
G1 X26.45
Y18.45
X23.657
G2 X22.196 Y19.483 I0 J1.55
G3 X16.152 Y22.048 I-4.196 J-1.483
X15.3 Y20.546 Z-13.561 I0.612 J-1.339 F150
G1 X15.601 Y17.837 Z-13.652
G3 X18.537 Y18 Z-13.8 I1.463 J0.163
X17.463 Y18 I-0.537 J0 F300
X18.537 Y18 I0.537 J0
G2 X18.897 Y18.741 I0.944 J0
G3 X18.817 Y19.561 I-0.303 J0.384
X16.27 Y18 I-0.799 J-1.555
X19.666 Y17.411 I1.749 J0
G1 X19.709 Y17.516
X19.754 Y17.62
G3 X19.754 Y18.38 I-0.916 J0.38
G1 X19.709 Y18.484
X19.666 Y18.589
G3 X18.817 Y19.561 I-1.648 J-0.583
G2 X17.77 Y21.111 I0.889 J1.729
G3 X16.152 Y22.048 I-1.142 J-0.106
X19.848 Y13.952 I1.848 J-4.048
X22.196 Y16.517 I-1.848 J4.048
G2 X23.657 Y17.55 I1.461 J-0.517
G1 X26.45
Y18.45
X23.657
G2 X22.196 Y19.483 I0 J1.55
G3 X16.152 Y22.048 I-4.196 J-1.483
X15.3 Y20.546 Z-13.841 I0.612 J-1.339 F150
G1 X15.601 Y17.837 Z-13.901
G3 X18.537 Y18 Z-14 I1.463 J0.163
X17.463 Y18 I-0.537 J0 F300
X18.537 Y18 I0.537 J0
G2 X18.897 Y18.741 I0.944 J0
G3 X18.817 Y19.561 I-0.303 J0.384
X16.27 Y18 I-0.799 J-1.555
X19.666 Y17.411 I1.749 J0
G1 X19.709 Y17.516
X19.754 Y17.62
G3 X19.754 Y18.38 I-0.916 J0.38
G1 X19.709 Y18.484
X19.666 Y18.589
G3 X18.817 Y19.561 I-1.648 J-0.583
G2 X17.77 Y21.111 I0.889 J1.729
G3 X16.152 Y22.048 I-1.142 J-0.106
X19.848 Y13.952 I1.848 J-4.048
X22.196 Y16.517 I-1.848 J4.048
G2 X23.657 Y17.55 I1.461 J-0.517
G1 X26.45
Y18.45
X23.657
G2 X22.196 Y19.483 I0 J1.55
G3 X16.152 Y22.048 I-4.196 J-1.483
G1 X16.1 Y22.018 Z-13.988
X16.056 Y21.98 Z-13.976
X16.024 Y21.94 Z-13.943
X15.999 Y21.897 Z-13.909
X15.978 Y21.833 Z-13.809
X15.974 Y21.81 Z-13.69
Z10
(When using Fusion 360 for Personal Use, the feedrate of)
(rapid moves is reduced to match the feedrate of cutting)
(moves, which can increase machining time. Unrestricted rapid)
(moves are available with a Fusion 360 Subscription.)


(Drill1)
T3
S24000 M3
G54
M8
G0 X27 Y27
Z10
Z5
G1 Z0 F150
Z-0.5
X27.007 Y27.025 F300
X27.025 Y27.043
X27.05 Y27.05
X27.075 Y27.043
X27.093 Y27.025
X27.1 Y27
G2 X26.9 Y27 I-0.1 J0
X27.1 Y27 I0.1 J0
G1 X27
Z-1 F150
X27.007 Y27.025 F300
X27.025 Y27.043
X27.05 Y27.05
X27.075 Y27.043
X27.093 Y27.025
X27.1 Y27
G2 X26.9 Y27 I-0.1 J0
X27.1 Y27 I0.1 J0
G1 X27
Z-1.5 F150
X27.007 Y27.025 F300
X27.025 Y27.043
X27.05 Y27.05
X27.075 Y27.043
X27.093 Y27.025
X27.1 Y27
G2 X26.9 Y27 I-0.1 J0
X27.1 Y27 I0.1 J0
G1 X27
Z-2 F150
X27.007 Y27.025 F300
X27.025 Y27.043
X27.05 Y27.05
X27.075 Y27.043
X27.093 Y27.025
X27.1 Y27
G2 X26.9 Y27 I-0.1 J0
X27.1 Y27 I0.1 J0
G1 X27
Z-2.5 F150
X27.007 Y27.025 F300
X27.025 Y27.043
X27.05 Y27.05
X27.075 Y27.043
X27.093 Y27.025
X27.1 Y27
G2 X26.9 Y27 I-0.1 J0
X27.1 Y27 I0.1 J0
G1 X27
Z-3 F150
X27.007 Y27.025 F300
X27.025 Y27.043
X27.05 Y27.05
X27.075 Y27.043
X27.093 Y27.025
X27.1 Y27
G2 X26.9 Y27 I-0.1 J0
X27.1 Y27 I0.1 J0
G1 X27
Z-3.5 F150
X27.007 Y27.025 F300
X27.025 Y27.043
X27.05 Y27.05
X27.075 Y27.043
X27.093 Y27.025
X27.1 Y27
G2 X26.9 Y27 I-0.1 J0
X27.1 Y27 I0.1 J0
G1 X27
Z-4 F150
X27.007 Y27.025 F300
X27.025 Y27.043
X27.05 Y27.05
X27.075 Y27.043
X27.093 Y27.025
X27.1 Y27
G2 X26.9 Y27 I-0.1 J0
X27.1 Y27 I0.1 J0
G1 X27
Z-4.5 F150
X27.007 Y27.025 F300
X27.025 Y27.043
X27.05 Y27.05
X27.075 Y27.043
X27.093 Y27.025
X27.1 Y27
G2 X26.9 Y27 I-0.1 J0
X27.1 Y27 I0.1 J0
G1 X27
Z-5 F150
X27.007 Y27.025 F300
X27.025 Y27.043
X27.05 Y27.05
X27.075 Y27.043
X27.093 Y27.025
X27.1 Y27
G2 X26.9 Y27 I-0.1 J0
X27.1 Y27 I0.1 J0
G1 X27
Z-5.5 F150
X27.007 Y27.025 F300
X27.025 Y27.043
X27.05 Y27.05
X27.075 Y27.043
X27.093 Y27.025
X27.1 Y27
G2 X26.9 Y27 I-0.1 J0
X27.1 Y27 I0.1 J0
G1 X27
Z-6 F150
X27.007 Y27.025 F300
X27.025 Y27.043
X27.05 Y27.05
X27.075 Y27.043
X27.093 Y27.025
X27.1 Y27
G2 X26.9 Y27 I-0.1 J0
X27.1 Y27 I0.1 J0
G1 X27
Z-6.5 F150
X27.007 Y27.025 F300
X27.025 Y27.043
X27.05 Y27.05
X27.075 Y27.043
X27.093 Y27.025
X27.1 Y27
G2 X26.9 Y27 I-0.1 J0
X27.1 Y27 I0.1 J0
G1 X27
Z-7 F150
X27.007 Y27.025 F300
X27.025 Y27.043
X27.05 Y27.05
X27.075 Y27.043
X27.093 Y27.025
X27.1 Y27
G2 X26.9 Y27 I-0.1 J0
X27.1 Y27 I0.1 J0
G1 X27
Z-7.5 F150
X27.007 Y27.025 F300
X27.025 Y27.043
X27.05 Y27.05
X27.075 Y27.043
X27.093 Y27.025
X27.1 Y27
G2 X26.9 Y27 I-0.1 J0
X27.1 Y27 I0.1 J0
G1 X27
Z-8 F150
X27.007 Y27.025 F300
X27.025 Y27.043
X27.05 Y27.05
X27.075 Y27.043
X27.093 Y27.025
X27.1 Y27
G2 X26.9 Y27 I-0.1 J0
X27.1 Y27 I0.1 J0
G1 X27
Z-8.5 F150
X27.007 Y27.025 F300
X27.025 Y27.043
X27.05 Y27.05
X27.075 Y27.043
X27.093 Y27.025
X27.1 Y27
G2 X26.9 Y27 I-0.1 J0
X27.1 Y27 I0.1 J0
G1 X27
Z-9 F150
X27.007 Y27.025 F300
X27.025 Y27.043
X27.05 Y27.05
X27.075 Y27.043
X27.093 Y27.025
X27.1 Y27
G2 X26.9 Y27 I-0.1 J0
X27.1 Y27 I0.1 J0
G1 X27
Z-9.5 F150
X27.007 Y27.025 F300
X27.025 Y27.043
X27.05 Y27.05
X27.075 Y27.043
X27.093 Y27.025
X27.1 Y27
G2 X26.9 Y27 I-0.1 J0
X27.1 Y27 I0.1 J0
G1 X27
Z-10 F150
X27.007 Y27.025 F300
X27.025 Y27.043
X27.05 Y27.05
X27.075 Y27.043
X27.093 Y27.025
X27.1 Y27
G2 X26.9 Y27 I-0.1 J0
X27.1 Y27 I0.1 J0
G1 X27
Z-10.5 F150
X27.007 Y27.025 F300
X27.025 Y27.043
X27.05 Y27.05
X27.075 Y27.043
X27.093 Y27.025
X27.1 Y27
G2 X26.9 Y27 I-0.1 J0
X27.1 Y27 I0.1 J0
G1 X27
Z-11 F150
X27.007 Y27.025 F300
X27.025 Y27.043
X27.05 Y27.05
X27.075 Y27.043
X27.093 Y27.025
X27.1 Y27
G2 X26.9 Y27 I-0.1 J0
X27.1 Y27 I0.1 J0
G1 X27
Z-11.5 F150
X27.007 Y27.025 F300
X27.025 Y27.043
X27.05 Y27.05
X27.075 Y27.043
X27.093 Y27.025
X27.1 Y27
G2 X26.9 Y27 I-0.1 J0
X27.1 Y27 I0.1 J0
G1 X27
Z-12 F150
X27.007 Y27.025 F300
X27.025 Y27.043
X27.05 Y27.05
X27.075 Y27.043
X27.093 Y27.025
X27.1 Y27
G2 X26.9 Y27 I-0.1 J0
X27.1 Y27 I0.1 J0
G1 X27
Z-12.5 F150
X27.007 Y27.025 F300
X27.025 Y27.043
X27.05 Y27.05
X27.075 Y27.043
X27.093 Y27.025
X27.1 Y27
G2 X26.9 Y27 I-0.1 J0
X27.1 Y27 I0.1 J0
G1 X27
Z-13 F150
X27.007 Y27.025 F300
X27.025 Y27.043
X27.05 Y27.05
X27.075 Y27.043
X27.093 Y27.025
X27.1 Y27
G2 X26.9 Y27 I-0.1 J0
X27.1 Y27 I0.1 J0
G1 X27
Z-13.5 F150
X27.007 Y27.025 F300
X27.025 Y27.043
X27.05 Y27.05
X27.075 Y27.043
X27.093 Y27.025
X27.1 Y27
G2 X26.9 Y27 I-0.1 J0
X27.1 Y27 I0.1 J0
G1 X27
Z-14 F150
X27.007 Y27.025 F300
X27.025 Y27.043
X27.05 Y27.05
X27.075 Y27.043
X27.093 Y27.025
X27.1 Y27
G2 X26.9 Y27 I-0.1 J0
X27.1 Y27 I0.1 J0
G1 X27
G0 Z5
X9
G1 Z0 F150
Z-0.5
X9.007 Y27.025 F300
X9.025 Y27.043
X9.05 Y27.05
X9.075 Y27.043
X9.093 Y27.025
X9.1 Y27
G2 X8.9 Y27 I-0.1 J0
X9.1 Y27 I0.1 J0
G1 X9
Z-1 F150
X9.007 Y27.025 F300
X9.025 Y27.043
X9.05 Y27.05
X9.075 Y27.043
X9.093 Y27.025
X9.1 Y27
G2 X8.9 Y27 I-0.1 J0
X9.1 Y27 I0.1 J0
G1 X9
Z-1.5 F150
X9.007 Y27.025 F300
X9.025 Y27.043
X9.05 Y27.05
X9.075 Y27.043
X9.093 Y27.025
X9.1 Y27
G2 X8.9 Y27 I-0.1 J0
X9.1 Y27 I0.1 J0
G1 X9
Z-2 F150
X9.007 Y27.025 F300
X9.025 Y27.043
X9.05 Y27.05
X9.075 Y27.043
X9.093 Y27.025
X9.1 Y27
G2 X8.9 Y27 I-0.1 J0
X9.1 Y27 I0.1 J0
G1 X9
Z-2.5 F150
X9.007 Y27.025 F300
X9.025 Y27.043
X9.05 Y27.05
X9.075 Y27.043
X9.093 Y27.025
X9.1 Y27
G2 X8.9 Y27 I-0.1 J0
X9.1 Y27 I0.1 J0
G1 X9
Z-3 F150
X9.007 Y27.025 F300
X9.025 Y27.043
X9.05 Y27.05
X9.075 Y27.043
X9.093 Y27.025
X9.1 Y27
G2 X8.9 Y27 I-0.1 J0
X9.1 Y27 I0.1 J0
G1 X9
Z-3.5 F150
X9.007 Y27.025 F300
X9.025 Y27.043
X9.05 Y27.05
X9.075 Y27.043
X9.093 Y27.025
X9.1 Y27
G2 X8.9 Y27 I-0.1 J0
X9.1 Y27 I0.1 J0
G1 X9
Z-4 F150
X9.007 Y27.025 F300
X9.025 Y27.043
X9.05 Y27.05
X9.075 Y27.043
X9.093 Y27.025
X9.1 Y27
G2 X8.9 Y27 I-0.1 J0
X9.1 Y27 I0.1 J0
G1 X9
Z-4.5 F150
X9.007 Y27.025 F300
X9.025 Y27.043
X9.05 Y27.05
X9.075 Y27.043
X9.093 Y27.025
X9.1 Y27
G2 X8.9 Y27 I-0.1 J0
X9.1 Y27 I0.1 J0
G1 X9
Z-5 F150
X9.007 Y27.025 F300
X9.025 Y27.043
X9.05 Y27.05
X9.075 Y27.043
X9.093 Y27.025
X9.1 Y27
G2 X8.9 Y27 I-0.1 J0
X9.1 Y27 I0.1 J0
G1 X9
Z-5.5 F150
X9.007 Y27.025 F300
X9.025 Y27.043
X9.05 Y27.05
X9.075 Y27.043
X9.093 Y27.025
X9.1 Y27
G2 X8.9 Y27 I-0.1 J0
X9.1 Y27 I0.1 J0
G1 X9
Z-6 F150
X9.007 Y27.025 F300
X9.025 Y27.043
X9.05 Y27.05
X9.075 Y27.043
X9.093 Y27.025
X9.1 Y27
G2 X8.9 Y27 I-0.1 J0
X9.1 Y27 I0.1 J0
G1 X9
Z-6.5 F150
X9.007 Y27.025 F300
X9.025 Y27.043
X9.05 Y27.05
X9.075 Y27.043
X9.093 Y27.025
X9.1 Y27
G2 X8.9 Y27 I-0.1 J0
X9.1 Y27 I0.1 J0
G1 X9
Z-7 F150
X9.007 Y27.025 F300
X9.025 Y27.043
X9.05 Y27.05
X9.075 Y27.043
X9.093 Y27.025
X9.1 Y27
G2 X8.9 Y27 I-0.1 J0
X9.1 Y27 I0.1 J0
G1 X9
Z-7.5 F150
X9.007 Y27.025 F300
X9.025 Y27.043
X9.05 Y27.05
X9.075 Y27.043
X9.093 Y27.025
X9.1 Y27
G2 X8.9 Y27 I-0.1 J0
X9.1 Y27 I0.1 J0
G1 X9
Z-8 F150
X9.007 Y27.025 F300
X9.025 Y27.043
X9.05 Y27.05
X9.075 Y27.043
X9.093 Y27.025
X9.1 Y27
G2 X8.9 Y27 I-0.1 J0
X9.1 Y27 I0.1 J0
G1 X9
Z-8.5 F150
X9.007 Y27.025 F300
X9.025 Y27.043
X9.05 Y27.05
X9.075 Y27.043
X9.093 Y27.025
X9.1 Y27
G2 X8.9 Y27 I-0.1 J0
X9.1 Y27 I0.1 J0
G1 X9
Z-9 F150
X9.007 Y27.025 F300
X9.025 Y27.043
X9.05 Y27.05
X9.075 Y27.043
X9.093 Y27.025
X9.1 Y27
G2 X8.9 Y27 I-0.1 J0
X9.1 Y27 I0.1 J0
G1 X9
Z-9.5 F150
X9.007 Y27.025 F300
X9.025 Y27.043
X9.05 Y27.05
X9.075 Y27.043
X9.093 Y27.025
X9.1 Y27
G2 X8.9 Y27 I-0.1 J0
X9.1 Y27 I0.1 J0
G1 X9
Z-10 F150
X9.007 Y27.025 F300
X9.025 Y27.043
X9.05 Y27.05
X9.075 Y27.043
X9.093 Y27.025
X9.1 Y27
G2 X8.9 Y27 I-0.1 J0
X9.1 Y27 I0.1 J0
G1 X9
Z-10.5 F150
X9.007 Y27.025 F300
X9.025 Y27.043
X9.05 Y27.05
X9.075 Y27.043
X9.093 Y27.025
X9.1 Y27
G2 X8.9 Y27 I-0.1 J0
X9.1 Y27 I0.1 J0
G1 X9
Z-11 F150
X9.007 Y27.025 F300
X9.025 Y27.043
X9.05 Y27.05
X9.075 Y27.043
X9.093 Y27.025
X9.1 Y27
G2 X8.9 Y27 I-0.1 J0
X9.1 Y27 I0.1 J0
G1 X9
Z-11.5 F150
X9.007 Y27.025 F300
X9.025 Y27.043
X9.05 Y27.05
X9.075 Y27.043
X9.093 Y27.025
X9.1 Y27
G2 X8.9 Y27 I-0.1 J0
X9.1 Y27 I0.1 J0
G1 X9
Z-12 F150
X9.007 Y27.025 F300
X9.025 Y27.043
X9.05 Y27.05
X9.075 Y27.043
X9.093 Y27.025
X9.1 Y27
G2 X8.9 Y27 I-0.1 J0
X9.1 Y27 I0.1 J0
G1 X9
Z-12.5 F150
X9.007 Y27.025 F300
X9.025 Y27.043
X9.05 Y27.05
X9.075 Y27.043
X9.093 Y27.025
X9.1 Y27
G2 X8.9 Y27 I-0.1 J0
X9.1 Y27 I0.1 J0
G1 X9
Z-13 F150
X9.007 Y27.025 F300
X9.025 Y27.043
X9.05 Y27.05
X9.075 Y27.043
X9.093 Y27.025
X9.1 Y27
G2 X8.9 Y27 I-0.1 J0
X9.1 Y27 I0.1 J0
G1 X9
Z-13.5 F150
X9.007 Y27.025 F300
X9.025 Y27.043
X9.05 Y27.05
X9.075 Y27.043
X9.093 Y27.025
X9.1 Y27
G2 X8.9 Y27 I-0.1 J0
X9.1 Y27 I0.1 J0
G1 X9
Z-14 F150
X9.007 Y27.025 F300
X9.025 Y27.043
X9.05 Y27.05
X9.075 Y27.043
X9.093 Y27.025
X9.1 Y27
G2 X8.9 Y27 I-0.1 J0
X9.1 Y27 I0.1 J0
G1 X9
G0 Z5
Y9
G1 Z0 F150
Z-0.5
X9.007 Y9.025 F300
X9.025 Y9.043
X9.05 Y9.05
X9.075 Y9.043
X9.093 Y9.025
X9.1 Y9
G2 X8.9 Y9 I-0.1 J0
X9.1 Y9 I0.1 J0
G1 X9
Z-1 F150
X9.007 Y9.025 F300
X9.025 Y9.043
X9.05 Y9.05
X9.075 Y9.043
X9.093 Y9.025
X9.1 Y9
G2 X8.9 Y9 I-0.1 J0
X9.1 Y9 I0.1 J0
G1 X9
Z-1.5 F150
X9.007 Y9.025 F300
X9.025 Y9.043
X9.05 Y9.05
X9.075 Y9.043
X9.093 Y9.025
X9.1 Y9
G2 X8.9 Y9 I-0.1 J0
X9.1 Y9 I0.1 J0
G1 X9
Z-2 F150
X9.007 Y9.025 F300
X9.025 Y9.043
X9.05 Y9.05
X9.075 Y9.043
X9.093 Y9.025
X9.1 Y9
G2 X8.9 Y9 I-0.1 J0
X9.1 Y9 I0.1 J0
G1 X9
Z-2.5 F150
X9.007 Y9.025 F300
X9.025 Y9.043
X9.05 Y9.05
X9.075 Y9.043
X9.093 Y9.025
X9.1 Y9
G2 X8.9 Y9 I-0.1 J0
X9.1 Y9 I0.1 J0
G1 X9
Z-3 F150
X9.007 Y9.025 F300
X9.025 Y9.043
X9.05 Y9.05
X9.075 Y9.043
X9.093 Y9.025
X9.1 Y9
G2 X8.9 Y9 I-0.1 J0
X9.1 Y9 I0.1 J0
G1 X9
Z-3.5 F150
X9.007 Y9.025 F300
X9.025 Y9.043
X9.05 Y9.05
X9.075 Y9.043
X9.093 Y9.025
X9.1 Y9
G2 X8.9 Y9 I-0.1 J0
X9.1 Y9 I0.1 J0
G1 X9
Z-4 F150
X9.007 Y9.025 F300
X9.025 Y9.043
X9.05 Y9.05
X9.075 Y9.043
X9.093 Y9.025
X9.1 Y9
G2 X8.9 Y9 I-0.1 J0
X9.1 Y9 I0.1 J0
G1 X9
Z-4.5 F150
X9.007 Y9.025 F300
X9.025 Y9.043
X9.05 Y9.05
X9.075 Y9.043
X9.093 Y9.025
X9.1 Y9
G2 X8.9 Y9 I-0.1 J0
X9.1 Y9 I0.1 J0
G1 X9
Z-5 F150
X9.007 Y9.025 F300
X9.025 Y9.043
X9.05 Y9.05
X9.075 Y9.043
X9.093 Y9.025
X9.1 Y9
G2 X8.9 Y9 I-0.1 J0
X9.1 Y9 I0.1 J0
G1 X9
Z-5.5 F150
X9.007 Y9.025 F300
X9.025 Y9.043
X9.05 Y9.05
X9.075 Y9.043
X9.093 Y9.025
X9.1 Y9
G2 X8.9 Y9 I-0.1 J0
X9.1 Y9 I0.1 J0
G1 X9
Z-6 F150
X9.007 Y9.025 F300
X9.025 Y9.043
X9.05 Y9.05
X9.075 Y9.043
X9.093 Y9.025
X9.1 Y9
G2 X8.9 Y9 I-0.1 J0
X9.1 Y9 I0.1 J0
G1 X9
Z-6.5 F150
X9.007 Y9.025 F300
X9.025 Y9.043
X9.05 Y9.05
X9.075 Y9.043
X9.093 Y9.025
X9.1 Y9
G2 X8.9 Y9 I-0.1 J0
X9.1 Y9 I0.1 J0
G1 X9
Z-7 F150
X9.007 Y9.025 F300
X9.025 Y9.043
X9.05 Y9.05
X9.075 Y9.043
X9.093 Y9.025
X9.1 Y9
G2 X8.9 Y9 I-0.1 J0
X9.1 Y9 I0.1 J0
G1 X9
Z-7.5 F150
X9.007 Y9.025 F300
X9.025 Y9.043
X9.05 Y9.05
X9.075 Y9.043
X9.093 Y9.025
X9.1 Y9
G2 X8.9 Y9 I-0.1 J0
X9.1 Y9 I0.1 J0
G1 X9
Z-8 F150
X9.007 Y9.025 F300
X9.025 Y9.043
X9.05 Y9.05
X9.075 Y9.043
X9.093 Y9.025
X9.1 Y9
G2 X8.9 Y9 I-0.1 J0
X9.1 Y9 I0.1 J0
G1 X9
Z-8.5 F150
X9.007 Y9.025 F300
X9.025 Y9.043
X9.05 Y9.05
X9.075 Y9.043
X9.093 Y9.025
X9.1 Y9
G2 X8.9 Y9 I-0.1 J0
X9.1 Y9 I0.1 J0
G1 X9
Z-9 F150
X9.007 Y9.025 F300
X9.025 Y9.043
X9.05 Y9.05
X9.075 Y9.043
X9.093 Y9.025
X9.1 Y9
G2 X8.9 Y9 I-0.1 J0
X9.1 Y9 I0.1 J0
G1 X9
Z-9.5 F150
X9.007 Y9.025 F300
X9.025 Y9.043
X9.05 Y9.05
X9.075 Y9.043
X9.093 Y9.025
X9.1 Y9
G2 X8.9 Y9 I-0.1 J0
X9.1 Y9 I0.1 J0
G1 X9
Z-10 F150
X9.007 Y9.025 F300
X9.025 Y9.043
X9.05 Y9.05
X9.075 Y9.043
X9.093 Y9.025
X9.1 Y9
G2 X8.9 Y9 I-0.1 J0
X9.1 Y9 I0.1 J0
G1 X9
Z-10.5 F150
X9.007 Y9.025 F300
X9.025 Y9.043
X9.05 Y9.05
X9.075 Y9.043
X9.093 Y9.025
X9.1 Y9
G2 X8.9 Y9 I-0.1 J0
X9.1 Y9 I0.1 J0
G1 X9
Z-11 F150
X9.007 Y9.025 F300
X9.025 Y9.043
X9.05 Y9.05
X9.075 Y9.043
X9.093 Y9.025
X9.1 Y9
G2 X8.9 Y9 I-0.1 J0
X9.1 Y9 I0.1 J0
G1 X9
Z-11.5 F150
X9.007 Y9.025 F300
X9.025 Y9.043
X9.05 Y9.05
X9.075 Y9.043
X9.093 Y9.025
X9.1 Y9
G2 X8.9 Y9 I-0.1 J0
X9.1 Y9 I0.1 J0
G1 X9
Z-12 F150
X9.007 Y9.025 F300
X9.025 Y9.043
X9.05 Y9.05
X9.075 Y9.043
X9.093 Y9.025
X9.1 Y9
G2 X8.9 Y9 I-0.1 J0
X9.1 Y9 I0.1 J0
G1 X9
Z-12.5 F150
X9.007 Y9.025 F300
X9.025 Y9.043
X9.05 Y9.05
X9.075 Y9.043
X9.093 Y9.025
X9.1 Y9
G2 X8.9 Y9 I-0.1 J0
X9.1 Y9 I0.1 J0
G1 X9
Z-13 F150
X9.007 Y9.025 F300
X9.025 Y9.043
X9.05 Y9.05
X9.075 Y9.043
X9.093 Y9.025
X9.1 Y9
G2 X8.9 Y9 I-0.1 J0
X9.1 Y9 I0.1 J0
G1 X9
Z-13.5 F150
X9.007 Y9.025 F300
X9.025 Y9.043
X9.05 Y9.05
X9.075 Y9.043
X9.093 Y9.025
X9.1 Y9
G2 X8.9 Y9 I-0.1 J0
X9.1 Y9 I0.1 J0
G1 X9
Z-14 F150
X9.007 Y9.025 F300
X9.025 Y9.043
X9.05 Y9.05
X9.075 Y9.043
X9.093 Y9.025
X9.1 Y9
G2 X8.9 Y9 I-0.1 J0
X9.1 Y9 I0.1 J0
G1 X9
G0 Z5
X27
G1 Z0 F150
Z-0.5
X27.007 Y9.025 F300
X27.025 Y9.043
X27.05 Y9.05
X27.075 Y9.043
X27.093 Y9.025
X27.1 Y9
G2 X26.9 Y9 I-0.1 J0
X27.1 Y9 I0.1 J0
G1 X27
Z-1 F150
X27.007 Y9.025 F300
X27.025 Y9.043
X27.05 Y9.05
X27.075 Y9.043
X27.093 Y9.025
X27.1 Y9
G2 X26.9 Y9 I-0.1 J0
X27.1 Y9 I0.1 J0
G1 X27
Z-1.5 F150
X27.007 Y9.025 F300
X27.025 Y9.043
X27.05 Y9.05
X27.075 Y9.043
X27.093 Y9.025
X27.1 Y9
G2 X26.9 Y9 I-0.1 J0
X27.1 Y9 I0.1 J0
G1 X27
Z-2 F150
X27.007 Y9.025 F300
X27.025 Y9.043
X27.05 Y9.05
X27.075 Y9.043
X27.093 Y9.025
X27.1 Y9
G2 X26.9 Y9 I-0.1 J0
X27.1 Y9 I0.1 J0
G1 X27
Z-2.5 F150
X27.007 Y9.025 F300
X27.025 Y9.043
X27.05 Y9.05
X27.075 Y9.043
X27.093 Y9.025
X27.1 Y9
G2 X26.9 Y9 I-0.1 J0
X27.1 Y9 I0.1 J0
G1 X27
Z-3 F150
X27.007 Y9.025 F300
X27.025 Y9.043
X27.05 Y9.05
X27.075 Y9.043
X27.093 Y9.025
X27.1 Y9
G2 X26.9 Y9 I-0.1 J0
X27.1 Y9 I0.1 J0
G1 X27
Z-3.5 F150
X27.007 Y9.025 F300
X27.025 Y9.043
X27.05 Y9.05
X27.075 Y9.043
X27.093 Y9.025
X27.1 Y9
G2 X26.9 Y9 I-0.1 J0
X27.1 Y9 I0.1 J0
G1 X27
Z-4 F150
X27.007 Y9.025 F300
X27.025 Y9.043
X27.05 Y9.05
X27.075 Y9.043
X27.093 Y9.025
X27.1 Y9
G2 X26.9 Y9 I-0.1 J0
X27.1 Y9 I0.1 J0
G1 X27
Z-4.5 F150
X27.007 Y9.025 F300
X27.025 Y9.043
X27.05 Y9.05
X27.075 Y9.043
X27.093 Y9.025
X27.1 Y9
G2 X26.9 Y9 I-0.1 J0
X27.1 Y9 I0.1 J0
G1 X27
Z-5 F150
X27.007 Y9.025 F300
X27.025 Y9.043
X27.05 Y9.05
X27.075 Y9.043
X27.093 Y9.025
X27.1 Y9
G2 X26.9 Y9 I-0.1 J0
X27.1 Y9 I0.1 J0
G1 X27
Z-5.5 F150
X27.007 Y9.025 F300
X27.025 Y9.043
X27.05 Y9.05
X27.075 Y9.043
X27.093 Y9.025
X27.1 Y9
G2 X26.9 Y9 I-0.1 J0
X27.1 Y9 I0.1 J0
G1 X27
Z-6 F150
X27.007 Y9.025 F300
X27.025 Y9.043
X27.05 Y9.05
X27.075 Y9.043
X27.093 Y9.025
X27.1 Y9
G2 X26.9 Y9 I-0.1 J0
X27.1 Y9 I0.1 J0
G1 X27
Z-6.5 F150
X27.007 Y9.025 F300
X27.025 Y9.043
X27.05 Y9.05
X27.075 Y9.043
X27.093 Y9.025
X27.1 Y9
G2 X26.9 Y9 I-0.1 J0
X27.1 Y9 I0.1 J0
G1 X27
Z-7 F150
X27.007 Y9.025 F300
X27.025 Y9.043
X27.05 Y9.05
X27.075 Y9.043
X27.093 Y9.025
X27.1 Y9
G2 X26.9 Y9 I-0.1 J0
X27.1 Y9 I0.1 J0
G1 X27
Z-7.5 F150
X27.007 Y9.025 F300
X27.025 Y9.043
X27.05 Y9.05
X27.075 Y9.043
X27.093 Y9.025
X27.1 Y9
G2 X26.9 Y9 I-0.1 J0
X27.1 Y9 I0.1 J0
G1 X27
Z-8 F150
X27.007 Y9.025 F300
X27.025 Y9.043
X27.05 Y9.05
X27.075 Y9.043
X27.093 Y9.025
X27.1 Y9
G2 X26.9 Y9 I-0.1 J0
X27.1 Y9 I0.1 J0
G1 X27
Z-8.5 F150
X27.007 Y9.025 F300
X27.025 Y9.043
X27.05 Y9.05
X27.075 Y9.043
X27.093 Y9.025
X27.1 Y9
G2 X26.9 Y9 I-0.1 J0
X27.1 Y9 I0.1 J0
G1 X27
Z-9 F150
X27.007 Y9.025 F300
X27.025 Y9.043
X27.05 Y9.05
X27.075 Y9.043
X27.093 Y9.025
X27.1 Y9
G2 X26.9 Y9 I-0.1 J0
X27.1 Y9 I0.1 J0
G1 X27
Z-9.5 F150
X27.007 Y9.025 F300
X27.025 Y9.043
X27.05 Y9.05
X27.075 Y9.043
X27.093 Y9.025
X27.1 Y9
G2 X26.9 Y9 I-0.1 J0
X27.1 Y9 I0.1 J0
G1 X27
Z-10 F150
X27.007 Y9.025 F300
X27.025 Y9.043
X27.05 Y9.05
X27.075 Y9.043
X27.093 Y9.025
X27.1 Y9
G2 X26.9 Y9 I-0.1 J0
X27.1 Y9 I0.1 J0
G1 X27
Z-10.5 F150
X27.007 Y9.025 F300
X27.025 Y9.043
X27.05 Y9.05
X27.075 Y9.043
X27.093 Y9.025
X27.1 Y9
G2 X26.9 Y9 I-0.1 J0
X27.1 Y9 I0.1 J0
G1 X27
Z-11 F150
X27.007 Y9.025 F300
X27.025 Y9.043
X27.05 Y9.05
X27.075 Y9.043
X27.093 Y9.025
X27.1 Y9
G2 X26.9 Y9 I-0.1 J0
X27.1 Y9 I0.1 J0
G1 X27
Z-11.5 F150
X27.007 Y9.025 F300
X27.025 Y9.043
X27.05 Y9.05
X27.075 Y9.043
X27.093 Y9.025
X27.1 Y9
G2 X26.9 Y9 I-0.1 J0
X27.1 Y9 I0.1 J0
G1 X27
Z-12 F150
X27.007 Y9.025 F300
X27.025 Y9.043
X27.05 Y9.05
X27.075 Y9.043
X27.093 Y9.025
X27.1 Y9
G2 X26.9 Y9 I-0.1 J0
X27.1 Y9 I0.1 J0
G1 X27
Z-12.5 F150
X27.007 Y9.025 F300
X27.025 Y9.043
X27.05 Y9.05
X27.075 Y9.043
X27.093 Y9.025
X27.1 Y9
G2 X26.9 Y9 I-0.1 J0
X27.1 Y9 I0.1 J0
G1 X27
Z-13 F150
X27.007 Y9.025 F300
X27.025 Y9.043
X27.05 Y9.05
X27.075 Y9.043
X27.093 Y9.025
X27.1 Y9
G2 X26.9 Y9 I-0.1 J0
X27.1 Y9 I0.1 J0
G1 X27
Z-13.5 F150
X27.007 Y9.025 F300
X27.025 Y9.043
X27.05 Y9.05
X27.075 Y9.043
X27.093 Y9.025
X27.1 Y9
G2 X26.9 Y9 I-0.1 J0
X27.1 Y9 I0.1 J0
G1 X27
Z-14 F150
X27.007 Y9.025 F300
X27.025 Y9.043
X27.05 Y9.05
X27.075 Y9.043
X27.093 Y9.025
X27.1 Y9
G2 X26.9 Y9 I-0.1 J0
X27.1 Y9 I0.1 J0
G1 X27
G0 Z5
Z10


(2D Contour5)
G0 X17.69 Y37.48
G1 Z10 F300
Z5
Z1.3 F150
Z0.01
G19 G2 Y37.17 Z-0.3 J-0.31 K0
G1 Y36.86
G17 G3 X18 Y36.55 I0.31 J0
G2 X18 Y-0.55 I0 J-18.55 F300
X18 Y36.55 I0 J18.55
G3 X18.31 Y36.86 I0 J0.31
G1 Y37.17
G19 G3 Y37.48 Z0.01 J0 K0.31
G1 Z5
X17.69
Z1 F150
Z-0.29
G2 Y37.17 Z-0.6 J-0.31 K0
G1 Y36.86
G17 G3 X18 Y36.55 I0.31 J0
G2 X18 Y-0.55 I0 J-18.55 F300
X18 Y36.55 I0 J18.55
G3 X18.31 Y36.86 I0 J0.31
G1 Y37.17
G19 G3 Y37.48 Z-0.29 J0 K0.31
G1 Z5
X17.69
Z0.7 F150
Z-0.59
G2 Y37.17 Z-0.9 J-0.31 K0
G1 Y36.86
G17 G3 X18 Y36.55 I0.31 J0
G2 X18 Y-0.55 I0 J-18.55 F300
X18 Y36.55 I0 J18.55
G3 X18.31 Y36.86 I0 J0.31
G1 Y37.17
G19 G3 Y37.48 Z-0.59 J0 K0.31
G1 Z5
X17.69
Z0.4 F150
Z-0.89
G2 Y37.17 Z-1.2 J-0.31 K0
G1 Y36.86
G17 G3 X18 Y36.55 I0.31 J0
G2 X18 Y-0.55 I0 J-18.55 F300
X18 Y36.55 I0 J18.55
G3 X18.31 Y36.86 I0 J0.31
G1 Y37.17
G19 G3 Y37.48 Z-0.89 J0 K0.31
G1 Z5
X17.69
Z0.1 F150
Z-1.19
G2 Y37.17 Z-1.5 J-0.31 K0
G1 Y36.86
G17 G3 X18 Y36.55 I0.31 J0
G2 X18 Y-0.55 I0 J-18.55 F300
X18 Y36.55 I0 J18.55
G3 X18.31 Y36.86 I0 J0.31
G1 Y37.17
G19 G3 Y37.48 Z-1.19 J0 K0.31
G1 Z5
X17.69
Z-0.2 F150
Z-1.49
G2 Y37.17 Z-1.8 J-0.31 K0
G1 Y36.86
G17 G3 X18 Y36.55 I0.31 J0
G2 X18 Y-0.55 I0 J-18.55 F300
X18 Y36.55 I0 J18.55
G3 X18.31 Y36.86 I0 J0.31
G1 Y37.17
G19 G3 Y37.48 Z-1.49 J0 K0.31
G1 Z5
X17.69
Z-0.5 F150
Z-1.79
G2 Y37.17 Z-2.1 J-0.31 K0
G1 Y36.86
G17 G3 X18 Y36.55 I0.31 J0
G2 X18 Y-0.55 I0 J-18.55 F300
X18 Y36.55 I0 J18.55
G3 X18.31 Y36.86 I0 J0.31
G1 Y37.17
G19 G3 Y37.48 Z-1.79 J0 K0.31
G1 Z5
X17.69
Z-0.8 F150
Z-2.09
G2 Y37.17 Z-2.4 J-0.31 K0
G1 Y36.86
G17 G3 X18 Y36.55 I0.31 J0
G2 X18 Y-0.55 I0 J-18.55 F300
X18 Y36.55 I0 J18.55
G3 X18.31 Y36.86 I0 J0.31
G1 Y37.17
G19 G3 Y37.48 Z-2.09 J0 K0.31
G1 Z5
X17.69
Z-1.1 F150
Z-2.39
G2 Y37.17 Z-2.7 J-0.31 K0
G1 Y36.86
G17 G3 X18 Y36.55 I0.31 J0
G2 X18 Y-0.55 I0 J-18.55 F300
X18 Y36.55 I0 J18.55
G3 X18.31 Y36.86 I0 J0.31
G1 Y37.17
G19 G3 Y37.48 Z-2.39 J0 K0.31
G1 Z5
X17.69
Z-1.4 F150
Z-2.69
G2 Y37.17 Z-3 J-0.31 K0
G1 Y36.86
G17 G3 X18 Y36.55 I0.31 J0
G2 X18 Y-0.55 I0 J-18.55 F300
X18 Y36.55 I0 J18.55
G3 X18.31 Y36.86 I0 J0.31
G1 Y37.17
G19 G3 Y37.48 Z-2.69 J0 K0.31
G1 Z5
X17.69
Z-1.7 F150
Z-2.99
G2 Y37.17 Z-3.3 J-0.31 K0
G1 Y36.86
G17 G3 X18 Y36.55 I0.31 J0
G2 X18 Y-0.55 I0 J-18.55 F300
X18 Y36.55 I0 J18.55
G3 X18.31 Y36.86 I0 J0.31
G1 Y37.17
G19 G3 Y37.48 Z-2.99 J0 K0.31
G1 Z5
X17.69
Z-2 F150
Z-3.29
G2 Y37.17 Z-3.6 J-0.31 K0
G1 Y36.86
G17 G3 X18 Y36.55 I0.31 J0
G2 X18 Y-0.55 I0 J-18.55 F300
X18 Y36.55 I0 J18.55
G3 X18.31 Y36.86 I0 J0.31
G1 Y37.17
G19 G3 Y37.48 Z-3.29 J0 K0.31
G1 Z5
X17.69
Z-2.3 F150
Z-3.59
G2 Y37.17 Z-3.9 J-0.31 K0
G1 Y36.86
G17 G3 X18 Y36.55 I0.31 J0
G2 X18 Y-0.55 I0 J-18.55 F300
X18 Y36.55 I0 J18.55
G3 X18.31 Y36.86 I0 J0.31
G1 Y37.17
G19 G3 Y37.48 Z-3.59 J0 K0.31
G1 Z5
X17.69
Z-2.6 F150
Z-3.89
G2 Y37.17 Z-4.2 J-0.31 K0
G1 Y36.86
G17 G3 X18 Y36.55 I0.31 J0
G2 X18 Y-0.55 I0 J-18.55 F300
X18 Y36.55 I0 J18.55
G3 X18.31 Y36.86 I0 J0.31
G1 Y37.17
G19 G3 Y37.48 Z-3.89 J0 K0.31
G1 Z5
X17.69
Z-2.9 F150
Z-4.19
G2 Y37.17 Z-4.5 J-0.31 K0
G1 Y36.86
G17 G3 X18 Y36.55 I0.31 J0
G2 X18 Y-0.55 I0 J-18.55 F300
X18 Y36.55 I0 J18.55
G3 X18.31 Y36.86 I0 J0.31
G1 Y37.17
G19 G3 Y37.48 Z-4.19 J0 K0.31
G1 Z5
X17.69
Z-3.2 F150
Z-4.49
G2 Y37.17 Z-4.8 J-0.31 K0
G1 Y36.86
G17 G3 X18 Y36.55 I0.31 J0
G2 X18 Y-0.55 I0 J-18.55 F300
X18 Y36.55 I0 J18.55
G3 X18.31 Y36.86 I0 J0.31
G1 Y37.17
G19 G3 Y37.48 Z-4.49 J0 K0.31
G1 Z5
X17.69
Z-3.5 F150
Z-4.79
G2 Y37.17 Z-5.1 J-0.31 K0
G1 Y36.86
G17 G3 X18 Y36.55 I0.31 J0
G2 X18 Y-0.55 I0 J-18.55 F300
X18 Y36.55 I0 J18.55
G3 X18.31 Y36.86 I0 J0.31
G1 Y37.17
G19 G3 Y37.48 Z-4.79 J0 K0.31
G1 Z5
X17.69
Z-3.8 F150
Z-5.09
G2 Y37.17 Z-5.4 J-0.31 K0
G1 Y36.86
G17 G3 X18 Y36.55 I0.31 J0
G2 X18 Y-0.55 I0 J-18.55 F300
X18 Y36.55 I0 J18.55
G3 X18.31 Y36.86 I0 J0.31
G1 Y37.17
G19 G3 Y37.48 Z-5.09 J0 K0.31
G1 Z5
X17.69
Z-4.1 F150
Z-5.39
G2 Y37.17 Z-5.7 J-0.31 K0
G1 Y36.86
G17 G3 X18 Y36.55 I0.31 J0
G2 X18 Y-0.55 I0 J-18.55 F300
X18 Y36.55 I0 J18.55
G3 X18.31 Y36.86 I0 J0.31
G1 Y37.17
G19 G3 Y37.48 Z-5.39 J0 K0.31
G1 Z5
X17.69
Z-4.4 F150
Z-5.69
G2 Y37.17 Z-6 J-0.31 K0
G1 Y36.86
G17 G3 X18 Y36.55 I0.31 J0
G2 X18 Y-0.55 I0 J-18.55 F300
X18 Y36.55 I0 J18.55
G3 X18.31 Y36.86 I0 J0.31
G1 Y37.17
G19 G3 Y37.48 Z-5.69 J0 K0.31
G1 Z5
X17.69
Z-4.7 F150
Z-5.99
G2 Y37.17 Z-6.3 J-0.31 K0
G1 Y36.86
G17 G3 X18 Y36.55 I0.31 J0
G2 X18 Y-0.55 I0 J-18.55 F300
X18 Y36.55 I0 J18.55
G3 X18.31 Y36.86 I0 J0.31
G1 Y37.17
G19 G3 Y37.48 Z-5.99 J0 K0.31
G1 Z5
X17.69
Z-5 F150
Z-6.29
G2 Y37.17 Z-6.6 J-0.31 K0
G1 Y36.86
G17 G3 X18 Y36.55 I0.31 J0
G2 X18 Y-0.55 I0 J-18.55 F300
X18 Y36.55 I0 J18.55
G3 X18.31 Y36.86 I0 J0.31
G1 Y37.17
G19 G3 Y37.48 Z-6.29 J0 K0.31
G1 Z5
X17.69
Z-5.3 F150
Z-6.59
G2 Y37.17 Z-6.9 J-0.31 K0
G1 Y36.86
G17 G3 X18 Y36.55 I0.31 J0
G2 X18 Y-0.55 I0 J-18.55 F300
X18 Y36.55 I0 J18.55
G3 X18.31 Y36.86 I0 J0.31
G1 Y37.17
G19 G3 Y37.48 Z-6.59 J0 K0.31
G1 Z5
X17.69
Z-5.6 F150
Z-6.89
G2 Y37.17 Z-7.2 J-0.31 K0
G1 Y36.86
G17 G3 X18 Y36.55 I0.31 J0
G2 X18 Y-0.55 I0 J-18.55 F300
X18 Y36.55 I0 J18.55
G3 X18.31 Y36.86 I0 J0.31
G1 Y37.17
G19 G3 Y37.48 Z-6.89 J0 K0.31
G1 Z5
X17.69
Z-5.9 F150
Z-7.19
G2 Y37.17 Z-7.5 J-0.31 K0
G1 Y36.86
G17 G3 X18 Y36.55 I0.31 J0
G2 X18 Y-0.55 I0 J-18.55 F300
X18 Y36.55 I0 J18.55
G3 X18.31 Y36.86 I0 J0.31
G1 Y37.17
G19 G3 Y37.48 Z-7.19 J0 K0.31
G1 Z5
X17.69
Z-6.2 F150
Z-7.49
G2 Y37.17 Z-7.8 J-0.31 K0
G1 Y36.86
G17 G3 X18 Y36.55 I0.31 J0
G2 X18 Y-0.55 I0 J-18.55 F300
X18 Y36.55 I0 J18.55
G3 X18.31 Y36.86 I0 J0.31
G1 Y37.17
G19 G3 Y37.48 Z-7.49 J0 K0.31
G1 Z5
X17.69
Z-6.5 F150
Z-7.79
G2 Y37.17 Z-8.1 J-0.31 K0
G1 Y36.86
G17 G3 X18 Y36.55 I0.31 J0
G2 X18 Y-0.55 I0 J-18.55 F300
X18 Y36.55 I0 J18.55
G3 X18.31 Y36.86 I0 J0.31
G1 Y37.17
G19 G3 Y37.48 Z-7.79 J0 K0.31
G1 Z5
X17.69
Z-6.8 F150
Z-8.09
G2 Y37.17 Z-8.4 J-0.31 K0
G1 Y36.86
G17 G3 X18 Y36.55 I0.31 J0
G2 X18 Y-0.55 I0 J-18.55 F300
X18 Y36.55 I0 J18.55
G3 X18.31 Y36.86 I0 J0.31
G1 Y37.17
G19 G3 Y37.48 Z-8.09 J0 K0.31
G1 Z5
X17.69
Z-7.1 F150
Z-8.39
G2 Y37.17 Z-8.7 J-0.31 K0
G1 Y36.86
G17 G3 X18 Y36.55 I0.31 J0
G2 X18 Y-0.55 I0 J-18.55 F300
X18 Y36.55 I0 J18.55
G3 X18.31 Y36.86 I0 J0.31
G1 Y37.17
G19 G3 Y37.48 Z-8.39 J0 K0.31
G1 Z5
X17.69
Z-7.4 F150
Z-8.69
G2 Y37.17 Z-9 J-0.31 K0
G1 Y36.86
G17 G3 X18 Y36.55 I0.31 J0
G2 X18 Y-0.55 I0 J-18.55 F300
X18 Y36.55 I0 J18.55
G3 X18.31 Y36.86 I0 J0.31
G1 Y37.17
G19 G3 Y37.48 Z-8.69 J0 K0.31
G1 Z5
X17.69
Z-7.7 F150
Z-8.99
G2 Y37.17 Z-9.3 J-0.31 K0
G1 Y36.86
G17 G3 X18 Y36.55 I0.31 J0
G2 X18 Y-0.55 I0 J-18.55 F300
X18 Y36.55 I0 J18.55
G3 X18.31 Y36.86 I0 J0.31
G1 Y37.17
G19 G3 Y37.48 Z-8.99 J0 K0.31
G1 Z5
X17.69
Z-8 F150
Z-9.29
G2 Y37.17 Z-9.6 J-0.31 K0
G1 Y36.86
G17 G3 X18 Y36.55 I0.31 J0
G2 X18 Y-0.55 I0 J-18.55 F300
X18 Y36.55 I0 J18.55
G3 X18.31 Y36.86 I0 J0.31
G1 Y37.17
G19 G3 Y37.48 Z-9.29 J0 K0.31
G1 Z5
X17.69
Z-8.3 F150
Z-9.59
G2 Y37.17 Z-9.9 J-0.31 K0
G1 Y36.86
G17 G3 X18 Y36.55 I0.31 J0
G2 X18 Y-0.55 I0 J-18.55 F300
X18 Y36.55 I0 J18.55
G3 X18.31 Y36.86 I0 J0.31
G1 Y37.17
G19 G3 Y37.48 Z-9.59 J0 K0.31
G1 Z5
X17.69
Z-8.6 F150
Z-9.89
G2 Y37.17 Z-10.2 J-0.31 K0
G1 Y36.86
G17 G3 X18 Y36.55 I0.31 J0
G2 X18 Y-0.55 I0 J-18.55 F300
X18 Y36.55 I0 J18.55
G3 X18.31 Y36.86 I0 J0.31
G1 Y37.17
G19 G3 Y37.48 Z-9.89 J0 K0.31
G1 Z5
X17.69
Z-8.9 F150
Z-10.19
G2 Y37.17 Z-10.5 J-0.31 K0
G1 Y36.86
G17 G3 X18 Y36.55 I0.31 J0
G2 X18 Y-0.55 I0 J-18.55 F300
X18 Y36.55 I0 J18.55
G3 X18.31 Y36.86 I0 J0.31
G1 Y37.17
G19 G3 Y37.48 Z-10.19 J0 K0.31
G1 Z5
X17.69
Z-9.2 F150
Z-10.49
G2 Y37.17 Z-10.8 J-0.31 K0
G1 Y36.86
G17 G3 X18 Y36.55 I0.31 J0
G2 X18 Y-0.55 I0 J-18.55 F300
X18 Y36.55 I0 J18.55
G3 X18.31 Y36.86 I0 J0.31
G1 Y37.17
G19 G3 Y37.48 Z-10.49 J0 K0.31
G1 Z5
X17.69
Z-9.5 F150
Z-10.79
G2 Y37.17 Z-11.1 J-0.31 K0
G1 Y36.86
G17 G3 X18 Y36.55 I0.31 J0
G2 X18 Y-0.55 I0 J-18.55 F300
X18 Y36.55 I0 J18.55
G3 X18.31 Y36.86 I0 J0.31
G1 Y37.17
G19 G3 Y37.48 Z-10.79 J0 K0.31
G1 Z5
X17.69
Z-9.8 F150
Z-11.09
G2 Y37.17 Z-11.4 J-0.31 K0
G1 Y36.86
G17 G3 X18 Y36.55 I0.31 J0
G2 X18 Y-0.55 I0 J-18.55 F300
X18 Y36.55 I0 J18.55
G3 X18.31 Y36.86 I0 J0.31
G1 Y37.17
G19 G3 Y37.48 Z-11.09 J0 K0.31
G1 Z5
X17.69
Z-10.1 F150
Z-11.39
G2 Y37.17 Z-11.7 J-0.31 K0
G1 Y36.86
G17 G3 X18 Y36.55 I0.31 J0
G2 X18 Y-0.55 I0 J-18.55 F300
X18 Y36.55 I0 J18.55
G3 X18.31 Y36.86 I0 J0.31
G1 Y37.17
G19 G3 Y37.48 Z-11.39 J0 K0.31
G1 Z5
X17.69
Z-10.4 F150
Z-11.69
G2 Y37.17 Z-12 J-0.31 K0
G1 Y36.86
G17 G3 X18 Y36.55 I0.31 J0
G2 X18 Y-0.55 I0 J-18.55 F300
X18 Y36.55 I0 J18.55
G3 X18.31 Y36.86 I0 J0.31
G1 Y37.17
G19 G3 Y37.48 Z-11.69 J0 K0.31
G1 Z5
X17.69
Z-10.7 F150
Z-11.99
G2 Y37.17 Z-12.3 J-0.31 K0
G1 Y36.86
G17 G3 X18 Y36.55 I0.31 J0
G2 X18 Y-0.55 I0 J-18.55 F300
X18 Y36.55 I0 J18.55
G3 X18.31 Y36.86 I0 J0.31
G1 Y37.17
G19 G3 Y37.48 Z-11.99 J0 K0.31
G1 Z5
X17.69
Z-11 F150
Z-12.29
G2 Y37.17 Z-12.6 J-0.31 K0
G1 Y36.86
G17 G3 X18 Y36.55 I0.31 J0
G2 X18 Y-0.55 I0 J-18.55 F300
X18 Y36.55 I0 J18.55
G3 X18.31 Y36.86 I0 J0.31
G1 Y37.17
G19 G3 Y37.48 Z-12.29 J0 K0.31
G1 Z5
X17.69
Z-11.3 F150
Z-12.59
G2 Y37.17 Z-12.9 J-0.31 K0
G1 Y36.86
G17 G3 X18 Y36.55 I0.31 J0
G2 X18 Y-0.55 I0 J-18.55 F300
X18 Y36.55 I0 J18.55
G3 X18.31 Y36.86 I0 J0.31
G1 Y37.17
G19 G3 Y37.48 Z-12.59 J0 K0.31
G1 Z5
X17.69
Z-11.6 F150
Z-12.89
G2 Y37.17 Z-13.2 J-0.31 K0
G1 Y36.86
G17 G3 X18 Y36.55 I0.31 J0
G2 X18 Y-0.55 I0 J-18.55 F300
X18 Y36.55 I0 J18.55
G3 X18.31 Y36.86 I0 J0.31
G1 Y37.17
G19 G3 Y37.48 Z-12.89 J0 K0.31
G1 Z5
X17.69
Z-11.9 F150
Z-13.19
G2 Y37.17 Z-13.5 J-0.31 K0
G1 Y36.86
G17 G3 X18 Y36.55 I0.31 J0
G2 X18 Y-0.55 I0 J-18.55 F300
X18 Y36.55 I0 J18.55
G3 X18.31 Y36.86 I0 J0.31
G1 Y37.17
G19 G3 Y37.48 Z-13.19 J0 K0.31
G1 Z5
X17.69
Z-12.2 F150
Z-13.49
G2 Y37.17 Z-13.8 J-0.31 K0
G1 Y36.86
G17 G3 X18 Y36.55 I0.31 J0
G2 X18 Y-0.55 I0 J-18.55 F300
X18 Y36.55 I0 J18.55
G3 X18.31 Y36.86 I0 J0.31
G1 Y37.17
G19 G3 Y37.48 Z-13.49 J0 K0.31
G1 Z5
X17.69
Z-12.5 F150
Z-13.69
G2 Y37.17 Z-14 J-0.31 K0
G1 Y36.86
G17 G3 X18 Y36.55 I0.31 J0
G2 X18 Y-0.55 I0 J-18.55 F300
X18 Y36.55 I0 J18.55
G3 X18.31 Y36.86 I0 J0.31
G1 Y37.17
G19 G3 Y37.48 Z-13.69 J0 K0.31
G1 Z10
G17
M9
M5
M30
