(metal_coupler_14mm_wdrill)
(Machine)
(  vendor: Autodesk)
(  model: GARAGE CNC)
(  description: GARAGE CNC)
(T3  D=3.1 CR=0 - ZMIN=-14 - flat end mill)
G90 G94
G17
G21
(When using Fusion 360 for Personal Use, the feedrate of)
(rapid moves is reduced to match the feedrate of cutting)
(moves, which can increase machining time. Unrestricted rapid)
(moves are available with a Fusion 360 Subscription.)

(2D Pocket3)
T3
S24000 M3
G54
M8
G0 X18.056 Y19.341
Z10
G1 Z5 F300
Z2.81 F150
X18.036 Y19.35 Z2.694
X17.976 Y19.375 Z2.594
X17.885 Y19.406 Z2.527
X17.773 Y19.436 Z2.5
G3 X17.123 Y16.564 Z2.338 I-0.325 J-1.436
X17.773 Y19.436 Z2.177 I0.325 J1.436
X17.123 Y16.564 Z2.015 I-0.325 J-1.436
X17.773 Y19.436 Z1.854 I0.325 J1.436
X17.123 Y16.564 Z1.692 I-0.325 J-1.436
X17.773 Y19.436 Z1.531 I0.325 J1.436
X17.123 Y16.564 Z1.369 I-0.325 J-1.436
X17.773 Y19.436 Z1.208 I0.325 J1.436
X17.123 Y16.564 Z1.046 I-0.325 J-1.436
X17.773 Y19.436 Z0.885 I0.325 J1.436
X17.123 Y16.564 Z0.723 I-0.325 J-1.436
X17.773 Y19.436 Z0.561 I0.325 J1.436
X17.123 Y16.564 Z0.4 I-0.325 J-1.436
X17.773 Y19.436 Z0.238 I0.325 J1.436
X17.123 Y16.564 Z0.077 I-0.325 J-1.436
X17.773 Y19.436 Z-0.085 I0.325 J1.436
X17.123 Y16.564 Z-0.246 I-0.325 J-1.436
X17.773 Y19.436 Z-0.408 I0.325 J1.436
X15.976 Y18 Z-0.5 I-0.325 J-1.436
X16.154 Y17.114 I2.285 J0 F300
X16.697 Y16.392 I1.705 J0.717
X16.969 Y16.522 I0.105 J0.13
G1 Y19.478
G3 X16.697 Y19.608 I-0.167 J0
X16.154 Y18.886 I1.162 J-1.439
X15.976 Y18 I2.107 J-0.886
G2 X15.543 Y17.277 I-0.82 J0
G3 X15.304 Y16.47 I0.28 J-0.522
X15.723 Y15.879 I2.782 J1.53
X17.761 Y14.875 I2.27 J2.038
X18.048 Y15.165 I0.02 J0.267
G2 X17.979 Y17.832 I22.62 J1.917
G3 X18.024 Y20.5 I-80.709 J2.668
G1 X18.026 Y20.584
X18.032 Y20.668
X18.048 Y20.835
G3 X17.761 Y21.125 I-0.267 J0.023
X15.723 Y20.121 I0.233 J-3.042
X15.304 Y16.47 I2.362 J-2.121
G2 X15.273 Y14.631 I-1.622 J-0.892
G3 X15.848 Y12.884 I1.048 J-0.623
X21.127 Y13.415 I2.152 J5.116
G2 X22.63 Y13.55 I0.873 J-1.281
G1 X23.95
Y13.95
X22
G2 X20.45 Y15.5 I0 J1.55
G1 Y20.5
G2 X22 Y22.05 I1.55 J0
G1 X23.95
Y22.45
X22.63
G2 X21.127 Y22.585 I-0.63 J1.416
G3 X13.125 Y20.653 I-3.127 J-4.585
X15.848 Y12.884 I4.875 J-2.653
X16.097 Y12.965 I0.078 J0.184
G1 X18.855 Y17.566
G3 X16.041 Y18.434 Z-0.662 I-1.407 J0.434 F150
X18.855 Y17.566 Z-0.823 I1.407 J-0.434
X17.667 Y19.456 Z-0.912 I-1.407 J0.434
X15.976 Y18 Z-1 I-0.219 J-1.456
X16.154 Y17.114 I2.285 J0 F300
X16.697 Y16.392 I1.705 J0.717
X16.969 Y16.522 I0.105 J0.13
G1 Y19.478
G3 X16.697 Y19.608 I-0.167 J0
X16.154 Y18.886 I1.162 J-1.439
X15.976 Y18 I2.107 J-0.886
G2 X15.543 Y17.277 I-0.82 J0
G3 X15.304 Y16.47 I0.28 J-0.522
X15.723 Y15.879 I2.782 J1.53
X17.761 Y14.875 I2.27 J2.038
X18.048 Y15.165 I0.02 J0.267
G2 X17.979 Y17.832 I22.62 J1.917
G3 X18.024 Y20.5 I-80.709 J2.668
G1 X18.026 Y20.584
X18.032 Y20.668
X18.048 Y20.835
G3 X17.761 Y21.125 I-0.267 J0.023
X15.723 Y20.121 I0.233 J-3.042
X15.304 Y16.47 I2.362 J-2.121
G2 X15.273 Y14.631 I-1.622 J-0.892
G3 X15.848 Y12.884 I1.048 J-0.623
X21.127 Y13.415 I2.152 J5.116
G2 X22.63 Y13.55 I0.873 J-1.281
G1 X23.95
Y13.95
X22
G2 X20.45 Y15.5 I0 J1.55
G1 Y20.5
G2 X22 Y22.05 I1.55 J0
G1 X23.95
Y22.45
X22.63
G2 X21.127 Y22.585 I-0.63 J1.416
G3 X13.125 Y20.653 I-3.127 J-4.585
X15.848 Y12.884 I4.875 J-2.653
X16.097 Y12.965 I0.078 J0.184
G1 X18.855 Y17.566
G3 X16.041 Y18.434 Z-1.162 I-1.407 J0.434 F150
X18.855 Y17.566 Z-1.323 I1.407 J-0.434
X17.667 Y19.456 Z-1.412 I-1.407 J0.434
X15.976 Y18 Z-1.5 I-0.219 J-1.456
X16.154 Y17.114 I2.285 J0 F300
X16.697 Y16.392 I1.705 J0.717
X16.969 Y16.522 I0.105 J0.13
G1 Y19.478
G3 X16.697 Y19.608 I-0.167 J0
X16.154 Y18.886 I1.162 J-1.439
X15.976 Y18 I2.107 J-0.886
G2 X15.543 Y17.277 I-0.82 J0
G3 X15.304 Y16.47 I0.28 J-0.522
X15.723 Y15.879 I2.782 J1.53
X17.761 Y14.875 I2.27 J2.038
X18.048 Y15.165 I0.02 J0.267
G2 X17.979 Y17.832 I22.62 J1.917
G3 X18.024 Y20.5 I-80.709 J2.668
G1 X18.026 Y20.584
X18.032 Y20.668
X18.048 Y20.835
G3 X17.761 Y21.125 I-0.267 J0.023
X15.723 Y20.121 I0.233 J-3.042
X15.304 Y16.47 I2.362 J-2.121
G2 X15.273 Y14.631 I-1.622 J-0.892
G3 X15.848 Y12.884 I1.048 J-0.623
X21.127 Y13.415 I2.152 J5.116
G2 X22.63 Y13.55 I0.873 J-1.281
G1 X23.95
Y13.95
X22
G2 X20.45 Y15.5 I0 J1.55
G1 Y20.5
G2 X22 Y22.05 I1.55 J0
G1 X23.95
Y22.45
X22.63
G2 X21.127 Y22.585 I-0.63 J1.416
G3 X13.125 Y20.653 I-3.127 J-4.585
X15.848 Y12.884 I4.875 J-2.653
X16.097 Y12.965 I0.078 J0.184
G1 X18.855 Y17.566
G3 X16.041 Y18.434 Z-1.662 I-1.407 J0.434 F150
X18.855 Y17.566 Z-1.823 I1.407 J-0.434
X17.667 Y19.456 Z-1.912 I-1.407 J0.434
X15.976 Y18 Z-2 I-0.219 J-1.456
X16.154 Y17.114 I2.285 J0 F300
X16.697 Y16.392 I1.705 J0.717
X16.969 Y16.522 I0.105 J0.13
G1 Y19.478
G3 X16.697 Y19.608 I-0.167 J0
X16.154 Y18.886 I1.162 J-1.439
X15.976 Y18 I2.107 J-0.886
G2 X15.543 Y17.277 I-0.82 J0
G3 X15.304 Y16.47 I0.28 J-0.522
X15.723 Y15.879 I2.782 J1.53
X17.761 Y14.875 I2.27 J2.038
X18.048 Y15.165 I0.02 J0.267
G2 X17.979 Y17.832 I22.62 J1.917
G3 X18.024 Y20.5 I-80.709 J2.668
G1 X18.026 Y20.584
X18.032 Y20.668
X18.048 Y20.835
G3 X17.761 Y21.125 I-0.267 J0.023
X15.723 Y20.121 I0.233 J-3.042
X15.304 Y16.47 I2.362 J-2.121
G2 X15.273 Y14.631 I-1.622 J-0.892
G3 X15.848 Y12.884 I1.048 J-0.623
X21.127 Y13.415 I2.152 J5.116
G2 X22.63 Y13.55 I0.873 J-1.281
G1 X23.95
Y13.95
X22
G2 X20.45 Y15.5 I0 J1.55
G1 Y20.5
G2 X22 Y22.05 I1.55 J0
G1 X23.95
Y22.45
X22.63
G2 X21.127 Y22.585 I-0.63 J1.416
G3 X13.125 Y20.653 I-3.127 J-4.585
X15.848 Y12.884 I4.875 J-2.653
X16.097 Y12.965 I0.078 J0.184
G1 X18.855 Y17.566
G3 X16.041 Y18.434 Z-2.162 I-1.407 J0.434 F150
X18.855 Y17.566 Z-2.323 I1.407 J-0.434
X17.667 Y19.456 Z-2.412 I-1.407 J0.434
X15.976 Y18 Z-2.5 I-0.219 J-1.456
X16.154 Y17.114 I2.285 J0 F300
X16.697 Y16.392 I1.705 J0.717
X16.969 Y16.522 I0.105 J0.13
G1 Y19.478
G3 X16.697 Y19.608 I-0.167 J0
X16.154 Y18.886 I1.162 J-1.439
X15.976 Y18 I2.107 J-0.886
G2 X15.543 Y17.277 I-0.82 J0
G3 X15.304 Y16.47 I0.28 J-0.522
X15.723 Y15.879 I2.782 J1.53
X17.761 Y14.875 I2.27 J2.038
X18.048 Y15.165 I0.02 J0.267
G2 X17.979 Y17.832 I22.62 J1.917
G3 X18.024 Y20.5 I-80.709 J2.668
G1 X18.026 Y20.584
X18.032 Y20.668
X18.048 Y20.835
G3 X17.761 Y21.125 I-0.267 J0.023
X15.723 Y20.121 I0.233 J-3.042
X15.304 Y16.47 I2.362 J-2.121
G2 X15.273 Y14.631 I-1.622 J-0.892
G3 X15.848 Y12.884 I1.048 J-0.623
X21.127 Y13.415 I2.152 J5.116
G2 X22.63 Y13.55 I0.873 J-1.281
G1 X23.95
Y13.95
X22
G2 X20.45 Y15.5 I0 J1.55
G1 Y20.5
G2 X22 Y22.05 I1.55 J0
G1 X23.95
Y22.45
X22.63
G2 X21.127 Y22.585 I-0.63 J1.416
G3 X13.125 Y20.653 I-3.127 J-4.585
X15.848 Y12.884 I4.875 J-2.653
X16.097 Y12.965 I0.078 J0.184
G1 X18.855 Y17.566
G3 X16.041 Y18.434 Z-2.662 I-1.407 J0.434 F150
X18.855 Y17.566 Z-2.823 I1.407 J-0.434
X17.667 Y19.456 Z-2.912 I-1.407 J0.434
X15.976 Y18 Z-3 I-0.219 J-1.456
X16.154 Y17.114 I2.285 J0 F300
X16.697 Y16.392 I1.705 J0.717
X16.969 Y16.522 I0.105 J0.13
G1 Y19.478
G3 X16.697 Y19.608 I-0.167 J0
X16.154 Y18.886 I1.162 J-1.439
X15.976 Y18 I2.107 J-0.886
G2 X15.543 Y17.277 I-0.82 J0
G3 X15.304 Y16.47 I0.28 J-0.522
X15.723 Y15.879 I2.782 J1.53
X17.761 Y14.875 I2.27 J2.038
X18.048 Y15.165 I0.02 J0.267
G2 X17.979 Y17.832 I22.62 J1.917
G3 X18.024 Y20.5 I-80.709 J2.668
G1 X18.026 Y20.584
X18.032 Y20.668
X18.048 Y20.835
G3 X17.761 Y21.125 I-0.267 J0.023
X15.723 Y20.121 I0.233 J-3.042
X15.304 Y16.47 I2.362 J-2.121
G2 X15.273 Y14.631 I-1.622 J-0.892
G3 X15.848 Y12.884 I1.048 J-0.623
X21.127 Y13.415 I2.152 J5.116
G2 X22.63 Y13.55 I0.873 J-1.281
G1 X23.95
Y13.95
X22
G2 X20.45 Y15.5 I0 J1.55
G1 Y20.5
G2 X22 Y22.05 I1.55 J0
G1 X23.95
Y22.45
X22.63
G2 X21.127 Y22.585 I-0.63 J1.416
G3 X13.125 Y20.653 I-3.127 J-4.585
X15.848 Y12.884 I4.875 J-2.653
X16.097 Y12.965 I0.078 J0.184
G1 X18.855 Y17.566
G3 X16.041 Y18.434 Z-3.162 I-1.407 J0.434 F150
X18.855 Y17.566 Z-3.323 I1.407 J-0.434
X17.667 Y19.456 Z-3.412 I-1.407 J0.434
X15.976 Y18 Z-3.5 I-0.219 J-1.456
X16.154 Y17.114 I2.285 J0 F300
X16.697 Y16.392 I1.705 J0.717
X16.969 Y16.522 I0.105 J0.13
G1 Y19.478
G3 X16.697 Y19.608 I-0.167 J0
X16.154 Y18.886 I1.162 J-1.439
X15.976 Y18 I2.107 J-0.886
G2 X15.543 Y17.277 I-0.82 J0
G3 X15.304 Y16.47 I0.28 J-0.522
X15.723 Y15.879 I2.782 J1.53
X17.761 Y14.875 I2.27 J2.038
X18.048 Y15.165 I0.02 J0.267
G2 X17.979 Y17.832 I22.62 J1.917
G3 X18.024 Y20.5 I-80.709 J2.668
G1 X18.026 Y20.584
X18.032 Y20.668
X18.048 Y20.835
G3 X17.761 Y21.125 I-0.267 J0.023
X15.723 Y20.121 I0.233 J-3.042
X15.304 Y16.47 I2.362 J-2.121
G2 X15.273 Y14.631 I-1.622 J-0.892
G3 X15.848 Y12.884 I1.048 J-0.623
X21.127 Y13.415 I2.152 J5.116
G2 X22.63 Y13.55 I0.873 J-1.281
G1 X23.95
Y13.95
X22
G2 X20.45 Y15.5 I0 J1.55
G1 Y20.5
G2 X22 Y22.05 I1.55 J0
G1 X23.95
Y22.45
X22.63
G2 X21.127 Y22.585 I-0.63 J1.416
G3 X13.125 Y20.653 I-3.127 J-4.585
X15.848 Y12.884 I4.875 J-2.653
X16.097 Y12.965 I0.078 J0.184
G1 X18.855 Y17.566
G3 X16.041 Y18.434 Z-3.662 I-1.407 J0.434 F150
X18.855 Y17.566 Z-3.823 I1.407 J-0.434
X17.667 Y19.456 Z-3.912 I-1.407 J0.434
X15.976 Y18 Z-4 I-0.219 J-1.456
X16.154 Y17.114 I2.285 J0 F300
X16.697 Y16.392 I1.705 J0.717
X16.969 Y16.522 I0.105 J0.13
G1 Y19.478
G3 X16.697 Y19.608 I-0.167 J0
X16.154 Y18.886 I1.162 J-1.439
X15.976 Y18 I2.107 J-0.886
G2 X15.543 Y17.277 I-0.82 J0
G3 X15.304 Y16.47 I0.28 J-0.522
X15.723 Y15.879 I2.782 J1.53
X17.761 Y14.875 I2.27 J2.038
X18.048 Y15.165 I0.02 J0.267
G2 X17.979 Y17.832 I22.62 J1.917
G3 X18.024 Y20.5 I-80.709 J2.668
G1 X18.026 Y20.584
X18.032 Y20.668
X18.048 Y20.835
G3 X17.761 Y21.125 I-0.267 J0.023
X15.723 Y20.121 I0.233 J-3.042
X15.304 Y16.47 I2.362 J-2.121
G2 X15.273 Y14.631 I-1.622 J-0.892
G3 X15.848 Y12.884 I1.048 J-0.623
X21.127 Y13.415 I2.152 J5.116
G2 X22.63 Y13.55 I0.873 J-1.281
G1 X23.95
Y13.95
X22
G2 X20.45 Y15.5 I0 J1.55
G1 Y20.5
G2 X22 Y22.05 I1.55 J0
G1 X23.95
Y22.45
X22.63
G2 X21.127 Y22.585 I-0.63 J1.416
G3 X13.125 Y20.653 I-3.127 J-4.585
X15.848 Y12.884 I4.875 J-2.653
X16.097 Y12.965 I0.078 J0.184
G1 X18.855 Y17.566
G3 X16.041 Y18.434 Z-4.162 I-1.407 J0.434 F150
X18.855 Y17.566 Z-4.323 I1.407 J-0.434
X17.667 Y19.456 Z-4.412 I-1.407 J0.434
X15.976 Y18 Z-4.5 I-0.219 J-1.456
X16.154 Y17.114 I2.285 J0 F300
X16.697 Y16.392 I1.705 J0.717
X16.969 Y16.522 I0.105 J0.13
G1 Y19.478
G3 X16.697 Y19.608 I-0.167 J0
X16.154 Y18.886 I1.162 J-1.439
X15.976 Y18 I2.107 J-0.886
G2 X15.543 Y17.277 I-0.82 J0
G3 X15.304 Y16.47 I0.28 J-0.522
X15.723 Y15.879 I2.782 J1.53
X17.761 Y14.875 I2.27 J2.038
X18.048 Y15.165 I0.02 J0.267
G2 X17.979 Y17.832 I22.62 J1.917
G3 X18.024 Y20.5 I-80.709 J2.668
G1 X18.026 Y20.584
X18.032 Y20.668
X18.048 Y20.835
G3 X17.761 Y21.125 I-0.267 J0.023
X15.723 Y20.121 I0.233 J-3.042
X15.304 Y16.47 I2.362 J-2.121
G2 X15.273 Y14.631 I-1.622 J-0.892
G3 X15.848 Y12.884 I1.048 J-0.623
X21.127 Y13.415 I2.152 J5.116
G2 X22.63 Y13.55 I0.873 J-1.281
G1 X23.95
Y13.95
X22
G2 X20.45 Y15.5 I0 J1.55
G1 Y20.5
G2 X22 Y22.05 I1.55 J0
G1 X23.95
Y22.45
X22.63
G2 X21.127 Y22.585 I-0.63 J1.416
G3 X13.125 Y20.653 I-3.127 J-4.585
X15.848 Y12.884 I4.875 J-2.653
X16.097 Y12.965 I0.078 J0.184
G1 X18.855 Y17.566
G3 X16.041 Y18.434 Z-4.662 I-1.407 J0.434 F150
X18.855 Y17.566 Z-4.823 I1.407 J-0.434
X17.667 Y19.456 Z-4.912 I-1.407 J0.434
X15.976 Y18 Z-5 I-0.219 J-1.456
X16.154 Y17.114 I2.285 J0 F300
X16.697 Y16.392 I1.705 J0.717
X16.969 Y16.522 I0.105 J0.13
G1 Y19.478
G3 X16.697 Y19.608 I-0.167 J0
X16.154 Y18.886 I1.162 J-1.439
X15.976 Y18 I2.107 J-0.886
G2 X15.543 Y17.277 I-0.82 J0
G3 X15.304 Y16.47 I0.28 J-0.522
X15.723 Y15.879 I2.782 J1.53
X17.761 Y14.875 I2.27 J2.038
X18.048 Y15.165 I0.02 J0.267
G2 X17.979 Y17.832 I22.62 J1.917
G3 X18.024 Y20.5 I-80.709 J2.668
G1 X18.026 Y20.584
X18.032 Y20.668
X18.048 Y20.835
G3 X17.761 Y21.125 I-0.267 J0.023
X15.723 Y20.121 I0.233 J-3.042
X15.304 Y16.47 I2.362 J-2.121
G2 X15.273 Y14.631 I-1.622 J-0.892
G3 X15.848 Y12.884 I1.048 J-0.623
X21.127 Y13.415 I2.152 J5.116
G2 X22.63 Y13.55 I0.873 J-1.281
G1 X23.95
Y13.95
X22
G2 X20.45 Y15.5 I0 J1.55
G1 Y20.5
G2 X22 Y22.05 I1.55 J0
G1 X23.95
Y22.45
X22.63
G2 X21.127 Y22.585 I-0.63 J1.416
G3 X13.125 Y20.653 I-3.127 J-4.585
X15.848 Y12.884 I4.875 J-2.653
X16.097 Y12.965 I0.078 J0.184
G1 X18.855 Y17.566
G3 X16.041 Y18.434 Z-5.162 I-1.407 J0.434 F150
X18.855 Y17.566 Z-5.323 I1.407 J-0.434
X17.667 Y19.456 Z-5.412 I-1.407 J0.434
X15.976 Y18 Z-5.5 I-0.219 J-1.456
X16.154 Y17.114 I2.285 J0 F300
X16.697 Y16.392 I1.705 J0.717
X16.969 Y16.522 I0.105 J0.13
G1 Y19.478
G3 X16.697 Y19.608 I-0.167 J0
X16.154 Y18.886 I1.162 J-1.439
X15.976 Y18 I2.107 J-0.886
G2 X15.543 Y17.277 I-0.82 J0
G3 X15.304 Y16.47 I0.28 J-0.522
X15.723 Y15.879 I2.782 J1.53
X17.761 Y14.875 I2.27 J2.038
X18.048 Y15.165 I0.02 J0.267
G2 X17.979 Y17.832 I22.62 J1.917
G3 X18.024 Y20.5 I-80.709 J2.668
G1 X18.026 Y20.584
X18.032 Y20.668
X18.048 Y20.835
G3 X17.761 Y21.125 I-0.267 J0.023
X15.723 Y20.121 I0.233 J-3.042
X15.304 Y16.47 I2.362 J-2.121
G2 X15.273 Y14.631 I-1.622 J-0.892
G3 X15.848 Y12.884 I1.048 J-0.623
X21.127 Y13.415 I2.152 J5.116
G2 X22.63 Y13.55 I0.873 J-1.281
G1 X23.95
Y13.95
X22
G2 X20.45 Y15.5 I0 J1.55
G1 Y20.5
G2 X22 Y22.05 I1.55 J0
G1 X23.95
Y22.45
X22.63
G2 X21.127 Y22.585 I-0.63 J1.416
G3 X13.125 Y20.653 I-3.127 J-4.585
X15.848 Y12.884 I4.875 J-2.653
X16.097 Y12.965 I0.078 J0.184
G1 X18.855 Y17.566
G3 X16.041 Y18.434 Z-5.662 I-1.407 J0.434 F150
X18.855 Y17.566 Z-5.823 I1.407 J-0.434
X17.667 Y19.456 Z-5.912 I-1.407 J0.434
X15.976 Y18 Z-6 I-0.219 J-1.456
X16.154 Y17.114 I2.285 J0 F300
X16.697 Y16.392 I1.705 J0.717
X16.969 Y16.522 I0.105 J0.13
G1 Y19.478
G3 X16.697 Y19.608 I-0.167 J0
X16.154 Y18.886 I1.162 J-1.439
X15.976 Y18 I2.107 J-0.886
G2 X15.543 Y17.277 I-0.82 J0
G3 X15.304 Y16.47 I0.28 J-0.522
X15.723 Y15.879 I2.782 J1.53
X17.761 Y14.875 I2.27 J2.038
X18.048 Y15.165 I0.02 J0.267
G2 X17.979 Y17.832 I22.62 J1.917
G3 X18.024 Y20.5 I-80.709 J2.668
G1 X18.026 Y20.584
X18.032 Y20.668
X18.048 Y20.835
G3 X17.761 Y21.125 I-0.267 J0.023
X15.723 Y20.121 I0.233 J-3.042
X15.304 Y16.47 I2.362 J-2.121
G2 X15.273 Y14.631 I-1.622 J-0.892
G3 X15.848 Y12.884 I1.048 J-0.623
X21.127 Y13.415 I2.152 J5.116
G2 X22.63 Y13.55 I0.873 J-1.281
G1 X23.95
Y13.95
X22
G2 X20.45 Y15.5 I0 J1.55
G1 Y20.5
G2 X22 Y22.05 I1.55 J0
G1 X23.95
Y22.45
X22.63
G2 X21.127 Y22.585 I-0.63 J1.416
G3 X13.125 Y20.653 I-3.127 J-4.585
X15.848 Y12.884 I4.875 J-2.653
X16.097 Y12.965 I0.078 J0.184
G1 X18.855 Y17.566
G3 X16.041 Y18.434 Z-6.162 I-1.407 J0.434 F150
X18.855 Y17.566 Z-6.323 I1.407 J-0.434
X17.667 Y19.456 Z-6.412 I-1.407 J0.434
X15.976 Y18 Z-6.5 I-0.219 J-1.456
X16.154 Y17.114 I2.285 J0 F300
X16.697 Y16.392 I1.705 J0.717
X16.969 Y16.522 I0.105 J0.13
G1 Y19.478
G3 X16.697 Y19.608 I-0.167 J0
X16.154 Y18.886 I1.162 J-1.439
X15.976 Y18 I2.107 J-0.886
G2 X15.543 Y17.277 I-0.82 J0
G3 X15.304 Y16.47 I0.28 J-0.522
X15.723 Y15.879 I2.782 J1.53
X17.761 Y14.875 I2.27 J2.038
X18.048 Y15.165 I0.02 J0.267
G2 X17.979 Y17.832 I22.62 J1.917
G3 X18.024 Y20.5 I-80.709 J2.668
G1 X18.026 Y20.584
X18.032 Y20.668
X18.048 Y20.835
G3 X17.761 Y21.125 I-0.267 J0.023
X15.723 Y20.121 I0.233 J-3.042
X15.304 Y16.47 I2.362 J-2.121
G2 X15.273 Y14.631 I-1.622 J-0.892
G3 X15.848 Y12.884 I1.048 J-0.623
X21.127 Y13.415 I2.152 J5.116
G2 X22.63 Y13.55 I0.873 J-1.281
G1 X23.95
Y13.95
X22
G2 X20.45 Y15.5 I0 J1.55
G1 Y20.5
G2 X22 Y22.05 I1.55 J0
G1 X23.95
Y22.45
X22.63
G2 X21.127 Y22.585 I-0.63 J1.416
G3 X13.125 Y20.653 I-3.127 J-4.585
X15.848 Y12.884 I4.875 J-2.653
X16.097 Y12.965 I0.078 J0.184
G1 X18.855 Y17.566
G3 X16.041 Y18.434 Z-6.662 I-1.407 J0.434 F150
X18.855 Y17.566 Z-6.823 I1.407 J-0.434
X17.667 Y19.456 Z-6.912 I-1.407 J0.434
X15.976 Y18 Z-7 I-0.219 J-1.456
X16.154 Y17.114 I2.285 J0 F300
X16.697 Y16.392 I1.705 J0.717
X16.969 Y16.522 I0.105 J0.13
G1 Y19.478
G3 X16.697 Y19.608 I-0.167 J0
X16.154 Y18.886 I1.162 J-1.439
X15.976 Y18 I2.107 J-0.886
G2 X15.543 Y17.277 I-0.82 J0
G3 X15.304 Y16.47 I0.28 J-0.522
X15.723 Y15.879 I2.782 J1.53
X17.761 Y14.875 I2.27 J2.038
X18.048 Y15.165 I0.02 J0.267
G2 X17.979 Y17.832 I22.62 J1.917
G3 X18.024 Y20.5 I-80.709 J2.668
G1 X18.026 Y20.584
X18.032 Y20.668
X18.048 Y20.835
G3 X17.761 Y21.125 I-0.267 J0.023
X15.723 Y20.121 I0.233 J-3.042
X15.304 Y16.47 I2.362 J-2.121
G2 X15.273 Y14.631 I-1.622 J-0.892
G3 X15.848 Y12.884 I1.048 J-0.623
X21.127 Y13.415 I2.152 J5.116
G2 X22.63 Y13.55 I0.873 J-1.281
G1 X23.95
Y13.95
X22
G2 X20.45 Y15.5 I0 J1.55
G1 Y20.5
G2 X22 Y22.05 I1.55 J0
G1 X23.95
Y22.45
X22.63
G2 X21.127 Y22.585 I-0.63 J1.416
G3 X13.125 Y20.653 I-3.127 J-4.585
X15.848 Y12.884 I4.875 J-2.653
X16.097 Y12.965 I0.078 J0.184
G1 X18.855 Y17.566
G3 X16.041 Y18.434 Z-7.162 I-1.407 J0.434 F150
X18.855 Y17.566 Z-7.323 I1.407 J-0.434
X17.667 Y19.456 Z-7.412 I-1.407 J0.434
X15.976 Y18 Z-7.5 I-0.219 J-1.456
X16.154 Y17.114 I2.285 J0 F300
X16.697 Y16.392 I1.705 J0.717
X16.969 Y16.522 I0.105 J0.13
G1 Y19.478
G3 X16.697 Y19.608 I-0.167 J0
X16.154 Y18.886 I1.162 J-1.439
X15.976 Y18 I2.107 J-0.886
G2 X15.543 Y17.277 I-0.82 J0
G3 X15.304 Y16.47 I0.28 J-0.522
X15.723 Y15.879 I2.782 J1.53
X17.761 Y14.875 I2.27 J2.038
X18.048 Y15.165 I0.02 J0.267
G2 X17.979 Y17.832 I22.62 J1.917
G3 X18.024 Y20.5 I-80.709 J2.668
G1 X18.026 Y20.584
X18.032 Y20.668
X18.048 Y20.835
G3 X17.761 Y21.125 I-0.267 J0.023
X15.723 Y20.121 I0.233 J-3.042
X15.304 Y16.47 I2.362 J-2.121
G2 X15.273 Y14.631 I-1.622 J-0.892
G3 X15.848 Y12.884 I1.048 J-0.623
X21.127 Y13.415 I2.152 J5.116
G2 X22.63 Y13.55 I0.873 J-1.281
G1 X23.95
Y13.95
X22
G2 X20.45 Y15.5 I0 J1.55
G1 Y20.5
G2 X22 Y22.05 I1.55 J0
G1 X23.95
Y22.45
X22.63
G2 X21.127 Y22.585 I-0.63 J1.416
G3 X13.125 Y20.653 I-3.127 J-4.585
X15.848 Y12.884 I4.875 J-2.653
X16.097 Y12.965 I0.078 J0.184
G1 X18.855 Y17.566
G3 X16.041 Y18.434 Z-7.662 I-1.407 J0.434 F150
X18.855 Y17.566 Z-7.823 I1.407 J-0.434
X17.667 Y19.456 Z-7.912 I-1.407 J0.434
X15.976 Y18 Z-8 I-0.219 J-1.456
X16.154 Y17.114 I2.285 J0 F300
X16.697 Y16.392 I1.705 J0.717
X16.969 Y16.522 I0.105 J0.13
G1 Y19.478
G3 X16.697 Y19.608 I-0.167 J0
X16.154 Y18.886 I1.162 J-1.439
X15.976 Y18 I2.107 J-0.886
G2 X15.543 Y17.277 I-0.82 J0
G3 X15.304 Y16.47 I0.28 J-0.522
X15.723 Y15.879 I2.782 J1.53
X17.761 Y14.875 I2.27 J2.038
X18.048 Y15.165 I0.02 J0.267
G2 X17.979 Y17.832 I22.62 J1.917
G3 X18.024 Y20.5 I-80.709 J2.668
G1 X18.026 Y20.584
X18.032 Y20.668
X18.048 Y20.835
G3 X17.761 Y21.125 I-0.267 J0.023
X15.723 Y20.121 I0.233 J-3.042
X15.304 Y16.47 I2.362 J-2.121
G2 X15.273 Y14.631 I-1.622 J-0.892
G3 X15.848 Y12.884 I1.048 J-0.623
X21.127 Y13.415 I2.152 J5.116
G2 X22.63 Y13.55 I0.873 J-1.281
G1 X23.95
Y13.95
X22
G2 X20.45 Y15.5 I0 J1.55
G1 Y20.5
G2 X22 Y22.05 I1.55 J0
G1 X23.95
Y22.45
X22.63
G2 X21.127 Y22.585 I-0.63 J1.416
G3 X13.125 Y20.653 I-3.127 J-4.585
X15.848 Y12.884 I4.875 J-2.653
X16.097 Y12.965 I0.078 J0.184
G1 X18.855 Y17.566
G3 X16.041 Y18.434 Z-8.162 I-1.407 J0.434 F150
X18.855 Y17.566 Z-8.323 I1.407 J-0.434
X17.667 Y19.456 Z-8.412 I-1.407 J0.434
X15.976 Y18 Z-8.5 I-0.219 J-1.456
X16.154 Y17.114 I2.285 J0 F300
X16.697 Y16.392 I1.705 J0.717
X16.969 Y16.522 I0.105 J0.13
G1 Y19.478
G3 X16.697 Y19.608 I-0.167 J0
X16.154 Y18.886 I1.162 J-1.439
X15.976 Y18 I2.107 J-0.886
G2 X15.543 Y17.277 I-0.82 J0
G3 X15.304 Y16.47 I0.28 J-0.522
X15.723 Y15.879 I2.782 J1.53
X17.761 Y14.875 I2.27 J2.038
X18.048 Y15.165 I0.02 J0.267
G2 X17.979 Y17.832 I22.62 J1.917
G3 X18.024 Y20.5 I-80.709 J2.668
G1 X18.026 Y20.584
X18.032 Y20.668
X18.048 Y20.835
G3 X17.761 Y21.125 I-0.267 J0.023
X15.723 Y20.121 I0.233 J-3.042
X15.304 Y16.47 I2.362 J-2.121
G2 X15.273 Y14.631 I-1.622 J-0.892
G3 X15.848 Y12.884 I1.048 J-0.623
X21.127 Y13.415 I2.152 J5.116
G2 X22.63 Y13.55 I0.873 J-1.281
G1 X23.95
Y13.95
X22
G2 X20.45 Y15.5 I0 J1.55
G1 Y20.5
G2 X22 Y22.05 I1.55 J0
G1 X23.95
Y22.45
X22.63
G2 X21.127 Y22.585 I-0.63 J1.416
G3 X13.125 Y20.653 I-3.127 J-4.585
X15.848 Y12.884 I4.875 J-2.653
X16.097 Y12.965 I0.078 J0.184
G1 X18.855 Y17.566
G3 X16.041 Y18.434 Z-8.662 I-1.407 J0.434 F150
X18.855 Y17.566 Z-8.823 I1.407 J-0.434
X17.667 Y19.456 Z-8.912 I-1.407 J0.434
X15.976 Y18 Z-9 I-0.219 J-1.456
X16.154 Y17.114 I2.285 J0 F300
X16.697 Y16.392 I1.705 J0.717
X16.969 Y16.522 I0.105 J0.13
G1 Y19.478
G3 X16.697 Y19.608 I-0.167 J0
X16.154 Y18.886 I1.162 J-1.439
X15.976 Y18 I2.107 J-0.886
G2 X15.543 Y17.277 I-0.82 J0
G3 X15.304 Y16.47 I0.28 J-0.522
X15.723 Y15.879 I2.782 J1.53
X17.761 Y14.875 I2.27 J2.038
X18.048 Y15.165 I0.02 J0.267
G2 X17.979 Y17.832 I22.62 J1.917
G3 X18.024 Y20.5 I-80.709 J2.668
G1 X18.026 Y20.584
X18.032 Y20.668
X18.048 Y20.835
G3 X17.761 Y21.125 I-0.267 J0.023
X15.723 Y20.121 I0.233 J-3.042
X15.304 Y16.47 I2.362 J-2.121
G2 X15.273 Y14.631 I-1.622 J-0.892
G3 X15.848 Y12.884 I1.048 J-0.623
X21.127 Y13.415 I2.152 J5.116
G2 X22.63 Y13.55 I0.873 J-1.281
G1 X23.95
Y13.95
X22
G2 X20.45 Y15.5 I0 J1.55
G1 Y20.5
G2 X22 Y22.05 I1.55 J0
G1 X23.95
Y22.45
X22.63
G2 X21.127 Y22.585 I-0.63 J1.416
G3 X13.125 Y20.653 I-3.127 J-4.585
X15.848 Y12.884 I4.875 J-2.653
X16.097 Y12.965 I0.078 J0.184
G1 X18.855 Y17.566
G3 X16.041 Y18.434 Z-9.162 I-1.407 J0.434 F150
X18.855 Y17.566 Z-9.323 I1.407 J-0.434
X17.667 Y19.456 Z-9.412 I-1.407 J0.434
X15.976 Y18 Z-9.5 I-0.219 J-1.456
X16.154 Y17.114 I2.285 J0 F300
X16.697 Y16.392 I1.705 J0.717
X16.969 Y16.522 I0.105 J0.13
G1 Y19.478
G3 X16.697 Y19.608 I-0.167 J0
X16.154 Y18.886 I1.162 J-1.439
X15.976 Y18 I2.107 J-0.886
G2 X15.543 Y17.277 I-0.82 J0
G3 X15.304 Y16.47 I0.28 J-0.522
X15.723 Y15.879 I2.782 J1.53
X17.761 Y14.875 I2.27 J2.038
X18.048 Y15.165 I0.02 J0.267
G2 X17.979 Y17.832 I22.62 J1.917
G3 X18.024 Y20.5 I-80.709 J2.668
G1 X18.026 Y20.584
X18.032 Y20.668
X18.048 Y20.835
G3 X17.761 Y21.125 I-0.267 J0.023
X15.723 Y20.121 I0.233 J-3.042
X15.304 Y16.47 I2.362 J-2.121
G2 X15.273 Y14.631 I-1.622 J-0.892
G3 X15.848 Y12.884 I1.048 J-0.623
X21.127 Y13.415 I2.152 J5.116
G2 X22.63 Y13.55 I0.873 J-1.281
G1 X23.95
Y13.95
X22
G2 X20.45 Y15.5 I0 J1.55
G1 Y20.5
G2 X22 Y22.05 I1.55 J0
G1 X23.95
Y22.45
X22.63
G2 X21.127 Y22.585 I-0.63 J1.416
G3 X13.125 Y20.653 I-3.127 J-4.585
X15.848 Y12.884 I4.875 J-2.653
X16.097 Y12.965 I0.078 J0.184
G1 X18.855 Y17.566
G3 X16.041 Y18.434 Z-9.662 I-1.407 J0.434 F150
X18.855 Y17.566 Z-9.823 I1.407 J-0.434
X17.667 Y19.456 Z-9.912 I-1.407 J0.434
X15.976 Y18 Z-10 I-0.219 J-1.456
X16.154 Y17.114 I2.285 J0 F300
X16.697 Y16.392 I1.705 J0.717
X16.969 Y16.522 I0.105 J0.13
G1 Y19.478
G3 X16.697 Y19.608 I-0.167 J0
X16.154 Y18.886 I1.162 J-1.439
X15.976 Y18 I2.107 J-0.886
G2 X15.543 Y17.277 I-0.82 J0
G3 X15.304 Y16.47 I0.28 J-0.522
X15.723 Y15.879 I2.782 J1.53
X17.761 Y14.875 I2.27 J2.038
X18.048 Y15.165 I0.02 J0.267
G2 X17.979 Y17.832 I22.62 J1.917
G3 X18.024 Y20.5 I-80.709 J2.668
G1 X18.026 Y20.584
X18.032 Y20.668
X18.048 Y20.835
G3 X17.761 Y21.125 I-0.267 J0.023
X15.723 Y20.121 I0.233 J-3.042
X15.304 Y16.47 I2.362 J-2.121
G2 X15.273 Y14.631 I-1.622 J-0.892
G3 X15.848 Y12.884 I1.048 J-0.623
X21.127 Y13.415 I2.152 J5.116
G2 X22.63 Y13.55 I0.873 J-1.281
G1 X23.95
Y13.95
X22
G2 X20.45 Y15.5 I0 J1.55
G1 Y20.5
G2 X22 Y22.05 I1.55 J0
G1 X23.95
Y22.45
X22.63
G2 X21.127 Y22.585 I-0.63 J1.416
G3 X13.125 Y20.653 I-3.127 J-4.585
X15.848 Y12.884 I4.875 J-2.653
X16.097 Y12.965 I0.078 J0.184
G1 X18.855 Y17.566
G3 X16.041 Y18.434 Z-10.162 I-1.407 J0.434 F150
X18.855 Y17.566 Z-10.323 I1.407 J-0.434
X17.667 Y19.456 Z-10.412 I-1.407 J0.434
X15.976 Y18 Z-10.5 I-0.219 J-1.456
X16.154 Y17.114 I2.285 J0 F300
X16.697 Y16.392 I1.705 J0.717
X16.969 Y16.522 I0.105 J0.13
G1 Y19.478
G3 X16.697 Y19.608 I-0.167 J0
X16.154 Y18.886 I1.162 J-1.439
X15.976 Y18 I2.107 J-0.886
G2 X15.543 Y17.277 I-0.82 J0
G3 X15.304 Y16.47 I0.28 J-0.522
X15.723 Y15.879 I2.782 J1.53
X17.761 Y14.875 I2.27 J2.038
X18.048 Y15.165 I0.02 J0.267
G2 X17.979 Y17.832 I22.62 J1.917
G3 X18.024 Y20.5 I-80.709 J2.668
G1 X18.026 Y20.584
X18.032 Y20.668
X18.048 Y20.835
G3 X17.761 Y21.125 I-0.267 J0.023
X15.723 Y20.121 I0.233 J-3.042
X15.304 Y16.47 I2.362 J-2.121
G2 X15.273 Y14.631 I-1.622 J-0.892
G3 X15.848 Y12.884 I1.048 J-0.623
X21.127 Y13.415 I2.152 J5.116
G2 X22.63 Y13.55 I0.873 J-1.281
G1 X23.95
Y13.95
X22
G2 X20.45 Y15.5 I0 J1.55
G1 Y20.5
G2 X22 Y22.05 I1.55 J0
G1 X23.95
Y22.45
X22.63
G2 X21.127 Y22.585 I-0.63 J1.416
G3 X13.125 Y20.653 I-3.127 J-4.585
X15.848 Y12.884 I4.875 J-2.653
X16.097 Y12.965 I0.078 J0.184
G1 X18.855 Y17.566
G3 X16.041 Y18.434 Z-10.662 I-1.407 J0.434 F150
X18.855 Y17.566 Z-10.823 I1.407 J-0.434
X17.667 Y19.456 Z-10.912 I-1.407 J0.434
X15.976 Y18 Z-11 I-0.219 J-1.456
X16.154 Y17.114 I2.285 J0 F300
X16.697 Y16.392 I1.705 J0.717
X16.969 Y16.522 I0.105 J0.13
G1 Y19.478
G3 X16.697 Y19.608 I-0.167 J0
X16.154 Y18.886 I1.162 J-1.439
X15.976 Y18 I2.107 J-0.886
G2 X15.543 Y17.277 I-0.82 J0
G3 X15.304 Y16.47 I0.28 J-0.522
X15.723 Y15.879 I2.782 J1.53
X17.761 Y14.875 I2.27 J2.038
X18.048 Y15.165 I0.02 J0.267
G2 X17.979 Y17.832 I22.62 J1.917
G3 X18.024 Y20.5 I-80.709 J2.668
G1 X18.026 Y20.584
X18.032 Y20.668
X18.048 Y20.835
G3 X17.761 Y21.125 I-0.267 J0.023
X15.723 Y20.121 I0.233 J-3.042
X15.304 Y16.47 I2.362 J-2.121
G2 X15.273 Y14.631 I-1.622 J-0.892
G3 X15.848 Y12.884 I1.048 J-0.623
X21.127 Y13.415 I2.152 J5.116
G2 X22.63 Y13.55 I0.873 J-1.281
G1 X23.95
Y13.95
X22
G2 X20.45 Y15.5 I0 J1.55
G1 Y20.5
G2 X22 Y22.05 I1.55 J0
G1 X23.95
Y22.45
X22.63
G2 X21.127 Y22.585 I-0.63 J1.416
G3 X13.125 Y20.653 I-3.127 J-4.585
X15.848 Y12.884 I4.875 J-2.653
X16.097 Y12.965 I0.078 J0.184
G1 X18.855 Y17.566
G3 X16.041 Y18.434 Z-11.162 I-1.407 J0.434 F150
X18.855 Y17.566 Z-11.323 I1.407 J-0.434
X17.667 Y19.456 Z-11.412 I-1.407 J0.434
X15.976 Y18 Z-11.5 I-0.219 J-1.456
X16.154 Y17.114 I2.285 J0 F300
X16.697 Y16.392 I1.705 J0.717
X16.969 Y16.522 I0.105 J0.13
G1 Y19.478
G3 X16.697 Y19.608 I-0.167 J0
X16.154 Y18.886 I1.162 J-1.439
X15.976 Y18 I2.107 J-0.886
G2 X15.543 Y17.277 I-0.82 J0
G3 X15.304 Y16.47 I0.28 J-0.522
X15.723 Y15.879 I2.782 J1.53
X17.761 Y14.875 I2.27 J2.038
X18.048 Y15.165 I0.02 J0.267
G2 X17.979 Y17.832 I22.62 J1.917
G3 X18.024 Y20.5 I-80.709 J2.668
G1 X18.026 Y20.584
X18.032 Y20.668
X18.048 Y20.835
G3 X17.761 Y21.125 I-0.267 J0.023
X15.723 Y20.121 I0.233 J-3.042
X15.304 Y16.47 I2.362 J-2.121
G2 X15.273 Y14.631 I-1.622 J-0.892
G3 X15.848 Y12.884 I1.048 J-0.623
X21.127 Y13.415 I2.152 J5.116
G2 X22.63 Y13.55 I0.873 J-1.281
G1 X23.95
Y13.95
X22
G2 X20.45 Y15.5 I0 J1.55
G1 Y20.5
G2 X22 Y22.05 I1.55 J0
G1 X23.95
Y22.45
X22.63
G2 X21.127 Y22.585 I-0.63 J1.416
G3 X13.125 Y20.653 I-3.127 J-4.585
X15.848 Y12.884 I4.875 J-2.653
X16.097 Y12.965 I0.078 J0.184
G1 X18.855 Y17.566
G3 X16.041 Y18.434 Z-11.662 I-1.407 J0.434 F150
X18.855 Y17.566 Z-11.823 I1.407 J-0.434
X17.667 Y19.456 Z-11.912 I-1.407 J0.434
X15.976 Y18 Z-12 I-0.219 J-1.456
X16.154 Y17.114 I2.285 J0 F300
X16.697 Y16.392 I1.705 J0.717
X16.969 Y16.522 I0.105 J0.13
G1 Y19.478
G3 X16.697 Y19.608 I-0.167 J0
X16.154 Y18.886 I1.162 J-1.439
X15.976 Y18 I2.107 J-0.886
G2 X15.543 Y17.277 I-0.82 J0
G3 X15.304 Y16.47 I0.28 J-0.522
X15.723 Y15.879 I2.782 J1.53
X17.761 Y14.875 I2.27 J2.038
X18.048 Y15.165 I0.02 J0.267
G2 X17.979 Y17.832 I22.62 J1.917
G3 X18.024 Y20.5 I-80.709 J2.668
G1 X18.026 Y20.584
X18.032 Y20.668
X18.048 Y20.835
G3 X17.761 Y21.125 I-0.267 J0.023
X15.723 Y20.121 I0.233 J-3.042
X15.304 Y16.47 I2.362 J-2.121
G2 X15.273 Y14.631 I-1.622 J-0.892
G3 X15.848 Y12.884 I1.048 J-0.623
X21.127 Y13.415 I2.152 J5.116
G2 X22.63 Y13.55 I0.873 J-1.281
G1 X23.95
Y13.95
X22
G2 X20.45 Y15.5 I0 J1.55
G1 Y20.5
G2 X22 Y22.05 I1.55 J0
G1 X23.95
Y22.45
X22.63
G2 X21.127 Y22.585 I-0.63 J1.416
G3 X13.125 Y20.653 I-3.127 J-4.585
X15.848 Y12.884 I4.875 J-2.653
X16.097 Y12.965 I0.078 J0.184
G1 X18.855 Y17.566
G3 X16.041 Y18.434 Z-12.162 I-1.407 J0.434 F150
X18.855 Y17.566 Z-12.323 I1.407 J-0.434
X17.667 Y19.456 Z-12.412 I-1.407 J0.434
X15.976 Y18 Z-12.5 I-0.219 J-1.456
X16.154 Y17.114 I2.285 J0 F300
X16.697 Y16.392 I1.705 J0.717
X16.969 Y16.522 I0.105 J0.13
G1 Y19.478
G3 X16.697 Y19.608 I-0.167 J0
X16.154 Y18.886 I1.162 J-1.439
X15.976 Y18 I2.107 J-0.886
G2 X15.543 Y17.277 I-0.82 J0
G3 X15.304 Y16.47 I0.28 J-0.522
X15.723 Y15.879 I2.782 J1.53
X17.761 Y14.875 I2.27 J2.038
X18.048 Y15.165 I0.02 J0.267
G2 X17.979 Y17.832 I22.62 J1.917
G3 X18.024 Y20.5 I-80.709 J2.668
G1 X18.026 Y20.584
X18.032 Y20.668
X18.048 Y20.835
G3 X17.761 Y21.125 I-0.267 J0.023
X15.723 Y20.121 I0.233 J-3.042
X15.304 Y16.47 I2.362 J-2.121
G2 X15.273 Y14.631 I-1.622 J-0.892
G3 X15.848 Y12.884 I1.048 J-0.623
X21.127 Y13.415 I2.152 J5.116
G2 X22.63 Y13.55 I0.873 J-1.281
G1 X23.95
Y13.95
X22
G2 X20.45 Y15.5 I0 J1.55
G1 Y20.5
G2 X22 Y22.05 I1.55 J0
G1 X23.95
Y22.45
X22.63
G2 X21.127 Y22.585 I-0.63 J1.416
G3 X13.125 Y20.653 I-3.127 J-4.585
X15.848 Y12.884 I4.875 J-2.653
X16.097 Y12.965 I0.078 J0.184
G1 X18.855 Y17.566
G3 X16.041 Y18.434 Z-12.662 I-1.407 J0.434 F150
X18.855 Y17.566 Z-12.823 I1.407 J-0.434
X17.667 Y19.456 Z-12.912 I-1.407 J0.434
X15.976 Y18 Z-13 I-0.219 J-1.456
X16.154 Y17.114 I2.285 J0 F300
X16.697 Y16.392 I1.705 J0.717
X16.969 Y16.522 I0.105 J0.13
G1 Y19.478
G3 X16.697 Y19.608 I-0.167 J0
X16.154 Y18.886 I1.162 J-1.439
X15.976 Y18 I2.107 J-0.886
G2 X15.543 Y17.277 I-0.82 J0
G3 X15.304 Y16.47 I0.28 J-0.522
X15.723 Y15.879 I2.782 J1.53
X17.761 Y14.875 I2.27 J2.038
X18.048 Y15.165 I0.02 J0.267
G2 X17.979 Y17.832 I22.62 J1.917
G3 X18.024 Y20.5 I-80.709 J2.668
G1 X18.026 Y20.584
X18.032 Y20.668
X18.048 Y20.835
G3 X17.761 Y21.125 I-0.267 J0.023
X15.723 Y20.121 I0.233 J-3.042
X15.304 Y16.47 I2.362 J-2.121
G2 X15.273 Y14.631 I-1.622 J-0.892
G3 X15.848 Y12.884 I1.048 J-0.623
X21.127 Y13.415 I2.152 J5.116
G2 X22.63 Y13.55 I0.873 J-1.281
G1 X23.95
Y13.95
X22
G2 X20.45 Y15.5 I0 J1.55
G1 Y20.5
G2 X22 Y22.05 I1.55 J0
G1 X23.95
Y22.45
X22.63
G2 X21.127 Y22.585 I-0.63 J1.416
G3 X13.125 Y20.653 I-3.127 J-4.585
X15.848 Y12.884 I4.875 J-2.653
X16.097 Y12.965 I0.078 J0.184
G1 X18.855 Y17.566
G3 X16.041 Y18.434 Z-13.162 I-1.407 J0.434 F150
X18.855 Y17.566 Z-13.323 I1.407 J-0.434
X17.667 Y19.456 Z-13.412 I-1.407 J0.434
X15.976 Y18 Z-13.5 I-0.219 J-1.456
X16.154 Y17.114 I2.285 J0 F300
X16.697 Y16.392 I1.705 J0.717
X16.969 Y16.522 I0.105 J0.13
G1 Y19.478
G3 X16.697 Y19.608 I-0.167 J0
X16.154 Y18.886 I1.162 J-1.439
X15.976 Y18 I2.107 J-0.886
G2 X15.543 Y17.277 I-0.82 J0
G3 X15.304 Y16.47 I0.28 J-0.522
X15.723 Y15.879 I2.782 J1.53
X17.761 Y14.875 I2.27 J2.038
X18.048 Y15.165 I0.02 J0.267
G2 X17.979 Y17.832 I22.62 J1.917
G3 X18.024 Y20.5 I-80.709 J2.668
G1 X18.026 Y20.584
X18.032 Y20.668
X18.048 Y20.835
G3 X17.761 Y21.125 I-0.267 J0.023
X15.723 Y20.121 I0.233 J-3.042
X15.304 Y16.47 I2.362 J-2.121
G2 X15.273 Y14.631 I-1.622 J-0.892
G3 X15.848 Y12.884 I1.048 J-0.623
X21.127 Y13.415 I2.152 J5.116
G2 X22.63 Y13.55 I0.873 J-1.281
G1 X23.95
Y13.95
X22
G2 X20.45 Y15.5 I0 J1.55
G1 Y20.5
G2 X22 Y22.05 I1.55 J0
G1 X23.95
Y22.45
X22.63
G2 X21.127 Y22.585 I-0.63 J1.416
G3 X13.125 Y20.653 I-3.127 J-4.585
X15.848 Y12.884 I4.875 J-2.653
X16.097 Y12.965 I0.078 J0.184
G1 X18.855 Y17.566
G3 X16.041 Y18.434 Z-13.662 I-1.407 J0.434 F150
X18.855 Y17.566 Z-13.823 I1.407 J-0.434
X17.667 Y19.456 Z-13.912 I-1.407 J0.434
X15.976 Y18 Z-14 I-0.219 J-1.456
X16.154 Y17.114 I2.285 J0 F300
X16.697 Y16.392 I1.705 J0.717
X16.969 Y16.522 I0.105 J0.13
G1 Y19.478
G3 X16.697 Y19.608 I-0.167 J0
X16.154 Y18.886 I1.162 J-1.439
X15.976 Y18 I2.107 J-0.886
G2 X15.543 Y17.277 I-0.82 J0
G3 X15.304 Y16.47 I0.28 J-0.522
X15.723 Y15.879 I2.782 J1.53
X17.761 Y14.875 I2.27 J2.038
X18.048 Y15.165 I0.02 J0.267
G2 X17.979 Y17.832 I22.62 J1.917
G3 X18.024 Y20.5 I-80.709 J2.668
G1 X18.026 Y20.584
X18.032 Y20.668
X18.048 Y20.835
G3 X17.761 Y21.125 I-0.267 J0.023
X15.723 Y20.121 I0.233 J-3.042
X15.304 Y16.47 I2.362 J-2.121
G2 X15.273 Y14.631 I-1.622 J-0.892
G3 X15.848 Y12.884 I1.048 J-0.623
X21.127 Y13.415 I2.152 J5.116
G2 X22.63 Y13.55 I0.873 J-1.281
G1 X23.95
Y13.95
X22
G2 X20.45 Y15.5 I0 J1.55
G1 Y20.5
G2 X22 Y22.05 I1.55 J0
G1 X23.95
Y22.45
X22.63
G2 X21.127 Y22.585 I-0.63 J1.416
G3 X13.125 Y20.653 I-3.127 J-4.585
X15.848 Y12.884 I4.875 J-2.653
G1 X15.905 Y12.866 Z-13.988
X15.964 Y12.86 Z-13.976
X16.014 Y12.863 Z-13.943
X16.063 Y12.874 Z-13.909
X16.124 Y12.902 Z-13.809
X16.144 Y12.914 Z-13.69
Z10
(When using Fusion 360 for Personal Use, the feedrate of)
(rapid moves is reduced to match the feedrate of cutting)
(moves, which can increase machining time. Unrestricted rapid)
(moves are available with a Fusion 360 Subscription.)

(2D Pocket2)
G0 X32.118 Y38.953
G1 Z10 F300
Z5
Z-0.19 F150
X32.124 Y38.948 Z-0.259
X32.141 Y38.933 Z-0.325
X32.17 Y38.91 Z-0.383
X32.208 Y38.878 Z-0.432
X32.253 Y38.841 Z-0.469
X32.303 Y38.799 Z-0.492
X32.357 Y38.755 Z-0.5
X33.947 Y37.44
G2 X35.885 Y35.658 I-15.944 J-19.282 F300
G3 X37.237 Y34.726 I3.096 J3.045
G1 X37.441 Y34.635
G3 X38.148 Y35.861 I0.295 J0.647
G1 X36.727 Y36.874
X36.675 Y36.908
X36.619 Y36.937
X34.401 Y37.988
X34.303 Y38.026
X34.201 Y38.049
X29.355 Y38.77
G3 X28.902 Y37.447 I-0.105 J-0.703
G2 X34.364 Y33.132 I-10.901 J-19.415
G3 X35.51 Y32.359 I2.225 J2.064
G2 X37.437 Y31.436 I-4.556 J-11.979
G3 X38.196 Y32.638 I0.36 J0.614
G1 X34.168 Y35.363
X34.112 Y35.398
X29.25 Y38.067
G3 X28.96 Y38.153 I-0.342 J-0.623
G1 X19.315 Y38.869
G3 X18.553 Y38.208 I-0.053 J-0.709
X19.217 Y37.45 I0.71 J-0.049
G2 X26.188 Y35.654 I-1.214 J-19.146
X32.847 Y30.553 I-8.47 J-17.955
G3 X33.791 Y29.939 I1.503 J1.277
G2 X37.448 Y27.95 I-2.824 J-9.548
G1 X37.478 Y27.919
X37.5 Y27.882
X37.513 Y27.841
X37.518 Y27.799
X37.555 Y0.539
X37.55 Y0.493
X37.535 Y0.45
X37.51 Y0.411
X37.477 Y0.38
X37.438 Y0.356
G2 X35.764 Y-0.285 I-6.373 J14.144
G3 X34.392 Y-1.052 I1.222 J-3.794
G2 X33.919 Y-1.448 I-16.703 J19.483
G3 X34.773 Y-2.584 I0.45 J-0.551
G1 X36.023 Y-1.723
X36.077 Y-1.682
X37.73 Y-0.292
G3 X37.97 Y0.114 I-0.458 J0.544
G1 X38.502 Y2.801
G3 X37.446 Y3.554 I-0.698 J0.138
G2 X34.259 Y2.238 I-6.386 J10.946
G3 X33.087 Y1.594 I0.716 J-2.694
G2 X28.899 Y-1.446 I-15.088 J16.381
G3 X28.648 Y-2.449 I0.348 J-0.62
X29.663 Y-2.643 I0.6 J0.383
G1 X33.902 Y0.412
X37.804 Y2.939
G3 X38.12 Y3.422 I-0.387 J0.597
G1 X38.601 Y6.381
G3 X37.437 Y7.036 I-0.702 J0.114
G2 X32.77 Y4.817 I-6.455 J7.56
G3 X31.802 Y4.306 I0.327 J-1.788
G2 X18.862 Y-1.45 I-13.805 J13.615
G1 X2.184 Y-1.491
X2.139 Y-1.485
X2.095 Y-1.47
X2.057 Y-1.445
G2 X0.113 Y0.344 I15.928 J19.258
G3 X-1.237 Y1.274 I-3.091 J-3.041
G1 X-1.44 Y1.365
G3 X-2.148 Y0.139 I-0.295 J-0.647
G1 X-0.725 Y-0.876
X-0.673 Y-0.91
X-0.617 Y-0.939
X1.603 Y-1.993
X1.701 Y-2.031
X1.804 Y-2.054
X6.646 Y-2.769
G3 X7.098 Y-1.445 I0.104 J0.704
G2 X1.642 Y2.862 I10.901 J19.42
G3 X0.49 Y3.64 I-2.229 J-2.056
G2 X-1.437 Y4.564 I4.555 J11.979
G3 X-2.195 Y3.361 I-0.36 J-0.614
G1 X1.832 Y0.637
X1.888 Y0.603
X6.75 Y-2.065
G3 X7.041 Y-2.151 I0.342 J0.624
G1 X17.052 Y-2.87
G3 X17.812 Y-2.201 I0.051 J0.709
X17.134 Y-1.45 I-0.71 J0.041
G2 X3.157 Y5.442 I0.863 J19.37
G3 X2.209 Y6.061 I-1.507 J-1.273
G2 X-1.448 Y8.05 I2.824 J9.548
G1 X-1.478 Y8.081
X-1.5 Y8.118
X-1.513 Y8.159
X-1.518 Y8.201
X-1.555 Y35.461
X-1.55 Y35.507
X-1.535 Y35.55
X-1.51 Y35.589
X-1.477 Y35.62
X-1.438 Y35.644
G2 X0.236 Y36.285 I6.373 J-14.144
G3 X1.609 Y37.053 I-1.222 J3.793
G2 X2.081 Y37.448 I16.709 J-19.486
G3 X1.228 Y38.584 I-0.45 J0.551
G1 X-0.023 Y37.723
X-0.077 Y37.682
X-1.73 Y36.292
G3 X-1.97 Y35.886 I0.458 J-0.544
G1 X-2.502 Y33.199
G3 X-1.446 Y32.446 I0.698 J-0.138
G2 X1.741 Y33.762 I6.386 J-10.946
G3 X2.914 Y34.406 I-0.716 J2.694
G2 X7.101 Y37.447 I15.088 J-16.375
G3 X7.352 Y38.45 I-0.348 J0.62
X6.336 Y38.644 I-0.599 J-0.383
G1 X2.098 Y35.588
X-1.804 Y33.061
G3 X-2.12 Y32.578 I0.387 J-0.597
G1 X-2.601 Y29.619
G3 X-1.437 Y28.964 I0.702 J-0.114
G2 X3.23 Y31.183 I6.455 J-7.56
G3 X4.198 Y31.695 I-0.327 J1.788
G2 X16.808 Y37.449 I13.845 J-13.647
G3 X17.455 Y38.29 I-0.045 J0.704
X16.536 Y38.821 I-0.692 J-0.137
G1 X6.602 Y35.452
X6.508 Y35.413
X6.422 Y35.36
X-1.896 Y29.5
G3 X-2.188 Y29.022 I0.406 J-0.577
G1 X-2.789 Y24.762
G3 X-1.448 Y24.373 I0.699 J-0.099
G2 X-0.099 Y26.359 I6.367 J-2.873
X4.681 Y28.514 I5.102 J-4.941
G3 X5.432 Y28.877 I-0.048 J1.058
G2 X11.089 Y33.137 I12.814 J-11.129
X18.003 Y34.666 I6.914 J-14.867
X31.361 Y27.886 I0 J-16.55
G3 X32.105 Y27.434 I0.924 J0.68
G2 X36.363 Y25.066 I-1.119 J-7.027
X37.448 Y23.37 I-5.27 J-4.566
G1 X37.461 Y23.33
X37.466 Y23.288
X37.465 Y11.709
X37.461 Y11.667
X37.448 Y11.627
G2 X36.099 Y9.641 I-6.367 J2.873
X31.319 Y7.486 I-5.102 J4.941
G3 X30.568 Y7.123 I0.048 J-1.058
G2 X24.905 Y2.863 I-12.824 J11.152
X17.985 Y1.334 I-6.92 J14.895
X10.505 Y3.141 I0 J16.382
X4.636 Y8.118 I7.735 J15.072
G3 X3.896 Y8.566 I-0.92 J-0.683
G2 X-0.363 Y10.934 I1.119 J7.027
X-1.448 Y12.63 I5.27 J4.566
X-0.649 Y15.374 I2.004 J0.905
G3 X0.704 Y17.891 I-1.64 J2.503
G2 X0.695 Y21.5 I744.227 J3.609
X5 Y25.794 I4.294 J0
X5.54 Y25.777 I0 J-8.645
G3 X6.08 Y25.76 I0.54 J8.628
X6.758 Y26.107 I0 J0.836
G2 X29.9 Y25.106 I11.242 J-8.108
G3 X30.508 Y24.76 I0.608 J0.361
G1 X30.754 Y24.768
X31 Y24.775
G2 X35.281 Y20.529 I0 J-4.281
X35.305 Y14.5 I-744.174 J-6.029
X31 Y10.206 I-4.294 J0
X30.46 Y10.223 I0 J8.647
G3 X29.92 Y10.24 I-0.54 J-8.63
X29.243 Y9.895 I0 J-0.836
X29.043 Y9.607 I6.998 J-5.074
G2 X28.837 Y9.324 I-3.304 J2.197
X6.098 Y10.897 I-10.824 J8.666
G3 X5.492 Y11.24 I-0.606 J-0.364
G1 X5.246 Y11.232
X5 Y11.225
G2 X0.719 Y15.471 I0 J4.281
X0.704 Y17.891 I744.212 J6.029
X1.943 Y20.075 I2.521 J0.012
G3 X3.538 Y22.014 I-1.862 J3.156
G2 X5 Y23.05 I1.462 J-0.514
G1 X8.059
G2 X26.704 Y24.969 I9.941 J-5.05
G1 X26.711 Y24.96
G2 X28.389 Y22.05 I-8.711 J-6.961
G1 X31
G2 X32.55 Y20.5 I0 J-1.55
G1 Y14.5
G2 X31 Y12.95 I-1.55 J0
G1 X27.941
G2 X26.711 Y11.04 I-9.941 J5.05
G1 X26.704 Y11.031
G2 X7.611 Y13.95 I-8.704 J6.969
G1 X5
G2 X3.45 Y15.5 I0 J1.55
G1 Y21.5
G2 X3.538 Y22.014 I1.55 J0
G1 X3.548 Y22.063
X3.547 Y22.113
X3.533 Y22.161
X-2.115 Y35.122
G2 X-2.014 Y35.384 I0.183 J0.08
G1 X-1.959 Y35.409 Z-0.506 F150
X-1.906 Y35.433 Z-0.524
X-1.857 Y35.455 Z-0.552
X-1.814 Y35.474 Z-0.591
X-1.779 Y35.49 Z-0.638
X-1.753 Y35.502 Z-0.692
X-1.737 Y35.509 Z-0.75
X-1.721 Y35.516 Z-0.808
X-1.695 Y35.528 Z-0.862
X-1.66 Y35.544 Z-0.909
X-1.617 Y35.563 Z-0.948
X-1.568 Y35.585 Z-0.976
X-1.515 Y35.609 Z-0.994
X-1.46 Y35.634 Z-1
X-1.438 Y35.644
G2 X0.236 Y36.285 I6.373 J-14.144 F300
G3 X1.609 Y37.053 I-1.222 J3.793
G2 X2.081 Y37.448 I16.709 J-19.486
G3 X1.228 Y38.584 I-0.45 J0.551
G1 X-0.023 Y37.723
X-0.077 Y37.682
X-1.73 Y36.292
G3 X-1.97 Y35.886 I0.458 J-0.544
G1 X-2.502 Y33.199
G3 X-1.446 Y32.446 I0.698 J-0.138
G2 X1.741 Y33.762 I6.386 J-10.946
G3 X2.914 Y34.406 I-0.716 J2.694
G2 X7.101 Y37.447 I15.088 J-16.375
G3 X7.352 Y38.45 I-0.348 J0.62
X6.336 Y38.644 I-0.599 J-0.383
G1 X2.098 Y35.588
X-1.804 Y33.061
G3 X-2.12 Y32.578 I0.387 J-0.597
G1 X-2.601 Y29.619
G3 X-1.437 Y28.964 I0.702 J-0.114
G2 X3.23 Y31.183 I6.455 J-7.56
G3 X4.198 Y31.695 I-0.327 J1.788
G2 X16.808 Y37.449 I13.845 J-13.647
G1 X33.819 Y37.486
X33.865 Y37.48
X33.909 Y37.465
X33.947 Y37.44
G2 X35.885 Y35.658 I-15.944 J-19.282
G3 X37.237 Y34.726 I3.096 J3.045
G1 X37.441 Y34.635
G3 X38.148 Y35.861 I0.295 J0.647
G1 X36.727 Y36.874
X36.675 Y36.908
X36.619 Y36.937
X34.401 Y37.988
X34.303 Y38.026
X34.201 Y38.049
X29.355 Y38.77
G3 X28.902 Y37.447 I-0.105 J-0.703
G2 X34.364 Y33.132 I-10.901 J-19.415
G3 X35.51 Y32.359 I2.225 J2.064
G2 X37.437 Y31.436 I-4.556 J-11.979
G3 X38.196 Y32.638 I0.36 J0.614
G1 X34.168 Y35.363
X34.112 Y35.398
X29.25 Y38.067
G3 X28.96 Y38.153 I-0.342 J-0.623
G1 X19.315 Y38.869
G3 X18.553 Y38.208 I-0.053 J-0.709
X19.217 Y37.45 I0.71 J-0.049
G2 X26.188 Y35.654 I-1.214 J-19.146
X32.847 Y30.553 I-8.47 J-17.955
G3 X33.791 Y29.939 I1.503 J1.277
G2 X37.448 Y27.95 I-2.824 J-9.548
G1 X37.478 Y27.919
X37.5 Y27.882
X37.513 Y27.841
X37.518 Y27.799
X37.555 Y0.539
X37.55 Y0.493
X37.535 Y0.45
X37.51 Y0.411
X37.477 Y0.38
X37.438 Y0.356
G2 X35.764 Y-0.285 I-6.373 J14.144
G3 X34.392 Y-1.052 I1.222 J-3.794
G2 X33.919 Y-1.448 I-16.703 J19.483
G3 X34.773 Y-2.584 I0.45 J-0.551
G1 X36.023 Y-1.723
X36.077 Y-1.682
X37.73 Y-0.292
G3 X37.97 Y0.114 I-0.458 J0.544
G1 X38.502 Y2.801
G3 X37.446 Y3.554 I-0.698 J0.138
G2 X34.259 Y2.238 I-6.386 J10.946
G3 X33.087 Y1.594 I0.716 J-2.694
G2 X28.899 Y-1.446 I-15.088 J16.381
G3 X28.648 Y-2.449 I0.348 J-0.62
X29.663 Y-2.643 I0.6 J0.383
G1 X33.902 Y0.412
X37.804 Y2.939
G3 X38.12 Y3.422 I-0.387 J0.597
G1 X38.601 Y6.381
G3 X37.437 Y7.036 I-0.702 J0.114
G2 X32.77 Y4.817 I-6.455 J7.56
G3 X31.802 Y4.306 I0.327 J-1.788
G2 X18.862 Y-1.45 I-13.805 J13.615
G1 X2.184 Y-1.491
X2.139 Y-1.485
X2.095 Y-1.47
X2.057 Y-1.445
G2 X0.113 Y0.344 I15.928 J19.258
G3 X-1.237 Y1.274 I-3.091 J-3.041
G1 X-1.44 Y1.365
G3 X-2.148 Y0.139 I-0.295 J-0.647
G1 X-0.725 Y-0.876
X-0.673 Y-0.91
X-0.617 Y-0.939
X1.603 Y-1.993
X1.701 Y-2.031
X1.804 Y-2.054
X6.646 Y-2.769
G3 X7.098 Y-1.445 I0.104 J0.704
G2 X1.642 Y2.862 I10.901 J19.42
G3 X0.49 Y3.64 I-2.229 J-2.056
G2 X-1.437 Y4.564 I4.555 J11.979
G3 X-2.195 Y3.361 I-0.36 J-0.614
G1 X1.832 Y0.637
X1.888 Y0.603
X6.75 Y-2.065
G3 X7.041 Y-2.151 I0.342 J0.624
G1 X17.052 Y-2.87
G3 X17.812 Y-2.201 I0.051 J0.709
X17.134 Y-1.45 I-0.71 J0.041
G2 X3.157 Y5.442 I0.863 J19.37
G3 X2.209 Y6.061 I-1.507 J-1.273
G2 X-1.448 Y8.05 I2.824 J9.548
G1 X-1.478 Y8.081
X-1.5 Y8.118
X-1.513 Y8.159
X-1.518 Y8.202
X-1.465 Y24.292
X-1.461 Y24.333
X-1.448 Y24.373
G2 X-0.099 Y26.359 I6.367 J-2.873
X4.681 Y28.514 I5.102 J-4.941
G3 X5.432 Y28.877 I-0.048 J1.058
G2 X11.089 Y33.137 I12.814 J-11.129
X18.003 Y34.666 I6.914 J-14.867
X31.361 Y27.886 I0 J-16.55
G3 X32.105 Y27.434 I0.924 J0.68
G2 X36.363 Y25.066 I-1.119 J-7.027
X37.448 Y23.37 I-5.27 J-4.566
G1 X37.461 Y23.33
X37.466 Y23.288
X37.465 Y11.709
X37.461 Y11.667
X37.448 Y11.627
G2 X36.099 Y9.641 I-6.367 J2.873
X31.319 Y7.486 I-5.102 J4.941
G3 X30.568 Y7.123 I0.048 J-1.058
G2 X24.905 Y2.863 I-12.824 J11.152
X17.985 Y1.334 I-6.92 J14.895
X10.505 Y3.141 I0 J16.382
X4.636 Y8.118 I7.735 J15.072
G3 X3.896 Y8.566 I-0.92 J-0.683
G2 X-0.363 Y10.934 I1.119 J7.027
X-1.448 Y12.63 I5.27 J4.566
X-0.649 Y15.374 I2.004 J0.905
G3 X0.704 Y17.891 I-1.64 J2.503
G2 X0.695 Y21.5 I744.227 J3.609
X5 Y25.794 I4.294 J0
X5.54 Y25.777 I0 J-8.645
G3 X6.08 Y25.76 I0.54 J8.628
X6.758 Y26.107 I0 J0.836
G2 X29.9 Y25.106 I11.242 J-8.108
G3 X30.508 Y24.76 I0.608 J0.361
G1 X30.754 Y24.768
X31 Y24.775
G2 X35.281 Y20.529 I0 J-4.281
X35.305 Y14.5 I-744.174 J-6.029
X31 Y10.206 I-4.294 J0
X30.46 Y10.223 I0 J8.647
G3 X29.92 Y10.24 I-0.54 J-8.63
X29.243 Y9.895 I0 J-0.836
X29.043 Y9.607 I6.998 J-5.074
G2 X28.837 Y9.324 I-3.304 J2.197
X6.098 Y10.897 I-10.824 J8.666
G3 X5.492 Y11.24 I-0.606 J-0.364
G1 X5.246 Y11.232
X5 Y11.225
G2 X0.719 Y15.471 I0 J4.281
X0.704 Y17.891 I744.212 J6.029
X1.943 Y20.075 I2.521 J0.012
G3 X3.538 Y22.014 I-1.862 J3.156
G2 X5 Y23.05 I1.462 J-0.514
G1 X8.059
G2 X26.704 Y24.969 I9.941 J-5.05
G1 X26.711 Y24.96
G2 X28.389 Y22.05 I-8.711 J-6.961
G1 X31
G2 X32.55 Y20.5 I0 J-1.55
G1 Y14.5
G2 X31 Y12.95 I-1.55 J0
G1 X27.941
G2 X26.711 Y11.04 I-9.941 J5.05
G1 X26.704 Y11.031
G2 X7.611 Y13.95 I-8.704 J6.969
G1 X5
G2 X3.45 Y15.5 I0 J1.55
G1 Y21.5
G2 X3.538 Y22.014 I1.55 J0
G1 X3.548 Y22.063
X3.547 Y22.113
X3.533 Y22.161
X-2.115 Y35.122
G2 X-2.014 Y35.384 I0.183 J0.08
G1 X-1.959 Y35.409 Z-1.006 F150
X-1.906 Y35.433 Z-1.024
X-1.857 Y35.455 Z-1.052
X-1.814 Y35.474 Z-1.091
X-1.779 Y35.49 Z-1.138
X-1.753 Y35.502 Z-1.192
X-1.737 Y35.509 Z-1.25
X-1.721 Y35.516 Z-1.308
X-1.695 Y35.528 Z-1.362
X-1.66 Y35.544 Z-1.409
X-1.617 Y35.563 Z-1.448
X-1.568 Y35.585 Z-1.476
X-1.515 Y35.609 Z-1.494
X-1.46 Y35.634 Z-1.5
X-1.438 Y35.644
G2 X0.236 Y36.285 I6.373 J-14.144 F300
G3 X1.609 Y37.053 I-1.222 J3.793
G2 X2.081 Y37.448 I16.709 J-19.486
G3 X1.228 Y38.584 I-0.45 J0.551
G1 X-0.023 Y37.723
X-0.077 Y37.682
X-1.73 Y36.292
G3 X-1.97 Y35.886 I0.458 J-0.544
G1 X-2.502 Y33.199
G3 X-1.446 Y32.446 I0.698 J-0.138
G2 X1.741 Y33.762 I6.386 J-10.946
G3 X2.914 Y34.406 I-0.716 J2.694
G2 X7.101 Y37.447 I15.088 J-16.375
G3 X7.352 Y38.45 I-0.348 J0.62
X6.336 Y38.644 I-0.599 J-0.383
G1 X2.098 Y35.588
X-1.804 Y33.061
G3 X-2.12 Y32.578 I0.387 J-0.597
G1 X-2.601 Y29.619
G3 X-1.437 Y28.964 I0.702 J-0.114
G2 X3.23 Y31.183 I6.455 J-7.56
G3 X4.198 Y31.695 I-0.327 J1.788
G2 X16.808 Y37.449 I13.845 J-13.647
G1 X33.819 Y37.486
X33.865 Y37.48
X33.909 Y37.465
X33.947 Y37.44
G2 X35.885 Y35.658 I-15.944 J-19.282
G3 X37.237 Y34.726 I3.096 J3.045
G1 X37.441 Y34.635
G3 X38.148 Y35.861 I0.295 J0.647
G1 X36.727 Y36.874
X36.675 Y36.908
X36.619 Y36.937
X34.401 Y37.988
X34.303 Y38.026
X34.201 Y38.049
X29.355 Y38.77
G3 X28.902 Y37.447 I-0.105 J-0.703
G2 X34.364 Y33.132 I-10.901 J-19.415
G3 X35.51 Y32.359 I2.225 J2.064
G2 X37.437 Y31.436 I-4.556 J-11.979
G3 X38.196 Y32.638 I0.36 J0.614
G1 X34.168 Y35.363
X34.112 Y35.398
X29.25 Y38.067
G3 X28.96 Y38.153 I-0.342 J-0.623
G1 X19.315 Y38.869
G3 X18.553 Y38.208 I-0.053 J-0.709
X19.217 Y37.45 I0.71 J-0.049
G2 X26.188 Y35.654 I-1.214 J-19.146
X32.847 Y30.553 I-8.47 J-17.955
G3 X33.791 Y29.939 I1.503 J1.277
G2 X37.448 Y27.95 I-2.824 J-9.548
G1 X37.478 Y27.919
X37.5 Y27.882
X37.513 Y27.841
X37.518 Y27.799
X37.555 Y0.539
X37.55 Y0.493
X37.535 Y0.45
X37.51 Y0.411
X37.477 Y0.38
X37.438 Y0.356
G2 X35.764 Y-0.285 I-6.373 J14.144
G3 X34.392 Y-1.052 I1.222 J-3.794
G2 X33.919 Y-1.448 I-16.703 J19.483
G3 X34.773 Y-2.584 I0.45 J-0.551
G1 X36.023 Y-1.723
X36.077 Y-1.682
X37.73 Y-0.292
G3 X37.97 Y0.114 I-0.458 J0.544
G1 X38.502 Y2.801
G3 X37.446 Y3.554 I-0.698 J0.138
G2 X34.259 Y2.238 I-6.386 J10.946
G3 X33.087 Y1.594 I0.716 J-2.694
G2 X28.899 Y-1.446 I-15.088 J16.381
G3 X28.648 Y-2.449 I0.348 J-0.62
X29.663 Y-2.643 I0.6 J0.383
G1 X33.902 Y0.412
X37.804 Y2.939
G3 X38.12 Y3.422 I-0.387 J0.597
G1 X38.601 Y6.381
G3 X37.437 Y7.036 I-0.702 J0.114
G2 X32.77 Y4.817 I-6.455 J7.56
G3 X31.802 Y4.306 I0.327 J-1.788
G2 X18.862 Y-1.45 I-13.805 J13.615
G1 X2.184 Y-1.491
X2.139 Y-1.485
X2.095 Y-1.47
X2.057 Y-1.445
G2 X0.113 Y0.344 I15.928 J19.258
G3 X-1.237 Y1.274 I-3.091 J-3.041
G1 X-1.44 Y1.365
G3 X-2.148 Y0.139 I-0.295 J-0.647
G1 X-0.725 Y-0.876
X-0.673 Y-0.91
X-0.617 Y-0.939
X1.603 Y-1.993
X1.701 Y-2.031
X1.804 Y-2.054
X6.646 Y-2.769
G3 X7.098 Y-1.445 I0.104 J0.704
G2 X1.642 Y2.862 I10.901 J19.42
G3 X0.49 Y3.64 I-2.229 J-2.056
G2 X-1.437 Y4.564 I4.555 J11.979
G3 X-2.195 Y3.361 I-0.36 J-0.614
G1 X1.832 Y0.637
X1.888 Y0.603
X6.75 Y-2.065
G3 X7.041 Y-2.151 I0.342 J0.624
G1 X17.052 Y-2.87
G3 X17.812 Y-2.201 I0.051 J0.709
X17.134 Y-1.45 I-0.71 J0.041
G2 X3.157 Y5.442 I0.863 J19.37
G3 X2.209 Y6.061 I-1.507 J-1.273
G2 X-1.448 Y8.05 I2.824 J9.548
G1 X-1.478 Y8.081
X-1.5 Y8.118
X-1.513 Y8.159
X-1.518 Y8.202
X-1.465 Y24.292
X-1.461 Y24.333
X-1.448 Y24.373
G2 X-0.099 Y26.359 I6.367 J-2.873
X4.681 Y28.514 I5.102 J-4.941
G3 X5.432 Y28.877 I-0.048 J1.058
G2 X11.089 Y33.137 I12.814 J-11.129
X18.003 Y34.666 I6.914 J-14.867
X31.361 Y27.886 I0 J-16.55
G3 X32.105 Y27.434 I0.924 J0.68
G2 X36.363 Y25.066 I-1.119 J-7.027
X37.448 Y23.37 I-5.27 J-4.566
G1 X37.461 Y23.33
X37.466 Y23.288
X37.465 Y11.709
X37.461 Y11.667
X37.448 Y11.627
G2 X36.099 Y9.641 I-6.367 J2.873
X31.319 Y7.486 I-5.102 J4.941
G3 X30.568 Y7.123 I0.048 J-1.058
G2 X24.905 Y2.863 I-12.824 J11.152
X17.985 Y1.334 I-6.92 J14.895
X10.505 Y3.141 I0 J16.382
X4.636 Y8.118 I7.735 J15.072
G3 X3.896 Y8.566 I-0.92 J-0.683
G2 X-0.363 Y10.934 I1.119 J7.027
X-1.448 Y12.63 I5.27 J4.566
X-0.649 Y15.374 I2.004 J0.905
G3 X0.704 Y17.891 I-1.64 J2.503
G2 X0.695 Y21.5 I744.227 J3.609
X5 Y25.794 I4.294 J0
X5.54 Y25.777 I0 J-8.645
G3 X6.08 Y25.76 I0.54 J8.628
X6.758 Y26.107 I0 J0.836
G2 X29.9 Y25.106 I11.242 J-8.108
G3 X30.508 Y24.76 I0.608 J0.361
G1 X30.754 Y24.768
X31 Y24.775
G2 X35.281 Y20.529 I0 J-4.281
X35.305 Y14.5 I-744.174 J-6.029
X31 Y10.206 I-4.294 J0
X30.46 Y10.223 I0 J8.647
G3 X29.92 Y10.24 I-0.54 J-8.63
X29.243 Y9.895 I0 J-0.836
X29.043 Y9.607 I6.998 J-5.074
G2 X28.837 Y9.324 I-3.304 J2.197
X6.098 Y10.897 I-10.824 J8.666
G3 X5.492 Y11.24 I-0.606 J-0.364
G1 X5.246 Y11.232
X5 Y11.225
G2 X0.719 Y15.471 I0 J4.281
X0.704 Y17.891 I744.212 J6.029
X1.943 Y20.075 I2.521 J0.012
G3 X3.538 Y22.014 I-1.862 J3.156
G2 X5 Y23.05 I1.462 J-0.514
G1 X8.059
G2 X26.704 Y24.969 I9.941 J-5.05
G1 X26.711 Y24.96
G2 X28.389 Y22.05 I-8.711 J-6.961
G1 X31
G2 X32.55 Y20.5 I0 J-1.55
G1 Y14.5
G2 X31 Y12.95 I-1.55 J0
G1 X27.941
G2 X26.711 Y11.04 I-9.941 J5.05
G1 X26.704 Y11.031
G2 X7.611 Y13.95 I-8.704 J6.969
G1 X5
G2 X3.45 Y15.5 I0 J1.55
G1 Y21.5
G2 X3.538 Y22.014 I1.55 J0
G1 X3.548 Y22.063
X3.547 Y22.113
X3.533 Y22.161
X-2.115 Y35.122
G2 X-2.014 Y35.384 I0.183 J0.08
G1 X-1.959 Y35.409 Z-1.506 F150
X-1.906 Y35.433 Z-1.524
X-1.857 Y35.455 Z-1.552
X-1.814 Y35.474 Z-1.591
X-1.779 Y35.49 Z-1.638
X-1.753 Y35.502 Z-1.692
X-1.737 Y35.509 Z-1.75
X-1.721 Y35.516 Z-1.808
X-1.695 Y35.528 Z-1.862
X-1.66 Y35.544 Z-1.909
X-1.617 Y35.563 Z-1.948
X-1.568 Y35.585 Z-1.976
X-1.515 Y35.609 Z-1.994
X-1.46 Y35.634 Z-2
X-1.438 Y35.644
G2 X0.236 Y36.285 I6.373 J-14.144 F300
G3 X1.609 Y37.053 I-1.222 J3.793
G2 X2.081 Y37.448 I16.709 J-19.486
G3 X1.228 Y38.584 I-0.45 J0.551
G1 X-0.023 Y37.723
X-0.077 Y37.682
X-1.73 Y36.292
G3 X-1.97 Y35.886 I0.458 J-0.544
G1 X-2.502 Y33.199
G3 X-1.446 Y32.446 I0.698 J-0.138
G2 X1.741 Y33.762 I6.386 J-10.946
G3 X2.914 Y34.406 I-0.716 J2.694
G2 X7.101 Y37.447 I15.088 J-16.375
G3 X7.352 Y38.45 I-0.348 J0.62
X6.336 Y38.644 I-0.599 J-0.383
G1 X2.098 Y35.588
X-1.804 Y33.061
G3 X-2.12 Y32.578 I0.387 J-0.597
G1 X-2.601 Y29.619
G3 X-1.437 Y28.964 I0.702 J-0.114
G2 X3.23 Y31.183 I6.455 J-7.56
G3 X4.198 Y31.695 I-0.327 J1.788
G2 X16.808 Y37.449 I13.845 J-13.647
G1 X33.819 Y37.486
X33.865 Y37.48
X33.909 Y37.465
X33.947 Y37.44
G2 X35.885 Y35.658 I-15.944 J-19.282
G3 X37.237 Y34.726 I3.096 J3.045
G1 X37.441 Y34.635
G3 X38.148 Y35.861 I0.295 J0.647
G1 X36.727 Y36.874
X36.675 Y36.908
X36.619 Y36.937
X34.401 Y37.988
X34.303 Y38.026
X34.201 Y38.049
X29.355 Y38.77
G3 X28.902 Y37.447 I-0.105 J-0.703
G2 X34.364 Y33.132 I-10.901 J-19.415
G3 X35.51 Y32.359 I2.225 J2.064
G2 X37.437 Y31.436 I-4.556 J-11.979
G3 X38.196 Y32.638 I0.36 J0.614
G1 X34.168 Y35.363
X34.112 Y35.398
X29.25 Y38.067
G3 X28.96 Y38.153 I-0.342 J-0.623
G1 X19.315 Y38.869
G3 X18.553 Y38.208 I-0.053 J-0.709
X19.217 Y37.45 I0.71 J-0.049
G2 X26.188 Y35.654 I-1.214 J-19.146
X32.847 Y30.553 I-8.47 J-17.955
G3 X33.791 Y29.939 I1.503 J1.277
G2 X37.448 Y27.95 I-2.824 J-9.548
G1 X37.478 Y27.919
X37.5 Y27.882
X37.513 Y27.841
X37.518 Y27.799
X37.555 Y0.539
X37.55 Y0.493
X37.535 Y0.45
X37.51 Y0.411
X37.477 Y0.38
X37.438 Y0.356
G2 X35.764 Y-0.285 I-6.373 J14.144
G3 X34.392 Y-1.052 I1.222 J-3.794
G2 X33.919 Y-1.448 I-16.703 J19.483
G3 X34.773 Y-2.584 I0.45 J-0.551
G1 X36.023 Y-1.723
X36.077 Y-1.682
X37.73 Y-0.292
G3 X37.97 Y0.114 I-0.458 J0.544
G1 X38.502 Y2.801
G3 X37.446 Y3.554 I-0.698 J0.138
G2 X34.259 Y2.238 I-6.386 J10.946
G3 X33.087 Y1.594 I0.716 J-2.694
G2 X28.899 Y-1.446 I-15.088 J16.381
G3 X28.648 Y-2.449 I0.348 J-0.62
X29.663 Y-2.643 I0.6 J0.383
G1 X33.902 Y0.412
X37.804 Y2.939
G3 X38.12 Y3.422 I-0.387 J0.597
G1 X38.601 Y6.381
G3 X37.437 Y7.036 I-0.702 J0.114
G2 X32.77 Y4.817 I-6.455 J7.56
G3 X31.802 Y4.306 I0.327 J-1.788
G2 X18.862 Y-1.45 I-13.805 J13.615
G1 X2.184 Y-1.491
X2.139 Y-1.485
X2.095 Y-1.47
X2.057 Y-1.445
G2 X0.113 Y0.344 I15.928 J19.258
G3 X-1.237 Y1.274 I-3.091 J-3.041
G1 X-1.44 Y1.365
G3 X-2.148 Y0.139 I-0.295 J-0.647
G1 X-0.725 Y-0.876
X-0.673 Y-0.91
X-0.617 Y-0.939
X1.603 Y-1.993
X1.701 Y-2.031
X1.804 Y-2.054
X6.646 Y-2.769
G3 X7.098 Y-1.445 I0.104 J0.704
G2 X1.642 Y2.862 I10.901 J19.42
G3 X0.49 Y3.64 I-2.229 J-2.056
G2 X-1.437 Y4.564 I4.555 J11.979
G3 X-2.195 Y3.361 I-0.36 J-0.614
G1 X1.832 Y0.637
X1.888 Y0.603
X6.75 Y-2.065
G3 X7.041 Y-2.151 I0.342 J0.624
G1 X17.052 Y-2.87
G3 X17.812 Y-2.201 I0.051 J0.709
X17.134 Y-1.45 I-0.71 J0.041
G2 X3.157 Y5.442 I0.863 J19.37
G3 X2.209 Y6.061 I-1.507 J-1.273
G2 X-1.448 Y8.05 I2.824 J9.548
G1 X-1.478 Y8.081
X-1.5 Y8.118
X-1.513 Y8.159
X-1.518 Y8.202
X-1.465 Y24.292
X-1.461 Y24.333
X-1.448 Y24.373
G2 X-0.099 Y26.359 I6.367 J-2.873
X4.681 Y28.514 I5.102 J-4.941
G3 X5.432 Y28.877 I-0.048 J1.058
G2 X11.089 Y33.137 I12.814 J-11.129
X18.003 Y34.666 I6.914 J-14.867
X31.361 Y27.886 I0 J-16.55
G3 X32.105 Y27.434 I0.924 J0.68
G2 X36.363 Y25.066 I-1.119 J-7.027
X37.448 Y23.37 I-5.27 J-4.566
G1 X37.461 Y23.33
X37.466 Y23.288
X37.465 Y11.709
X37.461 Y11.667
X37.448 Y11.627
G2 X36.099 Y9.641 I-6.367 J2.873
X31.319 Y7.486 I-5.102 J4.941
G3 X30.568 Y7.123 I0.048 J-1.058
G2 X24.905 Y2.863 I-12.824 J11.152
X17.985 Y1.334 I-6.92 J14.895
X10.505 Y3.141 I0 J16.382
X4.636 Y8.118 I7.735 J15.072
G3 X3.896 Y8.566 I-0.92 J-0.683
G2 X-0.363 Y10.934 I1.119 J7.027
X-1.448 Y12.63 I5.27 J4.566
X-0.649 Y15.374 I2.004 J0.905
G3 X0.704 Y17.891 I-1.64 J2.503
G2 X0.695 Y21.5 I744.227 J3.609
X5 Y25.794 I4.294 J0
X5.54 Y25.777 I0 J-8.645
G3 X6.08 Y25.76 I0.54 J8.628
X6.758 Y26.107 I0 J0.836
G2 X29.9 Y25.106 I11.242 J-8.108
G3 X30.508 Y24.76 I0.608 J0.361
G1 X30.754 Y24.768
X31 Y24.775
G2 X35.281 Y20.529 I0 J-4.281
X35.305 Y14.5 I-744.174 J-6.029
X31 Y10.206 I-4.294 J0
X30.46 Y10.223 I0 J8.647
G3 X29.92 Y10.24 I-0.54 J-8.63
X29.243 Y9.895 I0 J-0.836
X29.043 Y9.607 I6.998 J-5.074
G2 X28.837 Y9.324 I-3.304 J2.197
X6.098 Y10.897 I-10.824 J8.666
G3 X5.492 Y11.24 I-0.606 J-0.364
G1 X5.246 Y11.232
X5 Y11.225
G2 X0.719 Y15.471 I0 J4.281
X0.704 Y17.891 I744.212 J6.029
X1.943 Y20.075 I2.521 J0.012
G3 X3.538 Y22.014 I-1.862 J3.156
G2 X5 Y23.05 I1.462 J-0.514
G1 X8.059
G2 X26.704 Y24.969 I9.941 J-5.05
G1 X26.711 Y24.96
G2 X28.389 Y22.05 I-8.711 J-6.961
G1 X31
G2 X32.55 Y20.5 I0 J-1.55
G1 Y14.5
G2 X31 Y12.95 I-1.55 J0
G1 X27.941
G2 X26.711 Y11.04 I-9.941 J5.05
G1 X26.704 Y11.031
G2 X7.611 Y13.95 I-8.704 J6.969
G1 X5
G2 X3.45 Y15.5 I0 J1.55
G1 Y21.5
G2 X3.538 Y22.014 I1.55 J0
G1 X3.548 Y22.063
X3.547 Y22.113
X3.533 Y22.161
X-2.115 Y35.122
G2 X-2.014 Y35.384 I0.183 J0.08
G1 X-1.959 Y35.409 Z-2.006 F150
X-1.906 Y35.433 Z-2.024
X-1.857 Y35.455 Z-2.052
X-1.814 Y35.474 Z-2.091
X-1.779 Y35.49 Z-2.138
X-1.753 Y35.502 Z-2.192
X-1.737 Y35.509 Z-2.25
X-1.721 Y35.516 Z-2.308
X-1.695 Y35.528 Z-2.362
X-1.66 Y35.544 Z-2.409
X-1.617 Y35.563 Z-2.448
X-1.568 Y35.585 Z-2.476
X-1.515 Y35.609 Z-2.494
X-1.46 Y35.634 Z-2.5
X-1.438 Y35.644
G2 X0.236 Y36.285 I6.373 J-14.144 F300
G3 X1.609 Y37.053 I-1.222 J3.793
G2 X2.081 Y37.448 I16.709 J-19.486
G3 X1.228 Y38.584 I-0.45 J0.551
G1 X-0.023 Y37.723
X-0.077 Y37.682
X-1.73 Y36.292
G3 X-1.97 Y35.886 I0.458 J-0.544
G1 X-2.502 Y33.199
G3 X-1.446 Y32.446 I0.698 J-0.138
G2 X1.741 Y33.762 I6.386 J-10.946
G3 X2.914 Y34.406 I-0.716 J2.694
G2 X7.101 Y37.447 I15.088 J-16.375
G3 X7.352 Y38.45 I-0.348 J0.62
X6.336 Y38.644 I-0.599 J-0.383
G1 X2.098 Y35.588
X-1.804 Y33.061
G3 X-2.12 Y32.578 I0.387 J-0.597
G1 X-2.601 Y29.619
G3 X-1.437 Y28.964 I0.702 J-0.114
G2 X3.23 Y31.183 I6.455 J-7.56
G3 X4.198 Y31.695 I-0.327 J1.788
G2 X16.808 Y37.449 I13.845 J-13.647
G1 X33.819 Y37.486
X33.865 Y37.48
X33.909 Y37.465
X33.947 Y37.44
G2 X35.885 Y35.658 I-15.944 J-19.282
G3 X37.237 Y34.726 I3.096 J3.045
G1 X37.441 Y34.635
G3 X38.148 Y35.861 I0.295 J0.647
G1 X36.727 Y36.874
X36.675 Y36.908
X36.619 Y36.937
X34.401 Y37.988
X34.303 Y38.026
X34.201 Y38.049
X29.355 Y38.77
G3 X28.902 Y37.447 I-0.105 J-0.703
G2 X34.364 Y33.132 I-10.901 J-19.415
G3 X35.51 Y32.359 I2.225 J2.064
G2 X37.437 Y31.436 I-4.556 J-11.979
G3 X38.196 Y32.638 I0.36 J0.614
G1 X34.168 Y35.363
X34.112 Y35.398
X29.25 Y38.067
G3 X28.96 Y38.153 I-0.342 J-0.623
G1 X19.315 Y38.869
G3 X18.553 Y38.208 I-0.053 J-0.709
X19.217 Y37.45 I0.71 J-0.049
G2 X26.188 Y35.654 I-1.214 J-19.146
X32.847 Y30.553 I-8.47 J-17.955
G3 X33.791 Y29.939 I1.503 J1.277
G2 X37.448 Y27.95 I-2.824 J-9.548
G1 X37.478 Y27.919
X37.5 Y27.882
X37.513 Y27.841
X37.518 Y27.799
X37.555 Y0.539
X37.55 Y0.493
X37.535 Y0.45
X37.51 Y0.411
X37.477 Y0.38
X37.438 Y0.356
G2 X35.764 Y-0.285 I-6.373 J14.144
G3 X34.392 Y-1.052 I1.222 J-3.794
G2 X33.919 Y-1.448 I-16.703 J19.483
G3 X34.773 Y-2.584 I0.45 J-0.551
G1 X36.023 Y-1.723
X36.077 Y-1.682
X37.73 Y-0.292
G3 X37.97 Y0.114 I-0.458 J0.544
G1 X38.502 Y2.801
G3 X37.446 Y3.554 I-0.698 J0.138
G2 X34.259 Y2.238 I-6.386 J10.946
G3 X33.087 Y1.594 I0.716 J-2.694
G2 X28.899 Y-1.446 I-15.088 J16.381
G3 X28.648 Y-2.449 I0.348 J-0.62
X29.663 Y-2.643 I0.6 J0.383
G1 X33.902 Y0.412
X37.804 Y2.939
G3 X38.12 Y3.422 I-0.387 J0.597
G1 X38.601 Y6.381
G3 X37.437 Y7.036 I-0.702 J0.114
G2 X32.77 Y4.817 I-6.455 J7.56
G3 X31.802 Y4.306 I0.327 J-1.788
G2 X18.862 Y-1.45 I-13.805 J13.615
G1 X2.184 Y-1.491
X2.139 Y-1.485
X2.095 Y-1.47
X2.057 Y-1.445
G2 X0.113 Y0.344 I15.928 J19.258
G3 X-1.237 Y1.274 I-3.091 J-3.041
G1 X-1.44 Y1.365
G3 X-2.148 Y0.139 I-0.295 J-0.647
G1 X-0.725 Y-0.876
X-0.673 Y-0.91
X-0.617 Y-0.939
X1.603 Y-1.993
X1.701 Y-2.031
X1.804 Y-2.054
X6.646 Y-2.769
G3 X7.098 Y-1.445 I0.104 J0.704
G2 X1.642 Y2.862 I10.901 J19.42
G3 X0.49 Y3.64 I-2.229 J-2.056
G2 X-1.437 Y4.564 I4.555 J11.979
G3 X-2.195 Y3.361 I-0.36 J-0.614
G1 X1.832 Y0.637
X1.888 Y0.603
X6.75 Y-2.065
G3 X7.041 Y-2.151 I0.342 J0.624
G1 X17.052 Y-2.87
G3 X17.812 Y-2.201 I0.051 J0.709
X17.134 Y-1.45 I-0.71 J0.041
G2 X3.157 Y5.442 I0.863 J19.37
G3 X2.209 Y6.061 I-1.507 J-1.273
G2 X-1.448 Y8.05 I2.824 J9.548
G1 X-1.478 Y8.081
X-1.5 Y8.118
X-1.513 Y8.159
X-1.518 Y8.202
X-1.465 Y24.292
X-1.461 Y24.333
X-1.448 Y24.373
G2 X-0.099 Y26.359 I6.367 J-2.873
X4.681 Y28.514 I5.102 J-4.941
G3 X5.432 Y28.877 I-0.048 J1.058
G2 X11.089 Y33.137 I12.814 J-11.129
X18.003 Y34.666 I6.914 J-14.867
X31.361 Y27.886 I0 J-16.55
G3 X32.105 Y27.434 I0.924 J0.68
G2 X36.363 Y25.066 I-1.119 J-7.027
X37.448 Y23.37 I-5.27 J-4.566
G1 X37.461 Y23.33
X37.466 Y23.288
X37.465 Y11.709
X37.461 Y11.667
X37.448 Y11.627
G2 X36.099 Y9.641 I-6.367 J2.873
X31.319 Y7.486 I-5.102 J4.941
G3 X30.568 Y7.123 I0.048 J-1.058
G2 X24.905 Y2.863 I-12.824 J11.152
X17.985 Y1.334 I-6.92 J14.895
X10.505 Y3.141 I0 J16.382
X4.636 Y8.118 I7.735 J15.072
G3 X3.896 Y8.566 I-0.92 J-0.683
G2 X-0.363 Y10.934 I1.119 J7.027
X-1.448 Y12.63 I5.27 J4.566
X-0.649 Y15.374 I2.004 J0.905
G3 X0.704 Y17.891 I-1.64 J2.503
G2 X0.695 Y21.5 I744.227 J3.609
X5 Y25.794 I4.294 J0
X5.54 Y25.777 I0 J-8.645
G3 X6.08 Y25.76 I0.54 J8.628
X6.758 Y26.107 I0 J0.836
G2 X29.9 Y25.106 I11.242 J-8.108
G3 X30.508 Y24.76 I0.608 J0.361
G1 X30.754 Y24.768
X31 Y24.775
G2 X35.281 Y20.529 I0 J-4.281
X35.305 Y14.5 I-744.174 J-6.029
X31 Y10.206 I-4.294 J0
X30.46 Y10.223 I0 J8.647
G3 X29.92 Y10.24 I-0.54 J-8.63
X29.243 Y9.895 I0 J-0.836
X29.043 Y9.607 I6.998 J-5.074
G2 X28.837 Y9.324 I-3.304 J2.197
X6.098 Y10.897 I-10.824 J8.666
G3 X5.492 Y11.24 I-0.606 J-0.364
G1 X5.246 Y11.232
X5 Y11.225
G2 X0.719 Y15.471 I0 J4.281
X0.704 Y17.891 I744.212 J6.029
X1.943 Y20.075 I2.521 J0.012
G3 X3.538 Y22.014 I-1.862 J3.156
G2 X5 Y23.05 I1.462 J-0.514
G1 X8.059
G2 X26.704 Y24.969 I9.941 J-5.05
G1 X26.711 Y24.96
G2 X28.389 Y22.05 I-8.711 J-6.961
G1 X31
G2 X32.55 Y20.5 I0 J-1.55
G1 Y14.5
G2 X31 Y12.95 I-1.55 J0
G1 X27.941
G2 X26.711 Y11.04 I-9.941 J5.05
G1 X26.704 Y11.031
G2 X7.611 Y13.95 I-8.704 J6.969
G1 X5
G2 X3.45 Y15.5 I0 J1.55
G1 Y21.5
G2 X3.538 Y22.014 I1.55 J0
G1 X3.548 Y22.063
X3.547 Y22.113
X3.533 Y22.161
X-2.115 Y35.122
G2 X-2.014 Y35.384 I0.183 J0.08
G1 X-1.959 Y35.409 Z-2.506 F150
X-1.906 Y35.433 Z-2.524
X-1.857 Y35.455 Z-2.552
X-1.814 Y35.474 Z-2.591
X-1.779 Y35.49 Z-2.638
X-1.753 Y35.502 Z-2.692
X-1.737 Y35.509 Z-2.75
X-1.721 Y35.516 Z-2.808
X-1.695 Y35.528 Z-2.862
X-1.66 Y35.544 Z-2.909
X-1.617 Y35.563 Z-2.948
X-1.568 Y35.585 Z-2.976
X-1.515 Y35.609 Z-2.994
X-1.46 Y35.634 Z-3
X-1.438 Y35.644
G2 X0.236 Y36.285 I6.373 J-14.144 F300
G3 X1.609 Y37.053 I-1.222 J3.793
G2 X2.081 Y37.448 I16.709 J-19.486
G3 X1.228 Y38.584 I-0.45 J0.551
G1 X-0.023 Y37.723
X-0.077 Y37.682
X-1.73 Y36.292
G3 X-1.97 Y35.886 I0.458 J-0.544
G1 X-2.502 Y33.199
G3 X-1.446 Y32.446 I0.698 J-0.138
G2 X1.741 Y33.762 I6.386 J-10.946
G3 X2.914 Y34.406 I-0.716 J2.694
G2 X7.101 Y37.447 I15.088 J-16.375
G3 X7.352 Y38.45 I-0.348 J0.62
X6.336 Y38.644 I-0.599 J-0.383
G1 X2.098 Y35.588
X-1.804 Y33.061
G3 X-2.12 Y32.578 I0.387 J-0.597
G1 X-2.601 Y29.619
G3 X-1.437 Y28.964 I0.702 J-0.114
G2 X3.23 Y31.183 I6.455 J-7.56
G3 X4.198 Y31.695 I-0.327 J1.788
G2 X16.808 Y37.449 I13.845 J-13.647
G1 X33.819 Y37.486
X33.865 Y37.48
X33.909 Y37.465
X33.947 Y37.44
G2 X35.885 Y35.658 I-15.944 J-19.282
G3 X37.237 Y34.726 I3.096 J3.045
G1 X37.441 Y34.635
G3 X38.148 Y35.861 I0.295 J0.647
G1 X36.727 Y36.874
X36.675 Y36.908
X36.619 Y36.937
X34.401 Y37.988
X34.303 Y38.026
X34.201 Y38.049
X29.355 Y38.77
G3 X28.902 Y37.447 I-0.105 J-0.703
G2 X34.364 Y33.132 I-10.901 J-19.415
G3 X35.51 Y32.359 I2.225 J2.064
G2 X37.437 Y31.436 I-4.556 J-11.979
G3 X38.196 Y32.638 I0.36 J0.614
G1 X34.168 Y35.363
X34.112 Y35.398
X29.25 Y38.067
G3 X28.96 Y38.153 I-0.342 J-0.623
G1 X19.315 Y38.869
G3 X18.553 Y38.208 I-0.053 J-0.709
X19.217 Y37.45 I0.71 J-0.049
G2 X26.188 Y35.654 I-1.214 J-19.146
X32.847 Y30.553 I-8.47 J-17.955
G3 X33.791 Y29.939 I1.503 J1.277
G2 X37.448 Y27.95 I-2.824 J-9.548
G1 X37.478 Y27.919
X37.5 Y27.882
X37.513 Y27.841
X37.518 Y27.799
X37.555 Y0.539
X37.55 Y0.493
X37.535 Y0.45
X37.51 Y0.411
X37.477 Y0.38
X37.438 Y0.356
G2 X35.764 Y-0.285 I-6.373 J14.144
G3 X34.392 Y-1.052 I1.222 J-3.794
G2 X33.919 Y-1.448 I-16.703 J19.483
G3 X34.773 Y-2.584 I0.45 J-0.551
G1 X36.023 Y-1.723
X36.077 Y-1.682
X37.73 Y-0.292
G3 X37.97 Y0.114 I-0.458 J0.544
G1 X38.502 Y2.801
G3 X37.446 Y3.554 I-0.698 J0.138
G2 X34.259 Y2.238 I-6.386 J10.946
G3 X33.087 Y1.594 I0.716 J-2.694
G2 X28.899 Y-1.446 I-15.088 J16.381
G3 X28.648 Y-2.449 I0.348 J-0.62
X29.663 Y-2.643 I0.6 J0.383
G1 X33.902 Y0.412
X37.804 Y2.939
G3 X38.12 Y3.422 I-0.387 J0.597
G1 X38.601 Y6.381
G3 X37.437 Y7.036 I-0.702 J0.114
G2 X32.77 Y4.817 I-6.455 J7.56
G3 X31.802 Y4.306 I0.327 J-1.788
G2 X18.862 Y-1.45 I-13.805 J13.615
G1 X2.184 Y-1.491
X2.139 Y-1.485
X2.095 Y-1.47
X2.057 Y-1.445
G2 X0.113 Y0.344 I15.928 J19.258
G3 X-1.237 Y1.274 I-3.091 J-3.041
G1 X-1.44 Y1.365
G3 X-2.148 Y0.139 I-0.295 J-0.647
G1 X-0.725 Y-0.876
X-0.673 Y-0.91
X-0.617 Y-0.939
X1.603 Y-1.993
X1.701 Y-2.031
X1.804 Y-2.054
X6.646 Y-2.769
G3 X7.098 Y-1.445 I0.104 J0.704
G2 X1.642 Y2.862 I10.901 J19.42
G3 X0.49 Y3.64 I-2.229 J-2.056
G2 X-1.437 Y4.564 I4.555 J11.979
G3 X-2.195 Y3.361 I-0.36 J-0.614
G1 X1.832 Y0.637
X1.888 Y0.603
X6.75 Y-2.065
G3 X7.041 Y-2.151 I0.342 J0.624
G1 X17.052 Y-2.87
G3 X17.812 Y-2.201 I0.051 J0.709
X17.134 Y-1.45 I-0.71 J0.041
G2 X3.157 Y5.442 I0.863 J19.37
G3 X2.209 Y6.061 I-1.507 J-1.273
G2 X-1.448 Y8.05 I2.824 J9.548
G1 X-1.478 Y8.081
X-1.5 Y8.118
X-1.513 Y8.159
X-1.518 Y8.202
X-1.465 Y24.292
X-1.461 Y24.333
X-1.448 Y24.373
G2 X-0.099 Y26.359 I6.367 J-2.873
X4.681 Y28.514 I5.102 J-4.941
G3 X5.432 Y28.877 I-0.048 J1.058
G2 X11.089 Y33.137 I12.814 J-11.129
X18.003 Y34.666 I6.914 J-14.867
X31.361 Y27.886 I0 J-16.55
G3 X32.105 Y27.434 I0.924 J0.68
G2 X36.363 Y25.066 I-1.119 J-7.027
X37.448 Y23.37 I-5.27 J-4.566
G1 X37.461 Y23.33
X37.466 Y23.288
X37.465 Y11.709
X37.461 Y11.667
X37.448 Y11.627
G2 X36.099 Y9.641 I-6.367 J2.873
X31.319 Y7.486 I-5.102 J4.941
G3 X30.568 Y7.123 I0.048 J-1.058
G2 X24.905 Y2.863 I-12.824 J11.152
X17.985 Y1.334 I-6.92 J14.895
X10.505 Y3.141 I0 J16.382
X4.636 Y8.118 I7.735 J15.072
G3 X3.896 Y8.566 I-0.92 J-0.683
G2 X-0.363 Y10.934 I1.119 J7.027
X-1.448 Y12.63 I5.27 J4.566
X-0.649 Y15.374 I2.004 J0.905
G3 X0.704 Y17.891 I-1.64 J2.503
G2 X0.695 Y21.5 I744.227 J3.609
X5 Y25.794 I4.294 J0
X5.54 Y25.777 I0 J-8.645
G3 X6.08 Y25.76 I0.54 J8.628
X6.758 Y26.107 I0 J0.836
G2 X29.9 Y25.106 I11.242 J-8.108
G3 X30.508 Y24.76 I0.608 J0.361
G1 X30.754 Y24.768
X31 Y24.775
G2 X35.281 Y20.529 I0 J-4.281
X35.305 Y14.5 I-744.174 J-6.029
X31 Y10.206 I-4.294 J0
X30.46 Y10.223 I0 J8.647
G3 X29.92 Y10.24 I-0.54 J-8.63
X29.243 Y9.895 I0 J-0.836
X29.043 Y9.607 I6.998 J-5.074
G2 X28.837 Y9.324 I-3.304 J2.197
X6.098 Y10.897 I-10.824 J8.666
G3 X5.492 Y11.24 I-0.606 J-0.364
G1 X5.246 Y11.232
X5 Y11.225
G2 X0.719 Y15.471 I0 J4.281
X0.704 Y17.891 I744.212 J6.029
X1.943 Y20.075 I2.521 J0.012
G3 X3.538 Y22.014 I-1.862 J3.156
G2 X5 Y23.05 I1.462 J-0.514
G1 X8.059
G2 X26.704 Y24.969 I9.941 J-5.05
G1 X26.711 Y24.96
G2 X28.389 Y22.05 I-8.711 J-6.961
G1 X31
G2 X32.55 Y20.5 I0 J-1.55
G1 Y14.5
G2 X31 Y12.95 I-1.55 J0
G1 X27.941
G2 X26.711 Y11.04 I-9.941 J5.05
G1 X26.704 Y11.031
G2 X7.611 Y13.95 I-8.704 J6.969
G1 X5
G2 X3.45 Y15.5 I0 J1.55
G1 Y21.5
G2 X3.538 Y22.014 I1.55 J0
G1 X3.548 Y22.063
X3.547 Y22.113
X3.533 Y22.161
X-2.115 Y35.122
G2 X-2.014 Y35.384 I0.183 J0.08
G1 X-1.959 Y35.409 Z-3.006 F150
X-1.906 Y35.433 Z-3.024
X-1.857 Y35.455 Z-3.052
X-1.814 Y35.474 Z-3.091
X-1.779 Y35.49 Z-3.138
X-1.753 Y35.502 Z-3.192
X-1.737 Y35.509 Z-3.25
X-1.721 Y35.516 Z-3.308
X-1.695 Y35.528 Z-3.362
X-1.66 Y35.544 Z-3.409
X-1.617 Y35.563 Z-3.448
X-1.568 Y35.585 Z-3.476
X-1.515 Y35.609 Z-3.494
X-1.46 Y35.634 Z-3.5
X-1.438 Y35.644
G2 X0.236 Y36.285 I6.373 J-14.144 F300
G3 X1.609 Y37.053 I-1.222 J3.793
G2 X2.081 Y37.448 I16.709 J-19.486
G3 X1.228 Y38.584 I-0.45 J0.551
G1 X-0.023 Y37.723
X-0.077 Y37.682
X-1.73 Y36.292
G3 X-1.97 Y35.886 I0.458 J-0.544
G1 X-2.502 Y33.199
G3 X-1.446 Y32.446 I0.698 J-0.138
G2 X1.741 Y33.762 I6.386 J-10.946
G3 X2.914 Y34.406 I-0.716 J2.694
G2 X7.101 Y37.447 I15.088 J-16.375
G3 X7.352 Y38.45 I-0.348 J0.62
X6.336 Y38.644 I-0.599 J-0.383
G1 X2.098 Y35.588
X-1.804 Y33.061
G3 X-2.12 Y32.578 I0.387 J-0.597
G1 X-2.601 Y29.619
G3 X-1.437 Y28.964 I0.702 J-0.114
G2 X3.23 Y31.183 I6.455 J-7.56
G3 X4.198 Y31.695 I-0.327 J1.788
G2 X16.808 Y37.449 I13.845 J-13.647
G1 X33.819 Y37.486
X33.865 Y37.48
X33.909 Y37.465
X33.947 Y37.44
G2 X35.885 Y35.658 I-15.944 J-19.282
G3 X37.237 Y34.726 I3.096 J3.045
G1 X37.441 Y34.635
G3 X38.148 Y35.861 I0.295 J0.647
G1 X36.727 Y36.874
X36.675 Y36.908
X36.619 Y36.937
X34.401 Y37.988
X34.303 Y38.026
X34.201 Y38.049
X29.355 Y38.77
G3 X28.902 Y37.447 I-0.105 J-0.703
G2 X34.364 Y33.132 I-10.901 J-19.415
G3 X35.51 Y32.359 I2.225 J2.064
G2 X37.437 Y31.436 I-4.556 J-11.979
G3 X38.196 Y32.638 I0.36 J0.614
G1 X34.168 Y35.363
X34.112 Y35.398
X29.25 Y38.067
G3 X28.96 Y38.153 I-0.342 J-0.623
G1 X19.315 Y38.869
G3 X18.553 Y38.208 I-0.053 J-0.709
X19.217 Y37.45 I0.71 J-0.049
G2 X26.188 Y35.654 I-1.214 J-19.146
X32.847 Y30.553 I-8.47 J-17.955
G3 X33.791 Y29.939 I1.503 J1.277
G2 X37.448 Y27.95 I-2.824 J-9.548
G1 X37.478 Y27.919
X37.5 Y27.882
X37.513 Y27.841
X37.518 Y27.799
X37.555 Y0.539
X37.55 Y0.493
X37.535 Y0.45
X37.51 Y0.411
X37.477 Y0.38
X37.438 Y0.356
G2 X35.764 Y-0.285 I-6.373 J14.144
G3 X34.392 Y-1.052 I1.222 J-3.794
G2 X33.919 Y-1.448 I-16.703 J19.483
G3 X34.773 Y-2.584 I0.45 J-0.551
G1 X36.023 Y-1.723
X36.077 Y-1.682
X37.73 Y-0.292
G3 X37.97 Y0.114 I-0.458 J0.544
G1 X38.502 Y2.801
G3 X37.446 Y3.554 I-0.698 J0.138
G2 X34.259 Y2.238 I-6.386 J10.946
G3 X33.087 Y1.594 I0.716 J-2.694
G2 X28.899 Y-1.446 I-15.088 J16.381
G3 X28.648 Y-2.449 I0.348 J-0.62
X29.663 Y-2.643 I0.6 J0.383
G1 X33.902 Y0.412
X37.804 Y2.939
G3 X38.12 Y3.422 I-0.387 J0.597
G1 X38.601 Y6.381
G3 X37.437 Y7.036 I-0.702 J0.114
G2 X32.77 Y4.817 I-6.455 J7.56
G3 X31.802 Y4.306 I0.327 J-1.788
G2 X18.862 Y-1.45 I-13.805 J13.615
G1 X2.184 Y-1.491
X2.139 Y-1.485
X2.095 Y-1.47
X2.057 Y-1.445
G2 X0.113 Y0.344 I15.928 J19.258
G3 X-1.237 Y1.274 I-3.091 J-3.041
G1 X-1.44 Y1.365
G3 X-2.148 Y0.139 I-0.295 J-0.647
G1 X-0.725 Y-0.876
X-0.673 Y-0.91
X-0.617 Y-0.939
X1.603 Y-1.993
X1.701 Y-2.031
X1.804 Y-2.054
X6.646 Y-2.769
G3 X7.098 Y-1.445 I0.104 J0.704
G2 X1.642 Y2.862 I10.901 J19.42
G3 X0.49 Y3.64 I-2.229 J-2.056
G2 X-1.437 Y4.564 I4.555 J11.979
G3 X-2.195 Y3.361 I-0.36 J-0.614
G1 X1.832 Y0.637
X1.888 Y0.603
X6.75 Y-2.065
G3 X7.041 Y-2.151 I0.342 J0.624
G1 X17.052 Y-2.87
G3 X17.812 Y-2.201 I0.051 J0.709
X17.134 Y-1.45 I-0.71 J0.041
G2 X3.157 Y5.442 I0.863 J19.37
G3 X2.209 Y6.061 I-1.507 J-1.273
G2 X-1.448 Y8.05 I2.824 J9.548
G1 X-1.478 Y8.081
X-1.5 Y8.118
X-1.513 Y8.159
X-1.518 Y8.202
X-1.465 Y24.292
X-1.461 Y24.333
X-1.448 Y24.373
G2 X-0.099 Y26.359 I6.367 J-2.873
X4.681 Y28.514 I5.102 J-4.941
G3 X5.432 Y28.877 I-0.048 J1.058
G2 X11.089 Y33.137 I12.814 J-11.129
X18.003 Y34.666 I6.914 J-14.867
X31.361 Y27.886 I0 J-16.55
G3 X32.105 Y27.434 I0.924 J0.68
G2 X36.363 Y25.066 I-1.119 J-7.027
X37.448 Y23.37 I-5.27 J-4.566
G1 X37.461 Y23.33
X37.466 Y23.288
X37.465 Y11.709
X37.461 Y11.667
X37.448 Y11.627
G2 X36.099 Y9.641 I-6.367 J2.873
X31.319 Y7.486 I-5.102 J4.941
G3 X30.568 Y7.123 I0.048 J-1.058
G2 X24.905 Y2.863 I-12.824 J11.152
X17.985 Y1.334 I-6.92 J14.895
X10.505 Y3.141 I0 J16.382
X4.636 Y8.118 I7.735 J15.072
G3 X3.896 Y8.566 I-0.92 J-0.683
G2 X-0.363 Y10.934 I1.119 J7.027
X-1.448 Y12.63 I5.27 J4.566
X-0.649 Y15.374 I2.004 J0.905
G3 X0.704 Y17.891 I-1.64 J2.503
G2 X0.695 Y21.5 I744.227 J3.609
X5 Y25.794 I4.294 J0
X5.54 Y25.777 I0 J-8.645
G3 X6.08 Y25.76 I0.54 J8.628
X6.758 Y26.107 I0 J0.836
G2 X29.9 Y25.106 I11.242 J-8.108
G3 X30.508 Y24.76 I0.608 J0.361
G1 X30.754 Y24.768
X31 Y24.775
G2 X35.281 Y20.529 I0 J-4.281
X35.305 Y14.5 I-744.174 J-6.029
X31 Y10.206 I-4.294 J0
X30.46 Y10.223 I0 J8.647
G3 X29.92 Y10.24 I-0.54 J-8.63
X29.243 Y9.895 I0 J-0.836
X29.043 Y9.607 I6.998 J-5.074
G2 X28.837 Y9.324 I-3.304 J2.197
X6.098 Y10.897 I-10.824 J8.666
G3 X5.492 Y11.24 I-0.606 J-0.364
G1 X5.246 Y11.232
X5 Y11.225
G2 X0.719 Y15.471 I0 J4.281
X0.704 Y17.891 I744.212 J6.029
X1.943 Y20.075 I2.521 J0.012
G3 X3.538 Y22.014 I-1.862 J3.156
G2 X5 Y23.05 I1.462 J-0.514
G1 X8.059
G2 X26.704 Y24.969 I9.941 J-5.05
G1 X26.711 Y24.96
G2 X28.389 Y22.05 I-8.711 J-6.961
G1 X31
G2 X32.55 Y20.5 I0 J-1.55
G1 Y14.5
G2 X31 Y12.95 I-1.55 J0
G1 X27.941
G2 X26.711 Y11.04 I-9.941 J5.05
G1 X26.704 Y11.031
G2 X7.611 Y13.95 I-8.704 J6.969
G1 X5
G2 X3.45 Y15.5 I0 J1.55
G1 Y21.5
G2 X3.538 Y22.014 I1.55 J0
G1 X3.548 Y22.063
X3.547 Y22.113
X3.533 Y22.161
X-2.115 Y35.122
G2 X-2.014 Y35.384 I0.183 J0.08
G1 X-1.959 Y35.409 Z-3.506 F150
X-1.906 Y35.433 Z-3.524
X-1.857 Y35.455 Z-3.552
X-1.814 Y35.474 Z-3.591
X-1.779 Y35.49 Z-3.638
X-1.753 Y35.502 Z-3.692
X-1.737 Y35.509 Z-3.75
X-1.721 Y35.516 Z-3.808
X-1.695 Y35.528 Z-3.862
X-1.66 Y35.544 Z-3.909
X-1.617 Y35.563 Z-3.948
X-1.568 Y35.585 Z-3.976
X-1.515 Y35.609 Z-3.994
X-1.46 Y35.634 Z-4
X-1.438 Y35.644
G2 X0.236 Y36.285 I6.373 J-14.144 F300
G3 X1.609 Y37.053 I-1.222 J3.793
G2 X2.081 Y37.448 I16.709 J-19.486
G3 X1.228 Y38.584 I-0.45 J0.551
G1 X-0.023 Y37.723
X-0.077 Y37.682
X-1.73 Y36.292
G3 X-1.97 Y35.886 I0.458 J-0.544
G1 X-2.502 Y33.199
G3 X-1.446 Y32.446 I0.698 J-0.138
G2 X1.741 Y33.762 I6.386 J-10.946
G3 X2.914 Y34.406 I-0.716 J2.694
G2 X7.101 Y37.447 I15.088 J-16.375
G3 X7.352 Y38.45 I-0.348 J0.62
X6.336 Y38.644 I-0.599 J-0.383
G1 X2.098 Y35.588
X-1.804 Y33.061
G3 X-2.12 Y32.578 I0.387 J-0.597
G1 X-2.601 Y29.619
G3 X-1.437 Y28.964 I0.702 J-0.114
G2 X3.23 Y31.183 I6.455 J-7.56
G3 X4.198 Y31.695 I-0.327 J1.788
G2 X16.808 Y37.449 I13.845 J-13.647
G1 X33.819 Y37.486
X33.865 Y37.48
X33.909 Y37.465
X33.947 Y37.44
G2 X35.885 Y35.658 I-15.944 J-19.282
G3 X37.237 Y34.726 I3.096 J3.045
G1 X37.441 Y34.635
G3 X38.148 Y35.861 I0.295 J0.647
G1 X36.727 Y36.874
X36.675 Y36.908
X36.619 Y36.937
X34.401 Y37.988
X34.303 Y38.026
X34.201 Y38.049
X29.355 Y38.77
G3 X28.902 Y37.447 I-0.105 J-0.703
G2 X34.364 Y33.132 I-10.901 J-19.415
G3 X35.51 Y32.359 I2.225 J2.064
G2 X37.437 Y31.436 I-4.556 J-11.979
G3 X38.196 Y32.638 I0.36 J0.614
G1 X34.168 Y35.363
X34.112 Y35.398
X29.25 Y38.067
G3 X28.96 Y38.153 I-0.342 J-0.623
G1 X19.315 Y38.869
G3 X18.553 Y38.208 I-0.053 J-0.709
X19.217 Y37.45 I0.71 J-0.049
G2 X26.188 Y35.654 I-1.214 J-19.146
X32.847 Y30.553 I-8.47 J-17.955
G3 X33.791 Y29.939 I1.503 J1.277
G2 X37.448 Y27.95 I-2.824 J-9.548
G1 X37.478 Y27.919
X37.5 Y27.882
X37.513 Y27.841
X37.518 Y27.799
X37.555 Y0.539
X37.55 Y0.493
X37.535 Y0.45
X37.51 Y0.411
X37.477 Y0.38
X37.438 Y0.356
G2 X35.764 Y-0.285 I-6.373 J14.144
G3 X34.392 Y-1.052 I1.222 J-3.794
G2 X33.919 Y-1.448 I-16.703 J19.483
G3 X34.773 Y-2.584 I0.45 J-0.551
G1 X36.023 Y-1.723
X36.077 Y-1.682
X37.73 Y-0.292
G3 X37.97 Y0.114 I-0.458 J0.544
G1 X38.502 Y2.801
G3 X37.446 Y3.554 I-0.698 J0.138
G2 X34.259 Y2.238 I-6.386 J10.946
G3 X33.087 Y1.594 I0.716 J-2.694
G2 X28.899 Y-1.446 I-15.088 J16.381
G3 X28.648 Y-2.449 I0.348 J-0.62
X29.663 Y-2.643 I0.6 J0.383
G1 X33.902 Y0.412
X37.804 Y2.939
G3 X38.12 Y3.422 I-0.387 J0.597
G1 X38.601 Y6.381
G3 X37.437 Y7.036 I-0.702 J0.114
G2 X32.77 Y4.817 I-6.455 J7.56
G3 X31.802 Y4.306 I0.327 J-1.788
G2 X18.862 Y-1.45 I-13.805 J13.615
G1 X2.184 Y-1.491
X2.139 Y-1.485
X2.095 Y-1.47
X2.057 Y-1.445
G2 X0.113 Y0.344 I15.928 J19.258
G3 X-1.237 Y1.274 I-3.091 J-3.041
G1 X-1.44 Y1.365
G3 X-2.148 Y0.139 I-0.295 J-0.647
G1 X-0.725 Y-0.876
X-0.673 Y-0.91
X-0.617 Y-0.939
X1.603 Y-1.993
X1.701 Y-2.031
X1.804 Y-2.054
X6.646 Y-2.769
G3 X7.098 Y-1.445 I0.104 J0.704
G2 X1.642 Y2.862 I10.901 J19.42
G3 X0.49 Y3.64 I-2.229 J-2.056
G2 X-1.437 Y4.564 I4.555 J11.979
G3 X-2.195 Y3.361 I-0.36 J-0.614
G1 X1.832 Y0.637
X1.888 Y0.603
X6.75 Y-2.065
G3 X7.041 Y-2.151 I0.342 J0.624
G1 X17.052 Y-2.87
G3 X17.812 Y-2.201 I0.051 J0.709
X17.134 Y-1.45 I-0.71 J0.041
G2 X3.157 Y5.442 I0.863 J19.37
G3 X2.209 Y6.061 I-1.507 J-1.273
G2 X-1.448 Y8.05 I2.824 J9.548
G1 X-1.478 Y8.081
X-1.5 Y8.118
X-1.513 Y8.159
X-1.518 Y8.202
X-1.465 Y24.292
X-1.461 Y24.333
X-1.448 Y24.373
G2 X-0.099 Y26.359 I6.367 J-2.873
X4.681 Y28.514 I5.102 J-4.941
G3 X5.432 Y28.877 I-0.048 J1.058
G2 X11.089 Y33.137 I12.814 J-11.129
X18.003 Y34.666 I6.914 J-14.867
X31.361 Y27.886 I0 J-16.55
G3 X32.105 Y27.434 I0.924 J0.68
G2 X36.363 Y25.066 I-1.119 J-7.027
X37.448 Y23.37 I-5.27 J-4.566
G1 X37.461 Y23.33
X37.466 Y23.288
X37.465 Y11.709
X37.461 Y11.667
X37.448 Y11.627
G2 X36.099 Y9.641 I-6.367 J2.873
X31.319 Y7.486 I-5.102 J4.941
G3 X30.568 Y7.123 I0.048 J-1.058
G2 X24.905 Y2.863 I-12.824 J11.152
X17.985 Y1.334 I-6.92 J14.895
X10.505 Y3.141 I0 J16.382
X4.636 Y8.118 I7.735 J15.072
G3 X3.896 Y8.566 I-0.92 J-0.683
G2 X-0.363 Y10.934 I1.119 J7.027
X-1.448 Y12.63 I5.27 J4.566
X-0.649 Y15.374 I2.004 J0.905
G3 X0.704 Y17.891 I-1.64 J2.503
G2 X0.695 Y21.5 I744.227 J3.609
X5 Y25.794 I4.294 J0
X5.54 Y25.777 I0 J-8.645
G3 X6.08 Y25.76 I0.54 J8.628
X6.758 Y26.107 I0 J0.836
G2 X29.9 Y25.106 I11.242 J-8.108
G3 X30.508 Y24.76 I0.608 J0.361
G1 X30.754 Y24.768
X31 Y24.775
G2 X35.281 Y20.529 I0 J-4.281
X35.305 Y14.5 I-744.174 J-6.029
X31 Y10.206 I-4.294 J0
X30.46 Y10.223 I0 J8.647
G3 X29.92 Y10.24 I-0.54 J-8.63
X29.243 Y9.895 I0 J-0.836
X29.043 Y9.607 I6.998 J-5.074
G2 X28.837 Y9.324 I-3.304 J2.197
X6.098 Y10.897 I-10.824 J8.666
G3 X5.492 Y11.24 I-0.606 J-0.364
G1 X5.246 Y11.232
X5 Y11.225
G2 X0.719 Y15.471 I0 J4.281
X0.704 Y17.891 I744.212 J6.029
X1.943 Y20.075 I2.521 J0.012
G3 X3.538 Y22.014 I-1.862 J3.156
G2 X5 Y23.05 I1.462 J-0.514
G1 X8.059
G2 X26.704 Y24.969 I9.941 J-5.05
G1 X26.711 Y24.96
G2 X28.389 Y22.05 I-8.711 J-6.961
G1 X31
G2 X32.55 Y20.5 I0 J-1.55
G1 Y14.5
G2 X31 Y12.95 I-1.55 J0
G1 X27.941
G2 X26.711 Y11.04 I-9.941 J5.05
G1 X26.704 Y11.031
G2 X7.611 Y13.95 I-8.704 J6.969
G1 X5
G2 X3.45 Y15.5 I0 J1.55
G1 Y21.5
G2 X3.538 Y22.014 I1.55 J0
G1 X3.548 Y22.063
X3.547 Y22.113
X3.533 Y22.161
X-2.115 Y35.122
G2 X-2.014 Y35.384 I0.183 J0.08
G1 X-1.959 Y35.409 Z-4.006 F150
X-1.906 Y35.433 Z-4.024
X-1.857 Y35.455 Z-4.052
X-1.814 Y35.474 Z-4.091
X-1.779 Y35.49 Z-4.138
X-1.753 Y35.502 Z-4.192
X-1.737 Y35.509 Z-4.25
X-1.721 Y35.516 Z-4.308
X-1.695 Y35.528 Z-4.362
X-1.66 Y35.544 Z-4.409
X-1.617 Y35.563 Z-4.448
X-1.568 Y35.585 Z-4.476
X-1.515 Y35.609 Z-4.494
X-1.46 Y35.634 Z-4.5
X-1.438 Y35.644
G2 X0.236 Y36.285 I6.373 J-14.144 F300
G3 X1.609 Y37.053 I-1.222 J3.793
G2 X2.081 Y37.448 I16.709 J-19.486
G3 X1.228 Y38.584 I-0.45 J0.551
G1 X-0.023 Y37.723
X-0.077 Y37.682
X-1.73 Y36.292
G3 X-1.97 Y35.886 I0.458 J-0.544
G1 X-2.502 Y33.199
G3 X-1.446 Y32.446 I0.698 J-0.138
G2 X1.741 Y33.762 I6.386 J-10.946
G3 X2.914 Y34.406 I-0.716 J2.694
G2 X7.101 Y37.447 I15.088 J-16.375
G3 X7.352 Y38.45 I-0.348 J0.62
X6.336 Y38.644 I-0.599 J-0.383
G1 X2.098 Y35.588
X-1.804 Y33.061
G3 X-2.12 Y32.578 I0.387 J-0.597
G1 X-2.601 Y29.619
G3 X-1.437 Y28.964 I0.702 J-0.114
G2 X3.23 Y31.183 I6.455 J-7.56
G3 X4.198 Y31.695 I-0.327 J1.788
G2 X16.808 Y37.449 I13.845 J-13.647
G1 X33.819 Y37.486
X33.865 Y37.48
X33.909 Y37.465
X33.947 Y37.44
G2 X35.885 Y35.658 I-15.944 J-19.282
G3 X37.237 Y34.726 I3.096 J3.045
G1 X37.441 Y34.635
G3 X38.148 Y35.861 I0.295 J0.647
G1 X36.727 Y36.874
X36.675 Y36.908
X36.619 Y36.937
X34.401 Y37.988
X34.303 Y38.026
X34.201 Y38.049
X29.355 Y38.77
G3 X28.902 Y37.447 I-0.105 J-0.703
G2 X34.364 Y33.132 I-10.901 J-19.415
G3 X35.51 Y32.359 I2.225 J2.064
G2 X37.437 Y31.436 I-4.556 J-11.979
G3 X38.196 Y32.638 I0.36 J0.614
G1 X34.168 Y35.363
X34.112 Y35.398
X29.25 Y38.067
G3 X28.96 Y38.153 I-0.342 J-0.623
G1 X19.315 Y38.869
G3 X18.553 Y38.208 I-0.053 J-0.709
X19.217 Y37.45 I0.71 J-0.049
G2 X26.188 Y35.654 I-1.214 J-19.146
X32.847 Y30.553 I-8.47 J-17.955
G3 X33.791 Y29.939 I1.503 J1.277
G2 X37.448 Y27.95 I-2.824 J-9.548
G1 X37.478 Y27.919
X37.5 Y27.882
X37.513 Y27.841
X37.518 Y27.799
X37.555 Y0.539
X37.55 Y0.493
X37.535 Y0.45
X37.51 Y0.411
X37.477 Y0.38
X37.438 Y0.356
G2 X35.764 Y-0.285 I-6.373 J14.144
G3 X34.392 Y-1.052 I1.222 J-3.794
G2 X33.919 Y-1.448 I-16.703 J19.483
G3 X34.773 Y-2.584 I0.45 J-0.551
G1 X36.023 Y-1.723
X36.077 Y-1.682
X37.73 Y-0.292
G3 X37.97 Y0.114 I-0.458 J0.544
G1 X38.502 Y2.801
G3 X37.446 Y3.554 I-0.698 J0.138
G2 X34.259 Y2.238 I-6.386 J10.946
G3 X33.087 Y1.594 I0.716 J-2.694
G2 X28.899 Y-1.446 I-15.088 J16.381
G3 X28.648 Y-2.449 I0.348 J-0.62
X29.663 Y-2.643 I0.6 J0.383
G1 X33.902 Y0.412
X37.804 Y2.939
G3 X38.12 Y3.422 I-0.387 J0.597
G1 X38.601 Y6.381
G3 X37.437 Y7.036 I-0.702 J0.114
G2 X32.77 Y4.817 I-6.455 J7.56
G3 X31.802 Y4.306 I0.327 J-1.788
G2 X18.862 Y-1.45 I-13.805 J13.615
G1 X2.184 Y-1.491
X2.139 Y-1.485
X2.095 Y-1.47
X2.057 Y-1.445
G2 X0.113 Y0.344 I15.928 J19.258
G3 X-1.237 Y1.274 I-3.091 J-3.041
G1 X-1.44 Y1.365
G3 X-2.148 Y0.139 I-0.295 J-0.647
G1 X-0.725 Y-0.876
X-0.673 Y-0.91
X-0.617 Y-0.939
X1.603 Y-1.993
X1.701 Y-2.031
X1.804 Y-2.054
X6.646 Y-2.769
G3 X7.098 Y-1.445 I0.104 J0.704
G2 X1.642 Y2.862 I10.901 J19.42
G3 X0.49 Y3.64 I-2.229 J-2.056
G2 X-1.437 Y4.564 I4.555 J11.979
G3 X-2.195 Y3.361 I-0.36 J-0.614
G1 X1.832 Y0.637
X1.888 Y0.603
X6.75 Y-2.065
G3 X7.041 Y-2.151 I0.342 J0.624
G1 X17.052 Y-2.87
G3 X17.812 Y-2.201 I0.051 J0.709
X17.134 Y-1.45 I-0.71 J0.041
G2 X3.157 Y5.442 I0.863 J19.37
G3 X2.209 Y6.061 I-1.507 J-1.273
G2 X-1.448 Y8.05 I2.824 J9.548
G1 X-1.478 Y8.081
X-1.5 Y8.118
X-1.513 Y8.159
X-1.518 Y8.202
X-1.465 Y24.292
X-1.461 Y24.333
X-1.448 Y24.373
G2 X-0.099 Y26.359 I6.367 J-2.873
X4.681 Y28.514 I5.102 J-4.941
G3 X5.432 Y28.877 I-0.048 J1.058
G2 X11.089 Y33.137 I12.814 J-11.129
X18.003 Y34.666 I6.914 J-14.867
X31.361 Y27.886 I0 J-16.55
G3 X32.105 Y27.434 I0.924 J0.68
G2 X36.363 Y25.066 I-1.119 J-7.027
X37.448 Y23.37 I-5.27 J-4.566
G1 X37.461 Y23.33
X37.466 Y23.288
X37.465 Y11.709
X37.461 Y11.667
X37.448 Y11.627
G2 X36.099 Y9.641 I-6.367 J2.873
X31.319 Y7.486 I-5.102 J4.941
G3 X30.568 Y7.123 I0.048 J-1.058
G2 X24.905 Y2.863 I-12.824 J11.152
X17.985 Y1.334 I-6.92 J14.895
X10.505 Y3.141 I0 J16.382
X4.636 Y8.118 I7.735 J15.072
G3 X3.896 Y8.566 I-0.92 J-0.683
G2 X-0.363 Y10.934 I1.119 J7.027
X-1.448 Y12.63 I5.27 J4.566
X-0.649 Y15.374 I2.004 J0.905
G3 X0.704 Y17.891 I-1.64 J2.503
G2 X0.695 Y21.5 I744.227 J3.609
X5 Y25.794 I4.294 J0
X5.54 Y25.777 I0 J-8.645
G3 X6.08 Y25.76 I0.54 J8.628
X6.758 Y26.107 I0 J0.836
G2 X29.9 Y25.106 I11.242 J-8.108
G3 X30.508 Y24.76 I0.608 J0.361
G1 X30.754 Y24.768
X31 Y24.775
G2 X35.281 Y20.529 I0 J-4.281
X35.305 Y14.5 I-744.174 J-6.029
X31 Y10.206 I-4.294 J0
X30.46 Y10.223 I0 J8.647
G3 X29.92 Y10.24 I-0.54 J-8.63
X29.243 Y9.895 I0 J-0.836
X29.043 Y9.607 I6.998 J-5.074
G2 X28.837 Y9.324 I-3.304 J2.197
X6.098 Y10.897 I-10.824 J8.666
G3 X5.492 Y11.24 I-0.606 J-0.364
G1 X5.246 Y11.232
X5 Y11.225
G2 X0.719 Y15.471 I0 J4.281
X0.704 Y17.891 I744.212 J6.029
X1.943 Y20.075 I2.521 J0.012
G3 X3.538 Y22.014 I-1.862 J3.156
G2 X5 Y23.05 I1.462 J-0.514
G1 X8.059
G2 X26.704 Y24.969 I9.941 J-5.05
G1 X26.711 Y24.96
G2 X28.389 Y22.05 I-8.711 J-6.961
G1 X31
G2 X32.55 Y20.5 I0 J-1.55
G1 Y14.5
G2 X31 Y12.95 I-1.55 J0
G1 X27.941
G2 X26.711 Y11.04 I-9.941 J5.05
G1 X26.704 Y11.031
G2 X7.611 Y13.95 I-8.704 J6.969
G1 X5
G2 X3.45 Y15.5 I0 J1.55
G1 Y21.5
G2 X3.538 Y22.014 I1.55 J0
G1 X3.548 Y22.063
X3.547 Y22.113
X3.533 Y22.161
X-2.115 Y35.122
G2 X-2.014 Y35.384 I0.183 J0.08
G1 X-1.959 Y35.409 Z-4.506 F150
X-1.906 Y35.433 Z-4.524
X-1.857 Y35.455 Z-4.552
X-1.814 Y35.474 Z-4.591
X-1.779 Y35.49 Z-4.638
X-1.753 Y35.502 Z-4.692
X-1.737 Y35.509 Z-4.75
X-1.721 Y35.516 Z-4.808
X-1.695 Y35.528 Z-4.862
X-1.66 Y35.544 Z-4.909
X-1.617 Y35.563 Z-4.948
X-1.568 Y35.585 Z-4.976
X-1.515 Y35.609 Z-4.994
X-1.46 Y35.634 Z-5
X-1.438 Y35.644
G2 X0.236 Y36.285 I6.373 J-14.144 F300
G3 X1.609 Y37.053 I-1.222 J3.793
G2 X2.081 Y37.448 I16.709 J-19.486
G3 X1.228 Y38.584 I-0.45 J0.551
G1 X-0.023 Y37.723
X-0.077 Y37.682
X-1.73 Y36.292
G3 X-1.97 Y35.886 I0.458 J-0.544
G1 X-2.502 Y33.199
G3 X-1.446 Y32.446 I0.698 J-0.138
G2 X1.741 Y33.762 I6.386 J-10.946
G3 X2.914 Y34.406 I-0.716 J2.694
G2 X7.101 Y37.447 I15.088 J-16.375
G3 X7.352 Y38.45 I-0.348 J0.62
X6.336 Y38.644 I-0.599 J-0.383
G1 X2.098 Y35.588
X-1.804 Y33.061
G3 X-2.12 Y32.578 I0.387 J-0.597
G1 X-2.601 Y29.619
G3 X-1.437 Y28.964 I0.702 J-0.114
G2 X3.23 Y31.183 I6.455 J-7.56
G3 X4.198 Y31.695 I-0.327 J1.788
G2 X16.808 Y37.449 I13.845 J-13.647
G1 X33.819 Y37.486
X33.865 Y37.48
X33.909 Y37.465
X33.947 Y37.44
G2 X35.885 Y35.658 I-15.944 J-19.282
G3 X37.237 Y34.726 I3.096 J3.045
G1 X37.441 Y34.635
G3 X38.148 Y35.861 I0.295 J0.647
G1 X36.727 Y36.874
X36.675 Y36.908
X36.619 Y36.937
X34.401 Y37.988
X34.303 Y38.026
X34.201 Y38.049
X29.355 Y38.77
G3 X28.902 Y37.447 I-0.105 J-0.703
G2 X34.364 Y33.132 I-10.901 J-19.415
G3 X35.51 Y32.359 I2.225 J2.064
G2 X37.437 Y31.436 I-4.556 J-11.979
G3 X38.196 Y32.638 I0.36 J0.614
G1 X34.168 Y35.363
X34.112 Y35.398
X29.25 Y38.067
G3 X28.96 Y38.153 I-0.342 J-0.623
G1 X19.315 Y38.869
G3 X18.553 Y38.208 I-0.053 J-0.709
X19.217 Y37.45 I0.71 J-0.049
G2 X26.188 Y35.654 I-1.214 J-19.146
X32.847 Y30.553 I-8.47 J-17.955
G3 X33.791 Y29.939 I1.503 J1.277
G2 X37.448 Y27.95 I-2.824 J-9.548
G1 X37.478 Y27.919
X37.5 Y27.882
X37.513 Y27.841
X37.518 Y27.799
X37.555 Y0.539
X37.55 Y0.493
X37.535 Y0.45
X37.51 Y0.411
X37.477 Y0.38
X37.438 Y0.356
G2 X35.764 Y-0.285 I-6.373 J14.144
G3 X34.392 Y-1.052 I1.222 J-3.794
G2 X33.919 Y-1.448 I-16.703 J19.483
G3 X34.773 Y-2.584 I0.45 J-0.551
G1 X36.023 Y-1.723
X36.077 Y-1.682
X37.73 Y-0.292
G3 X37.97 Y0.114 I-0.458 J0.544
G1 X38.502 Y2.801
G3 X37.446 Y3.554 I-0.698 J0.138
G2 X34.259 Y2.238 I-6.386 J10.946
G3 X33.087 Y1.594 I0.716 J-2.694
G2 X28.899 Y-1.446 I-15.088 J16.381
G3 X28.648 Y-2.449 I0.348 J-0.62
X29.663 Y-2.643 I0.6 J0.383
G1 X33.902 Y0.412
X37.804 Y2.939
G3 X38.12 Y3.422 I-0.387 J0.597
G1 X38.601 Y6.381
G3 X37.437 Y7.036 I-0.702 J0.114
G2 X32.77 Y4.817 I-6.455 J7.56
G3 X31.802 Y4.306 I0.327 J-1.788
G2 X18.862 Y-1.45 I-13.805 J13.615
G1 X2.184 Y-1.491
X2.139 Y-1.485
X2.095 Y-1.47
X2.057 Y-1.445
G2 X0.113 Y0.344 I15.928 J19.258
G3 X-1.237 Y1.274 I-3.091 J-3.041
G1 X-1.44 Y1.365
G3 X-2.148 Y0.139 I-0.295 J-0.647
G1 X-0.725 Y-0.876
X-0.673 Y-0.91
X-0.617 Y-0.939
X1.603 Y-1.993
X1.701 Y-2.031
X1.804 Y-2.054
X6.646 Y-2.769
G3 X7.098 Y-1.445 I0.104 J0.704
G2 X1.642 Y2.862 I10.901 J19.42
G3 X0.49 Y3.64 I-2.229 J-2.056
G2 X-1.437 Y4.564 I4.555 J11.979
G3 X-2.195 Y3.361 I-0.36 J-0.614
G1 X1.832 Y0.637
X1.888 Y0.603
X6.75 Y-2.065
G3 X7.041 Y-2.151 I0.342 J0.624
G1 X17.052 Y-2.87
G3 X17.812 Y-2.201 I0.051 J0.709
X17.134 Y-1.45 I-0.71 J0.041
G2 X3.157 Y5.442 I0.863 J19.37
G3 X2.209 Y6.061 I-1.507 J-1.273
G2 X-1.448 Y8.05 I2.824 J9.548
G1 X-1.478 Y8.081
X-1.5 Y8.118
X-1.513 Y8.159
X-1.518 Y8.202
X-1.465 Y24.292
X-1.461 Y24.333
X-1.448 Y24.373
G2 X-0.099 Y26.359 I6.367 J-2.873
X4.681 Y28.514 I5.102 J-4.941
G3 X5.432 Y28.877 I-0.048 J1.058
G2 X11.089 Y33.137 I12.814 J-11.129
X18.003 Y34.666 I6.914 J-14.867
X31.361 Y27.886 I0 J-16.55
G3 X32.105 Y27.434 I0.924 J0.68
G2 X36.363 Y25.066 I-1.119 J-7.027
X37.448 Y23.37 I-5.27 J-4.566
G1 X37.461 Y23.33
X37.466 Y23.288
X37.465 Y11.709
X37.461 Y11.667
X37.448 Y11.627
G2 X36.099 Y9.641 I-6.367 J2.873
X31.319 Y7.486 I-5.102 J4.941
G3 X30.568 Y7.123 I0.048 J-1.058
G2 X24.905 Y2.863 I-12.824 J11.152
X17.985 Y1.334 I-6.92 J14.895
X10.505 Y3.141 I0 J16.382
X4.636 Y8.118 I7.735 J15.072
G3 X3.896 Y8.566 I-0.92 J-0.683
G2 X-0.363 Y10.934 I1.119 J7.027
X-1.448 Y12.63 I5.27 J4.566
X-0.649 Y15.374 I2.004 J0.905
G3 X0.704 Y17.891 I-1.64 J2.503
G2 X0.695 Y21.5 I744.227 J3.609
X5 Y25.794 I4.294 J0
X5.54 Y25.777 I0 J-8.645
G3 X6.08 Y25.76 I0.54 J8.628
X6.758 Y26.107 I0 J0.836
G2 X29.9 Y25.106 I11.242 J-8.108
G3 X30.508 Y24.76 I0.608 J0.361
G1 X30.754 Y24.768
X31 Y24.775
G2 X35.281 Y20.529 I0 J-4.281
X35.305 Y14.5 I-744.174 J-6.029
X31 Y10.206 I-4.294 J0
X30.46 Y10.223 I0 J8.647
G3 X29.92 Y10.24 I-0.54 J-8.63
X29.243 Y9.895 I0 J-0.836
X29.043 Y9.607 I6.998 J-5.074
G2 X28.837 Y9.324 I-3.304 J2.197
X6.098 Y10.897 I-10.824 J8.666
G3 X5.492 Y11.24 I-0.606 J-0.364
G1 X5.246 Y11.232
X5 Y11.225
G2 X0.719 Y15.471 I0 J4.281
X0.704 Y17.891 I744.212 J6.029
X1.943 Y20.075 I2.521 J0.012
G3 X3.538 Y22.014 I-1.862 J3.156
G2 X5 Y23.05 I1.462 J-0.514
G1 X8.059
G2 X26.704 Y24.969 I9.941 J-5.05
G1 X26.711 Y24.96
G2 X28.389 Y22.05 I-8.711 J-6.961
G1 X31
G2 X32.55 Y20.5 I0 J-1.55
G1 Y14.5
G2 X31 Y12.95 I-1.55 J0
G1 X27.941
G2 X26.711 Y11.04 I-9.941 J5.05
G1 X26.704 Y11.031
G2 X7.611 Y13.95 I-8.704 J6.969
G1 X5
G2 X3.45 Y15.5 I0 J1.55
G1 Y21.5
G2 X3.538 Y22.014 I1.55 J0
G1 X3.548 Y22.063
X3.547 Y22.113
X3.533 Y22.161
X-2.115 Y35.122
G2 X-2.014 Y35.384 I0.183 J0.08
G1 X-1.959 Y35.409 Z-5.006 F150
X-1.906 Y35.433 Z-5.024
X-1.857 Y35.455 Z-5.052
X-1.814 Y35.474 Z-5.091
X-1.779 Y35.49 Z-5.138
X-1.753 Y35.502 Z-5.192
X-1.737 Y35.509 Z-5.25
X-1.721 Y35.516 Z-5.308
X-1.695 Y35.528 Z-5.362
X-1.66 Y35.544 Z-5.409
X-1.617 Y35.563 Z-5.448
X-1.568 Y35.585 Z-5.476
X-1.515 Y35.609 Z-5.494
X-1.46 Y35.634 Z-5.5
X-1.438 Y35.644
G2 X0.236 Y36.285 I6.373 J-14.144 F300
G3 X1.609 Y37.053 I-1.222 J3.793
G2 X2.081 Y37.448 I16.709 J-19.486
G3 X1.228 Y38.584 I-0.45 J0.551
G1 X-0.023 Y37.723
X-0.077 Y37.682
X-1.73 Y36.292
G3 X-1.97 Y35.886 I0.458 J-0.544
G1 X-2.502 Y33.199
G3 X-1.446 Y32.446 I0.698 J-0.138
G2 X1.741 Y33.762 I6.386 J-10.946
G3 X2.914 Y34.406 I-0.716 J2.694
G2 X7.101 Y37.447 I15.088 J-16.375
G3 X7.352 Y38.45 I-0.348 J0.62
X6.336 Y38.644 I-0.599 J-0.383
G1 X2.098 Y35.588
X-1.804 Y33.061
G3 X-2.12 Y32.578 I0.387 J-0.597
G1 X-2.601 Y29.619
G3 X-1.437 Y28.964 I0.702 J-0.114
G2 X3.23 Y31.183 I6.455 J-7.56
G3 X4.198 Y31.695 I-0.327 J1.788
G2 X16.808 Y37.449 I13.845 J-13.647
G1 X33.819 Y37.486
X33.865 Y37.48
X33.909 Y37.465
X33.947 Y37.44
G2 X35.885 Y35.658 I-15.944 J-19.282
G3 X37.237 Y34.726 I3.096 J3.045
G1 X37.441 Y34.635
G3 X38.148 Y35.861 I0.295 J0.647
G1 X36.727 Y36.874
X36.675 Y36.908
X36.619 Y36.937
X34.401 Y37.988
X34.303 Y38.026
X34.201 Y38.049
X29.355 Y38.77
G3 X28.902 Y37.447 I-0.105 J-0.703
G2 X34.364 Y33.132 I-10.901 J-19.415
G3 X35.51 Y32.359 I2.225 J2.064
G2 X37.437 Y31.436 I-4.556 J-11.979
G3 X38.196 Y32.638 I0.36 J0.614
G1 X34.168 Y35.363
X34.112 Y35.398
X29.25 Y38.067
G3 X28.96 Y38.153 I-0.342 J-0.623
G1 X19.315 Y38.869
G3 X18.553 Y38.208 I-0.053 J-0.709
X19.217 Y37.45 I0.71 J-0.049
G2 X26.188 Y35.654 I-1.214 J-19.146
X32.847 Y30.553 I-8.47 J-17.955
G3 X33.791 Y29.939 I1.503 J1.277
G2 X37.448 Y27.95 I-2.824 J-9.548
G1 X37.478 Y27.919
X37.5 Y27.882
X37.513 Y27.841
X37.518 Y27.799
X37.555 Y0.539
X37.55 Y0.493
X37.535 Y0.45
X37.51 Y0.411
X37.477 Y0.38
X37.438 Y0.356
G2 X35.764 Y-0.285 I-6.373 J14.144
G3 X34.392 Y-1.052 I1.222 J-3.794
G2 X33.919 Y-1.448 I-16.703 J19.483
G3 X34.773 Y-2.584 I0.45 J-0.551
G1 X36.023 Y-1.723
X36.077 Y-1.682
X37.73 Y-0.292
G3 X37.97 Y0.114 I-0.458 J0.544
G1 X38.502 Y2.801
G3 X37.446 Y3.554 I-0.698 J0.138
G2 X34.259 Y2.238 I-6.386 J10.946
G3 X33.087 Y1.594 I0.716 J-2.694
G2 X28.899 Y-1.446 I-15.088 J16.381
G3 X28.648 Y-2.449 I0.348 J-0.62
X29.663 Y-2.643 I0.6 J0.383
G1 X33.902 Y0.412
X37.804 Y2.939
G3 X38.12 Y3.422 I-0.387 J0.597
G1 X38.601 Y6.381
G3 X37.437 Y7.036 I-0.702 J0.114
G2 X32.77 Y4.817 I-6.455 J7.56
G3 X31.802 Y4.306 I0.327 J-1.788
G2 X18.862 Y-1.45 I-13.805 J13.615
G1 X2.184 Y-1.491
X2.139 Y-1.485
X2.095 Y-1.47
X2.057 Y-1.445
G2 X0.113 Y0.344 I15.928 J19.258
G3 X-1.237 Y1.274 I-3.091 J-3.041
G1 X-1.44 Y1.365
G3 X-2.148 Y0.139 I-0.295 J-0.647
G1 X-0.725 Y-0.876
X-0.673 Y-0.91
X-0.617 Y-0.939
X1.603 Y-1.993
X1.701 Y-2.031
X1.804 Y-2.054
X6.646 Y-2.769
G3 X7.098 Y-1.445 I0.104 J0.704
G2 X1.642 Y2.862 I10.901 J19.42
G3 X0.49 Y3.64 I-2.229 J-2.056
G2 X-1.437 Y4.564 I4.555 J11.979
G3 X-2.195 Y3.361 I-0.36 J-0.614
G1 X1.832 Y0.637
X1.888 Y0.603
X6.75 Y-2.065
G3 X7.041 Y-2.151 I0.342 J0.624
G1 X17.052 Y-2.87
G3 X17.812 Y-2.201 I0.051 J0.709
X17.134 Y-1.45 I-0.71 J0.041
G2 X3.157 Y5.442 I0.863 J19.37
G3 X2.209 Y6.061 I-1.507 J-1.273
G2 X-1.448 Y8.05 I2.824 J9.548
G1 X-1.478 Y8.081
X-1.5 Y8.118
X-1.513 Y8.159
X-1.518 Y8.202
X-1.465 Y24.292
X-1.461 Y24.333
X-1.448 Y24.373
G2 X-0.099 Y26.359 I6.367 J-2.873
X4.681 Y28.514 I5.102 J-4.941
G3 X5.432 Y28.877 I-0.048 J1.058
G2 X11.089 Y33.137 I12.814 J-11.129
X18.003 Y34.666 I6.914 J-14.867
X31.361 Y27.886 I0 J-16.55
G3 X32.105 Y27.434 I0.924 J0.68
G2 X36.363 Y25.066 I-1.119 J-7.027
X37.448 Y23.37 I-5.27 J-4.566
G1 X37.461 Y23.33
X37.466 Y23.288
X37.465 Y11.709
X37.461 Y11.667
X37.448 Y11.627
G2 X36.099 Y9.641 I-6.367 J2.873
X31.319 Y7.486 I-5.102 J4.941
G3 X30.568 Y7.123 I0.048 J-1.058
G2 X24.905 Y2.863 I-12.824 J11.152
X17.985 Y1.334 I-6.92 J14.895
X10.505 Y3.141 I0 J16.382
X4.636 Y8.118 I7.735 J15.072
G3 X3.896 Y8.566 I-0.92 J-0.683
G2 X-0.363 Y10.934 I1.119 J7.027
X-1.448 Y12.63 I5.27 J4.566
X-0.649 Y15.374 I2.004 J0.905
G3 X0.704 Y17.891 I-1.64 J2.503
G2 X0.695 Y21.5 I744.227 J3.609
X5 Y25.794 I4.294 J0
X5.54 Y25.777 I0 J-8.645
G3 X6.08 Y25.76 I0.54 J8.628
X6.758 Y26.107 I0 J0.836
G2 X29.9 Y25.106 I11.242 J-8.108
G3 X30.508 Y24.76 I0.608 J0.361
G1 X30.754 Y24.768
X31 Y24.775
G2 X35.281 Y20.529 I0 J-4.281
X35.305 Y14.5 I-744.174 J-6.029
X31 Y10.206 I-4.294 J0
X30.46 Y10.223 I0 J8.647
G3 X29.92 Y10.24 I-0.54 J-8.63
X29.243 Y9.895 I0 J-0.836
X29.043 Y9.607 I6.998 J-5.074
G2 X28.837 Y9.324 I-3.304 J2.197
X6.098 Y10.897 I-10.824 J8.666
G3 X5.492 Y11.24 I-0.606 J-0.364
G1 X5.246 Y11.232
X5 Y11.225
G2 X0.719 Y15.471 I0 J4.281
X0.704 Y17.891 I744.212 J6.029
X1.943 Y20.075 I2.521 J0.012
G3 X3.538 Y22.014 I-1.862 J3.156
G2 X5 Y23.05 I1.462 J-0.514
G1 X8.059
G2 X26.704 Y24.969 I9.941 J-5.05
G1 X26.711 Y24.96
G2 X28.389 Y22.05 I-8.711 J-6.961
G1 X31
G2 X32.55 Y20.5 I0 J-1.55
G1 Y14.5
G2 X31 Y12.95 I-1.55 J0
G1 X27.941
G2 X26.711 Y11.04 I-9.941 J5.05
G1 X26.704 Y11.031
G2 X7.611 Y13.95 I-8.704 J6.969
G1 X5
G2 X3.45 Y15.5 I0 J1.55
G1 Y21.5
G2 X3.538 Y22.014 I1.55 J0
G1 X3.548 Y22.063
X3.547 Y22.113
X3.533 Y22.161
X-2.115 Y35.122
G2 X-2.014 Y35.384 I0.183 J0.08
G1 X-1.959 Y35.409 Z-5.506 F150
X-1.906 Y35.433 Z-5.524
X-1.857 Y35.455 Z-5.552
X-1.814 Y35.474 Z-5.591
X-1.779 Y35.49 Z-5.638
X-1.753 Y35.502 Z-5.692
X-1.737 Y35.509 Z-5.75
X-1.721 Y35.516 Z-5.808
X-1.695 Y35.528 Z-5.862
X-1.66 Y35.544 Z-5.909
X-1.617 Y35.563 Z-5.948
X-1.568 Y35.585 Z-5.976
X-1.515 Y35.609 Z-5.994
X-1.46 Y35.634 Z-6
X-1.438 Y35.644
G2 X0.236 Y36.285 I6.373 J-14.144 F300
G3 X1.609 Y37.053 I-1.222 J3.793
G2 X2.081 Y37.448 I16.709 J-19.486
G3 X1.228 Y38.584 I-0.45 J0.551
G1 X-0.023 Y37.723
X-0.077 Y37.682
X-1.73 Y36.292
G3 X-1.97 Y35.886 I0.458 J-0.544
G1 X-2.502 Y33.199
G3 X-1.446 Y32.446 I0.698 J-0.138
G2 X1.741 Y33.762 I6.386 J-10.946
G3 X2.914 Y34.406 I-0.716 J2.694
G2 X7.101 Y37.447 I15.088 J-16.375
G3 X7.352 Y38.45 I-0.348 J0.62
X6.336 Y38.644 I-0.599 J-0.383
G1 X2.098 Y35.588
X-1.804 Y33.061
G3 X-2.12 Y32.578 I0.387 J-0.597
G1 X-2.601 Y29.619
G3 X-1.437 Y28.964 I0.702 J-0.114
G2 X3.23 Y31.183 I6.455 J-7.56
G3 X4.198 Y31.695 I-0.327 J1.788
G2 X16.808 Y37.449 I13.845 J-13.647
G1 X33.819 Y37.486
X33.865 Y37.48
X33.909 Y37.465
X33.947 Y37.44
G2 X35.885 Y35.658 I-15.944 J-19.282
G3 X37.237 Y34.726 I3.096 J3.045
G1 X37.441 Y34.635
G3 X38.148 Y35.861 I0.295 J0.647
G1 X36.727 Y36.874
X36.675 Y36.908
X36.619 Y36.937
X34.401 Y37.988
X34.303 Y38.026
X34.201 Y38.049
X29.355 Y38.77
G3 X28.902 Y37.447 I-0.105 J-0.703
G2 X34.364 Y33.132 I-10.901 J-19.415
G3 X35.51 Y32.359 I2.225 J2.064
G2 X37.437 Y31.436 I-4.556 J-11.979
G3 X38.196 Y32.638 I0.36 J0.614
G1 X34.168 Y35.363
X34.112 Y35.398
X29.25 Y38.067
G3 X28.96 Y38.153 I-0.342 J-0.623
G1 X19.315 Y38.869
G3 X18.553 Y38.208 I-0.053 J-0.709
X19.217 Y37.45 I0.71 J-0.049
G2 X26.188 Y35.654 I-1.214 J-19.146
X32.847 Y30.553 I-8.47 J-17.955
G3 X33.791 Y29.939 I1.503 J1.277
G2 X37.448 Y27.95 I-2.824 J-9.548
G1 X37.478 Y27.919
X37.5 Y27.882
X37.513 Y27.841
X37.518 Y27.799
X37.555 Y0.539
X37.55 Y0.493
X37.535 Y0.45
X37.51 Y0.411
X37.477 Y0.38
X37.438 Y0.356
G2 X35.764 Y-0.285 I-6.373 J14.144
G3 X34.392 Y-1.052 I1.222 J-3.794
G2 X33.919 Y-1.448 I-16.703 J19.483
G3 X34.773 Y-2.584 I0.45 J-0.551
G1 X36.023 Y-1.723
X36.077 Y-1.682
X37.73 Y-0.292
G3 X37.97 Y0.114 I-0.458 J0.544
G1 X38.502 Y2.801
G3 X37.446 Y3.554 I-0.698 J0.138
G2 X34.259 Y2.238 I-6.386 J10.946
G3 X33.087 Y1.594 I0.716 J-2.694
G2 X28.899 Y-1.446 I-15.088 J16.381
G3 X28.648 Y-2.449 I0.348 J-0.62
X29.663 Y-2.643 I0.6 J0.383
G1 X33.902 Y0.412
X37.804 Y2.939
G3 X38.12 Y3.422 I-0.387 J0.597
G1 X38.601 Y6.381
G3 X37.437 Y7.036 I-0.702 J0.114
G2 X32.77 Y4.817 I-6.455 J7.56
G3 X31.802 Y4.306 I0.327 J-1.788
G2 X18.862 Y-1.45 I-13.805 J13.615
G1 X2.184 Y-1.491
X2.139 Y-1.485
X2.095 Y-1.47
X2.057 Y-1.445
G2 X0.113 Y0.344 I15.928 J19.258
G3 X-1.237 Y1.274 I-3.091 J-3.041
G1 X-1.44 Y1.365
G3 X-2.148 Y0.139 I-0.295 J-0.647
G1 X-0.725 Y-0.876
X-0.673 Y-0.91
X-0.617 Y-0.939
X1.603 Y-1.993
X1.701 Y-2.031
X1.804 Y-2.054
X6.646 Y-2.769
G3 X7.098 Y-1.445 I0.104 J0.704
G2 X1.642 Y2.862 I10.901 J19.42
G3 X0.49 Y3.64 I-2.229 J-2.056
G2 X-1.437 Y4.564 I4.555 J11.979
G3 X-2.195 Y3.361 I-0.36 J-0.614
G1 X1.832 Y0.637
X1.888 Y0.603
X6.75 Y-2.065
G3 X7.041 Y-2.151 I0.342 J0.624
G1 X17.052 Y-2.87
G3 X17.812 Y-2.201 I0.051 J0.709
X17.134 Y-1.45 I-0.71 J0.041
G2 X3.157 Y5.442 I0.863 J19.37
G3 X2.209 Y6.061 I-1.507 J-1.273
G2 X-1.448 Y8.05 I2.824 J9.548
G1 X-1.478 Y8.081
X-1.5 Y8.118
X-1.513 Y8.159
X-1.518 Y8.202
X-1.465 Y24.292
X-1.461 Y24.333
X-1.448 Y24.373
G2 X-0.099 Y26.359 I6.367 J-2.873
X4.681 Y28.514 I5.102 J-4.941
G3 X5.432 Y28.877 I-0.048 J1.058
G2 X11.089 Y33.137 I12.814 J-11.129
X18.003 Y34.666 I6.914 J-14.867
X31.361 Y27.886 I0 J-16.55
G3 X32.105 Y27.434 I0.924 J0.68
G2 X36.363 Y25.066 I-1.119 J-7.027
X37.448 Y23.37 I-5.27 J-4.566
G1 X37.461 Y23.33
X37.466 Y23.288
X37.465 Y11.709
X37.461 Y11.667
X37.448 Y11.627
G2 X36.099 Y9.641 I-6.367 J2.873
X31.319 Y7.486 I-5.102 J4.941
G3 X30.568 Y7.123 I0.048 J-1.058
G2 X24.905 Y2.863 I-12.824 J11.152
X17.985 Y1.334 I-6.92 J14.895
X10.505 Y3.141 I0 J16.382
X4.636 Y8.118 I7.735 J15.072
G3 X3.896 Y8.566 I-0.92 J-0.683
G2 X-0.363 Y10.934 I1.119 J7.027
X-1.448 Y12.63 I5.27 J4.566
X-0.649 Y15.374 I2.004 J0.905
G3 X0.704 Y17.891 I-1.64 J2.503
G2 X0.695 Y21.5 I744.227 J3.609
X5 Y25.794 I4.294 J0
X5.54 Y25.777 I0 J-8.645
G3 X6.08 Y25.76 I0.54 J8.628
X6.758 Y26.107 I0 J0.836
G2 X29.9 Y25.106 I11.242 J-8.108
G3 X30.508 Y24.76 I0.608 J0.361
G1 X30.754 Y24.768
X31 Y24.775
G2 X35.281 Y20.529 I0 J-4.281
X35.305 Y14.5 I-744.174 J-6.029
X31 Y10.206 I-4.294 J0
X30.46 Y10.223 I0 J8.647
G3 X29.92 Y10.24 I-0.54 J-8.63
X29.243 Y9.895 I0 J-0.836
X29.043 Y9.607 I6.998 J-5.074
G2 X28.837 Y9.324 I-3.304 J2.197
X6.098 Y10.897 I-10.824 J8.666
G3 X5.492 Y11.24 I-0.606 J-0.364
G1 X5.246 Y11.232
X5 Y11.225
G2 X0.719 Y15.471 I0 J4.281
X0.704 Y17.891 I744.212 J6.029
X1.943 Y20.075 I2.521 J0.012
G3 X3.538 Y22.014 I-1.862 J3.156
G2 X5 Y23.05 I1.462 J-0.514
G1 X8.059
G2 X26.704 Y24.969 I9.941 J-5.05
G1 X26.711 Y24.96
G2 X28.389 Y22.05 I-8.711 J-6.961
G1 X31
G2 X32.55 Y20.5 I0 J-1.55
G1 Y14.5
G2 X31 Y12.95 I-1.55 J0
G1 X27.941
G2 X26.711 Y11.04 I-9.941 J5.05
G1 X26.704 Y11.031
G2 X7.611 Y13.95 I-8.704 J6.969
G1 X5
G2 X3.45 Y15.5 I0 J1.55
G1 Y21.5
G2 X3.538 Y22.014 I1.55 J0
G1 X3.548 Y22.063
X3.547 Y22.113
X3.533 Y22.161
X-2.115 Y35.122
G2 X-2.014 Y35.384 I0.183 J0.08
G1 X-1.959 Y35.409 Z-6.006 F150
X-1.906 Y35.433 Z-6.024
X-1.857 Y35.455 Z-6.052
X-1.814 Y35.474 Z-6.091
X-1.779 Y35.49 Z-6.138
X-1.753 Y35.502 Z-6.192
X-1.737 Y35.509 Z-6.25
X-1.721 Y35.516 Z-6.308
X-1.695 Y35.528 Z-6.362
X-1.66 Y35.544 Z-6.409
X-1.617 Y35.563 Z-6.448
X-1.568 Y35.585 Z-6.476
X-1.515 Y35.609 Z-6.494
X-1.46 Y35.634 Z-6.5
X-1.438 Y35.644
G2 X0.236 Y36.285 I6.373 J-14.144 F300
G3 X1.609 Y37.053 I-1.222 J3.793
G2 X2.081 Y37.448 I16.709 J-19.486
G3 X1.228 Y38.584 I-0.45 J0.551
G1 X-0.023 Y37.723
X-0.077 Y37.682
X-1.73 Y36.292
G3 X-1.97 Y35.886 I0.458 J-0.544
G1 X-2.502 Y33.199
G3 X-1.446 Y32.446 I0.698 J-0.138
G2 X1.741 Y33.762 I6.386 J-10.946
G3 X2.914 Y34.406 I-0.716 J2.694
G2 X7.101 Y37.447 I15.088 J-16.375
G3 X7.352 Y38.45 I-0.348 J0.62
X6.336 Y38.644 I-0.599 J-0.383
G1 X2.098 Y35.588
X-1.804 Y33.061
G3 X-2.12 Y32.578 I0.387 J-0.597
G1 X-2.601 Y29.619
G3 X-1.437 Y28.964 I0.702 J-0.114
G2 X3.23 Y31.183 I6.455 J-7.56
G3 X4.198 Y31.695 I-0.327 J1.788
G2 X16.808 Y37.449 I13.845 J-13.647
G1 X33.819 Y37.486
X33.865 Y37.48
X33.909 Y37.465
X33.947 Y37.44
G2 X35.885 Y35.658 I-15.944 J-19.282
G3 X37.237 Y34.726 I3.096 J3.045
G1 X37.441 Y34.635
G3 X38.148 Y35.861 I0.295 J0.647
G1 X36.727 Y36.874
X36.675 Y36.908
X36.619 Y36.937
X34.401 Y37.988
X34.303 Y38.026
X34.201 Y38.049
X29.355 Y38.77
G3 X28.902 Y37.447 I-0.105 J-0.703
G2 X34.364 Y33.132 I-10.901 J-19.415
G3 X35.51 Y32.359 I2.225 J2.064
G2 X37.437 Y31.436 I-4.556 J-11.979
G3 X38.196 Y32.638 I0.36 J0.614
G1 X34.168 Y35.363
X34.112 Y35.398
X29.25 Y38.067
G3 X28.96 Y38.153 I-0.342 J-0.623
G1 X19.315 Y38.869
G3 X18.553 Y38.208 I-0.053 J-0.709
X19.217 Y37.45 I0.71 J-0.049
G2 X26.188 Y35.654 I-1.214 J-19.146
X32.847 Y30.553 I-8.47 J-17.955
G3 X33.791 Y29.939 I1.503 J1.277
G2 X37.448 Y27.95 I-2.824 J-9.548
G1 X37.478 Y27.919
X37.5 Y27.882
X37.513 Y27.841
X37.518 Y27.799
X37.555 Y0.539
X37.55 Y0.493
X37.535 Y0.45
X37.51 Y0.411
X37.477 Y0.38
X37.438 Y0.356
G2 X35.764 Y-0.285 I-6.373 J14.144
G3 X34.392 Y-1.052 I1.222 J-3.794
G2 X33.919 Y-1.448 I-16.703 J19.483
G3 X34.773 Y-2.584 I0.45 J-0.551
G1 X36.023 Y-1.723
X36.077 Y-1.682
X37.73 Y-0.292
G3 X37.97 Y0.114 I-0.458 J0.544
G1 X38.502 Y2.801
G3 X37.446 Y3.554 I-0.698 J0.138
G2 X34.259 Y2.238 I-6.386 J10.946
G3 X33.087 Y1.594 I0.716 J-2.694
G2 X28.899 Y-1.446 I-15.088 J16.381
G3 X28.648 Y-2.449 I0.348 J-0.62
X29.663 Y-2.643 I0.6 J0.383
G1 X33.902 Y0.412
X37.804 Y2.939
G3 X38.12 Y3.422 I-0.387 J0.597
G1 X38.601 Y6.381
G3 X37.437 Y7.036 I-0.702 J0.114
G2 X32.77 Y4.817 I-6.455 J7.56
G3 X31.802 Y4.306 I0.327 J-1.788
G2 X18.862 Y-1.45 I-13.805 J13.615
G1 X2.184 Y-1.491
X2.139 Y-1.485
X2.095 Y-1.47
X2.057 Y-1.445
G2 X0.113 Y0.344 I15.928 J19.258
G3 X-1.237 Y1.274 I-3.091 J-3.041
G1 X-1.44 Y1.365
G3 X-2.148 Y0.139 I-0.295 J-0.647
G1 X-0.725 Y-0.876
X-0.673 Y-0.91
X-0.617 Y-0.939
X1.603 Y-1.993
X1.701 Y-2.031
X1.804 Y-2.054
X6.646 Y-2.769
G3 X7.098 Y-1.445 I0.104 J0.704
G2 X1.642 Y2.862 I10.901 J19.42
G3 X0.49 Y3.64 I-2.229 J-2.056
G2 X-1.437 Y4.564 I4.555 J11.979
G3 X-2.195 Y3.361 I-0.36 J-0.614
G1 X1.832 Y0.637
X1.888 Y0.603
X6.75 Y-2.065
G3 X7.041 Y-2.151 I0.342 J0.624
G1 X17.052 Y-2.87
G3 X17.812 Y-2.201 I0.051 J0.709
X17.134 Y-1.45 I-0.71 J0.041
G2 X3.157 Y5.442 I0.863 J19.37
G3 X2.209 Y6.061 I-1.507 J-1.273
G2 X-1.448 Y8.05 I2.824 J9.548
G1 X-1.478 Y8.081
X-1.5 Y8.118
X-1.513 Y8.159
X-1.518 Y8.202
X-1.465 Y24.292
X-1.461 Y24.333
X-1.448 Y24.373
G2 X-0.099 Y26.359 I6.367 J-2.873
X4.681 Y28.514 I5.102 J-4.941
G3 X5.432 Y28.877 I-0.048 J1.058
G2 X11.089 Y33.137 I12.814 J-11.129
X18.003 Y34.666 I6.914 J-14.867
X31.361 Y27.886 I0 J-16.55
G3 X32.105 Y27.434 I0.924 J0.68
G2 X36.363 Y25.066 I-1.119 J-7.027
X37.448 Y23.37 I-5.27 J-4.566
G1 X37.461 Y23.33
X37.466 Y23.288
X37.465 Y11.709
X37.461 Y11.667
X37.448 Y11.627
G2 X36.099 Y9.641 I-6.367 J2.873
X31.319 Y7.486 I-5.102 J4.941
G3 X30.568 Y7.123 I0.048 J-1.058
G2 X24.905 Y2.863 I-12.824 J11.152
X17.985 Y1.334 I-6.92 J14.895
X10.505 Y3.141 I0 J16.382
X4.636 Y8.118 I7.735 J15.072
G3 X3.896 Y8.566 I-0.92 J-0.683
G2 X-0.363 Y10.934 I1.119 J7.027
X-1.448 Y12.63 I5.27 J4.566
X-0.649 Y15.374 I2.004 J0.905
G3 X0.704 Y17.891 I-1.64 J2.503
G2 X0.695 Y21.5 I744.227 J3.609
X5 Y25.794 I4.294 J0
X5.54 Y25.777 I0 J-8.645
G3 X6.08 Y25.76 I0.54 J8.628
X6.758 Y26.107 I0 J0.836
G2 X29.9 Y25.106 I11.242 J-8.108
G3 X30.508 Y24.76 I0.608 J0.361
G1 X30.754 Y24.768
X31 Y24.775
G2 X35.281 Y20.529 I0 J-4.281
X35.305 Y14.5 I-744.174 J-6.029
X31 Y10.206 I-4.294 J0
X30.46 Y10.223 I0 J8.647
G3 X29.92 Y10.24 I-0.54 J-8.63
X29.243 Y9.895 I0 J-0.836
X29.043 Y9.607 I6.998 J-5.074
G2 X28.837 Y9.324 I-3.304 J2.197
X6.098 Y10.897 I-10.824 J8.666
G3 X5.492 Y11.24 I-0.606 J-0.364
G1 X5.246 Y11.232
X5 Y11.225
G2 X0.719 Y15.471 I0 J4.281
X0.704 Y17.891 I744.212 J6.029
X1.943 Y20.075 I2.521 J0.012
G3 X3.538 Y22.014 I-1.862 J3.156
G2 X5 Y23.05 I1.462 J-0.514
