(metal_coupler_8mm)
(Machine)
(  vendor: Autodesk)
(  model: Generic 3-axis)
(  description: This machine has XY axis on the Table and Z axis on the Head)
(T1  D=4.76 CR=0 - ZMIN=-14 - flat end mill)
G90 G94
G17
G21
(When using Fusion 360 for Personal Use, the feedrate of)
(rapid moves is reduced to match the feedrate of cutting)
(moves, which can increase machining time. Unrestricted rapid)
(moves are available with a Fusion 360 Subscription.)
G28 G91 Z0
G90

(2D Contour1)
T1
S24000 M3
G54
M8
G0 X17.692 Y17.524
Z10
G1 Z5 F150
Z1.6 F50
Z-0.124
G18 G2 X18.168 Z-0.6 I0.476 K0
G1 X18.644
G17 G3 X19.12 Y18 I0 J0.476
G1 Y19.305 F150
G3 X16.88 Y16.695 I-1.12 J-1.305
X19.12 Y16.695 I1.12 J1.305
G1 Y18
G3 X18.644 Y18.476 I-0.476 J0
G1 X18.168
G18 G3 X17.692 Z-0.124 I0 K0.476
G1 Z5
Y17.524
Z1 F50
Z-0.724
G2 X18.168 Z-1.2 I0.476 K0
G1 X18.644
G17 G3 X19.12 Y18 I0 J0.476
G1 Y19.305 F150
G3 X16.88 Y16.695 I-1.12 J-1.305
X19.12 Y16.695 I1.12 J1.305
G1 Y18
G3 X18.644 Y18.476 I-0.476 J0
G1 X18.168
G18 G3 X17.692 Z-0.724 I0 K0.476
G1 Z5
Y17.524
Z0.4 F50
Z-1.324
G2 X18.168 Z-1.8 I0.476 K0
G1 X18.644
G17 G3 X19.12 Y18 I0 J0.476
G1 Y19.305 F150
G3 X16.88 Y16.695 I-1.12 J-1.305
X19.12 Y16.695 I1.12 J1.305
G1 Y18
G3 X18.644 Y18.476 I-0.476 J0
G1 X18.168
G18 G3 X17.692 Z-1.324 I0 K0.476
G1 Z5
Y17.524
Z-0.2 F50
Z-1.924
G2 X18.168 Z-2.4 I0.476 K0
G1 X18.644
G17 G3 X19.12 Y18 I0 J0.476
G1 Y19.305 F150
G3 X16.88 Y16.695 I-1.12 J-1.305
X19.12 Y16.695 I1.12 J1.305
G1 Y18
G3 X18.644 Y18.476 I-0.476 J0
G1 X18.168
G18 G3 X17.692 Z-1.924 I0 K0.476
G1 Z5
Y17.524
Z-0.8 F50
Z-2.524
G2 X18.168 Z-3 I0.476 K0
G1 X18.644
G17 G3 X19.12 Y18 I0 J0.476
G1 Y19.305 F150
G3 X16.88 Y16.695 I-1.12 J-1.305
X19.12 Y16.695 I1.12 J1.305
G1 Y18
G3 X18.644 Y18.476 I-0.476 J0
G1 X18.168
G18 G3 X17.692 Z-2.524 I0 K0.476
G1 Z5
Y17.524
Z-1.4 F50
Z-3.124
G2 X18.168 Z-3.6 I0.476 K0
G1 X18.644
G17 G3 X19.12 Y18 I0 J0.476
G1 Y19.305 F150
G3 X16.88 Y16.695 I-1.12 J-1.305
X19.12 Y16.695 I1.12 J1.305
G1 Y18
G3 X18.644 Y18.476 I-0.476 J0
G1 X18.168
G18 G3 X17.692 Z-3.124 I0 K0.476
G1 Z5
Y17.524
Z-2 F50
Z-3.724
G2 X18.168 Z-4.2 I0.476 K0
G1 X18.644
G17 G3 X19.12 Y18 I0 J0.476
G1 Y19.305 F150
G3 X16.88 Y16.695 I-1.12 J-1.305
X19.12 Y16.695 I1.12 J1.305
G1 Y18
G3 X18.644 Y18.476 I-0.476 J0
G1 X18.168
G18 G3 X17.692 Z-3.724 I0 K0.476
G1 Z5
Y17.524
Z-2.6 F50
Z-4.324
G2 X18.168 Z-4.8 I0.476 K0
G1 X18.644
G17 G3 X19.12 Y18 I0 J0.476
G1 Y19.305 F150
G3 X16.88 Y16.695 I-1.12 J-1.305
X19.12 Y16.695 I1.12 J1.305
G1 Y18
G3 X18.644 Y18.476 I-0.476 J0
G1 X18.168
G18 G3 X17.692 Z-4.324 I0 K0.476
G1 Z5
Y17.524
Z-3.2 F50
Z-4.924
G2 X18.168 Z-5.4 I0.476 K0
G1 X18.644
G17 G3 X19.12 Y18 I0 J0.476
G1 Y19.305 F150
G3 X16.88 Y16.695 I-1.12 J-1.305
X19.12 Y16.695 I1.12 J1.305
G1 Y18
G3 X18.644 Y18.476 I-0.476 J0
G1 X18.168
G18 G3 X17.692 Z-4.924 I0 K0.476
G1 Z5
Y17.524
Z-3.8 F50
Z-5.524
G2 X18.168 Z-6 I0.476 K0
G1 X18.644
G17 G3 X19.12 Y18 I0 J0.476
G1 Y19.305 F150
G3 X16.88 Y16.695 I-1.12 J-1.305
X19.12 Y16.695 I1.12 J1.305
G1 Y18
G3 X18.644 Y18.476 I-0.476 J0
G1 X18.168
G18 G3 X17.692 Z-5.524 I0 K0.476
G1 Z5
Y17.524
Z-4.4 F50
Z-6.124
G2 X18.168 Z-6.6 I0.476 K0
G1 X18.644
G17 G3 X19.12 Y18 I0 J0.476
G1 Y19.305 F150
G3 X16.88 Y16.695 I-1.12 J-1.305
X19.12 Y16.695 I1.12 J1.305
G1 Y18
G3 X18.644 Y18.476 I-0.476 J0
G1 X18.168
G18 G3 X17.692 Z-6.124 I0 K0.476
G1 Z5
Y17.524
Z-5 F50
Z-6.724
G2 X18.168 Z-7.2 I0.476 K0
G1 X18.644
G17 G3 X19.12 Y18 I0 J0.476
G1 Y19.305 F150
G3 X16.88 Y16.695 I-1.12 J-1.305
X19.12 Y16.695 I1.12 J1.305
G1 Y18
G3 X18.644 Y18.476 I-0.476 J0
G1 X18.168
G18 G3 X17.692 Z-6.724 I0 K0.476
G1 Z5
Y17.524
Z-5.6 F50
Z-7.324
G2 X18.168 Z-7.8 I0.476 K0
G1 X18.644
G17 G3 X19.12 Y18 I0 J0.476
G1 Y19.305 F150
G3 X16.88 Y16.695 I-1.12 J-1.305
X19.12 Y16.695 I1.12 J1.305
G1 Y18
G3 X18.644 Y18.476 I-0.476 J0
G1 X18.168
G18 G3 X17.692 Z-7.324 I0 K0.476
G1 Z5
Y17.524
Z-6.2 F50
Z-7.924
G2 X18.168 Z-8.4 I0.476 K0
G1 X18.644
G17 G3 X19.12 Y18 I0 J0.476
G1 Y19.305 F150
G3 X16.88 Y16.695 I-1.12 J-1.305
X19.12 Y16.695 I1.12 J1.305
G1 Y18
G3 X18.644 Y18.476 I-0.476 J0
G1 X18.168
G18 G3 X17.692 Z-7.924 I0 K0.476
G1 Z5
Y17.524
Z-6.8 F50
Z-8.524
G2 X18.168 Z-9 I0.476 K0
G1 X18.644
G17 G3 X19.12 Y18 I0 J0.476
G1 Y19.305 F150
G3 X16.88 Y16.695 I-1.12 J-1.305
X19.12 Y16.695 I1.12 J1.305
G1 Y18
G3 X18.644 Y18.476 I-0.476 J0
G1 X18.168
G18 G3 X17.692 Z-8.524 I0 K0.476
G1 Z5
Y17.524
Z-7.4 F50
Z-9.124
G2 X18.168 Z-9.6 I0.476 K0
G1 X18.644
G17 G3 X19.12 Y18 I0 J0.476
G1 Y19.305 F150
G3 X16.88 Y16.695 I-1.12 J-1.305
X19.12 Y16.695 I1.12 J1.305
G1 Y18
G3 X18.644 Y18.476 I-0.476 J0
G1 X18.168
G18 G3 X17.692 Z-9.124 I0 K0.476
G1 Z5
Y17.524
Z-8 F50
Z-9.724
G2 X18.168 Z-10.2 I0.476 K0
G1 X18.644
G17 G3 X19.12 Y18 I0 J0.476
G1 Y19.305 F150
G3 X16.88 Y16.695 I-1.12 J-1.305
X19.12 Y16.695 I1.12 J1.305
G1 Y18
G3 X18.644 Y18.476 I-0.476 J0
G1 X18.168
G18 G3 X17.692 Z-9.724 I0 K0.476
G1 Z5
Y17.524
Z-8.6 F50
Z-10.324
G2 X18.168 Z-10.8 I0.476 K0
G1 X18.644
G17 G3 X19.12 Y18 I0 J0.476
G1 Y19.305 F150
G3 X16.88 Y16.695 I-1.12 J-1.305
X19.12 Y16.695 I1.12 J1.305
G1 Y18
G3 X18.644 Y18.476 I-0.476 J0
G1 X18.168
G18 G3 X17.692 Z-10.324 I0 K0.476
G1 Z5
Y17.524
Z-9.2 F50
Z-10.924
G2 X18.168 Z-11.4 I0.476 K0
G1 X18.644
G17 G3 X19.12 Y18 I0 J0.476
G1 Y19.305 F150
G3 X16.88 Y16.695 I-1.12 J-1.305
X19.12 Y16.695 I1.12 J1.305
G1 Y18
G3 X18.644 Y18.476 I-0.476 J0
G1 X18.168
G18 G3 X17.692 Z-10.924 I0 K0.476
G1 Z5
Y17.524
Z-9.8 F50
Z-11.524
G2 X18.168 Z-12 I0.476 K0
G1 X18.644
G17 G3 X19.12 Y18 I0 J0.476
G1 Y19.305 F150
G3 X16.88 Y16.695 I-1.12 J-1.305
X19.12 Y16.695 I1.12 J1.305
G1 Y18
G3 X18.644 Y18.476 I-0.476 J0
G1 X18.168
G18 G3 X17.692 Z-11.524 I0 K0.476
G1 Z5
Y17.524
Z-10.4 F50
Z-12.124
G2 X18.168 Z-12.6 I0.476 K0
G1 X18.644
G17 G3 X19.12 Y18 I0 J0.476
G1 Y19.305 F150
G3 X16.88 Y16.695 I-1.12 J-1.305
X19.12 Y16.695 I1.12 J1.305
G1 Y18
G3 X18.644 Y18.476 I-0.476 J0
G1 X18.168
G18 G3 X17.692 Z-12.124 I0 K0.476
G1 Z5
Y17.524
Z-11 F50
Z-12.724
G2 X18.168 Z-13.2 I0.476 K0
G1 X18.644
G17 G3 X19.12 Y18 I0 J0.476
G1 Y19.305 F150
G3 X16.88 Y16.695 I-1.12 J-1.305
X19.12 Y16.695 I1.12 J1.305
G1 Y18
G3 X18.644 Y18.476 I-0.476 J0
G1 X18.168
G18 G3 X17.692 Z-12.724 I0 K0.476
G1 Z5
Y17.524
Z-11.6 F50
Z-13.324
G2 X18.168 Z-13.8 I0.476 K0
G1 X18.644
G17 G3 X19.12 Y18 I0 J0.476
G1 Y19.305 F150
G3 X16.88 Y16.695 I-1.12 J-1.305
X19.12 Y16.695 I1.12 J1.305
G1 Y18
G3 X18.644 Y18.476 I-0.476 J0
G1 X18.168
G18 G3 X17.692 Z-13.324 I0 K0.476
G1 Z5
Y17.524
Z-12.2 F50
Z-13.524
G2 X18.168 Z-14 I0.476 K0
G1 X18.644
G17 G3 X19.12 Y18 I0 J0.476
G1 Y19.305 F150
G3 X16.88 Y16.695 I-1.12 J-1.305
X19.12 Y16.695 I1.12 J1.305
G1 Y18
G3 X18.644 Y18.476 I-0.476 J0
G1 X18.168
G18 G3 X17.692 Z-13.524 I0 K0.476
G1 Z10
G17
(When using Fusion 360 for Personal Use, the feedrate of)
(rapid moves is reduced to match the feedrate of cutting)
(moves, which can increase machining time. Unrestricted rapid)
(moves are available with a Fusion 360 Subscription.)

(2D Pocket2)
G0 X26.586 Y39.88
G1 Z10 F150
Z5
Z-0.124 F50
X26.593 Y39.876 Z-0.207
X26.611 Y39.865 Z-0.287
X26.642 Y39.848 Z-0.362
X26.683 Y39.825 Z-0.43
X26.734 Y39.796 Z-0.489
X26.794 Y39.763 Z-0.536
X26.859 Y39.726 Z-0.571
X26.929 Y39.686 Z-0.593
X27.001 Y39.646 Z-0.6
X29.426 Y38.276
G2 X38.276 Y29.425 I-11.488 J-20.338 F150
G1 X38.299 Y29.368
X38.307 Y29.308
X38.309 Y6.651
X38.302 Y6.59
X38.279 Y6.533
G2 X29.464 Y-2.28 I-20.279 J11.467
G1 X29.408 Y-2.303
X29.347 Y-2.311
X6.65 Y-2.309
X6.59 Y-2.302
X6.533 Y-2.279
G2 X-2.28 Y6.536 I11.467 J20.279
G1 X-2.303 Y6.592
X-2.311 Y6.653
X-2.309 Y29.35
X-2.302 Y29.41
X-2.279 Y29.467
G2 X6.536 Y38.28 I20.279 J-11.467
X10.809 Y37.822 I1.816 J-3.213
G3 X14.936 Y36.624 I3.318 J3.721
G2 X17.938 Y36.874 I3.064 J-18.624
X31.302 Y31.39 I0 J-19.026
X36.874 Y18.062 I-13.153 J-13.328
X18 Y-0.874 I-18.936 J0
X14.936 Y36.624 I0 J18.874
X18.859 Y34.643 I0.605 J-3.678
G3 X22.228 Y31.82 I5.018 J2.566
G2 X32.452 Y17.938 I-4.228 J-13.82
X18 Y3.548 I-14.39 J0
X3.548 Y17.938 I0 J14.452
X18 Y32.452 I14.514 J0
X22.228 Y31.82 I0 J-14.452
X24.921 Y28.074 I-1.114 J-3.641
G3 X26.227 Y23.649 I7.451 J-0.205
G2 X27.98 Y18 I-8.227 J-5.649
G1 Y17.938
G2 X18 Y8.02 I-9.98 J0.062
X18 Y27.98 I0 J9.98
X26.227 Y23.649 I0 J-9.98
G3 X26.66 Y23.758 I0.196 J0.135
G1 X28.286 Y38.539
G2 X28.639 Y38.72 I0.237 J-0.026
G1 X28.71 Y38.68 Z-0.607 F50
X28.778 Y38.642 Z-0.627
X28.842 Y38.605 Z-0.661
X28.9 Y38.573 Z-0.706
X28.951 Y38.544 Z-0.762
X28.993 Y38.52 Z-0.828
X29.025 Y38.502 Z-0.9
X29.056 Y38.485 Z-0.972
X29.098 Y38.461 Z-1.038
X29.149 Y38.432 Z-1.094
X29.207 Y38.399 Z-1.139
X29.271 Y38.363 Z-1.173
X29.339 Y38.325 Z-1.193
X29.41 Y38.285 Z-1.2
X29.426 Y38.276
G2 X38.276 Y29.425 I-11.488 J-20.338 F150
G1 X38.299 Y29.368
X38.307 Y29.308
X38.309 Y6.651
X38.302 Y6.59
X38.279 Y6.533
G2 X29.464 Y-2.28 I-20.279 J11.467
G1 X29.408 Y-2.303
X29.347 Y-2.311
X6.65 Y-2.309
X6.59 Y-2.302
X6.533 Y-2.279
G2 X-2.28 Y6.536 I11.467 J20.279
G1 X-2.303 Y6.592
X-2.311 Y6.653
X-2.309 Y29.35
X-2.302 Y29.41
X-2.279 Y29.467
G2 X6.536 Y38.28 I20.279 J-11.467
X10.809 Y37.822 I1.816 J-3.213
G3 X14.936 Y36.624 I3.318 J3.721
G2 X17.938 Y36.874 I3.064 J-18.624
X31.302 Y31.39 I0 J-19.026
X36.874 Y18.062 I-13.153 J-13.328
X18 Y-0.874 I-18.936 J0
X14.936 Y36.624 I0 J18.874
X18.859 Y34.643 I0.605 J-3.678
G3 X22.228 Y31.82 I5.018 J2.566
G2 X32.452 Y17.938 I-4.228 J-13.82
X18 Y3.548 I-14.39 J0
X3.548 Y17.938 I0 J14.452
X18 Y32.452 I14.514 J0
X22.228 Y31.82 I0 J-14.452
X24.921 Y28.074 I-1.114 J-3.641
G3 X26.227 Y23.649 I7.451 J-0.205
G2 X27.98 Y18 I-8.227 J-5.649
G1 Y17.938
G2 X18 Y8.02 I-9.98 J0.062
X18 Y27.98 I0 J9.98
X26.227 Y23.649 I0 J-9.98
G3 X26.66 Y23.758 I0.196 J0.135
G1 X28.286 Y38.539
G2 X28.639 Y38.72 I0.237 J-0.026
G1 X28.71 Y38.68 Z-1.207 F50
X28.778 Y38.642 Z-1.227
X28.842 Y38.605 Z-1.261
X28.9 Y38.573 Z-1.306
X28.951 Y38.544 Z-1.362
X28.993 Y38.52 Z-1.428
X29.025 Y38.502 Z-1.5
X29.056 Y38.485 Z-1.572
X29.098 Y38.461 Z-1.638
X29.149 Y38.432 Z-1.694
X29.207 Y38.399 Z-1.739
X29.271 Y38.363 Z-1.773
X29.339 Y38.325 Z-1.793
X29.41 Y38.285 Z-1.8
X29.426 Y38.276
G2 X38.276 Y29.425 I-11.488 J-20.338 F150
G1 X38.299 Y29.368
X38.307 Y29.308
X38.309 Y6.651
X38.302 Y6.59
X38.279 Y6.533
G2 X29.464 Y-2.28 I-20.279 J11.467
G1 X29.408 Y-2.303
X29.347 Y-2.311
X6.65 Y-2.309
X6.59 Y-2.302
X6.533 Y-2.279
G2 X-2.28 Y6.536 I11.467 J20.279
G1 X-2.303 Y6.592
X-2.311 Y6.653
X-2.309 Y29.35
X-2.302 Y29.41
X-2.279 Y29.467
G2 X6.536 Y38.28 I20.279 J-11.467
X10.809 Y37.822 I1.816 J-3.213
G3 X14.936 Y36.624 I3.318 J3.721
G2 X17.938 Y36.874 I3.064 J-18.624
X31.302 Y31.39 I0 J-19.026
X36.874 Y18.062 I-13.153 J-13.328
X18 Y-0.874 I-18.936 J0
X14.936 Y36.624 I0 J18.874
X18.859 Y34.643 I0.605 J-3.678
G3 X22.228 Y31.82 I5.018 J2.566
G2 X32.452 Y17.938 I-4.228 J-13.82
X18 Y3.548 I-14.39 J0
X3.548 Y17.938 I0 J14.452
X18 Y32.452 I14.514 J0
X22.228 Y31.82 I0 J-14.452
X24.921 Y28.074 I-1.114 J-3.641
G3 X26.227 Y23.649 I7.451 J-0.205
G2 X27.98 Y18 I-8.227 J-5.649
G1 Y17.938
G2 X18 Y8.02 I-9.98 J0.062
X18 Y27.98 I0 J9.98
X26.227 Y23.649 I0 J-9.98
G3 X26.66 Y23.758 I0.196 J0.135
G1 X28.286 Y38.539
G2 X28.639 Y38.72 I0.237 J-0.026
G1 X28.71 Y38.68 Z-1.807 F50
X28.778 Y38.642 Z-1.827
X28.842 Y38.605 Z-1.861
X28.9 Y38.573 Z-1.906
X28.951 Y38.544 Z-1.962
X28.993 Y38.52 Z-2.028
X29.025 Y38.502 Z-2.1
X29.056 Y38.485 Z-2.172
X29.098 Y38.461 Z-2.238
X29.149 Y38.432 Z-2.294
X29.207 Y38.399 Z-2.339
X29.271 Y38.363 Z-2.373
X29.339 Y38.325 Z-2.393
X29.41 Y38.285 Z-2.4
X29.426 Y38.276
G2 X38.276 Y29.425 I-11.488 J-20.338 F150
G1 X38.299 Y29.368
X38.307 Y29.308
X38.309 Y6.651
X38.302 Y6.59
X38.279 Y6.533
G2 X29.464 Y-2.28 I-20.279 J11.467
G1 X29.408 Y-2.303
X29.347 Y-2.311
X6.65 Y-2.309
X6.59 Y-2.302
X6.533 Y-2.279
G2 X-2.28 Y6.536 I11.467 J20.279
G1 X-2.303 Y6.592
X-2.311 Y6.653
X-2.309 Y29.35
X-2.302 Y29.41
X-2.279 Y29.467
G2 X6.536 Y38.28 I20.279 J-11.467
X10.809 Y37.822 I1.816 J-3.213
G3 X14.936 Y36.624 I3.318 J3.721
G2 X17.938 Y36.874 I3.064 J-18.624
X31.302 Y31.39 I0 J-19.026
X36.874 Y18.062 I-13.153 J-13.328
X18 Y-0.874 I-18.936 J0
X14.936 Y36.624 I0 J18.874
X18.859 Y34.643 I0.605 J-3.678
G3 X22.228 Y31.82 I5.018 J2.566
G2 X32.452 Y17.938 I-4.228 J-13.82
X18 Y3.548 I-14.39 J0
X3.548 Y17.938 I0 J14.452
X18 Y32.452 I14.514 J0
X22.228 Y31.82 I0 J-14.452
X24.921 Y28.074 I-1.114 J-3.641
G3 X26.227 Y23.649 I7.451 J-0.205
G2 X27.98 Y18 I-8.227 J-5.649
G1 Y17.938
G2 X18 Y8.02 I-9.98 J0.062
X18 Y27.98 I0 J9.98
X26.227 Y23.649 I0 J-9.98
G3 X26.66 Y23.758 I0.196 J0.135
G1 X28.286 Y38.539
G2 X28.639 Y38.72 I0.237 J-0.026
G1 X28.71 Y38.68 Z-2.407 F50
X28.778 Y38.642 Z-2.427
X28.842 Y38.605 Z-2.461
X28.9 Y38.573 Z-2.506
X28.951 Y38.544 Z-2.562
X28.993 Y38.52 Z-2.628
X29.025 Y38.502 Z-2.7
X29.056 Y38.485 Z-2.772
X29.098 Y38.461 Z-2.838
X29.149 Y38.432 Z-2.894
X29.207 Y38.399 Z-2.939
X29.271 Y38.363 Z-2.973
X29.339 Y38.325 Z-2.993
X29.41 Y38.285 Z-3
X29.426 Y38.276
G2 X38.276 Y29.425 I-11.488 J-20.338 F150
G1 X38.299 Y29.368
X38.307 Y29.308
X38.309 Y6.651
X38.302 Y6.59
X38.279 Y6.533
G2 X29.464 Y-2.28 I-20.279 J11.467
G1 X29.408 Y-2.303
X29.347 Y-2.311
X6.65 Y-2.309
X6.59 Y-2.302
X6.533 Y-2.279
G2 X-2.28 Y6.536 I11.467 J20.279
G1 X-2.303 Y6.592
X-2.311 Y6.653
X-2.309 Y29.35
X-2.302 Y29.41
X-2.279 Y29.467
G2 X6.536 Y38.28 I20.279 J-11.467
X10.809 Y37.822 I1.816 J-3.213
G3 X14.936 Y36.624 I3.318 J3.721
G2 X17.938 Y36.874 I3.064 J-18.624
X31.302 Y31.39 I0 J-19.026
X36.874 Y18.062 I-13.153 J-13.328
X18 Y-0.874 I-18.936 J0
X14.936 Y36.624 I0 J18.874
X18.859 Y34.643 I0.605 J-3.678
G3 X22.228 Y31.82 I5.018 J2.566
G2 X32.452 Y17.938 I-4.228 J-13.82
X18 Y3.548 I-14.39 J0
X3.548 Y17.938 I0 J14.452
X18 Y32.452 I14.514 J0
X22.228 Y31.82 I0 J-14.452
X24.921 Y28.074 I-1.114 J-3.641
G3 X26.227 Y23.649 I7.451 J-0.205
G2 X27.98 Y18 I-8.227 J-5.649
G1 Y17.938
G2 X18 Y8.02 I-9.98 J0.062
X18 Y27.98 I0 J9.98
X26.227 Y23.649 I0 J-9.98
G3 X26.66 Y23.758 I0.196 J0.135
G1 X28.286 Y38.539
G2 X28.639 Y38.72 I0.237 J-0.026
G1 X28.71 Y38.68 Z-3.007 F50
X28.778 Y38.642 Z-3.027
X28.842 Y38.605 Z-3.061
X28.9 Y38.573 Z-3.106
X28.951 Y38.544 Z-3.162
X28.993 Y38.52 Z-3.228
X29.025 Y38.502 Z-3.3
X29.056 Y38.485 Z-3.372
X29.098 Y38.461 Z-3.438
X29.149 Y38.432 Z-3.494
X29.207 Y38.399 Z-3.539
X29.271 Y38.363 Z-3.573
X29.339 Y38.325 Z-3.593
X29.41 Y38.285 Z-3.6
X29.426 Y38.276
G2 X38.276 Y29.425 I-11.488 J-20.338 F150
G1 X38.299 Y29.368
X38.307 Y29.308
X38.309 Y6.651
X38.302 Y6.59
X38.279 Y6.533
G2 X29.464 Y-2.28 I-20.279 J11.467
G1 X29.408 Y-2.303
X29.347 Y-2.311
X6.65 Y-2.309
X6.59 Y-2.302
X6.533 Y-2.279
G2 X-2.28 Y6.536 I11.467 J20.279
G1 X-2.303 Y6.592
X-2.311 Y6.653
X-2.309 Y29.35
X-2.302 Y29.41
X-2.279 Y29.467
G2 X6.536 Y38.28 I20.279 J-11.467
X10.809 Y37.822 I1.816 J-3.213
G3 X14.936 Y36.624 I3.318 J3.721
G2 X17.938 Y36.874 I3.064 J-18.624
X31.302 Y31.39 I0 J-19.026
X36.874 Y18.062 I-13.153 J-13.328
X18 Y-0.874 I-18.936 J0
X14.936 Y36.624 I0 J18.874
X18.859 Y34.643 I0.605 J-3.678
G3 X22.228 Y31.82 I5.018 J2.566
G2 X32.452 Y17.938 I-4.228 J-13.82
X18 Y3.548 I-14.39 J0
X3.548 Y17.938 I0 J14.452
X18 Y32.452 I14.514 J0
X22.228 Y31.82 I0 J-14.452
X24.921 Y28.074 I-1.114 J-3.641
G3 X26.227 Y23.649 I7.451 J-0.205
G2 X27.98 Y18 I-8.227 J-5.649
G1 Y17.938
G2 X18 Y8.02 I-9.98 J0.062
X18 Y27.98 I0 J9.98
X26.227 Y23.649 I0 J-9.98
G3 X26.66 Y23.758 I0.196 J0.135
G1 X28.286 Y38.539
G2 X28.639 Y38.72 I0.237 J-0.026
G1 X28.71 Y38.68 Z-3.607 F50
X28.778 Y38.642 Z-3.627
X28.842 Y38.605 Z-3.661
X28.9 Y38.573 Z-3.706
X28.951 Y38.544 Z-3.762
X28.993 Y38.52 Z-3.828
X29.025 Y38.502 Z-3.9
X29.056 Y38.485 Z-3.972
X29.098 Y38.461 Z-4.038
X29.149 Y38.432 Z-4.094
X29.207 Y38.399 Z-4.139
X29.271 Y38.363 Z-4.173
X29.339 Y38.325 Z-4.193
X29.41 Y38.285 Z-4.2
X29.426 Y38.276
G2 X38.276 Y29.425 I-11.488 J-20.338 F150
G1 X38.299 Y29.368
X38.307 Y29.308
X38.309 Y6.651
X38.302 Y6.59
X38.279 Y6.533
G2 X29.464 Y-2.28 I-20.279 J11.467
G1 X29.408 Y-2.303
X29.347 Y-2.311
X6.65 Y-2.309
X6.59 Y-2.302
X6.533 Y-2.279
G2 X-2.28 Y6.536 I11.467 J20.279
G1 X-2.303 Y6.592
X-2.311 Y6.653
X-2.309 Y29.35
X-2.302 Y29.41
X-2.279 Y29.467
G2 X6.536 Y38.28 I20.279 J-11.467
X10.809 Y37.822 I1.816 J-3.213
G3 X14.936 Y36.624 I3.318 J3.721
G2 X17.938 Y36.874 I3.064 J-18.624
X31.302 Y31.39 I0 J-19.026
X36.874 Y18.062 I-13.153 J-13.328
X18 Y-0.874 I-18.936 J0
X14.936 Y36.624 I0 J18.874
X18.859 Y34.643 I0.605 J-3.678
G3 X22.228 Y31.82 I5.018 J2.566
G2 X32.452 Y17.938 I-4.228 J-13.82
X18 Y3.548 I-14.39 J0
X3.548 Y17.938 I0 J14.452
X18 Y32.452 I14.514 J0
X22.228 Y31.82 I0 J-14.452
X24.921 Y28.074 I-1.114 J-3.641
G3 X26.227 Y23.649 I7.451 J-0.205
G2 X27.98 Y18 I-8.227 J-5.649
G1 Y17.938
G2 X18 Y8.02 I-9.98 J0.062
X18 Y27.98 I0 J9.98
X26.227 Y23.649 I0 J-9.98
G3 X26.66 Y23.758 I0.196 J0.135
G1 X28.286 Y38.539
G2 X28.639 Y38.72 I0.237 J-0.026
G1 X28.71 Y38.68 Z-4.207 F50
X28.778 Y38.642 Z-4.227
X28.842 Y38.605 Z-4.261
X28.9 Y38.573 Z-4.306
X28.951 Y38.544 Z-4.362
X28.993 Y38.52 Z-4.428
X29.025 Y38.502 Z-4.5
X29.056 Y38.485 Z-4.572
X29.098 Y38.461 Z-4.638
X29.149 Y38.432 Z-4.694
X29.207 Y38.399 Z-4.739
X29.271 Y38.363 Z-4.773
X29.339 Y38.325 Z-4.793
X29.41 Y38.285 Z-4.8
X29.426 Y38.276
G2 X38.276 Y29.425 I-11.488 J-20.338 F150
G1 X38.299 Y29.368
X38.307 Y29.308
X38.309 Y6.651
X38.302 Y6.59
X38.279 Y6.533
G2 X29.464 Y-2.28 I-20.279 J11.467
G1 X29.408 Y-2.303
X29.347 Y-2.311
X6.65 Y-2.309
X6.59 Y-2.302
X6.533 Y-2.279
G2 X-2.28 Y6.536 I11.467 J20.279
G1 X-2.303 Y6.592
X-2.311 Y6.653
X-2.309 Y29.35
X-2.302 Y29.41
X-2.279 Y29.467
G2 X6.536 Y38.28 I20.279 J-11.467
X10.809 Y37.822 I1.816 J-3.213
G3 X14.936 Y36.624 I3.318 J3.721
G2 X17.938 Y36.874 I3.064 J-18.624
X31.302 Y31.39 I0 J-19.026
X36.874 Y18.062 I-13.153 J-13.328
X18 Y-0.874 I-18.936 J0
X14.936 Y36.624 I0 J18.874
X18.859 Y34.643 I0.605 J-3.678
G3 X22.228 Y31.82 I5.018 J2.566
G2 X32.452 Y17.938 I-4.228 J-13.82
X18 Y3.548 I-14.39 J0
X3.548 Y17.938 I0 J14.452
X18 Y32.452 I14.514 J0
X22.228 Y31.82 I0 J-14.452
X24.921 Y28.074 I-1.114 J-3.641
G3 X26.227 Y23.649 I7.451 J-0.205
G2 X27.98 Y18 I-8.227 J-5.649
G1 Y17.938
G2 X18 Y8.02 I-9.98 J0.062
X18 Y27.98 I0 J9.98
X26.227 Y23.649 I0 J-9.98
G3 X26.66 Y23.758 I0.196 J0.135
G1 X28.286 Y38.539
G2 X28.639 Y38.72 I0.237 J-0.026
G1 X28.71 Y38.68 Z-4.807 F50
X28.778 Y38.642 Z-4.827
X28.842 Y38.605 Z-4.861
X28.9 Y38.573 Z-4.906
X28.951 Y38.544 Z-4.962
X28.993 Y38.52 Z-5.028
X29.025 Y38.502 Z-5.1
X29.056 Y38.485 Z-5.172
X29.098 Y38.461 Z-5.238
X29.149 Y38.432 Z-5.294
X29.207 Y38.399 Z-5.339
X29.271 Y38.363 Z-5.373
X29.339 Y38.325 Z-5.393
X29.41 Y38.285 Z-5.4
X29.426 Y38.276
G2 X38.276 Y29.425 I-11.488 J-20.338 F150
G1 X38.299 Y29.368
X38.307 Y29.308
X38.309 Y6.651
X38.302 Y6.59
X38.279 Y6.533
G2 X29.464 Y-2.28 I-20.279 J11.467
G1 X29.408 Y-2.303
X29.347 Y-2.311
X6.65 Y-2.309
X6.59 Y-2.302
X6.533 Y-2.279
G2 X-2.28 Y6.536 I11.467 J20.279
G1 X-2.303 Y6.592
X-2.311 Y6.653
X-2.309 Y29.35
X-2.302 Y29.41
X-2.279 Y29.467
G2 X6.536 Y38.28 I20.279 J-11.467
X10.809 Y37.822 I1.816 J-3.213
G3 X14.936 Y36.624 I3.318 J3.721
G2 X17.938 Y36.874 I3.064 J-18.624
X31.302 Y31.39 I0 J-19.026
X36.874 Y18.062 I-13.153 J-13.328
X18 Y-0.874 I-18.936 J0
X14.936 Y36.624 I0 J18.874
X18.859 Y34.643 I0.605 J-3.678
G3 X22.228 Y31.82 I5.018 J2.566
G2 X32.452 Y17.938 I-4.228 J-13.82
X18 Y3.548 I-14.39 J0
X3.548 Y17.938 I0 J14.452
X18 Y32.452 I14.514 J0
X22.228 Y31.82 I0 J-14.452
X24.921 Y28.074 I-1.114 J-3.641
G3 X26.227 Y23.649 I7.451 J-0.205
G2 X27.98 Y18 I-8.227 J-5.649
G1 Y17.938
G2 X18 Y8.02 I-9.98 J0.062
X18 Y27.98 I0 J9.98
X26.227 Y23.649 I0 J-9.98
G3 X26.66 Y23.758 I0.196 J0.135
G1 X28.286 Y38.539
G2 X28.639 Y38.72 I0.237 J-0.026
G1 X28.71 Y38.68 Z-5.407 F50
X28.778 Y38.642 Z-5.427
X28.842 Y38.605 Z-5.461
X28.9 Y38.573 Z-5.506
X28.951 Y38.544 Z-5.562
X28.993 Y38.52 Z-5.628
X29.025 Y38.502 Z-5.7
X29.056 Y38.485 Z-5.772
X29.098 Y38.461 Z-5.838
X29.149 Y38.432 Z-5.894
X29.207 Y38.399 Z-5.939
X29.271 Y38.363 Z-5.973
X29.339 Y38.325 Z-5.993
X29.41 Y38.285 Z-6
X29.426 Y38.276
G2 X38.276 Y29.425 I-11.488 J-20.338 F150
G1 X38.299 Y29.368
X38.307 Y29.308
X38.309 Y6.651
X38.302 Y6.59
X38.279 Y6.533
G2 X29.464 Y-2.28 I-20.279 J11.467
G1 X29.408 Y-2.303
X29.347 Y-2.311
X6.65 Y-2.309
X6.59 Y-2.302
X6.533 Y-2.279
G2 X-2.28 Y6.536 I11.467 J20.279
G1 X-2.303 Y6.592
X-2.311 Y6.653
X-2.309 Y29.35
X-2.302 Y29.41
X-2.279 Y29.467
G2 X6.536 Y38.28 I20.279 J-11.467
X10.809 Y37.822 I1.816 J-3.213
G3 X14.936 Y36.624 I3.318 J3.721
G2 X17.938 Y36.874 I3.064 J-18.624
X31.302 Y31.39 I0 J-19.026
X36.874 Y18.062 I-13.153 J-13.328
X18 Y-0.874 I-18.936 J0
X14.936 Y36.624 I0 J18.874
X18.859 Y34.643 I0.605 J-3.678
G3 X22.228 Y31.82 I5.018 J2.566
G2 X32.452 Y17.938 I-4.228 J-13.82
X18 Y3.548 I-14.39 J0
X3.548 Y17.938 I0 J14.452
X18 Y32.452 I14.514 J0
X22.228 Y31.82 I0 J-14.452
X24.921 Y28.074 I-1.114 J-3.641
G3 X26.227 Y23.649 I7.451 J-0.205
G2 X27.98 Y18 I-8.227 J-5.649
G1 Y17.938
G2 X18 Y8.02 I-9.98 J0.062
X18 Y27.98 I0 J9.98
X26.227 Y23.649 I0 J-9.98
G3 X26.66 Y23.758 I0.196 J0.135
G1 X28.286 Y38.539
G2 X28.639 Y38.72 I0.237 J-0.026
G1 X28.71 Y38.68 Z-6.007 F50
X28.778 Y38.642 Z-6.027
X28.842 Y38.605 Z-6.061
X28.9 Y38.573 Z-6.106
X28.951 Y38.544 Z-6.162
X28.993 Y38.52 Z-6.228
X29.025 Y38.502 Z-6.3
X29.056 Y38.485 Z-6.372
X29.098 Y38.461 Z-6.438
X29.149 Y38.432 Z-6.494
X29.207 Y38.399 Z-6.539
X29.271 Y38.363 Z-6.573
X29.339 Y38.325 Z-6.593
X29.41 Y38.285 Z-6.6
X29.426 Y38.276
G2 X38.276 Y29.425 I-11.488 J-20.338 F150
G1 X38.299 Y29.368
X38.307 Y29.308
X38.309 Y6.651
X38.302 Y6.59
X38.279 Y6.533
G2 X29.464 Y-2.28 I-20.279 J11.467
G1 X29.408 Y-2.303
X29.347 Y-2.311
X6.65 Y-2.309
X6.59 Y-2.302
X6.533 Y-2.279
G2 X-2.28 Y6.536 I11.467 J20.279
G1 X-2.303 Y6.592
X-2.311 Y6.653
X-2.309 Y29.35
X-2.302 Y29.41
X-2.279 Y29.467
G2 X6.536 Y38.28 I20.279 J-11.467
X10.809 Y37.822 I1.816 J-3.213
G3 X14.936 Y36.624 I3.318 J3.721
G2 X17.938 Y36.874 I3.064 J-18.624
X31.302 Y31.39 I0 J-19.026
X36.874 Y18.062 I-13.153 J-13.328
X18 Y-0.874 I-18.936 J0
X14.936 Y36.624 I0 J18.874
X18.859 Y34.643 I0.605 J-3.678
G3 X22.228 Y31.82 I5.018 J2.566
G2 X32.452 Y17.938 I-4.228 J-13.82
X18 Y3.548 I-14.39 J0
X3.548 Y17.938 I0 J14.452
X18 Y32.452 I14.514 J0
X22.228 Y31.82 I0 J-14.452
X24.921 Y28.074 I-1.114 J-3.641
G3 X26.227 Y23.649 I7.451 J-0.205
G2 X27.98 Y18 I-8.227 J-5.649
G1 Y17.938
G2 X18 Y8.02 I-9.98 J0.062
X18 Y27.98 I0 J9.98
X26.227 Y23.649 I0 J-9.98
G3 X26.66 Y23.758 I0.196 J0.135
G1 X28.286 Y38.539
G2 X28.639 Y38.72 I0.237 J-0.026
G1 X28.71 Y38.68 Z-6.607 F50
X28.778 Y38.642 Z-6.627
X28.842 Y38.605 Z-6.661
X28.9 Y38.573 Z-6.706
X28.951 Y38.544 Z-6.762
X28.993 Y38.52 Z-6.828
X29.025 Y38.502 Z-6.9
X29.056 Y38.485 Z-6.972
X29.098 Y38.461 Z-7.038
X29.149 Y38.432 Z-7.094
X29.207 Y38.399 Z-7.139
X29.271 Y38.363 Z-7.173
X29.339 Y38.325 Z-7.193
X29.41 Y38.285 Z-7.2
X29.426 Y38.276
G2 X38.276 Y29.425 I-11.488 J-20.338 F150
G1 X38.299 Y29.368
X38.307 Y29.308
X38.309 Y6.651
X38.302 Y6.59
X38.279 Y6.533
G2 X29.464 Y-2.28 I-20.279 J11.467
G1 X29.408 Y-2.303
X29.347 Y-2.311
X6.65 Y-2.309
X6.59 Y-2.302
X6.533 Y-2.279
G2 X-2.28 Y6.536 I11.467 J20.279
G1 X-2.303 Y6.592
X-2.311 Y6.653
X-2.309 Y29.35
X-2.302 Y29.41
X-2.279 Y29.467
G2 X6.536 Y38.28 I20.279 J-11.467
X10.809 Y37.822 I1.816 J-3.213
G3 X14.936 Y36.624 I3.318 J3.721
G2 X17.938 Y36.874 I3.064 J-18.624
X31.302 Y31.39 I0 J-19.026
X36.874 Y18.062 I-13.153 J-13.328
X18 Y-0.874 I-18.936 J0
X14.936 Y36.624 I0 J18.874
X18.859 Y34.643 I0.605 J-3.678
G3 X22.228 Y31.82 I5.018 J2.566
G2 X32.452 Y17.938 I-4.228 J-13.82
X18 Y3.548 I-14.39 J0
X3.548 Y17.938 I0 J14.452
X18 Y32.452 I14.514 J0
X22.228 Y31.82 I0 J-14.452
X24.921 Y28.074 I-1.114 J-3.641
G3 X26.227 Y23.649 I7.451 J-0.205
G2 X27.98 Y18 I-8.227 J-5.649
G1 Y17.938
G2 X18 Y8.02 I-9.98 J0.062
X18 Y27.98 I0 J9.98
X26.227 Y23.649 I0 J-9.98
G3 X26.66 Y23.758 I0.196 J0.135
G1 X28.286 Y38.539
G2 X28.639 Y38.72 I0.237 J-0.026
G1 X28.71 Y38.68 Z-7.207 F50
X28.778 Y38.642 Z-7.227
X28.842 Y38.605 Z-7.261
X28.9 Y38.573 Z-7.306
X28.951 Y38.544 Z-7.362
X28.993 Y38.52 Z-7.428
X29.025 Y38.502 Z-7.5
X29.056 Y38.485 Z-7.572
X29.098 Y38.461 Z-7.638
X29.149 Y38.432 Z-7.694
X29.207 Y38.399 Z-7.739
X29.271 Y38.363 Z-7.773
X29.339 Y38.325 Z-7.793
X29.41 Y38.285 Z-7.8
X29.426 Y38.276
G2 X38.276 Y29.425 I-11.488 J-20.338 F150
G1 X38.299 Y29.368
X38.307 Y29.308
X38.309 Y6.651
X38.302 Y6.59
X38.279 Y6.533
G2 X29.464 Y-2.28 I-20.279 J11.467
G1 X29.408 Y-2.303
X29.347 Y-2.311
X6.65 Y-2.309
X6.59 Y-2.302
X6.533 Y-2.279
G2 X-2.28 Y6.536 I11.467 J20.279
G1 X-2.303 Y6.592
X-2.311 Y6.653
X-2.309 Y29.35
X-2.302 Y29.41
X-2.279 Y29.467
G2 X6.536 Y38.28 I20.279 J-11.467
X10.809 Y37.822 I1.816 J-3.213
G3 X14.936 Y36.624 I3.318 J3.721
G2 X17.938 Y36.874 I3.064 J-18.624
X31.302 Y31.39 I0 J-19.026
X36.874 Y18.062 I-13.153 J-13.328
X18 Y-0.874 I-18.936 J0
X14.936 Y36.624 I0 J18.874
X18.859 Y34.643 I0.605 J-3.678
G3 X22.228 Y31.82 I5.018 J2.566
G2 X32.452 Y17.938 I-4.228 J-13.82
X18 Y3.548 I-14.39 J0
X3.548 Y17.938 I0 J14.452
X18 Y32.452 I14.514 J0
X22.228 Y31.82 I0 J-14.452
X24.921 Y28.074 I-1.114 J-3.641
G3 X26.227 Y23.649 I7.451 J-0.205
G2 X27.98 Y18 I-8.227 J-5.649
G1 Y17.938
G2 X18 Y8.02 I-9.98 J0.062
X18 Y27.98 I0 J9.98
X26.227 Y23.649 I0 J-9.98
G3 X26.66 Y23.758 I0.196 J0.135
G1 X28.286 Y38.539
G2 X28.639 Y38.72 I0.237 J-0.026
G1 X28.71 Y38.68 Z-7.807 F50
X28.778 Y38.642 Z-7.827
X28.842 Y38.605 Z-7.861
X28.9 Y38.573 Z-7.906
X28.951 Y38.544 Z-7.962
X28.993 Y38.52 Z-8.028
X29.025 Y38.502 Z-8.1
X29.056 Y38.485 Z-8.172
X29.098 Y38.461 Z-8.238
X29.149 Y38.432 Z-8.294
X29.207 Y38.399 Z-8.339
X29.271 Y38.363 Z-8.373
X29.339 Y38.325 Z-8.393
X29.41 Y38.285 Z-8.4
X29.426 Y38.276
G2 X38.276 Y29.425 I-11.488 J-20.338 F150
G1 X38.299 Y29.368
X38.307 Y29.308
X38.309 Y6.651
X38.302 Y6.59
X38.279 Y6.533
G2 X29.464 Y-2.28 I-20.279 J11.467
G1 X29.408 Y-2.303
X29.347 Y-2.311
X6.65 Y-2.309
X6.59 Y-2.302
X6.533 Y-2.279
G2 X-2.28 Y6.536 I11.467 J20.279
G1 X-2.303 Y6.592
X-2.311 Y6.653
X-2.309 Y29.35
X-2.302 Y29.41
X-2.279 Y29.467
G2 X6.536 Y38.28 I20.279 J-11.467
X10.809 Y37.822 I1.816 J-3.213
G3 X14.936 Y36.624 I3.318 J3.721
G2 X17.938 Y36.874 I3.064 J-18.624
X31.302 Y31.39 I0 J-19.026
X36.874 Y18.062 I-13.153 J-13.328
X18 Y-0.874 I-18.936 J0
X14.936 Y36.624 I0 J18.874
X18.859 Y34.643 I0.605 J-3.678
G3 X22.228 Y31.82 I5.018 J2.566
G2 X32.452 Y17.938 I-4.228 J-13.82
X18 Y3.548 I-14.39 J0
X3.548 Y17.938 I0 J14.452
X18 Y32.452 I14.514 J0
X22.228 Y31.82 I0 J-14.452
X24.921 Y28.074 I-1.114 J-3.641
G3 X26.227 Y23.649 I7.451 J-0.205
G2 X27.98 Y18 I-8.227 J-5.649
G1 Y17.938
G2 X18 Y8.02 I-9.98 J0.062
X18 Y27.98 I0 J9.98
X26.227 Y23.649 I0 J-9.98
G3 X26.66 Y23.758 I0.196 J0.135
G1 X28.286 Y38.539
G2 X28.639 Y38.72 I0.237 J-0.026
G1 X28.71 Y38.68 Z-8.407 F50
X28.778 Y38.642 Z-8.427
X28.842 Y38.605 Z-8.461
X28.9 Y38.573 Z-8.506
X28.951 Y38.544 Z-8.562
X28.993 Y38.52 Z-8.628
X29.025 Y38.502 Z-8.7
X29.056 Y38.485 Z-8.772
X29.098 Y38.461 Z-8.838
X29.149 Y38.432 Z-8.894
X29.207 Y38.399 Z-8.939
X29.271 Y38.363 Z-8.973
X29.339 Y38.325 Z-8.993
X29.41 Y38.285 Z-9
X29.426 Y38.276
G2 X38.276 Y29.425 I-11.488 J-20.338 F150
G1 X38.299 Y29.368
X38.307 Y29.308
X38.309 Y6.651
X38.302 Y6.59
X38.279 Y6.533
G2 X29.464 Y-2.28 I-20.279 J11.467
G1 X29.408 Y-2.303
X29.347 Y-2.311
X6.65 Y-2.309
X6.59 Y-2.302
X6.533 Y-2.279
G2 X-2.28 Y6.536 I11.467 J20.279
G1 X-2.303 Y6.592
X-2.311 Y6.653
X-2.309 Y29.35
X-2.302 Y29.41
X-2.279 Y29.467
G2 X6.536 Y38.28 I20.279 J-11.467
X10.809 Y37.822 I1.816 J-3.213
G3 X14.936 Y36.624 I3.318 J3.721
G2 X17.938 Y36.874 I3.064 J-18.624
X31.302 Y31.39 I0 J-19.026
X36.874 Y18.062 I-13.153 J-13.328
X18 Y-0.874 I-18.936 J0
X14.936 Y36.624 I0 J18.874
X18.859 Y34.643 I0.605 J-3.678
G3 X22.228 Y31.82 I5.018 J2.566
G2 X32.452 Y17.938 I-4.228 J-13.82
X18 Y3.548 I-14.39 J0
X3.548 Y17.938 I0 J14.452
X18 Y32.452 I14.514 J0
X22.228 Y31.82 I0 J-14.452
X24.921 Y28.074 I-1.114 J-3.641
G3 X26.227 Y23.649 I7.451 J-0.205
G2 X27.98 Y18 I-8.227 J-5.649
G1 Y17.938
G2 X18 Y8.02 I-9.98 J0.062
X18 Y27.98 I0 J9.98
X26.227 Y23.649 I0 J-9.98
G1 X26.264 Y23.602 Z-8.988
X26.308 Y23.559 Z-8.976
X26.356 Y23.522 Z-8.964
X26.424 Y23.485 Z-8.912
X26.496 Y23.459 Z-8.861
X26.547 Y23.449 Z-8.783
X26.598 Y23.443 Z-8.706
X26.634 Z-8.524
Z10
(When using Fusion 360 for Personal Use, the feedrate of)
(rapid moves is reduced to match the feedrate of cutting)
(moves, which can increase machining time. Unrestricted rapid)
(moves are available with a Fusion 360 Subscription.)

(2D Contour5)
G0 X18.476 Y-2.808
G1 Z10 F150
Z5
Z1.6 F25
Z-0.124
G19 G3 Y-2.332 Z-0.6 J0.476 K0 F150
G1 Y-1.856
G17 G3 X18 Y-1.38 I-0.476 J0
G2 X18 Y37.38 I0 J19.38
X18 Y-1.38 I0 J-19.38
G3 X17.524 Y-1.856 I0 J-0.476
G1 Y-2.332
G19 G2 Y-2.808 Z-0.124 J0 K0.476
G1 Z5
X18.476
Z1 F25
Z-0.724
G3 Y-2.332 Z-1.2 J0.476 K0 F150
G1 Y-1.856
G17 G3 X18 Y-1.38 I-0.476 J0
G2 X18 Y37.38 I0 J19.38
X18 Y-1.38 I0 J-19.38
G3 X17.524 Y-1.856 I0 J-0.476
G1 Y-2.332
G19 G2 Y-2.808 Z-0.724 J0 K0.476
G1 Z5
X18.476
Z0.4 F25
Z-1.324
G3 Y-2.332 Z-1.8 J0.476 K0 F150
G1 Y-1.856
G17 G3 X18 Y-1.38 I-0.476 J0
G2 X18 Y37.38 I0 J19.38
X18 Y-1.38 I0 J-19.38
G3 X17.524 Y-1.856 I0 J-0.476
G1 Y-2.332
G19 G2 Y-2.808 Z-1.324 J0 K0.476
G1 Z5
X18.476
Z-0.2 F25
Z-1.924
G3 Y-2.332 Z-2.4 J0.476 K0 F150
G1 Y-1.856
G17 G3 X18 Y-1.38 I-0.476 J0
G2 X18 Y37.38 I0 J19.38
X18 Y-1.38 I0 J-19.38
G3 X17.524 Y-1.856 I0 J-0.476
G1 Y-2.332
G19 G2 Y-2.808 Z-1.924 J0 K0.476
G1 Z5
X18.476
Z-0.8 F25
Z-2.524
G3 Y-2.332 Z-3 J0.476 K0 F150
G1 Y-1.856
G17 G3 X18 Y-1.38 I-0.476 J0
G2 X18 Y37.38 I0 J19.38
X18 Y-1.38 I0 J-19.38
G3 X17.524 Y-1.856 I0 J-0.476
G1 Y-2.332
G19 G2 Y-2.808 Z-2.524 J0 K0.476
G1 Z5
X18.476
Z-1.4 F25
Z-3.124
G3 Y-2.332 Z-3.6 J0.476 K0 F150
G1 Y-1.856
G17 G3 X18 Y-1.38 I-0.476 J0
G2 X18 Y37.38 I0 J19.38
X18 Y-1.38 I0 J-19.38
G3 X17.524 Y-1.856 I0 J-0.476
G1 Y-2.332
G19 G2 Y-2.808 Z-3.124 J0 K0.476
G1 Z5
X18.476
Z-2 F25
Z-3.724
G3 Y-2.332 Z-4.2 J0.476 K0 F150
G1 Y-1.856
G17 G3 X18 Y-1.38 I-0.476 J0
G2 X18 Y37.38 I0 J19.38
X18 Y-1.38 I0 J-19.38
G3 X17.524 Y-1.856 I0 J-0.476
G1 Y-2.332
G19 G2 Y-2.808 Z-3.724 J0 K0.476
G1 Z5
X18.476
Z-2.6 F25
Z-4.324
G3 Y-2.332 Z-4.8 J0.476 K0 F150
G1 Y-1.856
G17 G3 X18 Y-1.38 I-0.476 J0
G2 X18 Y37.38 I0 J19.38
X18 Y-1.38 I0 J-19.38
G3 X17.524 Y-1.856 I0 J-0.476
G1 Y-2.332
G19 G2 Y-2.808 Z-4.324 J0 K0.476
G1 Z5
X18.476
Z-3.2 F25
Z-4.924
G3 Y-2.332 Z-5.4 J0.476 K0 F150
G1 Y-1.856
G17 G3 X18 Y-1.38 I-0.476 J0
G2 X18 Y37.38 I0 J19.38
X18 Y-1.38 I0 J-19.38
G3 X17.524 Y-1.856 I0 J-0.476
G1 Y-2.332
G19 G2 Y-2.808 Z-4.924 J0 K0.476
G1 Z5
X18.476
Z-3.8 F25
Z-5.524
G3 Y-2.332 Z-6 J0.476 K0 F150
G1 Y-1.856
G17 G3 X18 Y-1.38 I-0.476 J0
G2 X18 Y37.38 I0 J19.38
X18 Y-1.38 I0 J-19.38
G3 X17.524 Y-1.856 I0 J-0.476
G1 Y-2.332
G19 G2 Y-2.808 Z-5.524 J0 K0.476
G1 Z5
X18.476
Z-4.4 F25
Z-6.124
G3 Y-2.332 Z-6.6 J0.476 K0 F150
G1 Y-1.856
G17 G3 X18 Y-1.38 I-0.476 J0
G2 X18 Y37.38 I0 J19.38
X18 Y-1.38 I0 J-19.38
G3 X17.524 Y-1.856 I0 J-0.476
G1 Y-2.332
G19 G2 Y-2.808 Z-6.124 J0 K0.476
G1 Z5
X18.476
Z-5 F25
Z-6.724
G3 Y-2.332 Z-7.2 J0.476 K0 F150
G1 Y-1.856
G17 G3 X18 Y-1.38 I-0.476 J0
G2 X18 Y37.38 I0 J19.38
X18 Y-1.38 I0 J-19.38
G3 X17.524 Y-1.856 I0 J-0.476
G1 Y-2.332
G19 G2 Y-2.808 Z-6.724 J0 K0.476
G1 Z5
X18.476
Z-5.6 F25
Z-7.324
G3 Y-2.332 Z-7.8 J0.476 K0 F150
G1 Y-1.856
G17 G3 X18 Y-1.38 I-0.476 J0
G2 X18 Y37.38 I0 J19.38
X18 Y-1.38 I0 J-19.38
G3 X17.524 Y-1.856 I0 J-0.476
G1 Y-2.332
G19 G2 Y-2.808 Z-7.324 J0 K0.476
G1 Z5
X18.476
Z-6.2 F25
Z-7.924
G3 Y-2.332 Z-8.4 J0.476 K0 F150
G1 Y-1.856
G17 G3 X18 Y-1.38 I-0.476 J0
G2 X18 Y37.38 I0 J19.38
X18 Y-1.38 I0 J-19.38
G3 X17.524 Y-1.856 I0 J-0.476
G1 Y-2.332
G19 G2 Y-2.808 Z-7.924 J0 K0.476
G1 Z5
X18.476
Z-6.8 F25
Z-8.524
G3 Y-2.332 Z-9 J0.476 K0 F150
G1 Y-1.856
G17 G3 X18 Y-1.38 I-0.476 J0
G2 X18 Y37.38 I0 J19.38
X18 Y-1.38 I0 J-19.38
G3 X17.524 Y-1.856 I0 J-0.476
G1 Y-2.332
G19 G2 Y-2.808 Z-8.524 J0 K0.476
G1 Z5
X18.476
Z-7.4 F25
Z-9.124
G3 Y-2.332 Z-9.6 J0.476 K0 F150
G1 Y-1.856
G17 G3 X18 Y-1.38 I-0.476 J0
G2 X18 Y37.38 I0 J19.38
X18 Y-1.38 I0 J-19.38
G3 X17.524 Y-1.856 I0 J-0.476
G1 Y-2.332
G19 G2 Y-2.808 Z-9.124 J0 K0.476
G1 Z5
X18.476
Z-8 F25
Z-9.724
G3 Y-2.332 Z-10.2 J0.476 K0 F150
G1 Y-1.856
G17 G3 X18 Y-1.38 I-0.476 J0
G2 X18 Y37.38 I0 J19.38
X18 Y-1.38 I0 J-19.38
G3 X17.524 Y-1.856 I0 J-0.476
G1 Y-2.332
G19 G2 Y-2.808 Z-9.724 J0 K0.476
G1 Z5
X18.476
Z-8.6 F25
Z-10.324
G3 Y-2.332 Z-10.8 J0.476 K0 F150
G1 Y-1.856
G17 G3 X18 Y-1.38 I-0.476 J0
G2 X18 Y37.38 I0 J19.38
X18 Y-1.38 I0 J-19.38
G3 X17.524 Y-1.856 I0 J-0.476
G1 Y-2.332
G19 G2 Y-2.808 Z-10.324 J0 K0.476
G1 Z5
X18.476
Z-9.2 F25
Z-10.924
G3 Y-2.332 Z-11.4 J0.476 K0 F150
G1 Y-1.856
G17 G3 X18 Y-1.38 I-0.476 J0
G2 X18 Y37.38 I0 J19.38
X18 Y-1.38 I0 J-19.38
G3 X17.524 Y-1.856 I0 J-0.476
G1 Y-2.332
G19 G2 Y-2.808 Z-10.924 J0 K0.476
G1 Z5
X18.476
Z-9.8 F25
Z-11.524
G3 Y-2.332 Z-12 J0.476 K0 F150
G1 Y-1.856
G17 G3 X18 Y-1.38 I-0.476 J0
G2 X18 Y37.38 I0 J19.38
X18 Y-1.38 I0 J-19.38
G3 X17.524 Y-1.856 I0 J-0.476
G1 Y-2.332
G19 G2 Y-2.808 Z-11.524 J0 K0.476
G1 Z5
X18.476
Z-10.4 F25
Z-12.124
G3 Y-2.332 Z-12.6 J0.476 K0 F150
G1 Y-1.856
G17 G3 X18 Y-1.38 I-0.476 J0
G2 X18 Y37.38 I0 J19.38
X18 Y-1.38 I0 J-19.38
G3 X17.524 Y-1.856 I0 J-0.476
G1 Y-2.332
G19 G2 Y-2.808 Z-12.124 J0 K0.476
G1 Z5
X18.476
Z-11 F25
Z-12.724
G3 Y-2.332 Z-13.2 J0.476 K0 F150
G1 Y-1.856
G17 G3 X18 Y-1.38 I-0.476 J0
G2 X18 Y37.38 I0 J19.38
X18 Y-1.38 I0 J-19.38
G3 X17.524 Y-1.856 I0 J-0.476
G1 Y-2.332
G19 G2 Y-2.808 Z-12.724 J0 K0.476
G1 Z5
X18.476
Z-11.6 F25
Z-13.324
G3 Y-2.332 Z-13.8 J0.476 K0 F150
G1 Y-1.856
G17 G3 X18 Y-1.38 I-0.476 J0
G2 X18 Y37.38 I0 J19.38
X18 Y-1.38 I0 J-19.38
G3 X17.524 Y-1.856 I0 J-0.476
G1 Y-2.332
G19 G2 Y-2.808 Z-13.324 J0 K0.476
G1 Z5
X18.476
Z-12.2 F25
Z-13.524
G3 Y-2.332 Z-14 J0.476 K0 F150
G1 Y-1.856
G17 G3 X18 Y-1.38 I-0.476 J0
G2 X18 Y37.38 I0 J19.38
X18 Y-1.38 I0 J-19.38
G3 X17.524 Y-1.856 I0 J-0.476
G1 Y-2.332
G19 G2 Y-2.808 Z-13.524 J0 K0.476
G1 Z10
G17
M9
G28 G91 Z0
G90
G28 G91 X0 Y0
G90
M5
M30
