(metal_coupler_12mm_drill)
(Machine)
(  vendor: Autodesk)
(  model: GARAGE CNC)
(  description: GARAGE CNC)
(T3  D=3.1 CR=0 - ZMIN=-14 - flat end mill)
G90 G94
G17
G21
(When using Fusion 360 for Personal Use, the feedrate of)
(rapid moves is reduced to match the feedrate of cutting)
(moves, which can increase machining time. Unrestricted rapid)
(moves are available with a Fusion 360 Subscription.)

(2D Pocket3)
T3
S24000 M3
G54
M8
G0 X16.599 Y19.397
Z10
G1 Z5 F300
Z2.81 F150
X16.577 Y19.389 Z2.694
X16.517 Y19.367 Z2.594
X16.428 Y19.328 Z2.527
X16.326 Y19.274 Z2.5
G3 X17.803 Y16.726 Z2.338 I0.738 J-1.274
X16.326 Y19.274 Z2.177 I-0.738 J1.274
X17.803 Y16.726 Z2.015 I0.738 J-1.274
X16.326 Y19.274 Z1.854 I-0.738 J1.274
X17.803 Y16.726 Z1.692 I0.738 J-1.274
X16.326 Y19.274 Z1.531 I-0.738 J1.274
X17.803 Y16.726 Z1.369 I0.738 J-1.274
X16.326 Y19.274 Z1.208 I-0.738 J1.274
X17.803 Y16.726 Z1.046 I0.738 J-1.274
X16.326 Y19.274 Z0.885 I-0.738 J1.274
X17.803 Y16.726 Z0.723 I0.738 J-1.274
X16.326 Y19.274 Z0.561 I-0.738 J1.274
X17.803 Y16.726 Z0.4 I0.738 J-1.274
X16.326 Y19.274 Z0.238 I-0.738 J1.274
X17.803 Y16.726 Z0.077 I0.738 J-1.274
X16.326 Y19.274 Z-0.085 I-0.738 J1.274
X17.803 Y16.726 Z-0.246 I0.738 J-1.274
X18.537 Y18 Z-0.3 I-0.738 J1.274
X17.463 Y18 I-0.537 J0 F300
X18.537 Y18 I0.537 J0
G2 X18.897 Y18.741 I0.944 J0
G3 X18.817 Y19.561 I-0.303 J0.384
X16.27 Y18 I-0.799 J-1.555
X19.666 Y17.411 I1.749 J0
G1 X19.709 Y17.516
X19.754 Y17.62
G3 X19.754 Y18.38 I-0.916 J0.38
G1 X19.709 Y18.484
X19.666 Y18.589
G3 X18.817 Y19.561 I-1.648 J-0.583
G2 X17.77 Y21.111 I0.889 J1.729
G3 X16.152 Y22.048 I-1.142 J-0.106
X19.848 Y13.952 I1.848 J-4.048
X22.196 Y16.517 I-1.848 J4.048
G2 X23.657 Y17.55 I1.461 J-0.517
G1 X26.45
Y18.45
X23.657
G2 X22.196 Y19.483 I0 J1.55
G3 X16.152 Y22.048 I-4.196 J-1.483
X15.3 Y20.546 Z-0.361 I0.612 J-1.339 F150
G1 X15.601 Y17.837 Z-0.452
G3 X18.537 Y18 Z-0.6 I1.463 J0.163
X17.463 Y18 I-0.537 J0 F300
X18.537 Y18 I0.537 J0
G2 X18.897 Y18.741 I0.944 J0
G3 X18.817 Y19.561 I-0.303 J0.384
X16.27 Y18 I-0.799 J-1.555
X19.666 Y17.411 I1.749 J0
G1 X19.709 Y17.516
X19.754 Y17.62
G3 X19.754 Y18.38 I-0.916 J0.38
G1 X19.709 Y18.484
X19.666 Y18.589
G3 X18.817 Y19.561 I-1.648 J-0.583
G2 X17.77 Y21.111 I0.889 J1.729
G3 X16.152 Y22.048 I-1.142 J-0.106
X19.848 Y13.952 I1.848 J-4.048
X22.196 Y16.517 I-1.848 J4.048
G2 X23.657 Y17.55 I1.461 J-0.517
G1 X26.45
Y18.45
X23.657
G2 X22.196 Y19.483 I0 J1.55
G3 X16.152 Y22.048 I-4.196 J-1.483
X15.3 Y20.546 Z-0.661 I0.612 J-1.339 F150
G1 X15.601 Y17.837 Z-0.752
G3 X18.537 Y18 Z-0.9 I1.463 J0.163
X17.463 Y18 I-0.537 J0 F300
X18.537 Y18 I0.537 J0
G2 X18.897 Y18.741 I0.944 J0
G3 X18.817 Y19.561 I-0.303 J0.384
X16.27 Y18 I-0.799 J-1.555
X19.666 Y17.411 I1.749 J0
G1 X19.709 Y17.516
X19.754 Y17.62
G3 X19.754 Y18.38 I-0.916 J0.38
G1 X19.709 Y18.484
X19.666 Y18.589
G3 X18.817 Y19.561 I-1.648 J-0.583
G2 X17.77 Y21.111 I0.889 J1.729
G3 X16.152 Y22.048 I-1.142 J-0.106
X19.848 Y13.952 I1.848 J-4.048
X22.196 Y16.517 I-1.848 J4.048
G2 X23.657 Y17.55 I1.461 J-0.517
G1 X26.45
Y18.45
X23.657
G2 X22.196 Y19.483 I0 J1.55
G3 X16.152 Y22.048 I-4.196 J-1.483
X15.3 Y20.546 Z-0.961 I0.612 J-1.339 F150
G1 X15.601 Y17.837 Z-1.052
G3 X18.537 Y18 Z-1.2 I1.463 J0.163
X17.463 Y18 I-0.537 J0 F300
X18.537 Y18 I0.537 J0
G2 X18.897 Y18.741 I0.944 J0
G3 X18.817 Y19.561 I-0.303 J0.384
X16.27 Y18 I-0.799 J-1.555
X19.666 Y17.411 I1.749 J0
G1 X19.709 Y17.516
X19.754 Y17.62
G3 X19.754 Y18.38 I-0.916 J0.38
G1 X19.709 Y18.484
X19.666 Y18.589
G3 X18.817 Y19.561 I-1.648 J-0.583
G2 X17.77 Y21.111 I0.889 J1.729
G3 X16.152 Y22.048 I-1.142 J-0.106
X19.848 Y13.952 I1.848 J-4.048
X22.196 Y16.517 I-1.848 J4.048
G2 X23.657 Y17.55 I1.461 J-0.517
G1 X26.45
Y18.45
X23.657
G2 X22.196 Y19.483 I0 J1.55
G3 X16.152 Y22.048 I-4.196 J-1.483
X15.3 Y20.546 Z-1.261 I0.612 J-1.339 F150
G1 X15.601 Y17.837 Z-1.352
G3 X18.537 Y18 Z-1.5 I1.463 J0.163
X17.463 Y18 I-0.537 J0 F300
X18.537 Y18 I0.537 J0
G2 X18.897 Y18.741 I0.944 J0
G3 X18.817 Y19.561 I-0.303 J0.384
X16.27 Y18 I-0.799 J-1.555
X19.666 Y17.411 I1.749 J0
G1 X19.709 Y17.516
X19.754 Y17.62
G3 X19.754 Y18.38 I-0.916 J0.38
G1 X19.709 Y18.484
X19.666 Y18.589
G3 X18.817 Y19.561 I-1.648 J-0.583
G2 X17.77 Y21.111 I0.889 J1.729
G3 X16.152 Y22.048 I-1.142 J-0.106
X19.848 Y13.952 I1.848 J-4.048
X22.196 Y16.517 I-1.848 J4.048
G2 X23.657 Y17.55 I1.461 J-0.517
G1 X26.45
Y18.45
X23.657
G2 X22.196 Y19.483 I0 J1.55
G3 X16.152 Y22.048 I-4.196 J-1.483
X15.3 Y20.546 Z-1.561 I0.612 J-1.339 F150
G1 X15.601 Y17.837 Z-1.652
G3 X18.537 Y18 Z-1.8 I1.463 J0.163
X17.463 Y18 I-0.537 J0 F300
X18.537 Y18 I0.537 J0
G2 X18.897 Y18.741 I0.944 J0
G3 X18.817 Y19.561 I-0.303 J0.384
X16.27 Y18 I-0.799 J-1.555
X19.666 Y17.411 I1.749 J0
G1 X19.709 Y17.516
X19.754 Y17.62
G3 X19.754 Y18.38 I-0.916 J0.38
G1 X19.709 Y18.484
X19.666 Y18.589
G3 X18.817 Y19.561 I-1.648 J-0.583
G2 X17.77 Y21.111 I0.889 J1.729
G3 X16.152 Y22.048 I-1.142 J-0.106
X19.848 Y13.952 I1.848 J-4.048
X22.196 Y16.517 I-1.848 J4.048
G2 X23.657 Y17.55 I1.461 J-0.517
G1 X26.45
Y18.45
X23.657
G2 X22.196 Y19.483 I0 J1.55
G3 X16.152 Y22.048 I-4.196 J-1.483
X15.3 Y20.546 Z-1.861 I0.612 J-1.339 F150
G1 X15.601 Y17.837 Z-1.952
G3 X18.537 Y18 Z-2.1 I1.463 J0.163
X17.463 Y18 I-0.537 J0 F300
X18.537 Y18 I0.537 J0
G2 X18.897 Y18.741 I0.944 J0
G3 X18.817 Y19.561 I-0.303 J0.384
X16.27 Y18 I-0.799 J-1.555
X19.666 Y17.411 I1.749 J0
G1 X19.709 Y17.516
X19.754 Y17.62
G3 X19.754 Y18.38 I-0.916 J0.38
G1 X19.709 Y18.484
X19.666 Y18.589
G3 X18.817 Y19.561 I-1.648 J-0.583
G2 X17.77 Y21.111 I0.889 J1.729
G3 X16.152 Y22.048 I-1.142 J-0.106
X19.848 Y13.952 I1.848 J-4.048
X22.196 Y16.517 I-1.848 J4.048
G2 X23.657 Y17.55 I1.461 J-0.517
G1 X26.45
Y18.45
X23.657
G2 X22.196 Y19.483 I0 J1.55
G3 X16.152 Y22.048 I-4.196 J-1.483
X15.3 Y20.546 Z-2.161 I0.612 J-1.339 F150
G1 X15.601 Y17.837 Z-2.252
G3 X18.537 Y18 Z-2.4 I1.463 J0.163
X17.463 Y18 I-0.537 J0 F300
X18.537 Y18 I0.537 J0
G2 X18.897 Y18.741 I0.944 J0
G3 X18.817 Y19.561 I-0.303 J0.384
X16.27 Y18 I-0.799 J-1.555
X19.666 Y17.411 I1.749 J0
G1 X19.709 Y17.516
X19.754 Y17.62
G3 X19.754 Y18.38 I-0.916 J0.38
G1 X19.709 Y18.484
X19.666 Y18.589
G3 X18.817 Y19.561 I-1.648 J-0.583
G2 X17.77 Y21.111 I0.889 J1.729
G3 X16.152 Y22.048 I-1.142 J-0.106
X19.848 Y13.952 I1.848 J-4.048
X22.196 Y16.517 I-1.848 J4.048
G2 X23.657 Y17.55 I1.461 J-0.517
G1 X26.45
Y18.45
X23.657
G2 X22.196 Y19.483 I0 J1.55
G3 X16.152 Y22.048 I-4.196 J-1.483
X15.3 Y20.546 Z-2.461 I0.612 J-1.339 F150
G1 X15.601 Y17.837 Z-2.552
G3 X18.537 Y18 Z-2.7 I1.463 J0.163
X17.463 Y18 I-0.537 J0 F300
X18.537 Y18 I0.537 J0
G2 X18.897 Y18.741 I0.944 J0
G3 X18.817 Y19.561 I-0.303 J0.384
X16.27 Y18 I-0.799 J-1.555
X19.666 Y17.411 I1.749 J0
G1 X19.709 Y17.516
X19.754 Y17.62
G3 X19.754 Y18.38 I-0.916 J0.38
G1 X19.709 Y18.484
X19.666 Y18.589
G3 X18.817 Y19.561 I-1.648 J-0.583
G2 X17.77 Y21.111 I0.889 J1.729
G3 X16.152 Y22.048 I-1.142 J-0.106
X19.848 Y13.952 I1.848 J-4.048
X22.196 Y16.517 I-1.848 J4.048
G2 X23.657 Y17.55 I1.461 J-0.517
G1 X26.45
Y18.45
X23.657
G2 X22.196 Y19.483 I0 J1.55
G3 X16.152 Y22.048 I-4.196 J-1.483
X15.3 Y20.546 Z-2.761 I0.612 J-1.339 F150
G1 X15.601 Y17.837 Z-2.852
G3 X18.537 Y18 Z-3 I1.463 J0.163
X17.463 Y18 I-0.537 J0 F300
X18.537 Y18 I0.537 J0
G2 X18.897 Y18.741 I0.944 J0
G3 X18.817 Y19.561 I-0.303 J0.384
X16.27 Y18 I-0.799 J-1.555
X19.666 Y17.411 I1.749 J0
G1 X19.709 Y17.516
X19.754 Y17.62
G3 X19.754 Y18.38 I-0.916 J0.38
G1 X19.709 Y18.484
X19.666 Y18.589
G3 X18.817 Y19.561 I-1.648 J-0.583
G2 X17.77 Y21.111 I0.889 J1.729
G3 X16.152 Y22.048 I-1.142 J-0.106
X19.848 Y13.952 I1.848 J-4.048
X22.196 Y16.517 I-1.848 J4.048
G2 X23.657 Y17.55 I1.461 J-0.517
G1 X26.45
Y18.45
X23.657
G2 X22.196 Y19.483 I0 J1.55
G3 X16.152 Y22.048 I-4.196 J-1.483
X15.3 Y20.546 Z-3.061 I0.612 J-1.339 F150
G1 X15.601 Y17.837 Z-3.152
G3 X18.537 Y18 Z-3.3 I1.463 J0.163
X17.463 Y18 I-0.537 J0 F300
X18.537 Y18 I0.537 J0
G2 X18.897 Y18.741 I0.944 J0
G3 X18.817 Y19.561 I-0.303 J0.384
X16.27 Y18 I-0.799 J-1.555
X19.666 Y17.411 I1.749 J0
G1 X19.709 Y17.516
X19.754 Y17.62
G3 X19.754 Y18.38 I-0.916 J0.38
G1 X19.709 Y18.484
X19.666 Y18.589
G3 X18.817 Y19.561 I-1.648 J-0.583
G2 X17.77 Y21.111 I0.889 J1.729
G3 X16.152 Y22.048 I-1.142 J-0.106
X19.848 Y13.952 I1.848 J-4.048
X22.196 Y16.517 I-1.848 J4.048
G2 X23.657 Y17.55 I1.461 J-0.517
G1 X26.45
Y18.45
X23.657
G2 X22.196 Y19.483 I0 J1.55
G3 X16.152 Y22.048 I-4.196 J-1.483
X15.3 Y20.546 Z-3.361 I0.612 J-1.339 F150
G1 X15.601 Y17.837 Z-3.452
G3 X18.537 Y18 Z-3.6 I1.463 J0.163
X17.463 Y18 I-0.537 J0 F300
X18.537 Y18 I0.537 J0
G2 X18.897 Y18.741 I0.944 J0
G3 X18.817 Y19.561 I-0.303 J0.384
X16.27 Y18 I-0.799 J-1.555
X19.666 Y17.411 I1.749 J0
G1 X19.709 Y17.516
X19.754 Y17.62
G3 X19.754 Y18.38 I-0.916 J0.38
G1 X19.709 Y18.484
X19.666 Y18.589
G3 X18.817 Y19.561 I-1.648 J-0.583
G2 X17.77 Y21.111 I0.889 J1.729
G3 X16.152 Y22.048 I-1.142 J-0.106
X19.848 Y13.952 I1.848 J-4.048
X22.196 Y16.517 I-1.848 J4.048
G2 X23.657 Y17.55 I1.461 J-0.517
G1 X26.45
Y18.45
X23.657
G2 X22.196 Y19.483 I0 J1.55
G3 X16.152 Y22.048 I-4.196 J-1.483
X15.3 Y20.546 Z-3.661 I0.612 J-1.339 F150
G1 X15.601 Y17.837 Z-3.752
G3 X18.537 Y18 Z-3.9 I1.463 J0.163
X17.463 Y18 I-0.537 J0 F300
X18.537 Y18 I0.537 J0
G2 X18.897 Y18.741 I0.944 J0
G3 X18.817 Y19.561 I-0.303 J0.384
X16.27 Y18 I-0.799 J-1.555
X19.666 Y17.411 I1.749 J0
G1 X19.709 Y17.516
X19.754 Y17.62
G3 X19.754 Y18.38 I-0.916 J0.38
G1 X19.709 Y18.484
X19.666 Y18.589
G3 X18.817 Y19.561 I-1.648 J-0.583
G2 X17.77 Y21.111 I0.889 J1.729
G3 X16.152 Y22.048 I-1.142 J-0.106
X19.848 Y13.952 I1.848 J-4.048
X22.196 Y16.517 I-1.848 J4.048
G2 X23.657 Y17.55 I1.461 J-0.517
G1 X26.45
Y18.45
X23.657
G2 X22.196 Y19.483 I0 J1.55
G3 X16.152 Y22.048 I-4.196 J-1.483
X15.3 Y20.546 Z-3.961 I0.612 J-1.339 F150
G1 X15.601 Y17.837 Z-4.052
G3 X18.537 Y18 Z-4.2 I1.463 J0.163
X17.463 Y18 I-0.537 J0 F300
X18.537 Y18 I0.537 J0
G2 X18.897 Y18.741 I0.944 J0
G3 X18.817 Y19.561 I-0.303 J0.384
X16.27 Y18 I-0.799 J-1.555
X19.666 Y17.411 I1.749 J0
G1 X19.709 Y17.516
X19.754 Y17.62
G3 X19.754 Y18.38 I-0.916 J0.38
G1 X19.709 Y18.484
X19.666 Y18.589
G3 X18.817 Y19.561 I-1.648 J-0.583
G2 X17.77 Y21.111 I0.889 J1.729
G3 X16.152 Y22.048 I-1.142 J-0.106
X19.848 Y13.952 I1.848 J-4.048
X22.196 Y16.517 I-1.848 J4.048
G2 X23.657 Y17.55 I1.461 J-0.517
G1 X26.45
Y18.45
X23.657
G2 X22.196 Y19.483 I0 J1.55
G3 X16.152 Y22.048 I-4.196 J-1.483
X15.3 Y20.546 Z-4.261 I0.612 J-1.339 F150
G1 X15.601 Y17.837 Z-4.352
G3 X18.537 Y18 Z-4.5 I1.463 J0.163
X17.463 Y18 I-0.537 J0 F300
X18.537 Y18 I0.537 J0
G2 X18.897 Y18.741 I0.944 J0
G3 X18.817 Y19.561 I-0.303 J0.384
X16.27 Y18 I-0.799 J-1.555
X19.666 Y17.411 I1.749 J0
G1 X19.709 Y17.516
X19.754 Y17.62
G3 X19.754 Y18.38 I-0.916 J0.38
G1 X19.709 Y18.484
X19.666 Y18.589
G3 X18.817 Y19.561 I-1.648 J-0.583
G2 X17.77 Y21.111 I0.889 J1.729
G3 X16.152 Y22.048 I-1.142 J-0.106
X19.848 Y13.952 I1.848 J-4.048
X22.196 Y16.517 I-1.848 J4.048
G2 X23.657 Y17.55 I1.461 J-0.517
G1 X26.45
Y18.45
X23.657
G2 X22.196 Y19.483 I0 J1.55
G3 X16.152 Y22.048 I-4.196 J-1.483
X15.3 Y20.546 Z-4.561 I0.612 J-1.339 F150
G1 X15.601 Y17.837 Z-4.652
G3 X18.537 Y18 Z-4.8 I1.463 J0.163
X17.463 Y18 I-0.537 J0 F300
X18.537 Y18 I0.537 J0
G2 X18.897 Y18.741 I0.944 J0
G3 X18.817 Y19.561 I-0.303 J0.384
X16.27 Y18 I-0.799 J-1.555
X19.666 Y17.411 I1.749 J0
G1 X19.709 Y17.516
X19.754 Y17.62
G3 X19.754 Y18.38 I-0.916 J0.38
G1 X19.709 Y18.484
X19.666 Y18.589
G3 X18.817 Y19.561 I-1.648 J-0.583
G2 X17.77 Y21.111 I0.889 J1.729
G3 X16.152 Y22.048 I-1.142 J-0.106
X19.848 Y13.952 I1.848 J-4.048
X22.196 Y16.517 I-1.848 J4.048
G2 X23.657 Y17.55 I1.461 J-0.517
G1 X26.45
Y18.45
X23.657
G2 X22.196 Y19.483 I0 J1.55
G3 X16.152 Y22.048 I-4.196 J-1.483
X15.3 Y20.546 Z-4.861 I0.612 J-1.339 F150
G1 X15.601 Y17.837 Z-4.952
G3 X18.537 Y18 Z-5.1 I1.463 J0.163
X17.463 Y18 I-0.537 J0 F300
X18.537 Y18 I0.537 J0
G2 X18.897 Y18.741 I0.944 J0
G3 X18.817 Y19.561 I-0.303 J0.384
X16.27 Y18 I-0.799 J-1.555
X19.666 Y17.411 I1.749 J0
G1 X19.709 Y17.516
X19.754 Y17.62
G3 X19.754 Y18.38 I-0.916 J0.38
G1 X19.709 Y18.484
X19.666 Y18.589
G3 X18.817 Y19.561 I-1.648 J-0.583
G2 X17.77 Y21.111 I0.889 J1.729
G3 X16.152 Y22.048 I-1.142 J-0.106
X19.848 Y13.952 I1.848 J-4.048
X22.196 Y16.517 I-1.848 J4.048
G2 X23.657 Y17.55 I1.461 J-0.517
G1 X26.45
Y18.45
X23.657
G2 X22.196 Y19.483 I0 J1.55
G3 X16.152 Y22.048 I-4.196 J-1.483
X15.3 Y20.546 Z-5.161 I0.612 J-1.339 F150
G1 X15.601 Y17.837 Z-5.252
G3 X18.537 Y18 Z-5.4 I1.463 J0.163
X17.463 Y18 I-0.537 J0 F300
X18.537 Y18 I0.537 J0
G2 X18.897 Y18.741 I0.944 J0
G3 X18.817 Y19.561 I-0.303 J0.384
X16.27 Y18 I-0.799 J-1.555
X19.666 Y17.411 I1.749 J0
G1 X19.709 Y17.516
X19.754 Y17.62
G3 X19.754 Y18.38 I-0.916 J0.38
G1 X19.709 Y18.484
X19.666 Y18.589
G3 X18.817 Y19.561 I-1.648 J-0.583
G2 X17.77 Y21.111 I0.889 J1.729
G3 X16.152 Y22.048 I-1.142 J-0.106
X19.848 Y13.952 I1.848 J-4.048
X22.196 Y16.517 I-1.848 J4.048
G2 X23.657 Y17.55 I1.461 J-0.517
G1 X26.45
Y18.45
X23.657
G2 X22.196 Y19.483 I0 J1.55
G3 X16.152 Y22.048 I-4.196 J-1.483
X15.3 Y20.546 Z-5.461 I0.612 J-1.339 F150
G1 X15.601 Y17.837 Z-5.552
G3 X18.537 Y18 Z-5.7 I1.463 J0.163
X17.463 Y18 I-0.537 J0 F300
X18.537 Y18 I0.537 J0
G2 X18.897 Y18.741 I0.944 J0
G3 X18.817 Y19.561 I-0.303 J0.384
X16.27 Y18 I-0.799 J-1.555
X19.666 Y17.411 I1.749 J0
G1 X19.709 Y17.516
X19.754 Y17.62
G3 X19.754 Y18.38 I-0.916 J0.38
G1 X19.709 Y18.484
X19.666 Y18.589
G3 X18.817 Y19.561 I-1.648 J-0.583
G2 X17.77 Y21.111 I0.889 J1.729
G3 X16.152 Y22.048 I-1.142 J-0.106
X19.848 Y13.952 I1.848 J-4.048
X22.196 Y16.517 I-1.848 J4.048
G2 X23.657 Y17.55 I1.461 J-0.517
G1 X26.45
Y18.45
X23.657
G2 X22.196 Y19.483 I0 J1.55
G3 X16.152 Y22.048 I-4.196 J-1.483
X15.3 Y20.546 Z-5.761 I0.612 J-1.339 F150
G1 X15.601 Y17.837 Z-5.852
G3 X18.537 Y18 Z-6 I1.463 J0.163
X17.463 Y18 I-0.537 J0 F300
X18.537 Y18 I0.537 J0
G2 X18.897 Y18.741 I0.944 J0
G3 X18.817 Y19.561 I-0.303 J0.384
X16.27 Y18 I-0.799 J-1.555
X19.666 Y17.411 I1.749 J0
G1 X19.709 Y17.516
X19.754 Y17.62
G3 X19.754 Y18.38 I-0.916 J0.38
G1 X19.709 Y18.484
X19.666 Y18.589
G3 X18.817 Y19.561 I-1.648 J-0.583
G2 X17.77 Y21.111 I0.889 J1.729
G3 X16.152 Y22.048 I-1.142 J-0.106
X19.848 Y13.952 I1.848 J-4.048
X22.196 Y16.517 I-1.848 J4.048
G2 X23.657 Y17.55 I1.461 J-0.517
G1 X26.45
Y18.45
X23.657
G2 X22.196 Y19.483 I0 J1.55
G3 X16.152 Y22.048 I-4.196 J-1.483
X15.3 Y20.546 Z-6.061 I0.612 J-1.339 F150
G1 X15.601 Y17.837 Z-6.152
G3 X18.537 Y18 Z-6.3 I1.463 J0.163
X17.463 Y18 I-0.537 J0 F300
X18.537 Y18 I0.537 J0
G2 X18.897 Y18.741 I0.944 J0
G3 X18.817 Y19.561 I-0.303 J0.384
X16.27 Y18 I-0.799 J-1.555
X19.666 Y17.411 I1.749 J0
G1 X19.709 Y17.516
X19.754 Y17.62
G3 X19.754 Y18.38 I-0.916 J0.38
G1 X19.709 Y18.484
X19.666 Y18.589
G3 X18.817 Y19.561 I-1.648 J-0.583
G2 X17.77 Y21.111 I0.889 J1.729
G3 X16.152 Y22.048 I-1.142 J-0.106
X19.848 Y13.952 I1.848 J-4.048
X22.196 Y16.517 I-1.848 J4.048
G2 X23.657 Y17.55 I1.461 J-0.517
G1 X26.45
Y18.45
X23.657
G2 X22.196 Y19.483 I0 J1.55
G3 X16.152 Y22.048 I-4.196 J-1.483
X15.3 Y20.546 Z-6.361 I0.612 J-1.339 F150
G1 X15.601 Y17.837 Z-6.452
G3 X18.537 Y18 Z-6.6 I1.463 J0.163
X17.463 Y18 I-0.537 J0 F300
X18.537 Y18 I0.537 J0
G2 X18.897 Y18.741 I0.944 J0
G3 X18.817 Y19.561 I-0.303 J0.384
X16.27 Y18 I-0.799 J-1.555
X19.666 Y17.411 I1.749 J0
G1 X19.709 Y17.516
X19.754 Y17.62
G3 X19.754 Y18.38 I-0.916 J0.38
G1 X19.709 Y18.484
X19.666 Y18.589
G3 X18.817 Y19.561 I-1.648 J-0.583
G2 X17.77 Y21.111 I0.889 J1.729
G3 X16.152 Y22.048 I-1.142 J-0.106
X19.848 Y13.952 I1.848 J-4.048
X22.196 Y16.517 I-1.848 J4.048
G2 X23.657 Y17.55 I1.461 J-0.517
G1 X26.45
Y18.45
X23.657
G2 X22.196 Y19.483 I0 J1.55
G3 X16.152 Y22.048 I-4.196 J-1.483
X15.3 Y20.546 Z-6.661 I0.612 J-1.339 F150
G1 X15.601 Y17.837 Z-6.752
G3 X18.537 Y18 Z-6.9 I1.463 J0.163
X17.463 Y18 I-0.537 J0 F300
X18.537 Y18 I0.537 J0
G2 X18.897 Y18.741 I0.944 J0
G3 X18.817 Y19.561 I-0.303 J0.384
X16.27 Y18 I-0.799 J-1.555
X19.666 Y17.411 I1.749 J0
G1 X19.709 Y17.516
X19.754 Y17.62
G3 X19.754 Y18.38 I-0.916 J0.38
G1 X19.709 Y18.484
X19.666 Y18.589
G3 X18.817 Y19.561 I-1.648 J-0.583
G2 X17.77 Y21.111 I0.889 J1.729
G3 X16.152 Y22.048 I-1.142 J-0.106
X19.848 Y13.952 I1.848 J-4.048
X22.196 Y16.517 I-1.848 J4.048
G2 X23.657 Y17.55 I1.461 J-0.517
G1 X26.45
Y18.45
X23.657
G2 X22.196 Y19.483 I0 J1.55
G3 X16.152 Y22.048 I-4.196 J-1.483
X15.3 Y20.546 Z-6.961 I0.612 J-1.339 F150
G1 X15.601 Y17.837 Z-7.052
G3 X18.537 Y18 Z-7.2 I1.463 J0.163
X17.463 Y18 I-0.537 J0 F300
X18.537 Y18 I0.537 J0
G2 X18.897 Y18.741 I0.944 J0
G3 X18.817 Y19.561 I-0.303 J0.384
X16.27 Y18 I-0.799 J-1.555
X19.666 Y17.411 I1.749 J0
G1 X19.709 Y17.516
X19.754 Y17.62
G3 X19.754 Y18.38 I-0.916 J0.38
G1 X19.709 Y18.484
X19.666 Y18.589
G3 X18.817 Y19.561 I-1.648 J-0.583
G2 X17.77 Y21.111 I0.889 J1.729
G3 X16.152 Y22.048 I-1.142 J-0.106
X19.848 Y13.952 I1.848 J-4.048
X22.196 Y16.517 I-1.848 J4.048
G2 X23.657 Y17.55 I1.461 J-0.517
G1 X26.45
Y18.45
X23.657
G2 X22.196 Y19.483 I0 J1.55
G3 X16.152 Y22.048 I-4.196 J-1.483
X15.3 Y20.546 Z-7.261 I0.612 J-1.339 F150
G1 X15.601 Y17.837 Z-7.352
G3 X18.537 Y18 Z-7.5 I1.463 J0.163
X17.463 Y18 I-0.537 J0 F300
X18.537 Y18 I0.537 J0
G2 X18.897 Y18.741 I0.944 J0
G3 X18.817 Y19.561 I-0.303 J0.384
X16.27 Y18 I-0.799 J-1.555
X19.666 Y17.411 I1.749 J0
G1 X19.709 Y17.516
X19.754 Y17.62
G3 X19.754 Y18.38 I-0.916 J0.38
G1 X19.709 Y18.484
X19.666 Y18.589
G3 X18.817 Y19.561 I-1.648 J-0.583
G2 X17.77 Y21.111 I0.889 J1.729
G3 X16.152 Y22.048 I-1.142 J-0.106
X19.848 Y13.952 I1.848 J-4.048
X22.196 Y16.517 I-1.848 J4.048
G2 X23.657 Y17.55 I1.461 J-0.517
G1 X26.45
Y18.45
X23.657
G2 X22.196 Y19.483 I0 J1.55
G3 X16.152 Y22.048 I-4.196 J-1.483
X15.3 Y20.546 Z-7.561 I0.612 J-1.339 F150
G1 X15.601 Y17.837 Z-7.652
G3 X18.537 Y18 Z-7.8 I1.463 J0.163
X17.463 Y18 I-0.537 J0 F300
X18.537 Y18 I0.537 J0
G2 X18.897 Y18.741 I0.944 J0
G3 X18.817 Y19.561 I-0.303 J0.384
X16.27 Y18 I-0.799 J-1.555
X19.666 Y17.411 I1.749 J0
G1 X19.709 Y17.516
X19.754 Y17.62
G3 X19.754 Y18.38 I-0.916 J0.38
G1 X19.709 Y18.484
X19.666 Y18.589
G3 X18.817 Y19.561 I-1.648 J-0.583
G2 X17.77 Y21.111 I0.889 J1.729
G3 X16.152 Y22.048 I-1.142 J-0.106
X19.848 Y13.952 I1.848 J-4.048
X22.196 Y16.517 I-1.848 J4.048
G2 X23.657 Y17.55 I1.461 J-0.517
G1 X26.45
Y18.45
X23.657
G2 X22.196 Y19.483 I0 J1.55
G3 X16.152 Y22.048 I-4.196 J-1.483
X15.3 Y20.546 Z-7.861 I0.612 J-1.339 F150
G1 X15.601 Y17.837 Z-7.952
G3 X18.537 Y18 Z-8.1 I1.463 J0.163
X17.463 Y18 I-0.537 J0 F300
X18.537 Y18 I0.537 J0
G2 X18.897 Y18.741 I0.944 J0
G3 X18.817 Y19.561 I-0.303 J0.384
X16.27 Y18 I-0.799 J-1.555
X19.666 Y17.411 I1.749 J0
G1 X19.709 Y17.516
X19.754 Y17.62
G3 X19.754 Y18.38 I-0.916 J0.38
G1 X19.709 Y18.484
X19.666 Y18.589
G3 X18.817 Y19.561 I-1.648 J-0.583
G2 X17.77 Y21.111 I0.889 J1.729
G3 X16.152 Y22.048 I-1.142 J-0.106
X19.848 Y13.952 I1.848 J-4.048
X22.196 Y16.517 I-1.848 J4.048
G2 X23.657 Y17.55 I1.461 J-0.517
G1 X26.45
Y18.45
X23.657
G2 X22.196 Y19.483 I0 J1.55
G3 X16.152 Y22.048 I-4.196 J-1.483
X15.3 Y20.546 Z-8.161 I0.612 J-1.339 F150
G1 X15.601 Y17.837 Z-8.252
G3 X18.537 Y18 Z-8.4 I1.463 J0.163
X17.463 Y18 I-0.537 J0 F300
X18.537 Y18 I0.537 J0
G2 X18.897 Y18.741 I0.944 J0
G3 X18.817 Y19.561 I-0.303 J0.384
X16.27 Y18 I-0.799 J-1.555
X19.666 Y17.411 I1.749 J0
G1 X19.709 Y17.516
X19.754 Y17.62
G3 X19.754 Y18.38 I-0.916 J0.38
G1 X19.709 Y18.484
X19.666 Y18.589
G3 X18.817 Y19.561 I-1.648 J-0.583
G2 X17.77 Y21.111 I0.889 J1.729
G3 X16.152 Y22.048 I-1.142 J-0.106
X19.848 Y13.952 I1.848 J-4.048
X22.196 Y16.517 I-1.848 J4.048
G2 X23.657 Y17.55 I1.461 J-0.517
G1 X26.45
Y18.45
X23.657
G2 X22.196 Y19.483 I0 J1.55
G3 X16.152 Y22.048 I-4.196 J-1.483
X15.3 Y20.546 Z-8.461 I0.612 J-1.339 F150
G1 X15.601 Y17.837 Z-8.552
G3 X18.537 Y18 Z-8.7 I1.463 J0.163
X17.463 Y18 I-0.537 J0 F300
X18.537 Y18 I0.537 J0
G2 X18.897 Y18.741 I0.944 J0
G3 X18.817 Y19.561 I-0.303 J0.384
X16.27 Y18 I-0.799 J-1.555
X19.666 Y17.411 I1.749 J0
G1 X19.709 Y17.516
X19.754 Y17.62
G3 X19.754 Y18.38 I-0.916 J0.38
G1 X19.709 Y18.484
X19.666 Y18.589
G3 X18.817 Y19.561 I-1.648 J-0.583
G2 X17.77 Y21.111 I0.889 J1.729
G3 X16.152 Y22.048 I-1.142 J-0.106
X19.848 Y13.952 I1.848 J-4.048
X22.196 Y16.517 I-1.848 J4.048
G2 X23.657 Y17.55 I1.461 J-0.517
G1 X26.45
Y18.45
X23.657
G2 X22.196 Y19.483 I0 J1.55
G3 X16.152 Y22.048 I-4.196 J-1.483
X15.3 Y20.546 Z-8.761 I0.612 J-1.339 F150
G1 X15.601 Y17.837 Z-8.852
G3 X18.537 Y18 Z-9 I1.463 J0.163
X17.463 Y18 I-0.537 J0 F300
X18.537 Y18 I0.537 J0
G2 X18.897 Y18.741 I0.944 J0
G3 X18.817 Y19.561 I-0.303 J0.384
X16.27 Y18 I-0.799 J-1.555
X19.666 Y17.411 I1.749 J0
G1 X19.709 Y17.516
X19.754 Y17.62
G3 X19.754 Y18.38 I-0.916 J0.38
G1 X19.709 Y18.484
X19.666 Y18.589
G3 X18.817 Y19.561 I-1.648 J-0.583
G2 X17.77 Y21.111 I0.889 J1.729
G3 X16.152 Y22.048 I-1.142 J-0.106
X19.848 Y13.952 I1.848 J-4.048
X22.196 Y16.517 I-1.848 J4.048
G2 X23.657 Y17.55 I1.461 J-0.517
G1 X26.45
Y18.45
X23.657
G2 X22.196 Y19.483 I0 J1.55
G3 X16.152 Y22.048 I-4.196 J-1.483
X15.3 Y20.546 Z-9.061 I0.612 J-1.339 F150
G1 X15.601 Y17.837 Z-9.152
G3 X18.537 Y18 Z-9.3 I1.463 J0.163
X17.463 Y18 I-0.537 J0 F300
X18.537 Y18 I0.537 J0
G2 X18.897 Y18.741 I0.944 J0
G3 X18.817 Y19.561 I-0.303 J0.384
X16.27 Y18 I-0.799 J-1.555
X19.666 Y17.411 I1.749 J0
G1 X19.709 Y17.516
X19.754 Y17.62
G3 X19.754 Y18.38 I-0.916 J0.38
G1 X19.709 Y18.484
X19.666 Y18.589
G3 X18.817 Y19.561 I-1.648 J-0.583
G2 X17.77 Y21.111 I0.889 J1.729
G3 X16.152 Y22.048 I-1.142 J-0.106
X19.848 Y13.952 I1.848 J-4.048
X22.196 Y16.517 I-1.848 J4.048
G2 X23.657 Y17.55 I1.461 J-0.517
G1 X26.45
Y18.45
X23.657
G2 X22.196 Y19.483 I0 J1.55
G3 X16.152 Y22.048 I-4.196 J-1.483
X15.3 Y20.546 Z-9.361 I0.612 J-1.339 F150
G1 X15.601 Y17.837 Z-9.452
G3 X18.537 Y18 Z-9.6 I1.463 J0.163
X17.463 Y18 I-0.537 J0 F300
X18.537 Y18 I0.537 J0
G2 X18.897 Y18.741 I0.944 J0
G3 X18.817 Y19.561 I-0.303 J0.384
X16.27 Y18 I-0.799 J-1.555
X19.666 Y17.411 I1.749 J0
G1 X19.709 Y17.516
X19.754 Y17.62
G3 X19.754 Y18.38 I-0.916 J0.38
G1 X19.709 Y18.484
X19.666 Y18.589
G3 X18.817 Y19.561 I-1.648 J-0.583
G2 X17.77 Y21.111 I0.889 J1.729
G3 X16.152 Y22.048 I-1.142 J-0.106
X19.848 Y13.952 I1.848 J-4.048
X22.196 Y16.517 I-1.848 J4.048
G2 X23.657 Y17.55 I1.461 J-0.517
G1 X26.45
Y18.45
X23.657
G2 X22.196 Y19.483 I0 J1.55
G3 X16.152 Y22.048 I-4.196 J-1.483
X15.3 Y20.546 Z-9.661 I0.612 J-1.339 F150
G1 X15.601 Y17.837 Z-9.752
G3 X18.537 Y18 Z-9.9 I1.463 J0.163
X17.463 Y18 I-0.537 J0 F300
X18.537 Y18 I0.537 J0
G2 X18.897 Y18.741 I0.944 J0
G3 X18.817 Y19.561 I-0.303 J0.384
X16.27 Y18 I-0.799 J-1.555
X19.666 Y17.411 I1.749 J0
G1 X19.709 Y17.516
X19.754 Y17.62
G3 X19.754 Y18.38 I-0.916 J0.38
G1 X19.709 Y18.484
X19.666 Y18.589
G3 X18.817 Y19.561 I-1.648 J-0.583
G2 X17.77 Y21.111 I0.889 J1.729
G3 X16.152 Y22.048 I-1.142 J-0.106
X19.848 Y13.952 I1.848 J-4.048
X22.196 Y16.517 I-1.848 J4.048
G2 X23.657 Y17.55 I1.461 J-0.517
G1 X26.45
Y18.45
X23.657
G2 X22.196 Y19.483 I0 J1.55
G3 X16.152 Y22.048 I-4.196 J-1.483
X15.3 Y20.546 Z-9.961 I0.612 J-1.339 F150
G1 X15.601 Y17.837 Z-10.052
G3 X18.537 Y18 Z-10.2 I1.463 J0.163
X17.463 Y18 I-0.537 J0 F300
X18.537 Y18 I0.537 J0
G2 X18.897 Y18.741 I0.944 J0
G3 X18.817 Y19.561 I-0.303 J0.384
X16.27 Y18 I-0.799 J-1.555
X19.666 Y17.411 I1.749 J0
G1 X19.709 Y17.516
X19.754 Y17.62
G3 X19.754 Y18.38 I-0.916 J0.38
G1 X19.709 Y18.484
X19.666 Y18.589
G3 X18.817 Y19.561 I-1.648 J-0.583
G2 X17.77 Y21.111 I0.889 J1.729
G3 X16.152 Y22.048 I-1.142 J-0.106
X19.848 Y13.952 I1.848 J-4.048
X22.196 Y16.517 I-1.848 J4.048
G2 X23.657 Y17.55 I1.461 J-0.517
G1 X26.45
Y18.45
X23.657
G2 X22.196 Y19.483 I0 J1.55
G3 X16.152 Y22.048 I-4.196 J-1.483
X15.3 Y20.546 Z-10.261 I0.612 J-1.339 F150
G1 X15.601 Y17.837 Z-10.352
G3 X18.537 Y18 Z-10.5 I1.463 J0.163
X17.463 Y18 I-0.537 J0 F300
X18.537 Y18 I0.537 J0
G2 X18.897 Y18.741 I0.944 J0
G3 X18.817 Y19.561 I-0.303 J0.384
X16.27 Y18 I-0.799 J-1.555
X19.666 Y17.411 I1.749 J0
G1 X19.709 Y17.516
X19.754 Y17.62
G3 X19.754 Y18.38 I-0.916 J0.38
G1 X19.709 Y18.484
X19.666 Y18.589
G3 X18.817 Y19.561 I-1.648 J-0.583
G2 X17.77 Y21.111 I0.889 J1.729
G3 X16.152 Y22.048 I-1.142 J-0.106
X19.848 Y13.952 I1.848 J-4.048
X22.196 Y16.517 I-1.848 J4.048
G2 X23.657 Y17.55 I1.461 J-0.517
G1 X26.45
Y18.45
X23.657
G2 X22.196 Y19.483 I0 J1.55
G3 X16.152 Y22.048 I-4.196 J-1.483
X15.3 Y20.546 Z-10.561 I0.612 J-1.339 F150
G1 X15.601 Y17.837 Z-10.652
G3 X18.537 Y18 Z-10.8 I1.463 J0.163
X17.463 Y18 I-0.537 J0 F300
X18.537 Y18 I0.537 J0
G2 X18.897 Y18.741 I0.944 J0
G3 X18.817 Y19.561 I-0.303 J0.384
X16.27 Y18 I-0.799 J-1.555
X19.666 Y17.411 I1.749 J0
G1 X19.709 Y17.516
X19.754 Y17.62
G3 X19.754 Y18.38 I-0.916 J0.38
G1 X19.709 Y18.484
X19.666 Y18.589
G3 X18.817 Y19.561 I-1.648 J-0.583
G2 X17.77 Y21.111 I0.889 J1.729
G3 X16.152 Y22.048 I-1.142 J-0.106
X19.848 Y13.952 I1.848 J-4.048
X22.196 Y16.517 I-1.848 J4.048
G2 X23.657 Y17.55 I1.461 J-0.517
G1 X26.45
Y18.45
X23.657
G2 X22.196 Y19.483 I0 J1.55
G3 X16.152 Y22.048 I-4.196 J-1.483
X15.3 Y20.546 Z-10.861 I0.612 J-1.339 F150
G1 X15.601 Y17.837 Z-10.952
G3 X18.537 Y18 Z-11.1 I1.463 J0.163
X17.463 Y18 I-0.537 J0 F300
X18.537 Y18 I0.537 J0
G2 X18.897 Y18.741 I0.944 J0
G3 X18.817 Y19.561 I-0.303 J0.384
X16.27 Y18 I-0.799 J-1.555
X19.666 Y17.411 I1.749 J0
G1 X19.709 Y17.516
X19.754 Y17.62
G3 X19.754 Y18.38 I-0.916 J0.38
G1 X19.709 Y18.484
X19.666 Y18.589
G3 X18.817 Y19.561 I-1.648 J-0.583
G2 X17.77 Y21.111 I0.889 J1.729
G3 X16.152 Y22.048 I-1.142 J-0.106
X19.848 Y13.952 I1.848 J-4.048
X22.196 Y16.517 I-1.848 J4.048
G2 X23.657 Y17.55 I1.461 J-0.517
G1 X26.45
Y18.45
X23.657
G2 X22.196 Y19.483 I0 J1.55
G3 X16.152 Y22.048 I-4.196 J-1.483
X15.3 Y20.546 Z-11.161 I0.612 J-1.339 F150
G1 X15.601 Y17.837 Z-11.252
G3 X18.537 Y18 Z-11.4 I1.463 J0.163
X17.463 Y18 I-0.537 J0 F300
X18.537 Y18 I0.537 J0
G2 X18.897 Y18.741 I0.944 J0
G3 X18.817 Y19.561 I-0.303 J0.384
X16.27 Y18 I-0.799 J-1.555
X19.666 Y17.411 I1.749 J0
G1 X19.709 Y17.516
X19.754 Y17.62
G3 X19.754 Y18.38 I-0.916 J0.38
G1 X19.709 Y18.484
X19.666 Y18.589
G3 X18.817 Y19.561 I-1.648 J-0.583
G2 X17.77 Y21.111 I0.889 J1.729
G3 X16.152 Y22.048 I-1.142 J-0.106
X19.848 Y13.952 I1.848 J-4.048
X22.196 Y16.517 I-1.848 J4.048
G2 X23.657 Y17.55 I1.461 J-0.517
G1 X26.45
Y18.45
X23.657
G2 X22.196 Y19.483 I0 J1.55
G3 X16.152 Y22.048 I-4.196 J-1.483
X15.3 Y20.546 Z-11.461 I0.612 J-1.339 F150
G1 X15.601 Y17.837 Z-11.552
G3 X18.537 Y18 Z-11.7 I1.463 J0.163
X17.463 Y18 I-0.537 J0 F300
X18.537 Y18 I0.537 J0
G2 X18.897 Y18.741 I0.944 J0
G3 X18.817 Y19.561 I-0.303 J0.384
X16.27 Y18 I-0.799 J-1.555
X19.666 Y17.411 I1.749 J0
G1 X19.709 Y17.516
X19.754 Y17.62
G3 X19.754 Y18.38 I-0.916 J0.38
G1 X19.709 Y18.484
X19.666 Y18.589
G3 X18.817 Y19.561 I-1.648 J-0.583
G2 X17.77 Y21.111 I0.889 J1.729
G3 X16.152 Y22.048 I-1.142 J-0.106
X19.848 Y13.952 I1.848 J-4.048
X22.196 Y16.517 I-1.848 J4.048
G2 X23.657 Y17.55 I1.461 J-0.517
G1 X26.45
Y18.45
X23.657
G2 X22.196 Y19.483 I0 J1.55
G3 X16.152 Y22.048 I-4.196 J-1.483
X15.3 Y20.546 Z-11.761 I0.612 J-1.339 F150
G1 X15.601 Y17.837 Z-11.852
G3 X18.537 Y18 Z-12 I1.463 J0.163
X17.463 Y18 I-0.537 J0 F300
X18.537 Y18 I0.537 J0
G2 X18.897 Y18.741 I0.944 J0
G3 X18.817 Y19.561 I-0.303 J0.384
X16.27 Y18 I-0.799 J-1.555
X19.666 Y17.411 I1.749 J0
G1 X19.709 Y17.516
X19.754 Y17.62
G3 X19.754 Y18.38 I-0.916 J0.38
G1 X19.709 Y18.484
X19.666 Y18.589
G3 X18.817 Y19.561 I-1.648 J-0.583
G2 X17.77 Y21.111 I0.889 J1.729
G3 X16.152 Y22.048 I-1.142 J-0.106
X19.848 Y13.952 I1.848 J-4.048
X22.196 Y16.517 I-1.848 J4.048
G2 X23.657 Y17.55 I1.461 J-0.517
G1 X26.45
Y18.45
X23.657
G2 X22.196 Y19.483 I0 J1.55
G3 X16.152 Y22.048 I-4.196 J-1.483
X15.3 Y20.546 Z-12.061 I0.612 J-1.339 F150
G1 X15.601 Y17.837 Z-12.152
G3 X18.537 Y18 Z-12.3 I1.463 J0.163
X17.463 Y18 I-0.537 J0 F300
X18.537 Y18 I0.537 J0
G2 X18.897 Y18.741 I0.944 J0
G3 X18.817 Y19.561 I-0.303 J0.384
X16.27 Y18 I-0.799 J-1.555
X19.666 Y17.411 I1.749 J0
G1 X19.709 Y17.516
X19.754 Y17.62
G3 X19.754 Y18.38 I-0.916 J0.38
G1 X19.709 Y18.484
X19.666 Y18.589
G3 X18.817 Y19.561 I-1.648 J-0.583
G2 X17.77 Y21.111 I0.889 J1.729
G3 X16.152 Y22.048 I-1.142 J-0.106
X19.848 Y13.952 I1.848 J-4.048
X22.196 Y16.517 I-1.848 J4.048
G2 X23.657 Y17.55 I1.461 J-0.517
G1 X26.45
Y18.45
X23.657
G2 X22.196 Y19.483 I0 J1.55
G3 X16.152 Y22.048 I-4.196 J-1.483
X15.3 Y20.546 Z-12.361 I0.612 J-1.339 F150
G1 X15.601 Y17.837 Z-12.452
G3 X18.537 Y18 Z-12.6 I1.463 J0.163
X17.463 Y18 I-0.537 J0 F300
X18.537 Y18 I0.537 J0
G2 X18.897 Y18.741 I0.944 J0
G3 X18.817 Y19.561 I-0.303 J0.384
X16.27 Y18 I-0.799 J-1.555
X19.666 Y17.411 I1.749 J0
G1 X19.709 Y17.516
X19.754 Y17.62
G3 X19.754 Y18.38 I-0.916 J0.38
G1 X19.709 Y18.484
X19.666 Y18.589
G3 X18.817 Y19.561 I-1.648 J-0.583
G2 X17.77 Y21.111 I0.889 J1.729
G3 X16.152 Y22.048 I-1.142 J-0.106
X19.848 Y13.952 I1.848 J-4.048
X22.196 Y16.517 I-1.848 J4.048
G2 X23.657 Y17.55 I1.461 J-0.517
G1 X26.45
Y18.45
X23.657
G2 X22.196 Y19.483 I0 J1.55
G3 X16.152 Y22.048 I-4.196 J-1.483
X15.3 Y20.546 Z-12.661 I0.612 J-1.339 F150
G1 X15.601 Y17.837 Z-12.752
G3 X18.537 Y18 Z-12.9 I1.463 J0.163
X17.463 Y18 I-0.537 J0 F300
X18.537 Y18 I0.537 J0
G2 X18.897 Y18.741 I0.944 J0
G3 X18.817 Y19.561 I-0.303 J0.384
X16.27 Y18 I-0.799 J-1.555
X19.666 Y17.411 I1.749 J0
G1 X19.709 Y17.516
X19.754 Y17.62
G3 X19.754 Y18.38 I-0.916 J0.38
G1 X19.709 Y18.484
X19.666 Y18.589
G3 X18.817 Y19.561 I-1.648 J-0.583
G2 X17.77 Y21.111 I0.889 J1.729
G3 X16.152 Y22.048 I-1.142 J-0.106
X19.848 Y13.952 I1.848 J-4.048
X22.196 Y16.517 I-1.848 J4.048
G2 X23.657 Y17.55 I1.461 J-0.517
G1 X26.45
Y18.45
X23.657
G2 X22.196 Y19.483 I0 J1.55
G3 X16.152 Y22.048 I-4.196 J-1.483
X15.3 Y20.546 Z-12.961 I0.612 J-1.339 F150
G1 X15.601 Y17.837 Z-13.052
G3 X18.537 Y18 Z-13.2 I1.463 J0.163
X17.463 Y18 I-0.537 J0 F300
X18.537 Y18 I0.537 J0
G2 X18.897 Y18.741 I0.944 J0
G3 X18.817 Y19.561 I-0.303 J0.384
X16.27 Y18 I-0.799 J-1.555
X19.666 Y17.411 I1.749 J0
G1 X19.709 Y17.516
X19.754 Y17.62
G3 X19.754 Y18.38 I-0.916 J0.38
G1 X19.709 Y18.484
X19.666 Y18.589
G3 X18.817 Y19.561 I-1.648 J-0.583
G2 X17.77 Y21.111 I0.889 J1.729
G3 X16.152 Y22.048 I-1.142 J-0.106
X19.848 Y13.952 I1.848 J-4.048
X22.196 Y16.517 I-1.848 J4.048
G2 X23.657 Y17.55 I1.461 J-0.517
G1 X26.45
Y18.45
X23.657
G2 X22.196 Y19.483 I0 J1.55
G3 X16.152 Y22.048 I-4.196 J-1.483
X15.3 Y20.546 Z-13.261 I0.612 J-1.339 F150
G1 X15.601 Y17.837 Z-13.352
G3 X18.537 Y18 Z-13.5 I1.463 J0.163
X17.463 Y18 I-0.537 J0 F300
X18.537 Y18 I0.537 J0
G2 X18.897 Y18.741 I0.944 J0
G3 X18.817 Y19.561 I-0.303 J0.384
X16.27 Y18 I-0.799 J-1.555
X19.666 Y17.411 I1.749 J0
G1 X19.709 Y17.516
X19.754 Y17.62
G3 X19.754 Y18.38 I-0.916 J0.38
G1 X19.709 Y18.484
X19.666 Y18.589
G3 X18.817 Y19.561 I-1.648 J-0.583
G2 X17.77 Y21.111 I0.889 J1.729
G3 X16.152 Y22.048 I-1.142 J-0.106
X19.848 Y13.952 I1.848 J-4.048
X22.196 Y16.517 I-1.848 J4.048
G2 X23.657 Y17.55 I1.461 J-0.517
G1 X26.45
Y18.45
X23.657
G2 X22.196 Y19.483 I0 J1.55
G3 X16.152 Y22.048 I-4.196 J-1.483
X15.3 Y20.546 Z-13.561 I0.612 J-1.339 F150
G1 X15.601 Y17.837 Z-13.652
G3 X18.537 Y18 Z-13.8 I1.463 J0.163
X17.463 Y18 I-0.537 J0 F300
X18.537 Y18 I0.537 J0
G2 X18.897 Y18.741 I0.944 J0
G3 X18.817 Y19.561 I-0.303 J0.384
X16.27 Y18 I-0.799 J-1.555
X19.666 Y17.411 I1.749 J0
G1 X19.709 Y17.516
X19.754 Y17.62
G3 X19.754 Y18.38 I-0.916 J0.38
G1 X19.709 Y18.484
X19.666 Y18.589
G3 X18.817 Y19.561 I-1.648 J-0.583
G2 X17.77 Y21.111 I0.889 J1.729
G3 X16.152 Y22.048 I-1.142 J-0.106
X19.848 Y13.952 I1.848 J-4.048
X22.196 Y16.517 I-1.848 J4.048
G2 X23.657 Y17.55 I1.461 J-0.517
G1 X26.45
Y18.45
X23.657
G2 X22.196 Y19.483 I0 J1.55
G3 X16.152 Y22.048 I-4.196 J-1.483
X15.3 Y20.546 Z-13.841 I0.612 J-1.339 F150
G1 X15.601 Y17.837 Z-13.901
G3 X18.537 Y18 Z-14 I1.463 J0.163
X17.463 Y18 I-0.537 J0 F300
X18.537 Y18 I0.537 J0
G2 X18.897 Y18.741 I0.944 J0
G3 X18.817 Y19.561 I-0.303 J0.384
X16.27 Y18 I-0.799 J-1.555
X19.666 Y17.411 I1.749 J0
G1 X19.709 Y17.516
X19.754 Y17.62
G3 X19.754 Y18.38 I-0.916 J0.38
G1 X19.709 Y18.484
X19.666 Y18.589
G3 X18.817 Y19.561 I-1.648 J-0.583
G2 X17.77 Y21.111 I0.889 J1.729
G3 X16.152 Y22.048 I-1.142 J-0.106
X19.848 Y13.952 I1.848 J-4.048
X22.196 Y16.517 I-1.848 J4.048
G2 X23.657 Y17.55 I1.461 J-0.517
G1 X26.45
Y18.45
X23.657
G2 X22.196 Y19.483 I0 J1.55
G3 X16.152 Y22.048 I-4.196 J-1.483
G1 X16.1 Y22.018 Z-13.988
X16.056 Y21.98 Z-13.976
X16.024 Y21.94 Z-13.943
X15.999 Y21.897 Z-13.909
X15.978 Y21.833 Z-13.809
X15.974 Y21.81 Z-13.69
Z10
(When using Fusion 360 for Personal Use, the feedrate of)
(rapid moves is reduced to match the feedrate of cutting)
(moves, which can increase machining time. Unrestricted rapid)
(moves are available with a Fusion 360 Subscription.)

(2D Pocket2)
G0 X5.517 Y-2.726
G1 Z10 F300
Z5
Z0.01 F150
X5.51 Y-2.722 Z-0.059
X5.492 Y-2.708 Z-0.125
X5.462 Y-2.686 Z-0.183
X5.422 Y-2.657 Z-0.232
X5.375 Y-2.623 Z-0.269
X5.322 Y-2.584 Z-0.292
X5.266 Y-2.543 Z-0.3
X3.766 Y-1.445
X3.641 Y-1.353 F300
G3 X2.584 Y-0.91 I-1.427 J-1.923
G2 X-1.438 Y0.291 I2.424 J15.462
G3 X-2.39 Y-0.089 I-0.293 J-0.648
X-1.975 Y-1.026 I0.659 J-0.268
G1 X0.578 Y-1.956
X0.656 Y-1.979
X0.735 Y-1.993
X0.816 Y-1.998
X3.346 Y-2.019
X3.438 Y-2.026
X9.047 Y-2.805
G3 X9.432 Y-1.449 I0.098 J0.704
G2 X4.701 Y1.422 I8.568 J19.449
G3 X3.754 Y1.808 I-1.123 J-1.4
G2 X-1.449 Y3.493 I1.251 J12.742
G1 X-1.491 Y3.525
X-1.522 Y3.566
X-1.542 Y3.614
X-1.549 Y3.665
X-1.562 Y35.537
X-1.557 Y35.583
X-1.541 Y35.626
X-1.516 Y35.664
X-1.483 Y35.696
X-1.444 Y35.72
G2 X2.584 Y36.91 I6.391 J-14.22
G3 X3.641 Y37.353 I-0.371 J2.366
G1 X3.765 Y37.444
G3 X3.149 Y38.702 I-0.42 J0.574
G1 X1.005 Y38.088
X0.908 Y38.053
X0.817 Y38.003
X-1.735 Y36.369
G3 X-2.053 Y35.888 I0.384 J-0.599
G1 X-2.496 Y33.266
G3 X-1.438 Y32.532 I0.701 J-0.118
G2 X3.754 Y34.192 I6.388 J-11.032
G3 X4.701 Y34.578 I-0.175 J1.786
G2 X9.428 Y37.448 I13.299 J-16.578
G1 X9.468 Y37.461
X9.509 Y37.465
X32.111 Y37.487
X32.152 Y37.483
X32.192 Y37.47
X32.229 Y37.449
X32.341 Y37.366
G3 X33.408 Y36.923 I1.425 J1.925
G2 X37.438 Y35.745 I-2.338 J-15.475
G3 X38.387 Y36.13 I0.289 J0.65
X37.967 Y37.064 I-0.66 J0.265
G1 X35.413 Y37.979
X35.335 Y38.002
X35.255 Y38.016
X35.174 Y38.021
X32.649 Y38.023
X32.552 Y38.029
X26.957 Y38.803
G3 X26.573 Y37.447 I-0.097 J-0.705
G2 X31.289 Y34.586 I-8.573 J-19.447
G3 X32.247 Y34.199 I1.122 J1.401
G2 X37.445 Y32.555 I-1.173 J-12.749
G1 X37.487 Y32.523
X37.519 Y32.482
X37.539 Y32.434
X37.546 Y32.382
X37.563 Y0.428
X37.558 Y0.382
X37.542 Y0.339
X37.517 Y0.3
X37.484 Y0.269
X37.444 Y0.245
G2 X33.408 Y-0.923 I-6.313 J14.255
G3 X32.341 Y-1.366 I0.358 J-2.368
G1 X32.231 Y-1.448
G3 X32.841 Y-2.707 I0.42 J-0.574
G1 X34.984 Y-2.11
X35.082 Y-2.074
X35.174 Y-2.025
X37.732 Y-0.405
G3 X38.053 Y0.077 I-0.381 J0.601
G1 X38.496 Y2.688
G3 X37.442 Y3.425 I-0.701 J0.119
G2 X32.247 Y1.801 I-6.314 J11.075
G3 X31.289 Y1.414 I0.164 J-1.787
G2 X26.576 Y-1.446 I-13.289 J16.586
G3 X26.234 Y-2.422 I0.286 J-0.648
X27.231 Y-2.7 I0.628 J0.328
G1 X32.184 Y0.319
X32.266 Y0.362
X37.793 Y2.809
G3 X38.208 Y3.362 I-0.287 J0.648
G1 X38.595 Y6.213
G3 X37.441 Y6.855 I-0.702 J0.095
G2 X31.132 Y4.582 I-6.318 J7.645
G3 X30.245 Y4.242 I0.007 J-1.345
G2 X5.754 Y4.242 I-12.245 J13.758
G3 X4.877 Y4.583 I-0.894 J-1.005
G2 X-1.441 Y6.944 I0.124 J9.963
G1 X-1.471 Y6.976
X-1.493 Y7.013
X-1.507 Y7.054
X-1.512 Y7.097
X-1.513 Y28.926
X-1.508 Y28.97
X-1.494 Y29.011
X-1.472 Y29.048
X-1.442 Y29.079
G2 X4.877 Y31.417 I6.397 J-7.579
G3 X5.754 Y31.758 I-0.017 J1.345
G2 X30.245 Y31.758 I12.246 J-13.758
G3 X31.132 Y31.418 I0.894 J1.005
G2 X37.44 Y29.123 I-0.054 J-9.963
G1 X37.47 Y29.091
X37.493 Y29.053
X37.507 Y29.012
X37.512 Y28.968
X37.47 Y11.342
X37.464 Y11.296
X37.448 Y11.252
G2 X31.078 Y7.357 I-6.362 J3.248
X30.479 Y7.376 I0 J9.595
G3 X29.88 Y7.394 I-0.599 J-9.577
X29.16 Y7.091 I0 J-1.008
G2 X6.84 Y7.091 I-11.16 J10.909
G3 X6.12 Y7.394 I-0.72 J-0.704
X5.56 Y7.377 I0 J-8.969
G2 X5 Y7.359 I-0.56 J8.952
X-1.445 Y11.411 I0 J7.151
G1 X-1.459 Y11.454
X-1.464 Y11.498
X-1.465 Y24.508
X-1.46 Y24.552
X-1.445 Y24.595
G2 X5 Y28.641 I6.435 J-3.095
X5.56 Y28.623 I0 J-8.969
G3 X6.12 Y28.606 I0.56 J8.952
X6.84 Y28.909 I0 J1.007
G2 X29.16 Y28.909 I11.16 J-10.909
G3 X29.88 Y28.606 I0.72 J0.704
X30.479 Y28.624 I0 J9.595
G2 X31.078 Y28.643 I0.599 J-9.577
X37.447 Y24.744 I0 J-7.151
X36.761 Y21.938 I-1.969 J-1.006
G3 X35.438 Y19.37 I1.831 J-2.568
G1 Y14.5
G2 X31.078 Y10.14 I-4.36 J0
X29.859 Y10.163 I0 J33.021
G3 X28.641 Y10.185 I-1.219 J-32.998
X27.865 Y9.821 I0 J-1.007
G2 X8.135 Y9.821 I-9.865 J8.179
G3 X7.359 Y10.185 I-0.776 J-0.643
X6.18 Y10.163 I0 J-30.937
G2 X5 Y10.14 I-1.18 J30.914
X0.64 Y14.5 I0 J4.36
G1 Y21.5
G2 X5 Y25.86 I4.36 J0
X6.18 Y25.837 I0 J-30.937
G3 X7.359 Y25.815 I1.18 J30.914
X8.135 Y26.179 I0 J1.008
G2 X27.865 Y26.179 I9.865 J-8.179
G3 X28.641 Y25.815 I0.776 J0.643
X29.859 Y25.837 I0 J33.021
G2 X31.078 Y25.86 I1.219 J-32.998
X35.438 Y21.5 I0 J-4.36
G1 Y19.37
G2 X34.033 Y17.263 I-2.283 J0
G3 X32.628 Y15.156 I0.878 J-2.107
G1 Y14.5
G2 X31.078 Y12.95 I-1.55 J0
G1 X26.689
G2 X9.311 Y12.95 I-8.689 J5.05
G1 X5
G2 X3.45 Y14.5 I0 J1.55
G1 Y21.5
G2 X5 Y23.05 I1.55 J0
G1 X9.311
G2 X26.689 Y23.05 I8.689 J-5.05
G1 X31.078
G2 X32.628 Y21.5 I0 J-1.55
G1 Y15.156
X32.631 Y15.12
X32.641 Y15.085
X38.047 Y0.718
G2 X37.941 Y0.465 I-0.187 J-0.07
G1 X37.883 Y0.44 Z-0.307 F150
X37.827 Y0.415 Z-0.326
X37.777 Y0.393 Z-0.357
X37.733 Y0.373 Z-0.399
X37.698 Y0.358 Z-0.45
X37.663 Y0.342 Z-0.501
X37.619 Y0.323 Z-0.543
X37.568 Y0.3 Z-0.574
X37.513 Y0.276 Z-0.593
X37.455 Y0.25 Z-0.6
X37.444 Y0.245
G2 X33.408 Y-0.923 I-6.313 J14.255 F300
G3 X32.341 Y-1.366 I0.358 J-2.368
G1 X32.231 Y-1.448
G3 X32.841 Y-2.707 I0.42 J-0.574
G1 X34.984 Y-2.11
X35.082 Y-2.074
X35.174 Y-2.025
X37.732 Y-0.405
G3 X38.053 Y0.077 I-0.381 J0.601
G1 X38.496 Y2.688
G3 X37.442 Y3.425 I-0.701 J0.119
G2 X32.247 Y1.801 I-6.314 J11.075
G3 X31.289 Y1.414 I0.164 J-1.787
G2 X26.576 Y-1.446 I-13.289 J16.586
G1 X26.536 Y-1.459
X26.495 Y-1.463
X3.885 Y-1.484
X3.843 Y-1.479
X3.803 Y-1.466
X3.766 Y-1.445
X3.641 Y-1.353
G3 X2.584 Y-0.91 I-1.427 J-1.923
G2 X-1.438 Y0.291 I2.424 J15.462
G3 X-2.39 Y-0.089 I-0.293 J-0.648
X-1.975 Y-1.026 I0.659 J-0.268
G1 X0.578 Y-1.956
X0.656 Y-1.979
X0.735 Y-1.993
X0.816 Y-1.998
X3.346 Y-2.019
X3.438 Y-2.026
X9.047 Y-2.805
G3 X9.432 Y-1.449 I0.098 J0.704
G2 X4.701 Y1.422 I8.568 J19.449
G3 X3.754 Y1.808 I-1.123 J-1.4
G2 X-1.449 Y3.493 I1.251 J12.742
G1 X-1.491 Y3.525
X-1.522 Y3.566
X-1.542 Y3.614
X-1.549 Y3.665
X-1.562 Y35.537
X-1.557 Y35.583
X-1.541 Y35.626
X-1.516 Y35.664
X-1.483 Y35.696
X-1.444 Y35.72
G2 X2.584 Y36.91 I6.391 J-14.22
G3 X3.641 Y37.353 I-0.371 J2.366
G1 X3.765 Y37.444
G3 X3.149 Y38.702 I-0.42 J0.574
G1 X1.005 Y38.088
X0.908 Y38.053
X0.817 Y38.003
X-1.735 Y36.369
G3 X-2.053 Y35.888 I0.384 J-0.599
G1 X-2.496 Y33.266
G3 X-1.438 Y32.532 I0.701 J-0.118
G2 X3.754 Y34.192 I6.388 J-11.032
G3 X4.701 Y34.578 I-0.175 J1.786
G2 X9.428 Y37.448 I13.299 J-16.578
G1 X9.468 Y37.461
X9.509 Y37.465
X32.111 Y37.487
X32.152 Y37.483
X32.192 Y37.47
X32.229 Y37.449
X32.341 Y37.366
G3 X33.408 Y36.923 I1.425 J1.925
G2 X37.438 Y35.745 I-2.338 J-15.475
G3 X38.387 Y36.13 I0.289 J0.65
X37.967 Y37.064 I-0.66 J0.265
G1 X35.413 Y37.979
X35.335 Y38.002
X35.255 Y38.016
X35.174 Y38.021
X32.649 Y38.023
X32.552 Y38.029
X26.957 Y38.803
G3 X26.573 Y37.447 I-0.097 J-0.705
G2 X31.289 Y34.586 I-8.573 J-19.447
G3 X32.247 Y34.199 I1.122 J1.401
G2 X37.445 Y32.555 I-1.173 J-12.749
G1 X37.487 Y32.523
X37.519 Y32.482
X37.539 Y32.433
X37.546 Y32.381
X37.514 Y7.009
X37.509 Y6.965
X37.495 Y6.924
X37.472 Y6.886
X37.441 Y6.855
G2 X31.132 Y4.582 I-6.318 J7.645
G3 X30.245 Y4.242 I0.007 J-1.345
G2 X5.754 Y4.242 I-12.245 J13.758
G3 X4.877 Y4.583 I-0.894 J-1.005
G2 X-1.441 Y6.944 I0.124 J9.963
G1 X-1.471 Y6.976
X-1.493 Y7.013
X-1.507 Y7.054
X-1.512 Y7.097
X-1.513 Y28.926
X-1.508 Y28.97
X-1.494 Y29.011
X-1.472 Y29.048
X-1.442 Y29.079
G2 X4.877 Y31.417 I6.397 J-7.579
G3 X5.754 Y31.758 I-0.017 J1.345
G2 X30.245 Y31.758 I12.246 J-13.758
G3 X31.132 Y31.418 I0.894 J1.005
G2 X37.44 Y29.123 I-0.054 J-9.963
G1 X37.47 Y29.091
X37.493 Y29.053
X37.507 Y29.012
X37.512 Y28.968
X37.47 Y11.342
X37.464 Y11.296
X37.448 Y11.252
G2 X31.078 Y7.357 I-6.362 J3.248
X30.479 Y7.376 I0 J9.595
G3 X29.88 Y7.394 I-0.599 J-9.577
X29.16 Y7.091 I0 J-1.008
G2 X6.84 Y7.091 I-11.16 J10.909
G3 X6.12 Y7.394 I-0.72 J-0.704
X5.56 Y7.377 I0 J-8.969
G2 X5 Y7.359 I-0.56 J8.952
X-1.445 Y11.411 I0 J7.151
G1 X-1.459 Y11.454
X-1.464 Y11.498
X-1.465 Y24.508
X-1.46 Y24.552
X-1.445 Y24.595
G2 X5 Y28.641 I6.435 J-3.095
X5.56 Y28.623 I0 J-8.969
G3 X6.12 Y28.606 I0.56 J8.952
X6.84 Y28.909 I0 J1.007
G2 X29.16 Y28.909 I11.16 J-10.909
G3 X29.88 Y28.606 I0.72 J0.704
X30.479 Y28.624 I0 J9.595
G2 X31.078 Y28.643 I0.599 J-9.577
X37.447 Y24.744 I0 J-7.151
X36.761 Y21.938 I-1.969 J-1.006
G3 X35.438 Y19.37 I1.831 J-2.568
G1 Y14.5
G2 X31.078 Y10.14 I-4.36 J0
X29.859 Y10.163 I0 J33.021
G3 X28.641 Y10.185 I-1.219 J-32.998
X27.865 Y9.821 I0 J-1.007
G2 X8.135 Y9.821 I-9.865 J8.179
G3 X7.359 Y10.185 I-0.776 J-0.643
X6.18 Y10.163 I0 J-30.937
G2 X5 Y10.14 I-1.18 J30.914
X0.64 Y14.5 I0 J4.36
G1 Y21.5
G2 X5 Y25.86 I4.36 J0
X6.18 Y25.837 I0 J-30.937
G3 X7.359 Y25.815 I1.18 J30.914
X8.135 Y26.179 I0 J1.008
G2 X27.865 Y26.179 I9.865 J-8.179
G3 X28.641 Y25.815 I0.776 J0.643
X29.859 Y25.837 I0 J33.021
G2 X31.078 Y25.86 I1.219 J-32.998
X35.438 Y21.5 I0 J-4.36
G1 Y19.37
G2 X34.033 Y17.263 I-2.283 J0
G3 X32.628 Y15.156 I0.878 J-2.107
G1 Y14.5
G2 X31.078 Y12.95 I-1.55 J0
G1 X26.689
G2 X9.311 Y12.95 I-8.689 J5.05
G1 X5
G2 X3.45 Y14.5 I0 J1.55
G1 Y21.5
G2 X5 Y23.05 I1.55 J0
G1 X9.311
G2 X26.689 Y23.05 I8.689 J-5.05
G1 X31.078
G2 X32.628 Y21.5 I0 J-1.55
G1 Y15.156
X32.631 Y15.12
X32.641 Y15.085
X38.047 Y0.718
G2 X37.941 Y0.465 I-0.187 J-0.07
G1 X37.883 Y0.44 Z-0.607 F150
X37.827 Y0.415 Z-0.626
X37.777 Y0.393 Z-0.657
X37.733 Y0.373 Z-0.699
X37.698 Y0.358 Z-0.75
X37.663 Y0.342 Z-0.801
X37.619 Y0.323 Z-0.843
X37.568 Y0.3 Z-0.874
X37.513 Y0.276 Z-0.893
X37.455 Y0.25 Z-0.9
X37.444 Y0.245
G2 X33.408 Y-0.923 I-6.313 J14.255 F300
G3 X32.341 Y-1.366 I0.358 J-2.368
G1 X32.231 Y-1.448
G3 X32.841 Y-2.707 I0.42 J-0.574
G1 X34.984 Y-2.11
X35.082 Y-2.074
X35.174 Y-2.025
X37.732 Y-0.405
G3 X38.053 Y0.077 I-0.381 J0.601
G1 X38.496 Y2.688
G3 X37.442 Y3.425 I-0.701 J0.119
G2 X32.247 Y1.801 I-6.314 J11.075
G3 X31.289 Y1.414 I0.164 J-1.787
G2 X26.576 Y-1.446 I-13.289 J16.586
G1 X26.536 Y-1.459
X26.495 Y-1.463
X3.885 Y-1.484
X3.843 Y-1.479
X3.803 Y-1.466
X3.766 Y-1.445
X3.641 Y-1.353
G3 X2.584 Y-0.91 I-1.427 J-1.923
G2 X-1.438 Y0.291 I2.424 J15.462
G3 X-2.39 Y-0.089 I-0.293 J-0.648
X-1.975 Y-1.026 I0.659 J-0.268
G1 X0.578 Y-1.956
X0.656 Y-1.979
X0.735 Y-1.993
X0.816 Y-1.998
X3.346 Y-2.019
X3.438 Y-2.026
X9.047 Y-2.805
G3 X9.432 Y-1.449 I0.098 J0.704
G2 X4.701 Y1.422 I8.568 J19.449
G3 X3.754 Y1.808 I-1.123 J-1.4
G2 X-1.449 Y3.493 I1.251 J12.742
G1 X-1.491 Y3.525
X-1.522 Y3.566
X-1.542 Y3.614
X-1.549 Y3.665
X-1.562 Y35.537
X-1.557 Y35.583
X-1.541 Y35.626
X-1.516 Y35.664
X-1.483 Y35.696
X-1.444 Y35.72
G2 X2.584 Y36.91 I6.391 J-14.22
G3 X3.641 Y37.353 I-0.371 J2.366
G1 X3.765 Y37.444
G3 X3.149 Y38.702 I-0.42 J0.574
G1 X1.005 Y38.088
X0.908 Y38.053
X0.817 Y38.003
X-1.735 Y36.369
G3 X-2.053 Y35.888 I0.384 J-0.599
G1 X-2.496 Y33.266
G3 X-1.438 Y32.532 I0.701 J-0.118
G2 X3.754 Y34.192 I6.388 J-11.032
G3 X4.701 Y34.578 I-0.175 J1.786
G2 X9.428 Y37.448 I13.299 J-16.578
G1 X9.468 Y37.461
X9.509 Y37.465
X32.111 Y37.487
X32.152 Y37.483
X32.192 Y37.47
X32.229 Y37.449
X32.341 Y37.366
G3 X33.408 Y36.923 I1.425 J1.925
G2 X37.438 Y35.745 I-2.338 J-15.475
G3 X38.387 Y36.13 I0.289 J0.65
X37.967 Y37.064 I-0.66 J0.265
G1 X35.413 Y37.979
X35.335 Y38.002
X35.255 Y38.016
X35.174 Y38.021
X32.649 Y38.023
X32.552 Y38.029
X26.957 Y38.803
G3 X26.573 Y37.447 I-0.097 J-0.705
G2 X31.289 Y34.586 I-8.573 J-19.447
G3 X32.247 Y34.199 I1.122 J1.401
G2 X37.445 Y32.555 I-1.173 J-12.749
G1 X37.487 Y32.523
X37.519 Y32.482
X37.539 Y32.433
X37.546 Y32.381
X37.514 Y7.009
X37.509 Y6.965
X37.495 Y6.924
X37.472 Y6.886
X37.441 Y6.855
G2 X31.132 Y4.582 I-6.318 J7.645
G3 X30.245 Y4.242 I0.007 J-1.345
G2 X5.754 Y4.242 I-12.245 J13.758
G3 X4.877 Y4.583 I-0.894 J-1.005
G2 X-1.441 Y6.944 I0.124 J9.963
G1 X-1.471 Y6.976
X-1.493 Y7.013
X-1.507 Y7.054
X-1.512 Y7.097
X-1.513 Y28.926
X-1.508 Y28.97
X-1.494 Y29.011
X-1.472 Y29.048
X-1.442 Y29.079
G2 X4.877 Y31.417 I6.397 J-7.579
G3 X5.754 Y31.758 I-0.017 J1.345
G2 X30.245 Y31.758 I12.246 J-13.758
G3 X31.132 Y31.418 I0.894 J1.005
G2 X37.44 Y29.123 I-0.054 J-9.963
G1 X37.47 Y29.091
X37.493 Y29.053
X37.507 Y29.012
X37.512 Y28.968
X37.47 Y11.342
X37.464 Y11.296
X37.448 Y11.252
G2 X31.078 Y7.357 I-6.362 J3.248
X30.479 Y7.376 I0 J9.595
G3 X29.88 Y7.394 I-0.599 J-9.577
X29.16 Y7.091 I0 J-1.008
G2 X6.84 Y7.091 I-11.16 J10.909
G3 X6.12 Y7.394 I-0.72 J-0.704
X5.56 Y7.377 I0 J-8.969
G2 X5 Y7.359 I-0.56 J8.952
X-1.445 Y11.411 I0 J7.151
G1 X-1.459 Y11.454
X-1.464 Y11.498
X-1.465 Y24.508
X-1.46 Y24.552
X-1.445 Y24.595
G2 X5 Y28.641 I6.435 J-3.095
X5.56 Y28.623 I0 J-8.969
G3 X6.12 Y28.606 I0.56 J8.952
X6.84 Y28.909 I0 J1.007
G2 X29.16 Y28.909 I11.16 J-10.909
G3 X29.88 Y28.606 I0.72 J0.704
X30.479 Y28.624 I0 J9.595
G2 X31.078 Y28.643 I0.599 J-9.577
X37.447 Y24.744 I0 J-7.151
X36.761 Y21.938 I-1.969 J-1.006
G3 X35.438 Y19.37 I1.831 J-2.568
G1 Y14.5
G2 X31.078 Y10.14 I-4.36 J0
X29.859 Y10.163 I0 J33.021
G3 X28.641 Y10.185 I-1.219 J-32.998
X27.865 Y9.821 I0 J-1.007
G2 X8.135 Y9.821 I-9.865 J8.179
G3 X7.359 Y10.185 I-0.776 J-0.643
X6.18 Y10.163 I0 J-30.937
G2 X5 Y10.14 I-1.18 J30.914
X0.64 Y14.5 I0 J4.36
G1 Y21.5
G2 X5 Y25.86 I4.36 J0
X6.18 Y25.837 I0 J-30.937
G3 X7.359 Y25.815 I1.18 J30.914
X8.135 Y26.179 I0 J1.008
G2 X27.865 Y26.179 I9.865 J-8.179
G3 X28.641 Y25.815 I0.776 J0.643
X29.859 Y25.837 I0 J33.021
G2 X31.078 Y25.86 I1.219 J-32.998
X35.438 Y21.5 I0 J-4.36
G1 Y19.37
G2 X34.033 Y17.263 I-2.283 J0
G3 X32.628 Y15.156 I0.878 J-2.107
G1 Y14.5
G2 X31.078 Y12.95 I-1.55 J0
G1 X26.689
G2 X9.311 Y12.95 I-8.689 J5.05
G1 X5
G2 X3.45 Y14.5 I0 J1.55
G1 Y21.5
G2 X5 Y23.05 I1.55 J0
G1 X9.311
G2 X26.689 Y23.05 I8.689 J-5.05
G1 X31.078
G2 X32.628 Y21.5 I0 J-1.55
G1 Y15.156
X32.631 Y15.12
X32.641 Y15.085
X38.047 Y0.718
G2 X37.941 Y0.465 I-0.187 J-0.07
G1 X37.883 Y0.44 Z-0.907 F150
X37.827 Y0.415 Z-0.926
X37.777 Y0.393 Z-0.957
X37.733 Y0.373 Z-0.999
X37.698 Y0.358 Z-1.05
X37.663 Y0.342 Z-1.101
X37.619 Y0.323 Z-1.143
X37.568 Y0.3 Z-1.174
X37.513 Y0.276 Z-1.193
X37.455 Y0.25 Z-1.2
X37.444 Y0.245
G2 X33.408 Y-0.923 I-6.313 J14.255 F300
G3 X32.341 Y-1.366 I0.358 J-2.368
G1 X32.231 Y-1.448
G3 X32.841 Y-2.707 I0.42 J-0.574
G1 X34.984 Y-2.11
X35.082 Y-2.074
X35.174 Y-2.025
X37.732 Y-0.405
G3 X38.053 Y0.077 I-0.381 J0.601
G1 X38.496 Y2.688
G3 X37.442 Y3.425 I-0.701 J0.119
G2 X32.247 Y1.801 I-6.314 J11.075
G3 X31.289 Y1.414 I0.164 J-1.787
G2 X26.576 Y-1.446 I-13.289 J16.586
G1 X26.536 Y-1.459
X26.495 Y-1.463
X3.885 Y-1.484
X3.843 Y-1.479
X3.803 Y-1.466
X3.766 Y-1.445
X3.641 Y-1.353
G3 X2.584 Y-0.91 I-1.427 J-1.923
G2 X-1.438 Y0.291 I2.424 J15.462
G3 X-2.39 Y-0.089 I-0.293 J-0.648
X-1.975 Y-1.026 I0.659 J-0.268
G1 X0.578 Y-1.956
X0.656 Y-1.979
X0.735 Y-1.993
X0.816 Y-1.998
X3.346 Y-2.019
X3.438 Y-2.026
X9.047 Y-2.805
G3 X9.432 Y-1.449 I0.098 J0.704
G2 X4.701 Y1.422 I8.568 J19.449
G3 X3.754 Y1.808 I-1.123 J-1.4
G2 X-1.449 Y3.493 I1.251 J12.742
G1 X-1.491 Y3.525
X-1.522 Y3.566
X-1.542 Y3.614
X-1.549 Y3.665
X-1.562 Y35.537
X-1.557 Y35.583
X-1.541 Y35.626
X-1.516 Y35.664
X-1.483 Y35.696
X-1.444 Y35.72
G2 X2.584 Y36.91 I6.391 J-14.22
G3 X3.641 Y37.353 I-0.371 J2.366
G1 X3.765 Y37.444
G3 X3.149 Y38.702 I-0.42 J0.574
G1 X1.005 Y38.088
X0.908 Y38.053
X0.817 Y38.003
X-1.735 Y36.369
G3 X-2.053 Y35.888 I0.384 J-0.599
G1 X-2.496 Y33.266
G3 X-1.438 Y32.532 I0.701 J-0.118
G2 X3.754 Y34.192 I6.388 J-11.032
G3 X4.701 Y34.578 I-0.175 J1.786
G2 X9.428 Y37.448 I13.299 J-16.578
G1 X9.468 Y37.461
X9.509 Y37.465
X32.111 Y37.487
X32.152 Y37.483
X32.192 Y37.47
X32.229 Y37.449
X32.341 Y37.366
G3 X33.408 Y36.923 I1.425 J1.925
G2 X37.438 Y35.745 I-2.338 J-15.475
G3 X38.387 Y36.13 I0.289 J0.65
X37.967 Y37.064 I-0.66 J0.265
G1 X35.413 Y37.979
X35.335 Y38.002
X35.255 Y38.016
X35.174 Y38.021
X32.649 Y38.023
X32.552 Y38.029
X26.957 Y38.803
G3 X26.573 Y37.447 I-0.097 J-0.705
G2 X31.289 Y34.586 I-8.573 J-19.447
G3 X32.247 Y34.199 I1.122 J1.401
G2 X37.445 Y32.555 I-1.173 J-12.749
G1 X37.487 Y32.523
X37.519 Y32.482
X37.539 Y32.433
X37.546 Y32.381
X37.514 Y7.009
X37.509 Y6.965
X37.495 Y6.924
X37.472 Y6.886
X37.441 Y6.855
G2 X31.132 Y4.582 I-6.318 J7.645
G3 X30.245 Y4.242 I0.007 J-1.345
G2 X5.754 Y4.242 I-12.245 J13.758
G3 X4.877 Y4.583 I-0.894 J-1.005
G2 X-1.441 Y6.944 I0.124 J9.963
G1 X-1.471 Y6.976
X-1.493 Y7.013
X-1.507 Y7.054
X-1.512 Y7.097
X-1.513 Y28.926
X-1.508 Y28.97
X-1.494 Y29.011
X-1.472 Y29.048
X-1.442 Y29.079
G2 X4.877 Y31.417 I6.397 J-7.579
G3 X5.754 Y31.758 I-0.017 J1.345
G2 X30.245 Y31.758 I12.246 J-13.758
G3 X31.132 Y31.418 I0.894 J1.005
G2 X37.44 Y29.123 I-0.054 J-9.963
G1 X37.47 Y29.091
X37.493 Y29.053
X37.507 Y29.012
X37.512 Y28.968
X37.47 Y11.342
X37.464 Y11.296
X37.448 Y11.252
G2 X31.078 Y7.357 I-6.362 J3.248
X30.479 Y7.376 I0 J9.595
G3 X29.88 Y7.394 I-0.599 J-9.577
X29.16 Y7.091 I0 J-1.008
G2 X6.84 Y7.091 I-11.16 J10.909
G3 X6.12 Y7.394 I-0.72 J-0.704
X5.56 Y7.377 I0 J-8.969
G2 X5 Y7.359 I-0.56 J8.952
X-1.445 Y11.411 I0 J7.151
G1 X-1.459 Y11.454
X-1.464 Y11.498
X-1.465 Y24.508
X-1.46 Y24.552
X-1.445 Y24.595
G2 X5 Y28.641 I6.435 J-3.095
X5.56 Y28.623 I0 J-8.969
G3 X6.12 Y28.606 I0.56 J8.952
X6.84 Y28.909 I0 J1.007
G2 X29.16 Y28.909 I11.16 J-10.909
G3 X29.88 Y28.606 I0.72 J0.704
X30.479 Y28.624 I0 J9.595
G2 X31.078 Y28.643 I0.599 J-9.577
X37.447 Y24.744 I0 J-7.151
X36.761 Y21.938 I-1.969 J-1.006
G3 X35.438 Y19.37 I1.831 J-2.568
G1 Y14.5
G2 X31.078 Y10.14 I-4.36 J0
X29.859 Y10.163 I0 J33.021
G3 X28.641 Y10.185 I-1.219 J-32.998
X27.865 Y9.821 I0 J-1.007
G2 X8.135 Y9.821 I-9.865 J8.179
G3 X7.359 Y10.185 I-0.776 J-0.643
X6.18 Y10.163 I0 J-30.937
G2 X5 Y10.14 I-1.18 J30.914
X0.64 Y14.5 I0 J4.36
G1 Y21.5
G2 X5 Y25.86 I4.36 J0
X6.18 Y25.837 I0 J-30.937
G3 X7.359 Y25.815 I1.18 J30.914
X8.135 Y26.179 I0 J1.008
G2 X27.865 Y26.179 I9.865 J-8.179
G3 X28.641 Y25.815 I0.776 J0.643
X29.859 Y25.837 I0 J33.021
G2 X31.078 Y25.86 I1.219 J-32.998
X35.438 Y21.5 I0 J-4.36
G1 Y19.37
G2 X34.033 Y17.263 I-2.283 J0
G3 X32.628 Y15.156 I0.878 J-2.107
G1 Y14.5
G2 X31.078 Y12.95 I-1.55 J0
G1 X26.689
G2 X9.311 Y12.95 I-8.689 J5.05
G1 X5
G2 X3.45 Y14.5 I0 J1.55
G1 Y21.5
G2 X5 Y23.05 I1.55 J0
G1 X9.311
G2 X26.689 Y23.05 I8.689 J-5.05
G1 X31.078
G2 X32.628 Y21.5 I0 J-1.55
G1 Y15.156
X32.631 Y15.12
X32.641 Y15.085
X38.047 Y0.718
G2 X37.941 Y0.465 I-0.187 J-0.07
G1 X37.883 Y0.44 Z-1.207 F150
X37.827 Y0.415 Z-1.226
X37.777 Y0.393 Z-1.257
X37.733 Y0.373 Z-1.299
X37.698 Y0.358 Z-1.35
X37.663 Y0.342 Z-1.401
X37.619 Y0.323 Z-1.443
X37.568 Y0.3 Z-1.474
X37.513 Y0.276 Z-1.493
X37.455 Y0.25 Z-1.5
X37.444 Y0.245
G2 X33.408 Y-0.923 I-6.313 J14.255 F300
G3 X32.341 Y-1.366 I0.358 J-2.368
G1 X32.231 Y-1.448
G3 X32.841 Y-2.707 I0.42 J-0.574
G1 X34.984 Y-2.11
X35.082 Y-2.074
X35.174 Y-2.025
X37.732 Y-0.405
G3 X38.053 Y0.077 I-0.381 J0.601
G1 X38.496 Y2.688
G3 X37.442 Y3.425 I-0.701 J0.119
G2 X32.247 Y1.801 I-6.314 J11.075
G3 X31.289 Y1.414 I0.164 J-1.787
G2 X26.576 Y-1.446 I-13.289 J16.586
G1 X26.536 Y-1.459
X26.495 Y-1.463
X3.885 Y-1.484
X3.843 Y-1.479
X3.803 Y-1.466
X3.766 Y-1.445
X3.641 Y-1.353
G3 X2.584 Y-0.91 I-1.427 J-1.923
G2 X-1.438 Y0.291 I2.424 J15.462
G3 X-2.39 Y-0.089 I-0.293 J-0.648
X-1.975 Y-1.026 I0.659 J-0.268
G1 X0.578 Y-1.956
X0.656 Y-1.979
X0.735 Y-1.993
X0.816 Y-1.998
X3.346 Y-2.019
X3.438 Y-2.026
X9.047 Y-2.805
G3 X9.432 Y-1.449 I0.098 J0.704
G2 X4.701 Y1.422 I8.568 J19.449
G3 X3.754 Y1.808 I-1.123 J-1.4
G2 X-1.449 Y3.493 I1.251 J12.742
G1 X-1.491 Y3.525
X-1.522 Y3.566
X-1.542 Y3.614
X-1.549 Y3.665
X-1.562 Y35.537
X-1.557 Y35.583
X-1.541 Y35.626
X-1.516 Y35.664
X-1.483 Y35.696
X-1.444 Y35.72
G2 X2.584 Y36.91 I6.391 J-14.22
G3 X3.641 Y37.353 I-0.371 J2.366
G1 X3.765 Y37.444
G3 X3.149 Y38.702 I-0.42 J0.574
G1 X1.005 Y38.088
X0.908 Y38.053
X0.817 Y38.003
X-1.735 Y36.369
G3 X-2.053 Y35.888 I0.384 J-0.599
G1 X-2.496 Y33.266
G3 X-1.438 Y32.532 I0.701 J-0.118
G2 X3.754 Y34.192 I6.388 J-11.032
G3 X4.701 Y34.578 I-0.175 J1.786
G2 X9.428 Y37.448 I13.299 J-16.578
G1 X9.468 Y37.461
X9.509 Y37.465
X32.111 Y37.487
X32.152 Y37.483
X32.192 Y37.47
X32.229 Y37.449
X32.341 Y37.366
G3 X33.408 Y36.923 I1.425 J1.925
G2 X37.438 Y35.745 I-2.338 J-15.475
G3 X38.387 Y36.13 I0.289 J0.65
X37.967 Y37.064 I-0.66 J0.265
G1 X35.413 Y37.979
X35.335 Y38.002
X35.255 Y38.016
X35.174 Y38.021
X32.649 Y38.023
X32.552 Y38.029
X26.957 Y38.803
G3 X26.573 Y37.447 I-0.097 J-0.705
G2 X31.289 Y34.586 I-8.573 J-19.447
G3 X32.247 Y34.199 I1.122 J1.401
G2 X37.445 Y32.555 I-1.173 J-12.749
G1 X37.487 Y32.523
X37.519 Y32.482
X37.539 Y32.433
X37.546 Y32.381
X37.514 Y7.009
X37.509 Y6.965
X37.495 Y6.924
X37.472 Y6.886
X37.441 Y6.855
G2 X31.132 Y4.582 I-6.318 J7.645
G3 X30.245 Y4.242 I0.007 J-1.345
G2 X5.754 Y4.242 I-12.245 J13.758
G3 X4.877 Y4.583 I-0.894 J-1.005
G2 X-1.441 Y6.944 I0.124 J9.963
G1 X-1.471 Y6.976
X-1.493 Y7.013
X-1.507 Y7.054
X-1.512 Y7.097
X-1.513 Y28.926
X-1.508 Y28.97
X-1.494 Y29.011
X-1.472 Y29.048
X-1.442 Y29.079
G2 X4.877 Y31.417 I6.397 J-7.579
G3 X5.754 Y31.758 I-0.017 J1.345
G2 X30.245 Y31.758 I12.246 J-13.758
G3 X31.132 Y31.418 I0.894 J1.005
G2 X37.44 Y29.123 I-0.054 J-9.963
G1 X37.47 Y29.091
X37.493 Y29.053
X37.507 Y29.012
X37.512 Y28.968
X37.47 Y11.342
X37.464 Y11.296
X37.448 Y11.252
G2 X31.078 Y7.357 I-6.362 J3.248
X30.479 Y7.376 I0 J9.595
G3 X29.88 Y7.394 I-0.599 J-9.577
X29.16 Y7.091 I0 J-1.008
G2 X6.84 Y7.091 I-11.16 J10.909
G3 X6.12 Y7.394 I-0.72 J-0.704
X5.56 Y7.377 I0 J-8.969
G2 X5 Y7.359 I-0.56 J8.952
X-1.445 Y11.411 I0 J7.151
G1 X-1.459 Y11.454
X-1.464 Y11.498
X-1.465 Y24.508
X-1.46 Y24.552
X-1.445 Y24.595
G2 X5 Y28.641 I6.435 J-3.095
X5.56 Y28.623 I0 J-8.969
G3 X6.12 Y28.606 I0.56 J8.952
X6.84 Y28.909 I0 J1.007
G2 X29.16 Y28.909 I11.16 J-10.909
G3 X29.88 Y28.606 I0.72 J0.704
X30.479 Y28.624 I0 J9.595
G2 X31.078 Y28.643 I0.599 J-9.577
X37.447 Y24.744 I0 J-7.151
X36.761 Y21.938 I-1.969 J-1.006
G3 X35.438 Y19.37 I1.831 J-2.568
G1 Y14.5
G2 X31.078 Y10.14 I-4.36 J0
X29.859 Y10.163 I0 J33.021
G3 X28.641 Y10.185 I-1.219 J-32.998
X27.865 Y9.821 I0 J-1.007
G2 X8.135 Y9.821 I-9.865 J8.179
G3 X7.359 Y10.185 I-0.776 J-0.643
X6.18 Y10.163 I0 J-30.937
G2 X5 Y10.14 I-1.18 J30.914
X0.64 Y14.5 I0 J4.36
G1 Y21.5
G2 X5 Y25.86 I4.36 J0
X6.18 Y25.837 I0 J-30.937
G3 X7.359 Y25.815 I1.18 J30.914
X8.135 Y26.179 I0 J1.008
G2 X27.865 Y26.179 I9.865 J-8.179
G3 X28.641 Y25.815 I0.776 J0.643
X29.859 Y25.837 I0 J33.021
G2 X31.078 Y25.86 I1.219 J-32.998
X35.438 Y21.5 I0 J-4.36
G1 Y19.37
G2 X34.033 Y17.263 I-2.283 J0
G3 X32.628 Y15.156 I0.878 J-2.107
G1 Y14.5
G2 X31.078 Y12.95 I-1.55 J0
G1 X26.689
G2 X9.311 Y12.95 I-8.689 J5.05
G1 X5
G2 X3.45 Y14.5 I0 J1.55
G1 Y21.5
G2 X5 Y23.05 I1.55 J0
G1 X9.311
G2 X26.689 Y23.05 I8.689 J-5.05
G1 X31.078
G2 X32.628 Y21.5 I0 J-1.55
G1 Y15.156
X32.631 Y15.12
X32.641 Y15.085
X38.047 Y0.718
G2 X37.941 Y0.465 I-0.187 J-0.07
G1 X37.883 Y0.44 Z-1.507 F150
X37.827 Y0.415 Z-1.526
X37.777 Y0.393 Z-1.557
X37.733 Y0.373 Z-1.599
X37.698 Y0.358 Z-1.65
X37.663 Y0.342 Z-1.701
X37.619 Y0.323 Z-1.743
X37.568 Y0.3 Z-1.774
X37.513 Y0.276 Z-1.793
X37.455 Y0.25 Z-1.8
X37.444 Y0.245
G2 X33.408 Y-0.923 I-6.313 J14.255 F300
G3 X32.341 Y-1.366 I0.358 J-2.368
G1 X32.231 Y-1.448
G3 X32.841 Y-2.707 I0.42 J-0.574
G1 X34.984 Y-2.11
X35.082 Y-2.074
X35.174 Y-2.025
X37.732 Y-0.405
G3 X38.053 Y0.077 I-0.381 J0.601
G1 X38.496 Y2.688
G3 X37.442 Y3.425 I-0.701 J0.119
G2 X32.247 Y1.801 I-6.314 J11.075
G3 X31.289 Y1.414 I0.164 J-1.787
G2 X26.576 Y-1.446 I-13.289 J16.586
G1 X26.536 Y-1.459
X26.495 Y-1.463
X3.885 Y-1.484
X3.843 Y-1.479
X3.803 Y-1.466
X3.766 Y-1.445
X3.641 Y-1.353
G3 X2.584 Y-0.91 I-1.427 J-1.923
G2 X-1.438 Y0.291 I2.424 J15.462
G3 X-2.39 Y-0.089 I-0.293 J-0.648
X-1.975 Y-1.026 I0.659 J-0.268
G1 X0.578 Y-1.956
X0.656 Y-1.979
X0.735 Y-1.993
X0.816 Y-1.998
X3.346 Y-2.019
X3.438 Y-2.026
X9.047 Y-2.805
G3 X9.432 Y-1.449 I0.098 J0.704
G2 X4.701 Y1.422 I8.568 J19.449
G3 X3.754 Y1.808 I-1.123 J-1.4
G2 X-1.449 Y3.493 I1.251 J12.742
G1 X-1.491 Y3.525
X-1.522 Y3.566
X-1.542 Y3.614
X-1.549 Y3.665
X-1.562 Y35.537
X-1.557 Y35.583
X-1.541 Y35.626
X-1.516 Y35.664
X-1.483 Y35.696
X-1.444 Y35.72
G2 X2.584 Y36.91 I6.391 J-14.22
G3 X3.641 Y37.353 I-0.371 J2.366
G1 X3.765 Y37.444
G3 X3.149 Y38.702 I-0.42 J0.574
G1 X1.005 Y38.088
X0.908 Y38.053
X0.817 Y38.003
X-1.735 Y36.369
G3 X-2.053 Y35.888 I0.384 J-0.599
G1 X-2.496 Y33.266
G3 X-1.438 Y32.532 I0.701 J-0.118
G2 X3.754 Y34.192 I6.388 J-11.032
G3 X4.701 Y34.578 I-0.175 J1.786
G2 X9.428 Y37.448 I13.299 J-16.578
G1 X9.468 Y37.461
X9.509 Y37.465
X32.111 Y37.487
X32.152 Y37.483
X32.192 Y37.47
X32.229 Y37.449
X32.341 Y37.366
G3 X33.408 Y36.923 I1.425 J1.925
G2 X37.438 Y35.745 I-2.338 J-15.475
G3 X38.387 Y36.13 I0.289 J0.65
X37.967 Y37.064 I-0.66 J0.265
G1 X35.413 Y37.979
X35.335 Y38.002
X35.255 Y38.016
X35.174 Y38.021
X32.649 Y38.023
X32.552 Y38.029
X26.957 Y38.803
G3 X26.573 Y37.447 I-0.097 J-0.705
G2 X31.289 Y34.586 I-8.573 J-19.447
G3 X32.247 Y34.199 I1.122 J1.401
G2 X37.445 Y32.555 I-1.173 J-12.749
G1 X37.487 Y32.523
X37.519 Y32.482
X37.539 Y32.433
X37.546 Y32.381
X37.514 Y7.009
X37.509 Y6.965
X37.495 Y6.924
X37.472 Y6.886
X37.441 Y6.855
G2 X31.132 Y4.582 I-6.318 J7.645
G3 X30.245 Y4.242 I0.007 J-1.345
G2 X5.754 Y4.242 I-12.245 J13.758
G3 X4.877 Y4.583 I-0.894 J-1.005
G2 X-1.441 Y6.944 I0.124 J9.963
G1 X-1.471 Y6.976
X-1.493 Y7.013
X-1.507 Y7.054
X-1.512 Y7.097
X-1.513 Y28.926
X-1.508 Y28.97
X-1.494 Y29.011
X-1.472 Y29.048
X-1.442 Y29.079
G2 X4.877 Y31.417 I6.397 J-7.579
G3 X5.754 Y31.758 I-0.017 J1.345
G2 X30.245 Y31.758 I12.246 J-13.758
G3 X31.132 Y31.418 I0.894 J1.005
G2 X37.44 Y29.123 I-0.054 J-9.963
G1 X37.47 Y29.091
X37.493 Y29.053
X37.507 Y29.012
X37.512 Y28.968
X37.47 Y11.342
X37.464 Y11.296
X37.448 Y11.252
G2 X31.078 Y7.357 I-6.362 J3.248
X30.479 Y7.376 I0 J9.595
G3 X29.88 Y7.394 I-0.599 J-9.577
X29.16 Y7.091 I0 J-1.008
G2 X6.84 Y7.091 I-11.16 J10.909
G3 X6.12 Y7.394 I-0.72 J-0.704
X5.56 Y7.377 I0 J-8.969
G2 X5 Y7.359 I-0.56 J8.952
X-1.445 Y11.411 I0 J7.151
G1 X-1.459 Y11.454
X-1.464 Y11.498
X-1.465 Y24.508
X-1.46 Y24.552
X-1.445 Y24.595
G2 X5 Y28.641 I6.435 J-3.095
X5.56 Y28.623 I0 J-8.969
G3 X6.12 Y28.606 I0.56 J8.952
X6.84 Y28.909 I0 J1.007
G2 X29.16 Y28.909 I11.16 J-10.909
G3 X29.88 Y28.606 I0.72 J0.704
X30.479 Y28.624 I0 J9.595
G2 X31.078 Y28.643 I0.599 J-9.577
X37.447 Y24.744 I0 J-7.151
X36.761 Y21.938 I-1.969 J-1.006
G3 X35.438 Y19.37 I1.831 J-2.568
G1 Y14.5
G2 X31.078 Y10.14 I-4.36 J0
X29.859 Y10.163 I0 J33.021
G3 X28.641 Y10.185 I-1.219 J-32.998
X27.865 Y9.821 I0 J-1.007
G2 X8.135 Y9.821 I-9.865 J8.179
G3 X7.359 Y10.185 I-0.776 J-0.643
X6.18 Y10.163 I0 J-30.937
G2 X5 Y10.14 I-1.18 J30.914
X0.64 Y14.5 I0 J4.36
G1 Y21.5
G2 X5 Y25.86 I4.36 J0
X6.18 Y25.837 I0 J-30.937
G3 X7.359 Y25.815 I1.18 J30.914
X8.135 Y26.179 I0 J1.008
G2 X27.865 Y26.179 I9.865 J-8.179
G3 X28.641 Y25.815 I0.776 J0.643
X29.859 Y25.837 I0 J33.021
G2 X31.078 Y25.86 I1.219 J-32.998
X35.438 Y21.5 I0 J-4.36
G1 Y19.37
G2 X34.033 Y17.263 I-2.283 J0
G3 X32.628 Y15.156 I0.878 J-2.107
G1 Y14.5
G2 X31.078 Y12.95 I-1.55 J0
G1 X26.689
G2 X9.311 Y12.95 I-8.689 J5.05
G1 X5
G2 X3.45 Y14.5 I0 J1.55
G1 Y21.5
G2 X5 Y23.05 I1.55 J0
G1 X9.311
G2 X26.689 Y23.05 I8.689 J-5.05
G1 X31.078
G2 X32.628 Y21.5 I0 J-1.55
G1 Y15.156
X32.631 Y15.12
X32.641 Y15.085
X38.047 Y0.718
G2 X37.941 Y0.465 I-0.187 J-0.07
G1 X37.883 Y0.44 Z-1.807 F150
X37.827 Y0.415 Z-1.826
X37.777 Y0.393 Z-1.857
X37.733 Y0.373 Z-1.899
X37.698 Y0.358 Z-1.95
X37.663 Y0.342 Z-2.001
X37.619 Y0.323 Z-2.043
X37.568 Y0.3 Z-2.074
X37.513 Y0.276 Z-2.093
X37.455 Y0.25 Z-2.1
X37.444 Y0.245
G2 X33.408 Y-0.923 I-6.313 J14.255 F300
G3 X32.341 Y-1.366 I0.358 J-2.368
G1 X32.231 Y-1.448
G3 X32.841 Y-2.707 I0.42 J-0.574
G1 X34.984 Y-2.11
X35.082 Y-2.074
X35.174 Y-2.025
X37.732 Y-0.405
G3 X38.053 Y0.077 I-0.381 J0.601
G1 X38.496 Y2.688
G3 X37.442 Y3.425 I-0.701 J0.119
G2 X32.247 Y1.801 I-6.314 J11.075
G3 X31.289 Y1.414 I0.164 J-1.787
G2 X26.576 Y-1.446 I-13.289 J16.586
G1 X26.536 Y-1.459
X26.495 Y-1.463
X3.885 Y-1.484
X3.843 Y-1.479
X3.803 Y-1.466
X3.766 Y-1.445
X3.641 Y-1.353
G3 X2.584 Y-0.91 I-1.427 J-1.923
G2 X-1.438 Y0.291 I2.424 J15.462
G3 X-2.39 Y-0.089 I-0.293 J-0.648
X-1.975 Y-1.026 I0.659 J-0.268
G1 X0.578 Y-1.956
X0.656 Y-1.979
X0.735 Y-1.993
X0.816 Y-1.998
X3.346 Y-2.019
X3.438 Y-2.026
X9.047 Y-2.805
G3 X9.432 Y-1.449 I0.098 J0.704
G2 X4.701 Y1.422 I8.568 J19.449
G3 X3.754 Y1.808 I-1.123 J-1.4
G2 X-1.449 Y3.493 I1.251 J12.742
G1 X-1.491 Y3.525
X-1.522 Y3.566
X-1.542 Y3.614
X-1.549 Y3.665
X-1.562 Y35.537
X-1.557 Y35.583
X-1.541 Y35.626
X-1.516 Y35.664
X-1.483 Y35.696
X-1.444 Y35.72
G2 X2.584 Y36.91 I6.391 J-14.22
G3 X3.641 Y37.353 I-0.371 J2.366
G1 X3.765 Y37.444
G3 X3.149 Y38.702 I-0.42 J0.574
G1 X1.005 Y38.088
X0.908 Y38.053
X0.817 Y38.003
X-1.735 Y36.369
G3 X-2.053 Y35.888 I0.384 J-0.599
G1 X-2.496 Y33.266
G3 X-1.438 Y32.532 I0.701 J-0.118
G2 X3.754 Y34.192 I6.388 J-11.032
G3 X4.701 Y34.578 I-0.175 J1.786
G2 X9.428 Y37.448 I13.299 J-16.578
G1 X9.468 Y37.461
X9.509 Y37.465
X32.111 Y37.487
X32.152 Y37.483
X32.192 Y37.47
X32.229 Y37.449
X32.341 Y37.366
G3 X33.408 Y36.923 I1.425 J1.925
G2 X37.438 Y35.745 I-2.338 J-15.475
G3 X38.387 Y36.13 I0.289 J0.65
X37.967 Y37.064 I-0.66 J0.265
G1 X35.413 Y37.979
X35.335 Y38.002
X35.255 Y38.016
X35.174 Y38.021
X32.649 Y38.023
X32.552 Y38.029
X26.957 Y38.803
G3 X26.573 Y37.447 I-0.097 J-0.705
G2 X31.289 Y34.586 I-8.573 J-19.447
G3 X32.247 Y34.199 I1.122 J1.401
G2 X37.445 Y32.555 I-1.173 J-12.749
G1 X37.487 Y32.523
X37.519 Y32.482
X37.539 Y32.433
X37.546 Y32.381
X37.514 Y7.009
X37.509 Y6.965
X37.495 Y6.924
X37.472 Y6.886
X37.441 Y6.855
G2 X31.132 Y4.582 I-6.318 J7.645
G3 X30.245 Y4.242 I0.007 J-1.345
G2 X5.754 Y4.242 I-12.245 J13.758
G3 X4.877 Y4.583 I-0.894 J-1.005
G2 X-1.441 Y6.944 I0.124 J9.963
G1 X-1.471 Y6.976
X-1.493 Y7.013
X-1.507 Y7.054
X-1.512 Y7.097
X-1.513 Y28.926
X-1.508 Y28.97
X-1.494 Y29.011
X-1.472 Y29.048
X-1.442 Y29.079
G2 X4.877 Y31.417 I6.397 J-7.579
G3 X5.754 Y31.758 I-0.017 J1.345
G2 X30.245 Y31.758 I12.246 J-13.758
G3 X31.132 Y31.418 I0.894 J1.005
G2 X37.44 Y29.123 I-0.054 J-9.963
G1 X37.47 Y29.091
X37.493 Y29.053
X37.507 Y29.012
X37.512 Y28.968
X37.47 Y11.342
X37.464 Y11.296
X37.448 Y11.252
G2 X31.078 Y7.357 I-6.362 J3.248
X30.479 Y7.376 I0 J9.595
G3 X29.88 Y7.394 I-0.599 J-9.577
X29.16 Y7.091 I0 J-1.008
G2 X6.84 Y7.091 I-11.16 J10.909
G3 X6.12 Y7.394 I-0.72 J-0.704
X5.56 Y7.377 I0 J-8.969
G2 X5 Y7.359 I-0.56 J8.952
X-1.445 Y11.411 I0 J7.151
G1 X-1.459 Y11.454
X-1.464 Y11.498
X-1.465 Y24.508
X-1.46 Y24.552
X-1.445 Y24.595
G2 X5 Y28.641 I6.435 J-3.095
X5.56 Y28.623 I0 J-8.969
G3 X6.12 Y28.606 I0.56 J8.952
X6.84 Y28.909 I0 J1.007
G2 X29.16 Y28.909 I11.16 J-10.909
G3 X29.88 Y28.606 I0.72 J0.704
X30.479 Y28.624 I0 J9.595
G2 X31.078 Y28.643 I0.599 J-9.577
X37.447 Y24.744 I0 J-7.151
X36.761 Y21.938 I-1.969 J-1.006
G3 X35.438 Y19.37 I1.831 J-2.568
G1 Y14.5
G2 X31.078 Y10.14 I-4.36 J0
X29.859 Y10.163 I0 J33.021
G3 X28.641 Y10.185 I-1.219 J-32.998
X27.865 Y9.821 I0 J-1.007
G2 X8.135 Y9.821 I-9.865 J8.179
G3 X7.359 Y10.185 I-0.776 J-0.643
X6.18 Y10.163 I0 J-30.937
G2 X5 Y10.14 I-1.18 J30.914
X0.64 Y14.5 I0 J4.36
G1 Y21.5
G2 X5 Y25.86 I4.36 J0
X6.18 Y25.837 I0 J-30.937
G3 X7.359 Y25.815 I1.18 J30.914
X8.135 Y26.179 I0 J1.008
G2 X27.865 Y26.179 I9.865 J-8.179
G3 X28.641 Y25.815 I0.776 J0.643
X29.859 Y25.837 I0 J33.021
G2 X31.078 Y25.86 I1.219 J-32.998
X35.438 Y21.5 I0 J-4.36
G1 Y19.37
G2 X34.033 Y17.263 I-2.283 J0
G3 X32.628 Y15.156 I0.878 J-2.107
G1 Y14.5
G2 X31.078 Y12.95 I-1.55 J0
G1 X26.689
G2 X9.311 Y12.95 I-8.689 J5.05
G1 X5
G2 X3.45 Y14.5 I0 J1.55
G1 Y21.5
G2 X5 Y23.05 I1.55 J0
G1 X9.311
G2 X26.689 Y23.05 I8.689 J-5.05
G1 X31.078
G2 X32.628 Y21.5 I0 J-1.55
G1 Y15.156
X32.631 Y15.12
X32.641 Y15.085
X38.047 Y0.718
G2 X37.941 Y0.465 I-0.187 J-0.07
G1 X37.883 Y0.44 Z-2.107 F150
X37.827 Y0.415 Z-2.126
X37.777 Y0.393 Z-2.157
X37.733 Y0.373 Z-2.199
X37.698 Y0.358 Z-2.25
X37.663 Y0.342 Z-2.301
X37.619 Y0.323 Z-2.343
X37.568 Y0.3 Z-2.374
X37.513 Y0.276 Z-2.393
X37.455 Y0.25 Z-2.4
X37.444 Y0.245
G2 X33.408 Y-0.923 I-6.313 J14.255 F300
G3 X32.341 Y-1.366 I0.358 J-2.368
G1 X32.231 Y-1.448
G3 X32.841 Y-2.707 I0.42 J-0.574
G1 X34.984 Y-2.11
X35.082 Y-2.074
X35.174 Y-2.025
X37.732 Y-0.405
G3 X38.053 Y0.077 I-0.381 J0.601
G1 X38.496 Y2.688
G3 X37.442 Y3.425 I-0.701 J0.119
G2 X32.247 Y1.801 I-6.314 J11.075
G3 X31.289 Y1.414 I0.164 J-1.787
G2 X26.576 Y-1.446 I-13.289 J16.586
G1 X26.536 Y-1.459
X26.495 Y-1.463
X3.885 Y-1.484
X3.843 Y-1.479
X3.803 Y-1.466
X3.766 Y-1.445
X3.641 Y-1.353
G3 X2.584 Y-0.91 I-1.427 J-1.923
G2 X-1.438 Y0.291 I2.424 J15.462
G3 X-2.39 Y-0.089 I-0.293 J-0.648
X-1.975 Y-1.026 I0.659 J-0.268
G1 X0.578 Y-1.956
X0.656 Y-1.979
X0.735 Y-1.993
X0.816 Y-1.998
X3.346 Y-2.019
X3.438 Y-2.026
X9.047 Y-2.805
G3 X9.432 Y-1.449 I0.098 J0.704
G2 X4.701 Y1.422 I8.568 J19.449
G3 X3.754 Y1.808 I-1.123 J-1.4
G2 X-1.449 Y3.493 I1.251 J12.742
G1 X-1.491 Y3.525
X-1.522 Y3.566
X-1.542 Y3.614
X-1.549 Y3.665
X-1.562 Y35.537
X-1.557 Y35.583
X-1.541 Y35.626
X-1.516 Y35.664
X-1.483 Y35.696
X-1.444 Y35.72
G2 X2.584 Y36.91 I6.391 J-14.22
G3 X3.641 Y37.353 I-0.371 J2.366
G1 X3.765 Y37.444
G3 X3.149 Y38.702 I-0.42 J0.574
G1 X1.005 Y38.088
X0.908 Y38.053
X0.817 Y38.003
X-1.735 Y36.369
G3 X-2.053 Y35.888 I0.384 J-0.599
G1 X-2.496 Y33.266
G3 X-1.438 Y32.532 I0.701 J-0.118
G2 X3.754 Y34.192 I6.388 J-11.032
G3 X4.701 Y34.578 I-0.175 J1.786
G2 X9.428 Y37.448 I13.299 J-16.578
G1 X9.468 Y37.461
X9.509 Y37.465
X32.111 Y37.487
X32.152 Y37.483
X32.192 Y37.47
X32.229 Y37.449
X32.341 Y37.366
G3 X33.408 Y36.923 I1.425 J1.925
G2 X37.438 Y35.745 I-2.338 J-15.475
G3 X38.387 Y36.13 I0.289 J0.65
X37.967 Y37.064 I-0.66 J0.265
G1 X35.413 Y37.979
X35.335 Y38.002
X35.255 Y38.016
X35.174 Y38.021
X32.649 Y38.023
X32.552 Y38.029
X26.957 Y38.803
G3 X26.573 Y37.447 I-0.097 J-0.705
G2 X31.289 Y34.586 I-8.573 J-19.447
G3 X32.247 Y34.199 I1.122 J1.401
G2 X37.445 Y32.555 I-1.173 J-12.749
G1 X37.487 Y32.523
X37.519 Y32.482
X37.539 Y32.433
X37.546 Y32.381
X37.514 Y7.009
X37.509 Y6.965
X37.495 Y6.924
X37.472 Y6.886
X37.441 Y6.855
G2 X31.132 Y4.582 I-6.318 J7.645
G3 X30.245 Y4.242 I0.007 J-1.345
G2 X5.754 Y4.242 I-12.245 J13.758
G3 X4.877 Y4.583 I-0.894 J-1.005
G2 X-1.441 Y6.944 I0.124 J9.963
G1 X-1.471 Y6.976
X-1.493 Y7.013
X-1.507 Y7.054
X-1.512 Y7.097
X-1.513 Y28.926
X-1.508 Y28.97
X-1.494 Y29.011
X-1.472 Y29.048
X-1.442 Y29.079
G2 X4.877 Y31.417 I6.397 J-7.579
G3 X5.754 Y31.758 I-0.017 J1.345
G2 X30.245 Y31.758 I12.246 J-13.758
G3 X31.132 Y31.418 I0.894 J1.005
G2 X37.44 Y29.123 I-0.054 J-9.963
G1 X37.47 Y29.091
X37.493 Y29.053
X37.507 Y29.012
X37.512 Y28.968
X37.47 Y11.342
X37.464 Y11.296
X37.448 Y11.252
G2 X31.078 Y7.357 I-6.362 J3.248
X30.479 Y7.376 I0 J9.595
G3 X29.88 Y7.394 I-0.599 J-9.577
X29.16 Y7.091 I0 J-1.008
G2 X6.84 Y7.091 I-11.16 J10.909
G3 X6.12 Y7.394 I-0.72 J-0.704
X5.56 Y7.377 I0 J-8.969
G2 X5 Y7.359 I-0.56 J8.952
X-1.445 Y11.411 I0 J7.151
G1 X-1.459 Y11.454
X-1.464 Y11.498
X-1.465 Y24.508
X-1.46 Y24.552
X-1.445 Y24.595
G2 X5 Y28.641 I6.435 J-3.095
X5.56 Y28.623 I0 J-8.969
G3 X6.12 Y28.606 I0.56 J8.952
X6.84 Y28.909 I0 J1.007
G2 X29.16 Y28.909 I11.16 J-10.909
G3 X29.88 Y28.606 I0.72 J0.704
X30.479 Y28.624 I0 J9.595
G2 X31.078 Y28.643 I0.599 J-9.577
X37.447 Y24.744 I0 J-7.151
X36.761 Y21.938 I-1.969 J-1.006
G3 X35.438 Y19.37 I1.831 J-2.568
G1 Y14.5
G2 X31.078 Y10.14 I-4.36 J0
X29.859 Y10.163 I0 J33.021
G3 X28.641 Y10.185 I-1.219 J-32.998
X27.865 Y9.821 I0 J-1.007
G2 X8.135 Y9.821 I-9.865 J8.179
G3 X7.359 Y10.185 I-0.776 J-0.643
X6.18 Y10.163 I0 J-30.937
G2 X5 Y10.14 I-1.18 J30.914
X0.64 Y14.5 I0 J4.36
G1 Y21.5
G2 X5 Y25.86 I4.36 J0
X6.18 Y25.837 I0 J-30.937
G3 X7.359 Y25.815 I1.18 J30.914
X8.135 Y26.179 I0 J1.008
G2 X27.865 Y26.179 I9.865 J-8.179
G3 X28.641 Y25.815 I0.776 J0.643
X29.859 Y25.837 I0 J33.021
G2 X31.078 Y25.86 I1.219 J-32.998
X35.438 Y21.5 I0 J-4.36
G1 Y19.37
G2 X34.033 Y17.263 I-2.283 J0
G3 X32.628 Y15.156 I0.878 J-2.107
G1 Y14.5
G2 X31.078 Y12.95 I-1.55 J0
G1 X26.689
G2 X9.311 Y12.95 I-8.689 J5.05
G1 X5
G2 X3.45 Y14.5 I0 J1.55
G1 Y21.5
G2 X5 Y23.05 I1.55 J0
G1 X9.311
G2 X26.689 Y23.05 I8.689 J-5.05
G1 X31.078
G2 X32.628 Y21.5 I0 J-1.55
G1 Y15.156
X32.631 Y15.12
X32.641 Y15.085
X38.047 Y0.718
G2 X37.941 Y0.465 I-0.187 J-0.07
G1 X37.883 Y0.44 Z-2.407 F150
X37.827 Y0.415 Z-2.426
X37.777 Y0.393 Z-2.457
X37.733 Y0.373 Z-2.499
X37.698 Y0.358 Z-2.55
X37.663 Y0.342 Z-2.601
X37.619 Y0.323 Z-2.643
X37.568 Y0.3 Z-2.674
X37.513 Y0.276 Z-2.693
X37.455 Y0.25 Z-2.7
X37.444 Y0.245
G2 X33.408 Y-0.923 I-6.313 J14.255 F300
G3 X32.341 Y-1.366 I0.358 J-2.368
G1 X32.231 Y-1.448
G3 X32.841 Y-2.707 I0.42 J-0.574
G1 X34.984 Y-2.11
X35.082 Y-2.074
X35.174 Y-2.025
X37.732 Y-0.405
G3 X38.053 Y0.077 I-0.381 J0.601
G1 X38.496 Y2.688
G3 X37.442 Y3.425 I-0.701 J0.119
G2 X32.247 Y1.801 I-6.314 J11.075
G3 X31.289 Y1.414 I0.164 J-1.787
G2 X26.576 Y-1.446 I-13.289 J16.586
G1 X26.536 Y-1.459
X26.495 Y-1.463
X3.885 Y-1.484
X3.843 Y-1.479
X3.803 Y-1.466
X3.766 Y-1.445
X3.641 Y-1.353
G3 X2.584 Y-0.91 I-1.427 J-1.923
G2 X-1.438 Y0.291 I2.424 J15.462
G3 X-2.39 Y-0.089 I-0.293 J-0.648
X-1.975 Y-1.026 I0.659 J-0.268
G1 X0.578 Y-1.956
X0.656 Y-1.979
X0.735 Y-1.993
X0.816 Y-1.998
X3.346 Y-2.019
X3.438 Y-2.026
X9.047 Y-2.805
G3 X9.432 Y-1.449 I0.098 J0.704
G2 X4.701 Y1.422 I8.568 J19.449
G3 X3.754 Y1.808 I-1.123 J-1.4
G2 X-1.449 Y3.493 I1.251 J12.742
G1 X-1.491 Y3.525
X-1.522 Y3.566
X-1.542 Y3.614
X-1.549 Y3.665
X-1.562 Y35.537
X-1.557 Y35.583
X-1.541 Y35.626
X-1.516 Y35.664
X-1.483 Y35.696
X-1.444 Y35.72
G2 X2.584 Y36.91 I6.391 J-14.22
G3 X3.641 Y37.353 I-0.371 J2.366
G1 X3.765 Y37.444
G3 X3.149 Y38.702 I-0.42 J0.574
G1 X1.005 Y38.088
X0.908 Y38.053
X0.817 Y38.003
X-1.735 Y36.369
G3 X-2.053 Y35.888 I0.384 J-0.599
G1 X-2.496 Y33.266
G3 X-1.438 Y32.532 I0.701 J-0.118
G2 X3.754 Y34.192 I6.388 J-11.032
G3 X4.701 Y34.578 I-0.175 J1.786
G2 X9.428 Y37.448 I13.299 J-16.578
G1 X9.468 Y37.461
X9.509 Y37.465
X32.111 Y37.487
X32.152 Y37.483
X32.192 Y37.47
X32.229 Y37.449
X32.341 Y37.366
G3 X33.408 Y36.923 I1.425 J1.925
G2 X37.438 Y35.745 I-2.338 J-15.475
G3 X38.387 Y36.13 I0.289 J0.65
X37.967 Y37.064 I-0.66 J0.265
G1 X35.413 Y37.979
X35.335 Y38.002
X35.255 Y38.016
X35.174 Y38.021
X32.649 Y38.023
X32.552 Y38.029
X26.957 Y38.803
G3 X26.573 Y37.447 I-0.097 J-0.705
G2 X31.289 Y34.586 I-8.573 J-19.447
G3 X32.247 Y34.199 I1.122 J1.401
G2 X37.445 Y32.555 I-1.173 J-12.749
G1 X37.487 Y32.523
X37.519 Y32.482
X37.539 Y32.433
X37.546 Y32.381
X37.514 Y7.009
X37.509 Y6.965
X37.495 Y6.924
X37.472 Y6.886
X37.441 Y6.855
G2 X31.132 Y4.582 I-6.318 J7.645
G3 X30.245 Y4.242 I0.007 J-1.345
G2 X5.754 Y4.242 I-12.245 J13.758
G3 X4.877 Y4.583 I-0.894 J-1.005
G2 X-1.441 Y6.944 I0.124 J9.963
G1 X-1.471 Y6.976
X-1.493 Y7.013
X-1.507 Y7.054
X-1.512 Y7.097
X-1.513 Y28.926
X-1.508 Y28.97
X-1.494 Y29.011
X-1.472 Y29.048
X-1.442 Y29.079
G2 X4.877 Y31.417 I6.397 J-7.579
G3 X5.754 Y31.758 I-0.017 J1.345
G2 X30.245 Y31.758 I12.246 J-13.758
G3 X31.132 Y31.418 I0.894 J1.005
G2 X37.44 Y29.123 I-0.054 J-9.963
G1 X37.47 Y29.091
X37.493 Y29.053
X37.507 Y29.012
X37.512 Y28.968
X37.47 Y11.342
X37.464 Y11.296
X37.448 Y11.252
G2 X31.078 Y7.357 I-6.362 J3.248
X30.479 Y7.376 I0 J9.595
G3 X29.88 Y7.394 I-0.599 J-9.577
X29.16 Y7.091 I0 J-1.008
G2 X6.84 Y7.091 I-11.16 J10.909
G3 X6.12 Y7.394 I-0.72 J-0.704
X5.56 Y7.377 I0 J-8.969
G2 X5 Y7.359 I-0.56 J8.952
X-1.445 Y11.411 I0 J7.151
G1 X-1.459 Y11.454
X-1.464 Y11.498
X-1.465 Y24.508
X-1.46 Y24.552
X-1.445 Y24.595
G2 X5 Y28.641 I6.435 J-3.095
X5.56 Y28.623 I0 J-8.969
G3 X6.12 Y28.606 I0.56 J8.952
X6.84 Y28.909 I0 J1.007
G2 X29.16 Y28.909 I11.16 J-10.909
G3 X29.88 Y28.606 I0.72 J0.704
X30.479 Y28.624 I0 J9.595
G2 X31.078 Y28.643 I0.599 J-9.577
X37.447 Y24.744 I0 J-7.151
X36.761 Y21.938 I-1.969 J-1.006
G3 X35.438 Y19.37 I1.831 J-2.568
G1 Y14.5
G2 X31.078 Y10.14 I-4.36 J0
X29.859 Y10.163 I0 J33.021
G3 X28.641 Y10.185 I-1.219 J-32.998
X27.865 Y9.821 I0 J-1.007
G2 X8.135 Y9.821 I-9.865 J8.179
G3 X7.359 Y10.185 I-0.776 J-0.643
X6.18 Y10.163 I0 J-30.937
G2 X5 Y10.14 I-1.18 J30.914
X0.64 Y14.5 I0 J4.36
G1 Y21.5
G2 X5 Y25.86 I4.36 J0
X6.18 Y25.837 I0 J-30.937
G3 X7.359 Y25.815 I1.18 J30.914
X8.135 Y26.179 I0 J1.008
G2 X27.865 Y26.179 I9.865 J-8.179
G3 X28.641 Y25.815 I0.776 J0.643
X29.859 Y25.837 I0 J33.021
G2 X31.078 Y25.86 I1.219 J-32.998
X35.438 Y21.5 I0 J-4.36
G1 Y19.37
G2 X34.033 Y17.263 I-2.283 J0
G3 X32.628 Y15.156 I0.878 J-2.107
G1 Y14.5
G2 X31.078 Y12.95 I-1.55 J0
G1 X26.689
G2 X9.311 Y12.95 I-8.689 J5.05
G1 X5
G2 X3.45 Y14.5 I0 J1.55
G1 Y21.5
G2 X5 Y23.05 I1.55 J0
G1 X9.311
G2 X26.689 Y23.05 I8.689 J-5.05
G1 X31.078
G2 X32.628 Y21.5 I0 J-1.55
G1 Y15.156
X32.631 Y15.12
X32.641 Y15.085
X38.047 Y0.718
G2 X37.941 Y0.465 I-0.187 J-0.07
G1 X37.883 Y0.44 Z-2.707 F150
X37.827 Y0.415 Z-2.726
X37.777 Y0.393 Z-2.757
X37.733 Y0.373 Z-2.799
X37.698 Y0.358 Z-2.85
X37.663 Y0.342 Z-2.901
X37.619 Y0.323 Z-2.943
X37.568 Y0.3 Z-2.974
X37.513 Y0.276 Z-2.993
X37.455 Y0.25 Z-3
X37.444 Y0.245
G2 X33.408 Y-0.923 I-6.313 J14.255 F300
G3 X32.341 Y-1.366 I0.358 J-2.368
G1 X32.231 Y-1.448
G3 X32.841 Y-2.707 I0.42 J-0.574
G1 X34.984 Y-2.11
X35.082 Y-2.074
X35.174 Y-2.025
X37.732 Y-0.405
G3 X38.053 Y0.077 I-0.381 J0.601
G1 X38.496 Y2.688
G3 X37.442 Y3.425 I-0.701 J0.119
G2 X32.247 Y1.801 I-6.314 J11.075
G3 X31.289 Y1.414 I0.164 J-1.787
G2 X26.576 Y-1.446 I-13.289 J16.586
G1 X26.536 Y-1.459
X26.495 Y-1.463
X3.885 Y-1.484
X3.843 Y-1.479
X3.803 Y-1.466
X3.766 Y-1.445
X3.641 Y-1.353
G3 X2.584 Y-0.91 I-1.427 J-1.923
G2 X-1.438 Y0.291 I2.424 J15.462
G3 X-2.39 Y-0.089 I-0.293 J-0.648
X-1.975 Y-1.026 I0.659 J-0.268
G1 X0.578 Y-1.956
X0.656 Y-1.979
X0.735 Y-1.993
X0.816 Y-1.998
X3.346 Y-2.019
X3.438 Y-2.026
X9.047 Y-2.805
G3 X9.432 Y-1.449 I0.098 J0.704
G2 X4.701 Y1.422 I8.568 J19.449
G3 X3.754 Y1.808 I-1.123 J-1.4
G2 X-1.449 Y3.493 I1.251 J12.742
G1 X-1.491 Y3.525
X-1.522 Y3.566
X-1.542 Y3.614
X-1.549 Y3.665
X-1.562 Y35.537
X-1.557 Y35.583
X-1.541 Y35.626
X-1.516 Y35.664
X-1.483 Y35.696
X-1.444 Y35.72
G2 X2.584 Y36.91 I6.391 J-14.22
G3 X3.641 Y37.353 I-0.371 J2.366
G1 X3.765 Y37.444
G3 X3.149 Y38.702 I-0.42 J0.574
G1 X1.005 Y38.088
X0.908 Y38.053
X0.817 Y38.003
X-1.735 Y36.369
G3 X-2.053 Y35.888 I0.384 J-0.599
G1 X-2.496 Y33.266
G3 X-1.438 Y32.532 I0.701 J-0.118
G2 X3.754 Y34.192 I6.388 J-11.032
G3 X4.701 Y34.578 I-0.175 J1.786
G2 X9.428 Y37.448 I13.299 J-16.578
G1 X9.468 Y37.461
X9.509 Y37.465
X32.111 Y37.487
X32.152 Y37.483
X32.192 Y37.47
X32.229 Y37.449
X32.341 Y37.366
G3 X33.408 Y36.923 I1.425 J1.925
G2 X37.438 Y35.745 I-2.338 J-15.475
G3 X38.387 Y36.13 I0.289 J0.65
X37.967 Y37.064 I-0.66 J0.265
G1 X35.413 Y37.979
X35.335 Y38.002
X35.255 Y38.016
X35.174 Y38.021
X32.649 Y38.023
X32.552 Y38.029
X26.957 Y38.803
G3 X26.573 Y37.447 I-0.097 J-0.705
G2 X31.289 Y34.586 I-8.573 J-19.447
G3 X32.247 Y34.199 I1.122 J1.401
G2 X37.445 Y32.555 I-1.173 J-12.749
G1 X37.487 Y32.523
X37.519 Y32.482
X37.539 Y32.433
X37.546 Y32.381
X37.514 Y7.009
X37.509 Y6.965
X37.495 Y6.924
X37.472 Y6.886
X37.441 Y6.855
G2 X31.132 Y4.582 I-6.318 J7.645
G3 X30.245 Y4.242 I0.007 J-1.345
G2 X5.754 Y4.242 I-12.245 J13.758
G3 X4.877 Y4.583 I-0.894 J-1.005
G2 X-1.441 Y6.944 I0.124 J9.963
G1 X-1.471 Y6.976
X-1.493 Y7.013
X-1.507 Y7.054
X-1.512 Y7.097
X-1.513 Y28.926
X-1.508 Y28.97
X-1.494 Y29.011
X-1.472 Y29.048
X-1.442 Y29.079
G2 X4.877 Y31.417 I6.397 J-7.579
G3 X5.754 Y31.758 I-0.017 J1.345
G2 X30.245 Y31.758 I12.246 J-13.758
G3 X31.132 Y31.418 I0.894 J1.005
G2 X37.44 Y29.123 I-0.054 J-9.963
G1 X37.47 Y29.091
X37.493 Y29.053
X37.507 Y29.012
X37.512 Y28.968
X37.47 Y11.342
X37.464 Y11.296
X37.448 Y11.252
G2 X31.078 Y7.357 I-6.362 J3.248
X30.479 Y7.376 I0 J9.595
G3 X29.88 Y7.394 I-0.599 J-9.577
X29.16 Y7.091 I0 J-1.008
G2 X6.84 Y7.091 I-11.16 J10.909
G3 X6.12 Y7.394 I-0.72 J-0.704
X5.56 Y7.377 I0 J-8.969
G2 X5 Y7.359 I-0.56 J8.952
X-1.445 Y11.411 I0 J7.151
G1 X-1.459 Y11.454
X-1.464 Y11.498
X-1.465 Y24.508
X-1.46 Y24.552
X-1.445 Y24.595
G2 X5 Y28.641 I6.435 J-3.095
X5.56 Y28.623 I0 J-8.969
G3 X6.12 Y28.606 I0.56 J8.952
X6.84 Y28.909 I0 J1.007
G2 X29.16 Y28.909 I11.16 J-10.909
G3 X29.88 Y28.606 I0.72 J0.704
X30.479 Y28.624 I0 J9.595
G2 X31.078 Y28.643 I0.599 J-9.577
X37.447 Y24.744 I0 J-7.151
X36.761 Y21.938 I-1.969 J-1.006
G3 X35.438 Y19.37 I1.831 J-2.568
G1 Y14.5
G2 X31.078 Y10.14 I-4.36 J0
X29.859 Y10.163 I0 J33.021
G3 X28.641 Y10.185 I-1.219 J-32.998
X27.865 Y9.821 I0 J-1.007
G2 X8.135 Y9.821 I-9.865 J8.179
G3 X7.359 Y10.185 I-0.776 J-0.643
X6.18 Y10.163 I0 J-30.937
G2 X5 Y10.14 I-1.18 J30.914
X0.64 Y14.5 I0 J4.36
G1 Y21.5
G2 X5 Y25.86 I4.36 J0
X6.18 Y25.837 I0 J-30.937
G3 X7.359 Y25.815 I1.18 J30.914
X8.135 Y26.179 I0 J1.008
G2 X27.865 Y26.179 I9.865 J-8.179
G3 X28.641 Y25.815 I0.776 J0.643
X29.859 Y25.837 I0 J33.021
G2 X31.078 Y25.86 I1.219 J-32.998
X35.438 Y21.5 I0 J-4.36
G1 Y19.37
G2 X34.033 Y17.263 I-2.283 J0
G3 X32.628 Y15.156 I0.878 J-2.107
G1 Y14.5
G2 X31.078 Y12.95 I-1.55 J0
G1 X26.689
G2 X9.311 Y12.95 I-8.689 J5.05
G1 X5
G2 X3.45 Y14.5 I0 J1.55
G1 Y21.5
G2 X5 Y23.05 I1.55 J0
G1 X9.311
G2 X26.689 Y23.05 I8.689 J-5.05
G1 X31.078
G2 X32.628 Y21.5 I0 J-1.55
G1 Y15.156
X32.631 Y15.12
X32.641 Y15.085
X38.047 Y0.718
G2 X37.941 Y0.465 I-0.187 J-0.07
G1 X37.883 Y0.44 Z-3.007 F150
X37.827 Y0.415 Z-3.026
X37.777 Y0.393 Z-3.057
X37.733 Y0.373 Z-3.099
X37.698 Y0.358 Z-3.15
X37.663 Y0.342 Z-3.201
X37.619 Y0.323 Z-3.243
X37.568 Y0.3 Z-3.274
X37.513 Y0.276 Z-3.293
X37.455 Y0.25 Z-3.3
X37.444 Y0.245
G2 X33.408 Y-0.923 I-6.313 J14.255 F300
G3 X32.341 Y-1.366 I0.358 J-2.368
G1 X32.231 Y-1.448
G3 X32.841 Y-2.707 I0.42 J-0.574
G1 X34.984 Y-2.11
X35.082 Y-2.074
X35.174 Y-2.025
X37.732 Y-0.405
G3 X38.053 Y0.077 I-0.381 J0.601
G1 X38.496 Y2.688
G3 X37.442 Y3.425 I-0.701 J0.119
G2 X32.247 Y1.801 I-6.314 J11.075
G3 X31.289 Y1.414 I0.164 J-1.787
G2 X26.576 Y-1.446 I-13.289 J16.586
G1 X26.536 Y-1.459
X26.495 Y-1.463
X3.885 Y-1.484
X3.843 Y-1.479
X3.803 Y-1.466
X3.766 Y-1.445
X3.641 Y-1.353
G3 X2.584 Y-0.91 I-1.427 J-1.923
G2 X-1.438 Y0.291 I2.424 J15.462
G3 X-2.39 Y-0.089 I-0.293 J-0.648
X-1.975 Y-1.026 I0.659 J-0.268
G1 X0.578 Y-1.956
X0.656 Y-1.979
X0.735 Y-1.993
X0.816 Y-1.998
X3.346 Y-2.019
X3.438 Y-2.026
X9.047 Y-2.805
G3 X9.432 Y-1.449 I0.098 J0.704
G2 X4.701 Y1.422 I8.568 J19.449
G3 X3.754 Y1.808 I-1.123 J-1.4
G2 X-1.449 Y3.493 I1.251 J12.742
G1 X-1.491 Y3.525
X-1.522 Y3.566
X-1.542 Y3.614
X-1.549 Y3.665
X-1.562 Y35.537
X-1.557 Y35.583
X-1.541 Y35.626
X-1.516 Y35.664
X-1.483 Y35.696
X-1.444 Y35.72
G2 X2.584 Y36.91 I6.391 J-14.22
G3 X3.641 Y37.353 I-0.371 J2.366
G1 X3.765 Y37.444
G3 X3.149 Y38.702 I-0.42 J0.574
G1 X1.005 Y38.088
X0.908 Y38.053
X0.817 Y38.003
X-1.735 Y36.369
G3 X-2.053 Y35.888 I0.384 J-0.599
G1 X-2.496 Y33.266
G3 X-1.438 Y32.532 I0.701 J-0.118
G2 X3.754 Y34.192 I6.388 J-11.032
G3 X4.701 Y34.578 I-0.175 J1.786
G2 X9.428 Y37.448 I13.299 J-16.578
G1 X9.468 Y37.461
X9.509 Y37.465
X32.111 Y37.487
X32.152 Y37.483
X32.192 Y37.47
X32.229 Y37.449
X32.341 Y37.366
G3 X33.408 Y36.923 I1.425 J1.925
G2 X37.438 Y35.745 I-2.338 J-15.475
G3 X38.387 Y36.13 I0.289 J0.65
X37.967 Y37.064 I-0.66 J0.265
G1 X35.413 Y37.979
X35.335 Y38.002
X35.255 Y38.016
X35.174 Y38.021
X32.649 Y38.023
X32.552 Y38.029
X26.957 Y38.803
G3 X26.573 Y37.447 I-0.097 J-0.705
G2 X31.289 Y34.586 I-8.573 J-19.447
G3 X32.247 Y34.199 I1.122 J1.401
G2 X37.445 Y32.555 I-1.173 J-12.749
G1 X37.487 Y32.523
X37.519 Y32.482
X37.539 Y32.433
X37.546 Y32.381
X37.514 Y7.009
X37.509 Y6.965
X37.495 Y6.924
X37.472 Y6.886
X37.441 Y6.855
G2 X31.132 Y4.582 I-6.318 J7.645
G3 X30.245 Y4.242 I0.007 J-1.345
G2 X5.754 Y4.242 I-12.245 J13.758
G3 X4.877 Y4.583 I-0.894 J-1.005
G2 X-1.441 Y6.944 I0.124 J9.963
G1 X-1.471 Y6.976
X-1.493 Y7.013
X-1.507 Y7.054
X-1.512 Y7.097
X-1.513 Y28.926
X-1.508 Y28.97
X-1.494 Y29.011
X-1.472 Y29.048
X-1.442 Y29.079
G2 X4.877 Y31.417 I6.397 J-7.579
G3 X5.754 Y31.758 I-0.017 J1.345
G2 X30.245 Y31.758 I12.246 J-13.758
G3 X31.132 Y31.418 I0.894 J1.005
G2 X37.44 Y29.123 I-0.054 J-9.963
G1 X37.47 Y29.091
X37.493 Y29.053
X37.507 Y29.012
X37.512 Y28.968
X37.47 Y11.342
X37.464 Y11.296
X37.448 Y11.252
G2 X31.078 Y7.357 I-6.362 J3.248
X30.479 Y7.376 I0 J9.595
G3 X29.88 Y7.394 I-0.599 J-9.577
X29.16 Y7.091 I0 J-1.008
G2 X6.84 Y7.091 I-11.16 J10.909
G3 X6.12 Y7.394 I-0.72 J-0.704
X5.56 Y7.377 I0 J-8.969
G2 X5 Y7.359 I-0.56 J8.952
X-1.445 Y11.411 I0 J7.151
G1 X-1.459 Y11.454
X-1.464 Y11.498
X-1.465 Y24.508
X-1.46 Y24.552
X-1.445 Y24.595
G2 X5 Y28.641 I6.435 J-3.095
X5.56 Y28.623 I0 J-8.969
G3 X6.12 Y28.606 I0.56 J8.952
X6.84 Y28.909 I0 J1.007
G2 X29.16 Y28.909 I11.16 J-10.909
G3 X29.88 Y28.606 I0.72 J0.704
X30.479 Y28.624 I0 J9.595
G2 X31.078 Y28.643 I0.599 J-9.577
X37.447 Y24.744 I0 J-7.151
X36.761 Y21.938 I-1.969 J-1.006
G3 X35.438 Y19.37 I1.831 J-2.568
G1 Y14.5
G2 X31.078 Y10.14 I-4.36 J0
X29.859 Y10.163 I0 J33.021
G3 X28.641 Y10.185 I-1.219 J-32.998
X27.865 Y9.821 I0 J-1.007
G2 X8.135 Y9.821 I-9.865 J8.179
G3 X7.359 Y10.185 I-0.776 J-0.643
X6.18 Y10.163 I0 J-30.937
G2 X5 Y10.14 I-1.18 J30.914
X0.64 Y14.5 I0 J4.36
G1 Y21.5
G2 X5 Y25.86 I4.36 J0
X6.18 Y25.837 I0 J-30.937
G3 X7.359 Y25.815 I1.18 J30.914
X8.135 Y26.179 I0 J1.008
G2 X27.865 Y26.179 I9.865 J-8.179
G3 X28.641 Y25.815 I0.776 J0.643
X29.859 Y25.837 I0 J33.021
G2 X31.078 Y25.86 I1.219 J-32.998
X35.438 Y21.5 I0 J-4.36
G1 Y19.37
G2 X34.033 Y17.263 I-2.283 J0
G3 X32.628 Y15.156 I0.878 J-2.107
G1 Y14.5
G2 X31.078 Y12.95 I-1.55 J0
G1 X26.689
G2 X9.311 Y12.95 I-8.689 J5.05
G1 X5
G2 X3.45 Y14.5 I0 J1.55
G1 Y21.5
G2 X5 Y23.05 I1.55 J0
G1 X9.311
G2 X26.689 Y23.05 I8.689 J-5.05
G1 X31.078
G2 X32.628 Y21.5 I0 J-1.55
G1 Y15.156
X32.631 Y15.12
X32.641 Y15.085
X38.047 Y0.718
G2 X37.941 Y0.465 I-0.187 J-0.07
G1 X37.883 Y0.44 Z-3.307 F150
X37.827 Y0.415 Z-3.326
X37.777 Y0.393 Z-3.357
X37.733 Y0.373 Z-3.399
X37.698 Y0.358 Z-3.45
X37.663 Y0.342 Z-3.501
X37.619 Y0.323 Z-3.543
X37.568 Y0.3 Z-3.574
X37.513 Y0.276 Z-3.593
X37.455 Y0.25 Z-3.6
X37.444 Y0.245
G2 X33.408 Y-0.923 I-6.313 J14.255 F300
G3 X32.341 Y-1.366 I0.358 J-2.368
G1 X32.231 Y-1.448
G3 X32.841 Y-2.707 I0.42 J-0.574
G1 X34.984 Y-2.11
X35.082 Y-2.074
X35.174 Y-2.025
X37.732 Y-0.405
G3 X38.053 Y0.077 I-0.381 J0.601
G1 X38.496 Y2.688
G3 X37.442 Y3.425 I-0.701 J0.119
G2 X32.247 Y1.801 I-6.314 J11.075
G3 X31.289 Y1.414 I0.164 J-1.787
G2 X26.576 Y-1.446 I-13.289 J16.586
G1 X26.536 Y-1.459
X26.495 Y-1.463
X3.885 Y-1.484
X3.843 Y-1.479
X3.803 Y-1.466
X3.766 Y-1.445
X3.641 Y-1.353
G3 X2.584 Y-0.91 I-1.427 J-1.923
G2 X-1.438 Y0.291 I2.424 J15.462
G3 X-2.39 Y-0.089 I-0.293 J-0.648
X-1.975 Y-1.026 I0.659 J-0.268
G1 X0.578 Y-1.956
X0.656 Y-1.979
X0.735 Y-1.993
X0.816 Y-1.998
X3.346 Y-2.019
X3.438 Y-2.026
X9.047 Y-2.805
G3 X9.432 Y-1.449 I0.098 J0.704
G2 X4.701 Y1.422 I8.568 J19.449
G3 X3.754 Y1.808 I-1.123 J-1.4
G2 X-1.449 Y3.493 I1.251 J12.742
G1 X-1.491 Y3.525
X-1.522 Y3.566
X-1.542 Y3.614
X-1.549 Y3.665
X-1.562 Y35.537
X-1.557 Y35.583
X-1.541 Y35.626
X-1.516 Y35.664
X-1.483 Y35.696
X-1.444 Y35.72
G2 X2.584 Y36.91 I6.391 J-14.22
G3 X3.641 Y37.353 I-0.371 J2.366
G1 X3.765 Y37.444
G3 X3.149 Y38.702 I-0.42 J0.574
G1 X1.005 Y38.088
X0.908 Y38.053
X0.817 Y38.003
X-1.735 Y36.369
G3 X-2.053 Y35.888 I0.384 J-0.599
G1 X-2.496 Y33.266
G3 X-1.438 Y32.532 I0.701 J-0.118
G2 X3.754 Y34.192 I6.388 J-11.032
G3 X4.701 Y34.578 I-0.175 J1.786
G2 X9.428 Y37.448 I13.299 J-16.578
G1 X9.468 Y37.461
X9.509 Y37.465
X32.111 Y37.487
X32.152 Y37.483
X32.192 Y37.47
X32.229 Y37.449
X32.341 Y37.366
G3 X33.408 Y36.923 I1.425 J1.925
G2 X37.438 Y35.745 I-2.338 J-15.475
G3 X38.387 Y36.13 I0.289 J0.65
X37.967 Y37.064 I-0.66 J0.265
G1 X35.413 Y37.979
X35.335 Y38.002
X35.255 Y38.016
X35.174 Y38.021
X32.649 Y38.023
X32.552 Y38.029
X26.957 Y38.803
G3 X26.573 Y37.447 I-0.097 J-0.705
G2 X31.289 Y34.586 I-8.573 J-19.447
G3 X32.247 Y34.199 I1.122 J1.401
G2 X37.445 Y32.555 I-1.173 J-12.749
G1 X37.487 Y32.523
X37.519 Y32.482
X37.539 Y32.433
X37.546 Y32.381
X37.514 Y7.009
X37.509 Y6.965
X37.495 Y6.924
X37.472 Y6.886
X37.441 Y6.855
G2 X31.132 Y4.582 I-6.318 J7.645
G3 X30.245 Y4.242 I0.007 J-1.345
G2 X5.754 Y4.242 I-12.245 J13.758
G3 X4.877 Y4.583 I-0.894 J-1.005
G2 X-1.441 Y6.944 I0.124 J9.963
G1 X-1.471 Y6.976
X-1.493 Y7.013
X-1.507 Y7.054
X-1.512 Y7.097
X-1.513 Y28.926
X-1.508 Y28.97
X-1.494 Y29.011
X-1.472 Y29.048
X-1.442 Y29.079
G2 X4.877 Y31.417 I6.397 J-7.579
G3 X5.754 Y31.758 I-0.017 J1.345
G2 X30.245 Y31.758 I12.246 J-13.758
G3 X31.132 Y31.418 I0.894 J1.005
G2 X37.44 Y29.123 I-0.054 J-9.963
G1 X37.47 Y29.091
X37.493 Y29.053
X37.507 Y29.012
X37.512 Y28.968
X37.47 Y11.342
X37.464 Y11.296
X37.448 Y11.252
G2 X31.078 Y7.357 I-6.362 J3.248
X30.479 Y7.376 I0 J9.595
G3 X29.88 Y7.394 I-0.599 J-9.577
X29.16 Y7.091 I0 J-1.008
G2 X6.84 Y7.091 I-11.16 J10.909
G3 X6.12 Y7.394 I-0.72 J-0.704
X5.56 Y7.377 I0 J-8.969
G2 X5 Y7.359 I-0.56 J8.952
X-1.445 Y11.411 I0 J7.151
G1 X-1.459 Y11.454
X-1.464 Y11.498
X-1.465 Y24.508
X-1.46 Y24.552
X-1.445 Y24.595
G2 X5 Y28.641 I6.435 J-3.095
X5.56 Y28.623 I0 J-8.969
G3 X6.12 Y28.606 I0.56 J8.952
X6.84 Y28.909 I0 J1.007
G2 X29.16 Y28.909 I11.16 J-10.909
G3 X29.88 Y28.606 I0.72 J0.704
X30.479 Y28.624 I0 J9.595
G2 X31.078 Y28.643 I0.599 J-9.577
X37.447 Y24.744 I0 J-7.151
X36.761 Y21.938 I-1.969 J-1.006
G3 X35.438 Y19.37 I1.831 J-2.568
G1 Y14.5
G2 X31.078 Y10.14 I-4.36 J0
X29.859 Y10.163 I0 J33.021
G3 X28.641 Y10.185 I-1.219 J-32.998
X27.865 Y9.821 I0 J-1.007
G2 X8.135 Y9.821 I-9.865 J8.179
G3 X7.359 Y10.185 I-0.776 J-0.643
X6.18 Y10.163 I0 J-30.937
G2 X5 Y10.14 I-1.18 J30.914
X0.64 Y14.5 I0 J4.36
G1 Y21.5
G2 X5 Y25.86 I4.36 J0
X6.18 Y25.837 I0 J-30.937
G3 X7.359 Y25.815 I1.18 J30.914
X8.135 Y26.179 I0 J1.008
G2 X27.865 Y26.179 I9.865 J-8.179
G3 X28.641 Y25.815 I0.776 J0.643
X29.859 Y25.837 I0 J33.021
G2 X31.078 Y25.86 I1.219 J-32.998
X35.438 Y21.5 I0 J-4.36
G1 Y19.37
G2 X34.033 Y17.263 I-2.283 J0
G3 X32.628 Y15.156 I0.878 J-2.107
G1 Y14.5
G2 X31.078 Y12.95 I-1.55 J0
G1 X26.689
G2 X9.311 Y12.95 I-8.689 J5.05
G1 X5
G2 X3.45 Y14.5 I0 J1.55
G1 Y21.5
G2 X5 Y23.05 I1.55 J0
G1 X9.311
G2 X26.689 Y23.05 I8.689 J-5.05
G1 X31.078
G2 X32.628 Y21.5 I0 J-1.55
G1 Y15.156
X32.631 Y15.12
X32.641 Y15.085
X38.047 Y0.718
G2 X37.941 Y0.465 I-0.187 J-0.07
G1 X37.883 Y0.44 Z-3.607 F150
X37.827 Y0.415 Z-3.626
X37.777 Y0.393 Z-3.657
X37.733 Y0.373 Z-3.699
X37.698 Y0.358 Z-3.75
X37.663 Y0.342 Z-3.801
X37.619 Y0.323 Z-3.843
X37.568 Y0.3 Z-3.874
X37.513 Y0.276 Z-3.893
X37.455 Y0.25 Z-3.9
X37.444 Y0.245
G2 X33.408 Y-0.923 I-6.313 J14.255 F300
G3 X32.341 Y-1.366 I0.358 J-2.368
G1 X32.231 Y-1.448
G3 X32.841 Y-2.707 I0.42 J-0.574
G1 X34.984 Y-2.11
X35.082 Y-2.074
X35.174 Y-2.025
X37.732 Y-0.405
G3 X38.053 Y0.077 I-0.381 J0.601
G1 X38.496 Y2.688
G3 X37.442 Y3.425 I-0.701 J0.119
G2 X32.247 Y1.801 I-6.314 J11.075
G3 X31.289 Y1.414 I0.164 J-1.787
G2 X26.576 Y-1.446 I-13.289 J16.586
G1 X26.536 Y-1.459
X26.495 Y-1.463
X3.885 Y-1.484
X3.843 Y-1.479
X3.803 Y-1.466
X3.766 Y-1.445
X3.641 Y-1.353
G3 X2.584 Y-0.91 I-1.427 J-1.923
G2 X-1.438 Y0.291 I2.424 J15.462
G3 X-2.39 Y-0.089 I-0.293 J-0.648
X-1.975 Y-1.026 I0.659 J-0.268
G1 X0.578 Y-1.956
X0.656 Y-1.979
X0.735 Y-1.993
X0.816 Y-1.998
X3.346 Y-2.019
X3.438 Y-2.026
X9.047 Y-2.805
G3 X9.432 Y-1.449 I0.098 J0.704
G2 X4.701 Y1.422 I8.568 J19.449
G3 X3.754 Y1.808 I-1.123 J-1.4
G2 X-1.449 Y3.493 I1.251 J12.742
G1 X-1.491 Y3.525
X-1.522 Y3.566
X-1.542 Y3.614
X-1.549 Y3.665
X-1.562 Y35.537
X-1.557 Y35.583
X-1.541 Y35.626
X-1.516 Y35.664
X-1.483 Y35.696
X-1.444 Y35.72
G2 X2.584 Y36.91 I6.391 J-14.22
G3 X3.641 Y37.353 I-0.371 J2.366
G1 X3.765 Y37.444
G3 X3.149 Y38.702 I-0.42 J0.574
G1 X1.005 Y38.088
X0.908 Y38.053
X0.817 Y38.003
X-1.735 Y36.369
G3 X-2.053 Y35.888 I0.384 J-0.599
G1 X-2.496 Y33.266
G3 X-1.438 Y32.532 I0.701 J-0.118
G2 X3.754 Y34.192 I6.388 J-11.032
G3 X4.701 Y34.578 I-0.175 J1.786
G2 X9.428 Y37.448 I13.299 J-16.578
G1 X9.468 Y37.461
X9.509 Y37.465
X32.111 Y37.487
X32.152 Y37.483
X32.192 Y37.47
X32.229 Y37.449
X32.341 Y37.366
G3 X33.408 Y36.923 I1.425 J1.925
G2 X37.438 Y35.745 I-2.338 J-15.475
G3 X38.387 Y36.13 I0.289 J0.65
X37.967 Y37.064 I-0.66 J0.265
G1 X35.413 Y37.979
X35.335 Y38.002
X35.255 Y38.016
X35.174 Y38.021
X32.649 Y38.023
X32.552 Y38.029
X26.957 Y38.803
G3 X26.573 Y37.447 I-0.097 J-0.705
G2 X31.289 Y34.586 I-8.573 J-19.447
G3 X32.247 Y34.199 I1.122 J1.401
G2 X37.445 Y32.555 I-1.173 J-12.749
G1 X37.487 Y32.523
X37.519 Y32.482
X37.539 Y32.433
X37.546 Y32.381
X37.514 Y7.009
X37.509 Y6.965
X37.495 Y6.924
X37.472 Y6.886
X37.441 Y6.855
G2 X31.132 Y4.582 I-6.318 J7.645
G3 X30.245 Y4.242 I0.007 J-1.345
G2 X5.754 Y4.242 I-12.245 J13.758
G3 X4.877 Y4.583 I-0.894 J-1.005
G2 X-1.441 Y6.944 I0.124 J9.963
G1 X-1.471 Y6.976
X-1.493 Y7.013
X-1.507 Y7.054
X-1.512 Y7.097
X-1.513 Y28.926
X-1.508 Y28.97
X-1.494 Y29.011
X-1.472 Y29.048
X-1.442 Y29.079
G2 X4.877 Y31.417 I6.397 J-7.579
G3 X5.754 Y31.758 I-0.017 J1.345
G2 X30.245 Y31.758 I12.246 J-13.758
G3 X31.132 Y31.418 I0.894 J1.005
G2 X37.44 Y29.123 I-0.054 J-9.963
G1 X37.47 Y29.091
X37.493 Y29.053
X37.507 Y29.012
X37.512 Y28.968
X37.47 Y11.342
X37.464 Y11.296
X37.448 Y11.252
G2 X31.078 Y7.357 I-6.362 J3.248
X30.479 Y7.376 I0 J9.595
G3 X29.88 Y7.394 I-0.599 J-9.577
X29.16 Y7.091 I0 J-1.008
G2 X6.84 Y7.091 I-11.16 J10.909
G3 X6.12 Y7.394 I-0.72 J-0.704
X5.56 Y7.377 I0 J-8.969
G2 X5 Y7.359 I-0.56 J8.952
X-1.445 Y11.411 I0 J7.151
G1 X-1.459 Y11.454
X-1.464 Y11.498
X-1.465 Y24.508
X-1.46 Y24.552
X-1.445 Y24.595
G2 X5 Y28.641 I6.435 J-3.095
X5.56 Y28.623 I0 J-8.969
G3 X6.12 Y28.606 I0.56 J8.952
X6.84 Y28.909 I0 J1.007
G2 X29.16 Y28.909 I11.16 J-10.909
G3 X29.88 Y28.606 I0.72 J0.704
X30.479 Y28.624 I0 J9.595
G2 X31.078 Y28.643 I0.599 J-9.577
X37.447 Y24.744 I0 J-7.151
X36.761 Y21.938 I-1.969 J-1.006
G3 X35.438 Y19.37 I1.831 J-2.568
G1 Y14.5
G2 X31.078 Y10.14 I-4.36 J0
X29.859 Y10.163 I0 J33.021
G3 X28.641 Y10.185 I-1.219 J-32.998
X27.865 Y9.821 I0 J-1.007
G2 X8.135 Y9.821 I-9.865 J8.179
G3 X7.359 Y10.185 I-0.776 J-0.643
X6.18 Y10.163 I0 J-30.937
G2 X5 Y10.14 I-1.18 J30.914
X0.64 Y14.5 I0 J4.36
G1 Y21.5
G2 X5 Y25.86 I4.36 J0
X6.18 Y25.837 I0 J-30.937
G3 X7.359 Y25.815 I1.18 J30.914
X8.135 Y26.179 I0 J1.008
G2 X27.865 Y26.179 I9.865 J-8.179
G3 X28.641 Y25.815 I0.776 J0.643
X29.859 Y25.837 I0 J33.021
G2 X31.078 Y25.86 I1.219 J-32.998
X35.438 Y21.5 I0 J-4.36
G1 Y19.37
G2 X34.033 Y17.263 I-2.283 J0
G3 X32.628 Y15.156 I0.878 J-2.107
G1 Y14.5
G2 X31.078 Y12.95 I-1.55 J0
G1 X26.689
G2 X9.311 Y12.95 I-8.689 J5.05
G1 X5
G2 X3.45 Y14.5 I0 J1.55
G1 Y21.5
G2 X5 Y23.05 I1.55 J0
G1 X9.311
G2 X26.689 Y23.05 I8.689 J-5.05
G1 X31.078
G2 X32.628 Y21.5 I0 J-1.55
G1 Y15.156
X32.631 Y15.12
X32.641 Y15.085
X38.047 Y0.718
G2 X37.941 Y0.465 I-0.187 J-0.07
G1 X37.883 Y0.44 Z-3.907 F150
X37.827 Y0.415 Z-3.926
X37.777 Y0.393 Z-3.957
X37.733 Y0.373 Z-3.999
X37.698 Y0.358 Z-4.05
X37.663 Y0.342 Z-4.101
X37.619 Y0.323 Z-4.143
X37.568 Y0.3 Z-4.174
X37.513 Y0.276 Z-4.193
X37.455 Y0.25 Z-4.2
X37.444 Y0.245
G2 X33.408 Y-0.923 I-6.313 J14.255 F300
G3 X32.341 Y-1.366 I0.358 J-2.368
G1 X32.231 Y-1.448
G3 X32.841 Y-2.707 I0.42 J-0.574
G1 X34.984 Y-2.11
X35.082 Y-2.074
X35.174 Y-2.025
X37.732 Y-0.405
G3 X38.053 Y0.077 I-0.381 J0.601
G1 X38.496 Y2.688
G3 X37.442 Y3.425 I-0.701 J0.119
G2 X32.247 Y1.801 I-6.314 J11.075
G3 X31.289 Y1.414 I0.164 J-1.787
G2 X26.576 Y-1.446 I-13.289 J16.586
G1 X26.536 Y-1.459
X26.495 Y-1.463
X3.885 Y-1.484
X3.843 Y-1.479
X3.803 Y-1.466
X3.766 Y-1.445
X3.641 Y-1.353
G3 X2.584 Y-0.91 I-1.427 J-1.923
G2 X-1.438 Y0.291 I2.424 J15.462
G3 X-2.39 Y-0.089 I-0.293 J-0.648
X-1.975 Y-1.026 I0.659 J-0.268
G1 X0.578 Y-1.956
X0.656 Y-1.979
X0.735 Y-1.993
X0.816 Y-1.998
X3.346 Y-2.019
X3.438 Y-2.026
X9.047 Y-2.805
G3 X9.432 Y-1.449 I0.098 J0.704
G2 X4.701 Y1.422 I8.568 J19.449
G3 X3.754 Y1.808 I-1.123 J-1.4
G2 X-1.449 Y3.493 I1.251 J12.742
G1 X-1.491 Y3.525
X-1.522 Y3.566
X-1.542 Y3.614
X-1.549 Y3.665
X-1.562 Y35.537
X-1.557 Y35.583
X-1.541 Y35.626
X-1.516 Y35.664
X-1.483 Y35.696
X-1.444 Y35.72
G2 X2.584 Y36.91 I6.391 J-14.22
G3 X3.641 Y37.353 I-0.371 J2.366
G1 X3.765 Y37.444
G3 X3.149 Y38.702 I-0.42 J0.574
G1 X1.005 Y38.088
X0.908 Y38.053
X0.817 Y38.003
X-1.735 Y36.369
G3 X-2.053 Y35.888 I0.384 J-0.599
G1 X-2.496 Y33.266
G3 X-1.438 Y32.532 I0.701 J-0.118
G2 X3.754 Y34.192 I6.388 J-11.032
G3 X4.701 Y34.578 I-0.175 J1.786
G2 X9.428 Y37.448 I13.299 J-16.578
G1 X9.468 Y37.461
X9.509 Y37.465
X32.111 Y37.487
X32.152 Y37.483
X32.192 Y37.47
X32.229 Y37.449
X32.341 Y37.366
G3 X33.408 Y36.923 I1.425 J1.925
G2 X37.438 Y35.745 I-2.338 J-15.475
G3 X38.387 Y36.13 I0.289 J0.65
X37.967 Y37.064 I-0.66 J0.265
G1 X35.413 Y37.979
X35.335 Y38.002
X35.255 Y38.016
X35.174 Y38.021
X32.649 Y38.023
X32.552 Y38.029
X26.957 Y38.803
G3 X26.573 Y37.447 I-0.097 J-0.705
G2 X31.289 Y34.586 I-8.573 J-19.447
G3 X32.247 Y34.199 I1.122 J1.401
G2 X37.445 Y32.555 I-1.173 J-12.749
G1 X37.487 Y32.523
X37.519 Y32.482
X37.539 Y32.433
X37.546 Y32.381
X37.514 Y7.009
X37.509 Y6.965
X37.495 Y6.924
X37.472 Y6.886
X37.441 Y6.855
G2 X31.132 Y4.582 I-6.318 J7.645
G3 X30.245 Y4.242 I0.007 J-1.345
G2 X5.754 Y4.242 I-12.245 J13.758
G3 X4.877 Y4.583 I-0.894 J-1.005
G2 X-1.441 Y6.944 I0.124 J9.963
G1 X-1.471 Y6.976
X-1.493 Y7.013
X-1.507 Y7.054
X-1.512 Y7.097
X-1.513 Y28.926
X-1.508 Y28.97
X-1.494 Y29.011
X-1.472 Y29.048
X-1.442 Y29.079
G2 X4.877 Y31.417 I6.397 J-7.579
G3 X5.754 Y31.758 I-0.017 J1.345
G2 X30.245 Y31.758 I12.246 J-13.758
G3 X31.132 Y31.418 I0.894 J1.005
G2 X37.44 Y29.123 I-0.054 J-9.963
G1 X37.47 Y29.091
X37.493 Y29.053
X37.507 Y29.012
X37.512 Y28.968
X37.47 Y11.342
X37.464 Y11.296
X37.448 Y11.252
G2 X31.078 Y7.357 I-6.362 J3.248
X30.479 Y7.376 I0 J9.595
G3 X29.88 Y7.394 I-0.599 J-9.577
X29.16 Y7.091 I0 J-1.008
G2 X6.84 Y7.091 I-11.16 J10.909
G3 X6.12 Y7.394 I-0.72 J-0.704
X5.56 Y7.377 I0 J-8.969
G2 X5 Y7.359 I-0.56 J8.952
X-1.445 Y11.411 I0 J7.151
G1 X-1.459 Y11.454
X-1.464 Y11.498
X-1.465 Y24.508
X-1.46 Y24.552
X-1.445 Y24.595
G2 X5 Y28.641 I6.435 J-3.095
X5.56 Y28.623 I0 J-8.969
G3 X6.12 Y28.606 I0.56 J8.952
X6.84 Y28.909 I0 J1.007
G2 X29.16 Y28.909 I11.16 J-10.909
G3 X29.88 Y28.606 I0.72 J0.704
X30.479 Y28.624 I0 J9.595
G2 X31.078 Y28.643 I0.599 J-9.577
X37.447 Y24.744 I0 J-7.151
X36.761 Y21.938 I-1.969 J-1.006
G3 X35.438 Y19.37 I1.831 J-2.568
G1 Y14.5
G2 X31.078 Y10.14 I-4.36 J0
X29.859 Y10.163 I0 J33.021
G3 X28.641 Y10.185 I-1.219 J-32.998
X27.865 Y9.821 I0 J-1.007
G2 X8.135 Y9.821 I-9.865 J8.179
G3 X7.359 Y10.185 I-0.776 J-0.643
X6.18 Y10.163 I0 J-30.937
G2 X5 Y10.14 I-1.18 J30.914
X0.64 Y14.5 I0 J4.36
G1 Y21.5
G2 X5 Y25.86 I4.36 J0
X6.18 Y25.837 I0 J-30.937
G3 X7.359 Y25.815 I1.18 J30.914
X8.135 Y26.179 I0 J1.008
G2 X27.865 Y26.179 I9.865 J-8.179
G3 X28.641 Y25.815 I0.776 J0.643
X29.859 Y25.837 I0 J33.021
G2 X31.078 Y25.86 I1.219 J-32.998
X35.438 Y21.5 I0 J-4.36
G1 Y19.37
G2 X34.033 Y17.263 I-2.283 J0
G3 X32.628 Y15.156 I0.878 J-2.107
G1 Y14.5
G2 X31.078 Y12.95 I-1.55 J0
G1 X26.689
G2 X9.311 Y12.95 I-8.689 J5.05
G1 X5
G2 X3.45 Y14.5 I0 J1.55
G1 Y21.5
G2 X5 Y23.05 I1.55 J0
G1 X9.311
G2 X26.689 Y23.05 I8.689 J-5.05
G1 X31.078
G2 X32.628 Y21.5 I0 J-1.55
G1 Y15.156
X32.631 Y15.12
X32.641 Y15.085
X38.047 Y0.718
G2 X37.941 Y0.465 I-0.187 J-0.07
G1 X37.883 Y0.44 Z-4.207 F150
X37.827 Y0.415 Z-4.226
X37.777 Y0.393 Z-4.257
X37.733 Y0.373 Z-4.299
X37.698 Y0.358 Z-4.35
X37.663 Y0.342 Z-4.401
X37.619 Y0.323 Z-4.443
X37.568 Y0.3 Z-4.474
X37.513 Y0.276 Z-4.493
X37.455 Y0.25 Z-4.5
X37.444 Y0.245
G2 X33.408 Y-0.923 I-6.313 J14.255 F300
G3 X32.341 Y-1.366 I0.358 J-2.368
G1 X32.231 Y-1.448
G3 X32.841 Y-2.707 I0.42 J-0.574
G1 X34.984 Y-2.11
X35.082 Y-2.074
X35.174 Y-2.025
X37.732 Y-0.405
G3 X38.053 Y0.077 I-0.381 J0.601
G1 X38.496 Y2.688
G3 X37.442 Y3.425 I-0.701 J0.119
G2 X32.247 Y1.801 I-6.314 J11.075
G3 X31.289 Y1.414 I0.164 J-1.787
G2 X26.576 Y-1.446 I-13.289 J16.586
G1 X26.536 Y-1.459
X26.495 Y-1.463
X3.885 Y-1.484
X3.843 Y-1.479
X3.803 Y-1.466
X3.766 Y-1.445
X3.641 Y-1.353
G3 X2.584 Y-0.91 I-1.427 J-1.923
G2 X-1.438 Y0.291 I2.424 J15.462
G3 X-2.39 Y-0.089 I-0.293 J-0.648
X-1.975 Y-1.026 I0.659 J-0.268
G1 X0.578 Y-1.956
X0.656 Y-1.979
X0.735 Y-1.993
X0.816 Y-1.998
X3.346 Y-2.019
X3.438 Y-2.026
X9.047 Y-2.805
G3 X9.432 Y-1.449 I0.098 J0.704
G2 X4.701 Y1.422 I8.568 J19.449
G3 X3.754 Y1.808 I-1.123 J-1.4
G2 X-1.449 Y3.493 I1.251 J12.742
G1 X-1.491 Y3.525
X-1.522 Y3.566
X-1.542 Y3.614
X-1.549 Y3.665
X-1.562 Y35.537
X-1.557 Y35.583
X-1.541 Y35.626
X-1.516 Y35.664
X-1.483 Y35.696
X-1.444 Y35.72
G2 X2.584 Y36.91 I6.391 J-14.22
G3 X3.641 Y37.353 I-0.371 J2.366
G1 X3.765 Y37.444
G3 X3.149 Y38.702 I-0.42 J0.574
G1 X1.005 Y38.088
X0.908 Y38.053
X0.817 Y38.003
X-1.735 Y36.369
G3 X-2.053 Y35.888 I0.384 J-0.599
G1 X-2.496 Y33.266
G3 X-1.438 Y32.532 I0.701 J-0.118
G2 X3.754 Y34.192 I6.388 J-11.032
G3 X4.701 Y34.578 I-0.175 J1.786
G2 X9.428 Y37.448 I13.299 J-16.578
G1 X9.468 Y37.461
X9.509 Y37.465
X32.111 Y37.487
X32.152 Y37.483
X32.192 Y37.47
X32.229 Y37.449
X32.341 Y37.366
G3 X33.408 Y36.923 I1.425 J1.925
G2 X37.438 Y35.745 I-2.338 J-15.475
G3 X38.387 Y36.13 I0.289 J0.65
X37.967 Y37.064 I-0.66 J0.265
G1 X35.413 Y37.979
X35.335 Y38.002
X35.255 Y38.016
X35.174 Y38.021
X32.649 Y38.023
X32.552 Y38.029
X26.957 Y38.803
G3 X26.573 Y37.447 I-0.097 J-0.705
G2 X31.289 Y34.586 I-8.573 J-19.447
G3 X32.247 Y34.199 I1.122 J1.401
G2 X37.445 Y32.555 I-1.173 J-12.749
G1 X37.487 Y32.523
X37.519 Y32.482
X37.539 Y32.433
X37.546 Y32.381
X37.514 Y7.009
X37.509 Y6.965
X37.495 Y6.924
X37.472 Y6.886
X37.441 Y6.855
G2 X31.132 Y4.582 I-6.318 J7.645
G3 X30.245 Y4.242 I0.007 J-1.345
G2 X5.754 Y4.242 I-12.245 J13.758
G3 X4.877 Y4.583 I-0.894 J-1.005
G2 X-1.441 Y6.944 I0.124 J9.963
G1 X-1.471 Y6.976
X-1.493 Y7.013
X-1.507 Y7.054
X-1.512 Y7.097
X-1.513 Y28.926
X-1.508 Y28.97
X-1.494 Y29.011
X-1.472 Y29.048
X-1.442 Y29.079
G2 X4.877 Y31.417 I6.397 J-7.579
G3 X5.754 Y31.758 I-0.017 J1.345
G2 X30.245 Y31.758 I12.246 J-13.758
G3 X31.132 Y31.418 I0.894 J1.005
G2 X37.44 Y29.123 I-0.054 J-9.963
G1 X37.47 Y29.091
X37.493 Y29.053
X37.507 Y29.012
X37.512 Y28.968
X37.47 Y11.342
X37.464 Y11.296
X37.448 Y11.252
G2 X31.078 Y7.357 I-6.362 J3.248
X30.479 Y7.376 I0 J9.595
G3 X29.88 Y7.394 I-0.599 J-9.577
X29.16 Y7.091 I0 J-1.008
G2 X6.84 Y7.091 I-11.16 J10.909
G3 X6.12 Y7.394 I-0.72 J-0.704
X5.56 Y7.377 I0 J-8.969
G2 X5 Y7.359 I-0.56 J8.952
X-1.445 Y11.411 I0 J7.151
G1 X-1.459 Y11.454
X-1.464 Y11.498
X-1.465 Y24.508
X-1.46 Y24.552
X-1.445 Y24.595
G2 X5 Y28.641 I6.435 J-3.095
X5.56 Y28.623 I0 J-8.969
G3 X6.12 Y28.606 I0.56 J8.952
X6.84 Y28.909 I0 J1.007
G2 X29.16 Y28.909 I11.16 J-10.909
G3 X29.88 Y28.606 I0.72 J0.704
X30.479 Y28.624 I0 J9.595
G2 X31.078 Y28.643 I0.599 J-9.577
X37.447 Y24.744 I0 J-7.151
X36.761 Y21.938 I-1.969 J-1.006
G3 X35.438 Y19.37 I1.831 J-2.568
G1 Y14.5
G2 X31.078 Y10.14 I-4.36 J0
X29.859 Y10.163 I0 J33.021
G3 X28.641 Y10.185 I-1.219 J-32.998
X27.865 Y9.821 I0 J-1.007
G2 X8.135 Y9.821 I-9.865 J8.179
G3 X7.359 Y10.185 I-0.776 J-0.643
X6.18 Y10.163 I0 J-30.937
G2 X5 Y10.14 I-1.18 J30.914
X0.64 Y14.5 I0 J4.36
G1 Y21.5
G2 X5 Y25.86 I4.36 J0
X6.18 Y25.837 I0 J-30.937
G3 X7.359 Y25.815 I1.18 J30.914
X8.135 Y26.179 I0 J1.008
G2 X27.865 Y26.179 I9.865 J-8.179
G3 X28.641 Y25.815 I0.776 J0.643
X29.859 Y25.837 I0 J33.021
G2 X31.078 Y25.86 I1.219 J-32.998
X35.438 Y21.5 I0 J-4.36
G1 Y19.37
G2 X34.033 Y17.263 I-2.283 J0
G3 X32.628 Y15.156 I0.878 J-2.107
G1 Y14.5
G2 X31.078 Y12.95 I-1.55 J0
G1 X26.689
G2 X9.311 Y12.95 I-8.689 J5.05
G1 X5
G2 X3.45 Y14.5 I0 J1.55
G1 Y21.5
G2 X5 Y23.05 I1.55 J0
G1 X9.311
G2 X26.689 Y23.05 I8.689 J-5.05
G1 X31.078
G2 X32.628 Y21.5 I0 J-1.55
G1 Y15.156
X32.631 Y15.12
X32.641 Y15.085
X38.047 Y0.718
G2 X37.941 Y0.465 I-0.187 J-0.07
G1 X37.883 Y0.44 Z-4.507 F150
X37.827 Y0.415 Z-4.526
X37.777 Y0.393 Z-4.557
X37.733 Y0.373 Z-4.599
X37.698 Y0.358 Z-4.65
X37.663 Y0.342 Z-4.701
X37.619 Y0.323 Z-4.743
X37.568 Y0.3 Z-4.774
X37.513 Y0.276 Z-4.793
X37.455 Y0.25 Z-4.8
X37.444 Y0.245
G2 X33.408 Y-0.923 I-6.313 J14.255 F300
G3 X32.341 Y-1.366 I0.358 J-2.368
G1 X32.231 Y-1.448
G3 X32.841 Y-2.707 I0.42 J-0.574
G1 X34.984 Y-2.11
X35.082 Y-2.074
X35.174 Y-2.025
X37.732 Y-0.405
G3 X38.053 Y0.077 I-0.381 J0.601
G1 X38.496 Y2.688
G3 X37.442 Y3.425 I-0.701 J0.119
G2 X32.247 Y1.801 I-6.314 J11.075
G3 X31.289 Y1.414 I0.164 J-1.787
G2 X26.576 Y-1.446 I-13.289 J16.586
G1 X26.536 Y-1.459
X26.495 Y-1.463
X3.885 Y-1.484
X3.843 Y-1.479
X3.803 Y-1.466
X3.766 Y-1.445
X3.641 Y-1.353
G3 X2.584 Y-0.91 I-1.427 J-1.923
G2 X-1.438 Y0.291 I2.424 J15.462
G3 X-2.39 Y-0.089 I-0.293 J-0.648
X-1.975 Y-1.026 I0.659 J-0.268
G1 X0.578 Y-1.956
X0.656 Y-1.979
X0.735 Y-1.993
X0.816 Y-1.998
X3.346 Y-2.019
X3.438 Y-2.026
