(metal_coupler_14mm_wdrill)
(Machine)
(  vendor: Autodesk)
(  model: GARAGE CNC)
(  description: GARAGE CNC)
(T1  D=4.76 CR=0 - ZMIN=-14 - flat end mill)
G90 G94
G17
G21
(When using Fusion 360 for Personal Use, the feedrate of)
(rapid moves is reduced to match the feedrate of cutting)
(moves, which can increase machining time. Unrestricted rapid)
(moves are available with a Fusion 360 Subscription.)
G28 G91 Z0
G90

(2D Pocket3)
T1
S24000 M3
G54
M8
G0 X17.921 Y16.916
Z10
G1 Z5 F300
Z2.976
X17.938 Y16.947 Z2.797 F50
X17.982 Y17.035 Z2.645
X18.041 Y17.172 Z2.541
X18.099 Y17.339 Z2.5
G3 X13.775 Y18.661 Z2.252 I-2.162 J0.661
X18.099 Y17.339 Z2.004 I2.162 J-0.661
X13.775 Y18.661 Z1.756 I-2.162 J0.661
X18.099 Y17.339 Z1.508 I2.162 J-0.661
X13.775 Y18.661 Z1.26 I-2.162 J0.661
X18.099 Y17.339 Z1.012 I2.162 J-0.661
X13.775 Y18.661 Z0.764 I-2.162 J0.661
X18.099 Y17.339 Z0.516 I2.162 J-0.661
X13.775 Y18.661 Z0.268 I-2.162 J0.661
X18.099 Y17.339 Z0.02 I2.162 J-0.661
X13.775 Y18.661 Z-0.229 I-2.162 J0.661
X15.603 Y15.764 Z-0.364 I2.162 J-0.661
X18.198 Y18 Z-0.5 I0.334 J2.236
X17.802 Y18 I-0.198 J0 F300
X22.72 Y18 I2.459 J0
X13.28 Y18 I-4.72 J0
X22.72 Y18 I4.72 J0
X20.459 Y20.261 Z-0.595 I-2.261 J0 F50
G1 X15.937 Z-0.716
G3 X15.937 Y15.739 Z-0.905 I0 J-2.261
X18.198 Y18 Z-1 I0 J2.261
X17.802 Y18 I-0.198 J0 F300
X22.72 Y18 I2.459 J0
X13.28 Y18 I-4.72 J0
X22.72 Y18 I4.72 J0
X20.459 Y20.261 Z-1.095 I-2.261 J0 F50
G1 X15.937 Z-1.216
G3 X15.937 Y15.739 Z-1.405 I0 J-2.261
X18.198 Y18 Z-1.5 I0 J2.261
X17.802 Y18 I-0.198 J0 F300
X22.72 Y18 I2.459 J0
X13.28 Y18 I-4.72 J0
X22.72 Y18 I4.72 J0
X20.459 Y20.261 Z-1.595 I-2.261 J0 F50
G1 X15.937 Z-1.716
G3 X15.937 Y15.739 Z-1.905 I0 J-2.261
X18.198 Y18 Z-2 I0 J2.261
X17.802 Y18 I-0.198 J0 F300
X22.72 Y18 I2.459 J0
X13.28 Y18 I-4.72 J0
X22.72 Y18 I4.72 J0
X20.459 Y20.261 Z-2.095 I-2.261 J0 F50
G1 X15.937 Z-2.216
G3 X15.937 Y15.739 Z-2.405 I0 J-2.261
X18.198 Y18 Z-2.5 I0 J2.261
X17.802 Y18 I-0.198 J0 F300
X22.72 Y18 I2.459 J0
X13.28 Y18 I-4.72 J0
X22.72 Y18 I4.72 J0
X20.459 Y20.261 Z-2.595 I-2.261 J0 F50
G1 X15.937 Z-2.716
G3 X15.937 Y15.739 Z-2.905 I0 J-2.261
X18.198 Y18 Z-3 I0 J2.261
X17.802 Y18 I-0.198 J0 F300
X22.72 Y18 I2.459 J0
X13.28 Y18 I-4.72 J0
X22.72 Y18 I4.72 J0
X20.459 Y20.261 Z-3.095 I-2.261 J0 F50
G1 X15.937 Z-3.216
G3 X15.937 Y15.739 Z-3.405 I0 J-2.261
X18.198 Y18 Z-3.5 I0 J2.261
X17.802 Y18 I-0.198 J0 F300
X22.72 Y18 I2.459 J0
X13.28 Y18 I-4.72 J0
X22.72 Y18 I4.72 J0
X20.459 Y20.261 Z-3.595 I-2.261 J0 F50
G1 X15.937 Z-3.716
G3 X15.937 Y15.739 Z-3.905 I0 J-2.261
X18.198 Y18 Z-4 I0 J2.261
X17.802 Y18 I-0.198 J0 F300
X22.72 Y18 I2.459 J0
X13.28 Y18 I-4.72 J0
X22.72 Y18 I4.72 J0
X20.459 Y20.261 Z-4.095 I-2.261 J0 F50
G1 X15.937 Z-4.216
G3 X15.937 Y15.739 Z-4.405 I0 J-2.261
X18.198 Y18 Z-4.5 I0 J2.261
X17.802 Y18 I-0.198 J0 F300
X22.72 Y18 I2.459 J0
X13.28 Y18 I-4.72 J0
X22.72 Y18 I4.72 J0
X20.459 Y20.261 Z-4.595 I-2.261 J0 F50
G1 X15.937 Z-4.716
G3 X15.937 Y15.739 Z-4.905 I0 J-2.261
X18.198 Y18 Z-5 I0 J2.261
X17.802 Y18 I-0.198 J0 F300
X22.72 Y18 I2.459 J0
X13.28 Y18 I-4.72 J0
X22.72 Y18 I4.72 J0
X20.459 Y20.261 Z-5.095 I-2.261 J0 F50
G1 X15.937 Z-5.216
G3 X15.937 Y15.739 Z-5.405 I0 J-2.261
X18.198 Y18 Z-5.5 I0 J2.261
X17.802 Y18 I-0.198 J0 F300
X22.72 Y18 I2.459 J0
X13.28 Y18 I-4.72 J0
X22.72 Y18 I4.72 J0
X20.459 Y20.261 Z-5.595 I-2.261 J0 F50
G1 X15.937 Z-5.716
G3 X15.937 Y15.739 Z-5.905 I0 J-2.261
X18.198 Y18 Z-6 I0 J2.261
X17.802 Y18 I-0.198 J0 F300
X22.72 Y18 I2.459 J0
X13.28 Y18 I-4.72 J0
X22.72 Y18 I4.72 J0
X20.459 Y20.261 Z-6.095 I-2.261 J0 F50
G1 X15.937 Z-6.216
G3 X15.937 Y15.739 Z-6.405 I0 J-2.261
X18.198 Y18 Z-6.5 I0 J2.261
X17.802 Y18 I-0.198 J0 F300
X22.72 Y18 I2.459 J0
X13.28 Y18 I-4.72 J0
X22.72 Y18 I4.72 J0
X20.459 Y20.261 Z-6.595 I-2.261 J0 F50
G1 X15.937 Z-6.716
G3 X15.937 Y15.739 Z-6.905 I0 J-2.261
X18.198 Y18 Z-7 I0 J2.261
X17.802 Y18 I-0.198 J0 F300
X22.72 Y18 I2.459 J0
X13.28 Y18 I-4.72 J0
X22.72 Y18 I4.72 J0
X20.459 Y20.261 Z-7.095 I-2.261 J0 F50
G1 X15.937 Z-7.216
G3 X15.937 Y15.739 Z-7.405 I0 J-2.261
X18.198 Y18 Z-7.5 I0 J2.261
X17.802 Y18 I-0.198 J0 F300
X22.72 Y18 I2.459 J0
X13.28 Y18 I-4.72 J0
X22.72 Y18 I4.72 J0
X20.459 Y20.261 Z-7.595 I-2.261 J0 F50
G1 X15.937 Z-7.716
G3 X15.937 Y15.739 Z-7.905 I0 J-2.261
X18.198 Y18 Z-8 I0 J2.261
X17.802 Y18 I-0.198 J0 F300
X22.72 Y18 I2.459 J0
X13.28 Y18 I-4.72 J0
X22.72 Y18 I4.72 J0
X20.459 Y20.261 Z-8.095 I-2.261 J0 F50
G1 X15.937 Z-8.216
G3 X15.937 Y15.739 Z-8.405 I0 J-2.261
X18.198 Y18 Z-8.5 I0 J2.261
X17.802 Y18 I-0.198 J0 F300
X22.72 Y18 I2.459 J0
X13.28 Y18 I-4.72 J0
X22.72 Y18 I4.72 J0
X20.459 Y20.261 Z-8.595 I-2.261 J0 F50
G1 X15.937 Z-8.716
G3 X15.937 Y15.739 Z-8.905 I0 J-2.261
X18.198 Y18 Z-9 I0 J2.261
X17.802 Y18 I-0.198 J0 F300
X22.72 Y18 I2.459 J0
X13.28 Y18 I-4.72 J0
X22.72 Y18 I4.72 J0
X20.459 Y20.261 Z-9.095 I-2.261 J0 F50
G1 X15.937 Z-9.216
G3 X15.937 Y15.739 Z-9.405 I0 J-2.261
X18.198 Y18 Z-9.5 I0 J2.261
X17.802 Y18 I-0.198 J0 F300
X22.72 Y18 I2.459 J0
X13.28 Y18 I-4.72 J0
X22.72 Y18 I4.72 J0
X20.459 Y20.261 Z-9.595 I-2.261 J0 F50
G1 X15.937 Z-9.716
G3 X15.937 Y15.739 Z-9.905 I0 J-2.261
X18.198 Y18 Z-10 I0 J2.261
X17.802 Y18 I-0.198 J0 F300
X22.72 Y18 I2.459 J0
X13.28 Y18 I-4.72 J0
X22.72 Y18 I4.72 J0
X20.459 Y20.261 Z-10.095 I-2.261 J0 F50
G1 X15.937 Z-10.216
G3 X15.937 Y15.739 Z-10.405 I0 J-2.261
X18.198 Y18 Z-10.5 I0 J2.261
X17.802 Y18 I-0.198 J0 F300
X22.72 Y18 I2.459 J0
X13.28 Y18 I-4.72 J0
X22.72 Y18 I4.72 J0
X20.459 Y20.261 Z-10.595 I-2.261 J0 F50
G1 X15.937 Z-10.716
G3 X15.937 Y15.739 Z-10.905 I0 J-2.261
X18.198 Y18 Z-11 I0 J2.261
X17.802 Y18 I-0.198 J0 F300
X22.72 Y18 I2.459 J0
X13.28 Y18 I-4.72 J0
X22.72 Y18 I4.72 J0
X20.459 Y20.261 Z-11.095 I-2.261 J0 F50
G1 X15.937 Z-11.216
G3 X15.937 Y15.739 Z-11.405 I0 J-2.261
X18.198 Y18 Z-11.5 I0 J2.261
X17.802 Y18 I-0.198 J0 F300
X22.72 Y18 I2.459 J0
X13.28 Y18 I-4.72 J0
X22.72 Y18 I4.72 J0
X20.459 Y20.261 Z-11.595 I-2.261 J0 F50
G1 X15.937 Z-11.716
G3 X15.937 Y15.739 Z-11.905 I0 J-2.261
X18.198 Y18 Z-12 I0 J2.261
X17.802 Y18 I-0.198 J0 F300
X22.72 Y18 I2.459 J0
X13.28 Y18 I-4.72 J0
X22.72 Y18 I4.72 J0
X20.459 Y20.261 Z-12.095 I-2.261 J0 F50
G1 X15.937 Z-12.216
G3 X15.937 Y15.739 Z-12.405 I0 J-2.261
X18.198 Y18 Z-12.5 I0 J2.261
X17.802 Y18 I-0.198 J0 F300
X22.72 Y18 I2.459 J0
X13.28 Y18 I-4.72 J0
X22.72 Y18 I4.72 J0
X20.459 Y20.261 Z-12.595 I-2.261 J0 F50
G1 X15.937 Z-12.716
G3 X15.937 Y15.739 Z-12.905 I0 J-2.261
X18.198 Y18 Z-13 I0 J2.261
X17.802 Y18 I-0.198 J0 F300
X22.72 Y18 I2.459 J0
X13.28 Y18 I-4.72 J0
X22.72 Y18 I4.72 J0
X20.459 Y20.261 Z-13.095 I-2.261 J0 F50
G1 X15.937 Z-13.216
G3 X15.937 Y15.739 Z-13.405 I0 J-2.261
X18.198 Y18 Z-13.5 I0 J2.261
X17.802 Y18 I-0.198 J0 F300
X22.72 Y18 I2.459 J0
X13.28 Y18 I-4.72 J0
X22.72 Y18 I4.72 J0
X20.459 Y20.261 Z-13.595 I-2.261 J0 F50
G1 X15.937 Z-13.716
G3 X15.937 Y15.739 Z-13.905 I0 J-2.261
X18.198 Y18 Z-14 I0 J2.261
X17.802 Y18 I-0.198 J0 F300
X22.72 Y18 I2.459 J0
X13.28 Y18 I-4.72 J0
X22.72 Y18 I4.72 J0
G1 X22.716 Y18.061 Z-13.988
X22.705 Y18.12 Z-13.976
X22.686 Y18.178 Z-13.964
X22.651 Y18.247 Z-13.912
X22.606 Y18.309 Z-13.861
X22.57 Y18.347 Z-13.783
X22.531 Y18.38 Z-13.706
X22.501 Y18.401 Z-13.524
Z10
(When using Fusion 360 for Personal Use, the feedrate of)
(rapid moves is reduced to match the feedrate of cutting)
(moves, which can increase machining time. Unrestricted rapid)
(moves are available with a Fusion 360 Subscription.)

(2D Pocket2)
G0 X5.354 Y-3.826
G1 Z10 F150
Z5
Z-0.124 F50
X5.348 Y-3.822 Z-0.207
X5.331 Y-3.809 Z-0.287
X5.302 Y-3.788 Z-0.362
X5.264 Y-3.76 Z-0.43
X5.216 Y-3.726 Z-0.489
X5.162 Y-3.686 Z-0.536
X5.101 Y-3.642 Z-0.571
X5.036 Y-3.594 Z-0.593
X4.969 Y-3.546 Z-0.6
X3.229 Y-2.277
G2 X0.137 Y0.39 I14.771 J20.258 F150
G3 X-1.207 Y1.315 I-3.072 J-3.026
G2 X-2.273 Y1.83 I6.237 J14.255
G3 X-3.395 Y-0.073 I-0.519 J-0.976
G1 X-1.115 Y-1.557
X-1.035 Y-1.604
X-0.951 Y-1.645
X2.578 Y-3.17
G3 X2.891 Y-3.253 I0.439 J1.015
G1 X13.448 Y-4.46
G3 X13.8 Y-2.28 I0.126 J1.098
G2 X9.462 Y-0.845 I4.13 J19.757
X2.505 Y4.331 I8.864 J19.176
G3 X1.473 Y5.015 I-1.796 J-1.59
G2 X-2.273 Y7.153 I3.565 J10.599
G1 X-2.308 Y7.19
X-2.334 Y7.234
X-2.35 Y7.282
X-2.356 Y7.333
X-2.399 Y33.965
X-2.394 Y34.016
X-2.377 Y34.065
X-2.351 Y34.11
X-2.315 Y34.147
X-2.272 Y34.176
G2 X-1.207 Y34.685 I7.197 J-13.676
G3 X0.137 Y35.61 I-1.729 J3.95
G2 X3.227 Y38.275 I17.863 J-17.591
G3 X3.449 Y39.847 I-0.651 J0.893
X1.871 Y40.02 I-0.873 J-0.678
G1 X-0.765 Y37.841
G3 X-0.95 Y37.645 I0.704 J-0.852
G1 X-2.787 Y35.154
G3 X-2.975 Y34.745 I0.89 J-0.656
G1 X-4.078 Y29.927
G3 X-2.277 Y28.844 I1.078 J-0.247
G2 X1.473 Y30.985 I7.315 J-8.458
G3 X2.505 Y31.669 I-0.765 J2.273
G2 X13.928 Y38.279 I15.628 J-13.83
G1 X32.63 Y38.322
X32.68 Y38.317
X32.728 Y38.302
X32.771 Y38.277
G2 X35.863 Y35.61 I-14.771 J-20.258
G3 X37.207 Y34.685 I3.072 J3.026
G2 X38.273 Y34.17 I-6.237 J-14.255
G3 X39.395 Y36.073 I0.519 J0.976
G1 X37.115 Y37.557
X37.035 Y37.604
X36.951 Y37.645
X33.422 Y39.17
G3 X33.109 Y39.253 I-0.439 J-1.015
G1 X22.552 Y40.46
G3 X22.2 Y38.28 I-0.126 J-1.098
G2 X26.538 Y36.845 I-4.13 J-19.757
X33.495 Y31.669 I-8.863 J-19.176
G3 X34.527 Y30.985 I1.796 J1.59
G2 X38.273 Y28.847 I-3.565 J-10.599
G1 X38.308 Y28.81
X38.334 Y28.766
X38.35 Y28.718
X38.356 Y28.667
X38.399 Y2.035
X38.394 Y1.984
X38.377 Y1.935
X38.351 Y1.89
X38.315 Y1.853
X38.272 Y1.824
G2 X37.207 Y1.315 I-7.197 J13.676
G3 X35.863 Y0.39 I1.729 J-3.95
G2 X32.773 Y-2.275 I-17.863 J17.591
G3 X32.552 Y-3.847 I0.651 J-0.893
X34.129 Y-4.02 I0.873 J0.678
G1 X36.765 Y-1.841
G3 X36.95 Y-1.645 I-0.704 J0.852
G1 X38.787 Y0.846
G3 X38.975 Y1.255 I-0.89 J0.656
G1 X40.078 Y6.073
G3 X38.277 Y7.156 I-1.078 J0.247
G2 X34.527 Y5.015 I-7.315 J8.458
G3 X33.495 Y4.331 I0.765 J-2.273
G2 X22.072 Y-2.279 I-15.628 J13.83
X18.118 Y-0.497 I-0.745 J3.623
G3 X14.615 Y2.058 I-4.616 J-2.649
G2 X10.565 Y3.521 I3.316 J15.514
X4.83 Y8.485 I7.701 J14.691
G3 X4.117 Y8.911 I-0.853 J-0.617
G2 X-0.025 Y11.114 I0.895 J6.68
X-1.692 Y15.5 I4.935 J4.386
G1 Y20.5
G2 X-0.025 Y24.886 I6.602 J0
X4.117 Y27.089 I5.038 J-4.477
G3 X4.83 Y27.515 I-0.14 J1.044
G2 X18.07 Y34.292 I13.274 J-9.609
X25.435 Y32.479 I0 J-15.865
X31.17 Y27.515 I-7.701 J-14.691
G3 X31.883 Y27.089 I0.853 J0.617
G2 X36.025 Y24.886 I-0.895 J-6.679
X37.692 Y20.5 I-4.935 J-4.386
G1 Y15.5
G2 X36.025 Y11.114 I-6.602 J0
X31.883 Y8.911 I-5.038 J4.477
G3 X31.17 Y8.485 I0.14 J-1.044
G2 X17.93 Y1.708 I-13.274 J9.609
X14.615 Y2.058 I0 J15.865
X11.741 Y5.32 I0.763 J3.568
G3 X9.84 Y9.229 I-6.01 J-0.506
G2 X7.059 Y13.12 I8.16 J8.771
G1 X5
G2 X2.62 Y15.5 I0 J2.38
G1 Y20.5
G2 X5 Y22.88 I2.38 J0
G1 X7.059
G2 X28.941 Y22.88 I10.941 J-4.88
G1 X31
G2 X33.38 Y20.5 I0 J-2.38
G1 Y15.5
G2 X31 Y13.12 I-2.38 J0
G1 X28.941
G2 X9.84 Y9.229 I-10.941 J4.88
G3 X9.459 Y9.149 I-0.162 J-0.174
G1 X4.317 Y-2.711
G2 X3.959 Y-2.809 I-0.218 J0.095
G1 X3.893 Y-2.761 Z-0.607 F50
X3.83 Y-2.715 Z-0.627
X3.771 Y-2.672 Z-0.661
X3.716 Y-2.632 Z-0.706
X3.669 Y-2.598 Z-0.762
X3.631 Y-2.569 Z-0.828
X3.601 Y-2.548 Z-0.9
X3.572 Y-2.527 Z-0.972
X3.533 Y-2.499 Z-1.038
X3.486 Y-2.464 Z-1.094
X3.432 Y-2.425 Z-1.139
X3.372 Y-2.381 Z-1.173
X3.309 Y-2.335 Z-1.193
X3.244 Y-2.288 Z-1.2
X3.229 Y-2.277
G2 X0.137 Y0.39 I14.771 J20.258 F150
G3 X-1.207 Y1.315 I-3.072 J-3.026
G2 X-2.273 Y1.83 I6.237 J14.255
G3 X-3.395 Y-0.073 I-0.519 J-0.976
G1 X-1.115 Y-1.557
X-1.035 Y-1.604
X-0.951 Y-1.645
X2.578 Y-3.17
G3 X2.891 Y-3.253 I0.439 J1.015
G1 X13.448 Y-4.46
G3 X13.8 Y-2.28 I0.126 J1.098
G2 X9.462 Y-0.845 I4.13 J19.757
X2.505 Y4.331 I8.864 J19.176
G3 X1.473 Y5.015 I-1.796 J-1.59
G2 X-2.273 Y7.153 I3.565 J10.599
G1 X-2.308 Y7.19
X-2.334 Y7.234
X-2.35 Y7.282
X-2.356 Y7.333
X-2.399 Y33.965
X-2.394 Y34.016
X-2.377 Y34.065
X-2.351 Y34.11
X-2.315 Y34.147
X-2.272 Y34.176
G2 X-1.207 Y34.685 I7.197 J-13.676
G3 X0.137 Y35.61 I-1.729 J3.95
G2 X3.227 Y38.275 I17.863 J-17.591
G3 X3.449 Y39.847 I-0.651 J0.893
X1.871 Y40.02 I-0.873 J-0.678
G1 X-0.765 Y37.841
G3 X-0.95 Y37.645 I0.704 J-0.852
G1 X-2.787 Y35.154
G3 X-2.975 Y34.745 I0.89 J-0.656
G1 X-4.078 Y29.927
G3 X-2.277 Y28.844 I1.078 J-0.247
G2 X1.473 Y30.985 I7.315 J-8.458
G3 X2.505 Y31.669 I-0.765 J2.273
G2 X13.928 Y38.279 I15.628 J-13.83
G1 X32.63 Y38.322
X32.68 Y38.317
X32.728 Y38.302
X32.771 Y38.277
G2 X35.863 Y35.61 I-14.771 J-20.258
G3 X37.207 Y34.685 I3.072 J3.026
G2 X38.273 Y34.17 I-6.237 J-14.255
G3 X39.395 Y36.073 I0.519 J0.976
G1 X37.115 Y37.557
X37.035 Y37.604
X36.951 Y37.645
X33.422 Y39.17
G3 X33.109 Y39.253 I-0.439 J-1.015
G1 X22.552 Y40.46
G3 X22.2 Y38.28 I-0.126 J-1.098
G2 X26.538 Y36.845 I-4.13 J-19.757
X33.495 Y31.669 I-8.863 J-19.176
G3 X34.527 Y30.985 I1.796 J1.59
G2 X38.273 Y28.847 I-3.565 J-10.599
G1 X38.308 Y28.81
X38.334 Y28.766
X38.35 Y28.718
X38.356 Y28.667
X38.399 Y2.035
X38.394 Y1.984
X38.377 Y1.935
X38.351 Y1.89
X38.315 Y1.853
X38.272 Y1.824
G2 X37.207 Y1.315 I-7.197 J13.676
G3 X35.863 Y0.39 I1.729 J-3.95
G2 X32.773 Y-2.275 I-17.863 J17.591
G3 X32.552 Y-3.847 I0.651 J-0.893
X34.129 Y-4.02 I0.873 J0.678
G1 X36.765 Y-1.841
G3 X36.95 Y-1.645 I-0.704 J0.852
G1 X38.787 Y0.846
G3 X38.975 Y1.255 I-0.89 J0.656
G1 X40.078 Y6.073
G3 X38.277 Y7.156 I-1.078 J0.247
G2 X34.527 Y5.015 I-7.315 J8.458
G3 X33.495 Y4.331 I0.765 J-2.273
G2 X22.072 Y-2.279 I-15.628 J13.83
X18.118 Y-0.497 I-0.745 J3.623
G3 X14.615 Y2.058 I-4.616 J-2.649
G2 X10.565 Y3.521 I3.316 J15.514
X4.83 Y8.485 I7.701 J14.691
G3 X4.117 Y8.911 I-0.853 J-0.617
G2 X-0.025 Y11.114 I0.895 J6.68
X-1.692 Y15.5 I4.935 J4.386
G1 Y20.5
G2 X-0.025 Y24.886 I6.602 J0
X4.117 Y27.089 I5.038 J-4.477
G3 X4.83 Y27.515 I-0.14 J1.044
G2 X18.07 Y34.292 I13.274 J-9.609
X25.435 Y32.479 I0 J-15.865
X31.17 Y27.515 I-7.701 J-14.691
G3 X31.883 Y27.089 I0.853 J0.617
G2 X36.025 Y24.886 I-0.895 J-6.679
X37.692 Y20.5 I-4.935 J-4.386
G1 Y15.5
G2 X36.025 Y11.114 I-6.602 J0
X31.883 Y8.911 I-5.038 J4.477
G3 X31.17 Y8.485 I0.14 J-1.044
G2 X17.93 Y1.708 I-13.274 J9.609
X14.615 Y2.058 I0 J15.865
X11.741 Y5.32 I0.763 J3.568
G3 X9.84 Y9.229 I-6.01 J-0.506
G2 X7.059 Y13.12 I8.16 J8.771
G1 X5
G2 X2.62 Y15.5 I0 J2.38
G1 Y20.5
G2 X5 Y22.88 I2.38 J0
G1 X7.059
G2 X28.941 Y22.88 I10.941 J-4.88
G1 X31
G2 X33.38 Y20.5 I0 J-2.38
G1 Y15.5
G2 X31 Y13.12 I-2.38 J0
G1 X28.941
G2 X9.84 Y9.229 I-10.941 J4.88
G3 X9.459 Y9.149 I-0.162 J-0.174
G1 X4.317 Y-2.711
G2 X3.959 Y-2.809 I-0.218 J0.095
G1 X3.893 Y-2.761 Z-1.207 F50
X3.83 Y-2.715 Z-1.227
X3.771 Y-2.672 Z-1.261
X3.716 Y-2.632 Z-1.306
X3.669 Y-2.598 Z-1.362
X3.631 Y-2.569 Z-1.428
X3.601 Y-2.548 Z-1.5
X3.572 Y-2.527 Z-1.572
X3.533 Y-2.499 Z-1.638
X3.486 Y-2.464 Z-1.694
X3.432 Y-2.425 Z-1.739
X3.372 Y-2.381 Z-1.773
X3.309 Y-2.335 Z-1.793
X3.244 Y-2.288 Z-1.8
X3.229 Y-2.277
G2 X0.137 Y0.39 I14.771 J20.258 F150
G3 X-1.207 Y1.315 I-3.072 J-3.026
G2 X-2.273 Y1.83 I6.237 J14.255
G3 X-3.395 Y-0.073 I-0.519 J-0.976
G1 X-1.115 Y-1.557
X-1.035 Y-1.604
X-0.951 Y-1.645
X2.578 Y-3.17
G3 X2.891 Y-3.253 I0.439 J1.015
G1 X13.448 Y-4.46
G3 X13.8 Y-2.28 I0.126 J1.098
G2 X9.462 Y-0.845 I4.13 J19.757
X2.505 Y4.331 I8.864 J19.176
G3 X1.473 Y5.015 I-1.796 J-1.59
G2 X-2.273 Y7.153 I3.565 J10.599
G1 X-2.308 Y7.19
X-2.334 Y7.234
X-2.35 Y7.282
X-2.356 Y7.333
X-2.399 Y33.965
X-2.394 Y34.016
X-2.377 Y34.065
X-2.351 Y34.11
X-2.315 Y34.147
X-2.272 Y34.176
G2 X-1.207 Y34.685 I7.197 J-13.676
G3 X0.137 Y35.61 I-1.729 J3.95
G2 X3.227 Y38.275 I17.863 J-17.591
G3 X3.449 Y39.847 I-0.651 J0.893
X1.871 Y40.02 I-0.873 J-0.678
G1 X-0.765 Y37.841
G3 X-0.95 Y37.645 I0.704 J-0.852
G1 X-2.787 Y35.154
G3 X-2.975 Y34.745 I0.89 J-0.656
G1 X-4.078 Y29.927
G3 X-2.277 Y28.844 I1.078 J-0.247
G2 X1.473 Y30.985 I7.315 J-8.458
G3 X2.505 Y31.669 I-0.765 J2.273
G2 X13.928 Y38.279 I15.628 J-13.83
G1 X32.63 Y38.322
X32.68 Y38.317
X32.728 Y38.302
X32.771 Y38.277
G2 X35.863 Y35.61 I-14.771 J-20.258
G3 X37.207 Y34.685 I3.072 J3.026
G2 X38.273 Y34.17 I-6.237 J-14.255
G3 X39.395 Y36.073 I0.519 J0.976
G1 X37.115 Y37.557
X37.035 Y37.604
X36.951 Y37.645
X33.422 Y39.17
G3 X33.109 Y39.253 I-0.439 J-1.015
G1 X22.552 Y40.46
G3 X22.2 Y38.28 I-0.126 J-1.098
G2 X26.538 Y36.845 I-4.13 J-19.757
X33.495 Y31.669 I-8.863 J-19.176
G3 X34.527 Y30.985 I1.796 J1.59
G2 X38.273 Y28.847 I-3.565 J-10.599
G1 X38.308 Y28.81
X38.334 Y28.766
X38.35 Y28.718
X38.356 Y28.667
X38.399 Y2.035
X38.394 Y1.984
X38.377 Y1.935
X38.351 Y1.89
X38.315 Y1.853
X38.272 Y1.824
G2 X37.207 Y1.315 I-7.197 J13.676
G3 X35.863 Y0.39 I1.729 J-3.95
G2 X32.773 Y-2.275 I-17.863 J17.591
G3 X32.552 Y-3.847 I0.651 J-0.893
X34.129 Y-4.02 I0.873 J0.678
G1 X36.765 Y-1.841
G3 X36.95 Y-1.645 I-0.704 J0.852
G1 X38.787 Y0.846
G3 X38.975 Y1.255 I-0.89 J0.656
G1 X40.078 Y6.073
G3 X38.277 Y7.156 I-1.078 J0.247
G2 X34.527 Y5.015 I-7.315 J8.458
G3 X33.495 Y4.331 I0.765 J-2.273
G2 X22.072 Y-2.279 I-15.628 J13.83
X18.118 Y-0.497 I-0.745 J3.623
G3 X14.615 Y2.058 I-4.616 J-2.649
G2 X10.565 Y3.521 I3.316 J15.514
X4.83 Y8.485 I7.701 J14.691
G3 X4.117 Y8.911 I-0.853 J-0.617
G2 X-0.025 Y11.114 I0.895 J6.68
X-1.692 Y15.5 I4.935 J4.386
G1 Y20.5
G2 X-0.025 Y24.886 I6.602 J0
X4.117 Y27.089 I5.038 J-4.477
G3 X4.83 Y27.515 I-0.14 J1.044
G2 X18.07 Y34.292 I13.274 J-9.609
X25.435 Y32.479 I0 J-15.865
X31.17 Y27.515 I-7.701 J-14.691
G3 X31.883 Y27.089 I0.853 J0.617
G2 X36.025 Y24.886 I-0.895 J-6.679
X37.692 Y20.5 I-4.935 J-4.386
G1 Y15.5
G2 X36.025 Y11.114 I-6.602 J0
X31.883 Y8.911 I-5.038 J4.477
G3 X31.17 Y8.485 I0.14 J-1.044
G2 X17.93 Y1.708 I-13.274 J9.609
X14.615 Y2.058 I0 J15.865
X11.741 Y5.32 I0.763 J3.568
G3 X9.84 Y9.229 I-6.01 J-0.506
G2 X7.059 Y13.12 I8.16 J8.771
G1 X5
G2 X2.62 Y15.5 I0 J2.38
G1 Y20.5
G2 X5 Y22.88 I2.38 J0
G1 X7.059
G2 X28.941 Y22.88 I10.941 J-4.88
G1 X31
G2 X33.38 Y20.5 I0 J-2.38
G1 Y15.5
G2 X31 Y13.12 I-2.38 J0
G1 X28.941
G2 X9.84 Y9.229 I-10.941 J4.88
G3 X9.459 Y9.149 I-0.162 J-0.174
G1 X4.317 Y-2.711
G2 X3.959 Y-2.809 I-0.218 J0.095
G1 X3.893 Y-2.761 Z-1.807 F50
X3.83 Y-2.715 Z-1.827
X3.771 Y-2.672 Z-1.861
X3.716 Y-2.632 Z-1.906
X3.669 Y-2.598 Z-1.962
X3.631 Y-2.569 Z-2.028
X3.601 Y-2.548 Z-2.1
X3.572 Y-2.527 Z-2.172
X3.533 Y-2.499 Z-2.238
X3.486 Y-2.464 Z-2.294
X3.432 Y-2.425 Z-2.339
X3.372 Y-2.381 Z-2.373
X3.309 Y-2.335 Z-2.393
X3.244 Y-2.288 Z-2.4
X3.229 Y-2.277
G2 X0.137 Y0.39 I14.771 J20.258 F150
G3 X-1.207 Y1.315 I-3.072 J-3.026
G2 X-2.273 Y1.83 I6.237 J14.255
G3 X-3.395 Y-0.073 I-0.519 J-0.976
G1 X-1.115 Y-1.557
X-1.035 Y-1.604
X-0.951 Y-1.645
X2.578 Y-3.17
G3 X2.891 Y-3.253 I0.439 J1.015
G1 X13.448 Y-4.46
G3 X13.8 Y-2.28 I0.126 J1.098
G2 X9.462 Y-0.845 I4.13 J19.757
X2.505 Y4.331 I8.864 J19.176
G3 X1.473 Y5.015 I-1.796 J-1.59
G2 X-2.273 Y7.153 I3.565 J10.599
G1 X-2.308 Y7.19
X-2.334 Y7.234
X-2.35 Y7.282
X-2.356 Y7.333
X-2.399 Y33.965
X-2.394 Y34.016
X-2.377 Y34.065
X-2.351 Y34.11
X-2.315 Y34.147
X-2.272 Y34.176
G2 X-1.207 Y34.685 I7.197 J-13.676
G3 X0.137 Y35.61 I-1.729 J3.95
G2 X3.227 Y38.275 I17.863 J-17.591
G3 X3.449 Y39.847 I-0.651 J0.893
X1.871 Y40.02 I-0.873 J-0.678
G1 X-0.765 Y37.841
G3 X-0.95 Y37.645 I0.704 J-0.852
G1 X-2.787 Y35.154
G3 X-2.975 Y34.745 I0.89 J-0.656
G1 X-4.078 Y29.927
G3 X-2.277 Y28.844 I1.078 J-0.247
G2 X1.473 Y30.985 I7.315 J-8.458
G3 X2.505 Y31.669 I-0.765 J2.273
G2 X13.928 Y38.279 I15.628 J-13.83
G1 X32.63 Y38.322
X32.68 Y38.317
X32.728 Y38.302
X32.771 Y38.277
G2 X35.863 Y35.61 I-14.771 J-20.258
G3 X37.207 Y34.685 I3.072 J3.026
G2 X38.273 Y34.17 I-6.237 J-14.255
G3 X39.395 Y36.073 I0.519 J0.976
G1 X37.115 Y37.557
X37.035 Y37.604
X36.951 Y37.645
X33.422 Y39.17
G3 X33.109 Y39.253 I-0.439 J-1.015
G1 X22.552 Y40.46
G3 X22.2 Y38.28 I-0.126 J-1.098
G2 X26.538 Y36.845 I-4.13 J-19.757
X33.495 Y31.669 I-8.863 J-19.176
G3 X34.527 Y30.985 I1.796 J1.59
G2 X38.273 Y28.847 I-3.565 J-10.599
G1 X38.308 Y28.81
X38.334 Y28.766
X38.35 Y28.718
X38.356 Y28.667
X38.399 Y2.035
X38.394 Y1.984
X38.377 Y1.935
X38.351 Y1.89
X38.315 Y1.853
X38.272 Y1.824
G2 X37.207 Y1.315 I-7.197 J13.676
G3 X35.863 Y0.39 I1.729 J-3.95
G2 X32.773 Y-2.275 I-17.863 J17.591
G3 X32.552 Y-3.847 I0.651 J-0.893
X34.129 Y-4.02 I0.873 J0.678
G1 X36.765 Y-1.841
G3 X36.95 Y-1.645 I-0.704 J0.852
G1 X38.787 Y0.846
G3 X38.975 Y1.255 I-0.89 J0.656
G1 X40.078 Y6.073
G3 X38.277 Y7.156 I-1.078 J0.247
G2 X34.527 Y5.015 I-7.315 J8.458
G3 X33.495 Y4.331 I0.765 J-2.273
G2 X22.072 Y-2.279 I-15.628 J13.83
X18.118 Y-0.497 I-0.745 J3.623
G3 X14.615 Y2.058 I-4.616 J-2.649
G2 X10.565 Y3.521 I3.316 J15.514
X4.83 Y8.485 I7.701 J14.691
G3 X4.117 Y8.911 I-0.853 J-0.617
G2 X-0.025 Y11.114 I0.895 J6.68
X-1.692 Y15.5 I4.935 J4.386
G1 Y20.5
G2 X-0.025 Y24.886 I6.602 J0
X4.117 Y27.089 I5.038 J-4.477
G3 X4.83 Y27.515 I-0.14 J1.044
G2 X18.07 Y34.292 I13.274 J-9.609
X25.435 Y32.479 I0 J-15.865
X31.17 Y27.515 I-7.701 J-14.691
G3 X31.883 Y27.089 I0.853 J0.617
G2 X36.025 Y24.886 I-0.895 J-6.679
X37.692 Y20.5 I-4.935 J-4.386
G1 Y15.5
G2 X36.025 Y11.114 I-6.602 J0
X31.883 Y8.911 I-5.038 J4.477
G3 X31.17 Y8.485 I0.14 J-1.044
G2 X17.93 Y1.708 I-13.274 J9.609
X14.615 Y2.058 I0 J15.865
X11.741 Y5.32 I0.763 J3.568
G3 X9.84 Y9.229 I-6.01 J-0.506
G2 X7.059 Y13.12 I8.16 J8.771
G1 X5
G2 X2.62 Y15.5 I0 J2.38
G1 Y20.5
G2 X5 Y22.88 I2.38 J0
G1 X7.059
G2 X28.941 Y22.88 I10.941 J-4.88
G1 X31
G2 X33.38 Y20.5 I0 J-2.38
G1 Y15.5
G2 X31 Y13.12 I-2.38 J0
G1 X28.941
G2 X9.84 Y9.229 I-10.941 J4.88
G3 X9.459 Y9.149 I-0.162 J-0.174
G1 X4.317 Y-2.711
G2 X3.959 Y-2.809 I-0.218 J0.095
G1 X3.893 Y-2.761 Z-2.407 F50
X3.83 Y-2.715 Z-2.427
X3.771 Y-2.672 Z-2.461
X3.716 Y-2.632 Z-2.506
X3.669 Y-2.598 Z-2.562
X3.631 Y-2.569 Z-2.628
X3.601 Y-2.548 Z-2.7
X3.572 Y-2.527 Z-2.772
X3.533 Y-2.499 Z-2.838
X3.486 Y-2.464 Z-2.894
X3.432 Y-2.425 Z-2.939
X3.372 Y-2.381 Z-2.973
X3.309 Y-2.335 Z-2.993
X3.244 Y-2.288 Z-3
X3.229 Y-2.277
G2 X0.137 Y0.39 I14.771 J20.258 F150
G3 X-1.207 Y1.315 I-3.072 J-3.026
G2 X-2.273 Y1.83 I6.237 J14.255
G3 X-3.395 Y-0.073 I-0.519 J-0.976
G1 X-1.115 Y-1.557
X-1.035 Y-1.604
X-0.951 Y-1.645
X2.578 Y-3.17
G3 X2.891 Y-3.253 I0.439 J1.015
G1 X13.448 Y-4.46
G3 X13.8 Y-2.28 I0.126 J1.098
G2 X9.462 Y-0.845 I4.13 J19.757
X2.505 Y4.331 I8.864 J19.176
G3 X1.473 Y5.015 I-1.796 J-1.59
G2 X-2.273 Y7.153 I3.565 J10.599
G1 X-2.308 Y7.19
X-2.334 Y7.234
X-2.35 Y7.282
X-2.356 Y7.333
X-2.399 Y33.965
X-2.394 Y34.016
X-2.377 Y34.065
X-2.351 Y34.11
X-2.315 Y34.147
X-2.272 Y34.176
G2 X-1.207 Y34.685 I7.197 J-13.676
G3 X0.137 Y35.61 I-1.729 J3.95
G2 X3.227 Y38.275 I17.863 J-17.591
G3 X3.449 Y39.847 I-0.651 J0.893
X1.871 Y40.02 I-0.873 J-0.678
G1 X-0.765 Y37.841
G3 X-0.95 Y37.645 I0.704 J-0.852
G1 X-2.787 Y35.154
G3 X-2.975 Y34.745 I0.89 J-0.656
G1 X-4.078 Y29.927
G3 X-2.277 Y28.844 I1.078 J-0.247
G2 X1.473 Y30.985 I7.315 J-8.458
G3 X2.505 Y31.669 I-0.765 J2.273
G2 X13.928 Y38.279 I15.628 J-13.83
G1 X32.63 Y38.322
X32.68 Y38.317
X32.728 Y38.302
X32.771 Y38.277
G2 X35.863 Y35.61 I-14.771 J-20.258
G3 X37.207 Y34.685 I3.072 J3.026
G2 X38.273 Y34.17 I-6.237 J-14.255
G3 X39.395 Y36.073 I0.519 J0.976
G1 X37.115 Y37.557
X37.035 Y37.604
X36.951 Y37.645
X33.422 Y39.17
G3 X33.109 Y39.253 I-0.439 J-1.015
G1 X22.552 Y40.46
G3 X22.2 Y38.28 I-0.126 J-1.098
G2 X26.538 Y36.845 I-4.13 J-19.757
X33.495 Y31.669 I-8.863 J-19.176
G3 X34.527 Y30.985 I1.796 J1.59
G2 X38.273 Y28.847 I-3.565 J-10.599
G1 X38.308 Y28.81
X38.334 Y28.766
X38.35 Y28.718
X38.356 Y28.667
X38.399 Y2.035
X38.394 Y1.984
X38.377 Y1.935
X38.351 Y1.89
X38.315 Y1.853
X38.272 Y1.824
G2 X37.207 Y1.315 I-7.197 J13.676
G3 X35.863 Y0.39 I1.729 J-3.95
G2 X32.773 Y-2.275 I-17.863 J17.591
G3 X32.552 Y-3.847 I0.651 J-0.893
X34.129 Y-4.02 I0.873 J0.678
G1 X36.765 Y-1.841
G3 X36.95 Y-1.645 I-0.704 J0.852
G1 X38.787 Y0.846
G3 X38.975 Y1.255 I-0.89 J0.656
G1 X40.078 Y6.073
G3 X38.277 Y7.156 I-1.078 J0.247
G2 X34.527 Y5.015 I-7.315 J8.458
G3 X33.495 Y4.331 I0.765 J-2.273
G2 X22.072 Y-2.279 I-15.628 J13.83
X18.118 Y-0.497 I-0.745 J3.623
G3 X14.615 Y2.058 I-4.616 J-2.649
G2 X10.565 Y3.521 I3.316 J15.514
X4.83 Y8.485 I7.701 J14.691
G3 X4.117 Y8.911 I-0.853 J-0.617
G2 X-0.025 Y11.114 I0.895 J6.68
X-1.692 Y15.5 I4.935 J4.386
G1 Y20.5
G2 X-0.025 Y24.886 I6.602 J0
X4.117 Y27.089 I5.038 J-4.477
G3 X4.83 Y27.515 I-0.14 J1.044
G2 X18.07 Y34.292 I13.274 J-9.609
X25.435 Y32.479 I0 J-15.865
X31.17 Y27.515 I-7.701 J-14.691
G3 X31.883 Y27.089 I0.853 J0.617
G2 X36.025 Y24.886 I-0.895 J-6.679
X37.692 Y20.5 I-4.935 J-4.386
G1 Y15.5
G2 X36.025 Y11.114 I-6.602 J0
X31.883 Y8.911 I-5.038 J4.477
G3 X31.17 Y8.485 I0.14 J-1.044
G2 X17.93 Y1.708 I-13.274 J9.609
X14.615 Y2.058 I0 J15.865
X11.741 Y5.32 I0.763 J3.568
G3 X9.84 Y9.229 I-6.01 J-0.506
G2 X7.059 Y13.12 I8.16 J8.771
G1 X5
G2 X2.62 Y15.5 I0 J2.38
G1 Y20.5
G2 X5 Y22.88 I2.38 J0
G1 X7.059
G2 X28.941 Y22.88 I10.941 J-4.88
G1 X31
G2 X33.38 Y20.5 I0 J-2.38
G1 Y15.5
G2 X31 Y13.12 I-2.38 J0
G1 X28.941
G2 X9.84 Y9.229 I-10.941 J4.88
G3 X9.459 Y9.149 I-0.162 J-0.174
G1 X4.317 Y-2.711
G2 X3.959 Y-2.809 I-0.218 J0.095
G1 X3.893 Y-2.761 Z-3.007 F50
X3.83 Y-2.715 Z-3.027
X3.771 Y-2.672 Z-3.061
X3.716 Y-2.632 Z-3.106
X3.669 Y-2.598 Z-3.162
X3.631 Y-2.569 Z-3.228
X3.601 Y-2.548 Z-3.3
X3.572 Y-2.527 Z-3.372
X3.533 Y-2.499 Z-3.438
X3.486 Y-2.464 Z-3.494
X3.432 Y-2.425 Z-3.539
X3.372 Y-2.381 Z-3.573
X3.309 Y-2.335 Z-3.593
X3.244 Y-2.288 Z-3.6
X3.229 Y-2.277
G2 X0.137 Y0.39 I14.771 J20.258 F150
G3 X-1.207 Y1.315 I-3.072 J-3.026
G2 X-2.273 Y1.83 I6.237 J14.255
G3 X-3.395 Y-0.073 I-0.519 J-0.976
G1 X-1.115 Y-1.557
X-1.035 Y-1.604
X-0.951 Y-1.645
X2.578 Y-3.17
G3 X2.891 Y-3.253 I0.439 J1.015
G1 X13.448 Y-4.46
G3 X13.8 Y-2.28 I0.126 J1.098
G2 X9.462 Y-0.845 I4.13 J19.757
X2.505 Y4.331 I8.864 J19.176
G3 X1.473 Y5.015 I-1.796 J-1.59
G2 X-2.273 Y7.153 I3.565 J10.599
G1 X-2.308 Y7.19
X-2.334 Y7.234
X-2.35 Y7.282
X-2.356 Y7.333
X-2.399 Y33.965
X-2.394 Y34.016
X-2.377 Y34.065
X-2.351 Y34.11
X-2.315 Y34.147
X-2.272 Y34.176
G2 X-1.207 Y34.685 I7.197 J-13.676
G3 X0.137 Y35.61 I-1.729 J3.95
G2 X3.227 Y38.275 I17.863 J-17.591
G3 X3.449 Y39.847 I-0.651 J0.893
X1.871 Y40.02 I-0.873 J-0.678
G1 X-0.765 Y37.841
G3 X-0.95 Y37.645 I0.704 J-0.852
G1 X-2.787 Y35.154
G3 X-2.975 Y34.745 I0.89 J-0.656
G1 X-4.078 Y29.927
G3 X-2.277 Y28.844 I1.078 J-0.247
G2 X1.473 Y30.985 I7.315 J-8.458
G3 X2.505 Y31.669 I-0.765 J2.273
G2 X13.928 Y38.279 I15.628 J-13.83
G1 X32.63 Y38.322
X32.68 Y38.317
X32.728 Y38.302
X32.771 Y38.277
G2 X35.863 Y35.61 I-14.771 J-20.258
G3 X37.207 Y34.685 I3.072 J3.026
G2 X38.273 Y34.17 I-6.237 J-14.255
G3 X39.395 Y36.073 I0.519 J0.976
G1 X37.115 Y37.557
X37.035 Y37.604
X36.951 Y37.645
X33.422 Y39.17
G3 X33.109 Y39.253 I-0.439 J-1.015
G1 X22.552 Y40.46
G3 X22.2 Y38.28 I-0.126 J-1.098
G2 X26.538 Y36.845 I-4.13 J-19.757
X33.495 Y31.669 I-8.863 J-19.176
G3 X34.527 Y30.985 I1.796 J1.59
G2 X38.273 Y28.847 I-3.565 J-10.599
G1 X38.308 Y28.81
X38.334 Y28.766
X38.35 Y28.718
X38.356 Y28.667
X38.399 Y2.035
X38.394 Y1.984
X38.377 Y1.935
X38.351 Y1.89
X38.315 Y1.853
X38.272 Y1.824
G2 X37.207 Y1.315 I-7.197 J13.676
G3 X35.863 Y0.39 I1.729 J-3.95
G2 X32.773 Y-2.275 I-17.863 J17.591
G3 X32.552 Y-3.847 I0.651 J-0.893
X34.129 Y-4.02 I0.873 J0.678
G1 X36.765 Y-1.841
G3 X36.95 Y-1.645 I-0.704 J0.852
G1 X38.787 Y0.846
G3 X38.975 Y1.255 I-0.89 J0.656
G1 X40.078 Y6.073
G3 X38.277 Y7.156 I-1.078 J0.247
G2 X34.527 Y5.015 I-7.315 J8.458
G3 X33.495 Y4.331 I0.765 J-2.273
G2 X22.072 Y-2.279 I-15.628 J13.83
X18.118 Y-0.497 I-0.745 J3.623
G3 X14.615 Y2.058 I-4.616 J-2.649
G2 X10.565 Y3.521 I3.316 J15.514
X4.83 Y8.485 I7.701 J14.691
G3 X4.117 Y8.911 I-0.853 J-0.617
G2 X-0.025 Y11.114 I0.895 J6.68
X-1.692 Y15.5 I4.935 J4.386
G1 Y20.5
G2 X-0.025 Y24.886 I6.602 J0
X4.117 Y27.089 I5.038 J-4.477
G3 X4.83 Y27.515 I-0.14 J1.044
G2 X18.07 Y34.292 I13.274 J-9.609
X25.435 Y32.479 I0 J-15.865
X31.17 Y27.515 I-7.701 J-14.691
G3 X31.883 Y27.089 I0.853 J0.617
G2 X36.025 Y24.886 I-0.895 J-6.679
X37.692 Y20.5 I-4.935 J-4.386
G1 Y15.5
G2 X36.025 Y11.114 I-6.602 J0
X31.883 Y8.911 I-5.038 J4.477
G3 X31.17 Y8.485 I0.14 J-1.044
G2 X17.93 Y1.708 I-13.274 J9.609
X14.615 Y2.058 I0 J15.865
X11.741 Y5.32 I0.763 J3.568
G3 X9.84 Y9.229 I-6.01 J-0.506
G2 X7.059 Y13.12 I8.16 J8.771
G1 X5
G2 X2.62 Y15.5 I0 J2.38
G1 Y20.5
G2 X5 Y22.88 I2.38 J0
G1 X7.059
G2 X28.941 Y22.88 I10.941 J-4.88
G1 X31
G2 X33.38 Y20.5 I0 J-2.38
G1 Y15.5
G2 X31 Y13.12 I-2.38 J0
G1 X28.941
G2 X9.84 Y9.229 I-10.941 J4.88
G3 X9.459 Y9.149 I-0.162 J-0.174
G1 X4.317 Y-2.711
G2 X3.959 Y-2.809 I-0.218 J0.095
G1 X3.893 Y-2.761 Z-3.607 F50
X3.83 Y-2.715 Z-3.627
X3.771 Y-2.672 Z-3.661
X3.716 Y-2.632 Z-3.706
X3.669 Y-2.598 Z-3.762
X3.631 Y-2.569 Z-3.828
X3.601 Y-2.548 Z-3.9
X3.572 Y-2.527 Z-3.972
X3.533 Y-2.499 Z-4.038
X3.486 Y-2.464 Z-4.094
X3.432 Y-2.425 Z-4.139
X3.372 Y-2.381 Z-4.173
X3.309 Y-2.335 Z-4.193
X3.244 Y-2.288 Z-4.2
X3.229 Y-2.277
G2 X0.137 Y0.39 I14.771 J20.258 F150
G3 X-1.207 Y1.315 I-3.072 J-3.026
G2 X-2.273 Y1.83 I6.237 J14.255
G3 X-3.395 Y-0.073 I-0.519 J-0.976
G1 X-1.115 Y-1.557
X-1.035 Y-1.604
X-0.951 Y-1.645
X2.578 Y-3.17
G3 X2.891 Y-3.253 I0.439 J1.015
G1 X13.448 Y-4.46
G3 X13.8 Y-2.28 I0.126 J1.098
G2 X9.462 Y-0.845 I4.13 J19.757
X2.505 Y4.331 I8.864 J19.176
G3 X1.473 Y5.015 I-1.796 J-1.59
G2 X-2.273 Y7.153 I3.565 J10.599
G1 X-2.308 Y7.19
X-2.334 Y7.234
X-2.35 Y7.282
X-2.356 Y7.333
X-2.399 Y33.965
X-2.394 Y34.016
X-2.377 Y34.065
X-2.351 Y34.11
X-2.315 Y34.147
X-2.272 Y34.176
G2 X-1.207 Y34.685 I7.197 J-13.676
G3 X0.137 Y35.61 I-1.729 J3.95
G2 X3.227 Y38.275 I17.863 J-17.591
G3 X3.449 Y39.847 I-0.651 J0.893
X1.871 Y40.02 I-0.873 J-0.678
G1 X-0.765 Y37.841
G3 X-0.95 Y37.645 I0.704 J-0.852
G1 X-2.787 Y35.154
G3 X-2.975 Y34.745 I0.89 J-0.656
G1 X-4.078 Y29.927
G3 X-2.277 Y28.844 I1.078 J-0.247
G2 X1.473 Y30.985 I7.315 J-8.458
G3 X2.505 Y31.669 I-0.765 J2.273
G2 X13.928 Y38.279 I15.628 J-13.83
G1 X32.63 Y38.322
X32.68 Y38.317
X32.728 Y38.302
X32.771 Y38.277
G2 X35.863 Y35.61 I-14.771 J-20.258
G3 X37.207 Y34.685 I3.072 J3.026
G2 X38.273 Y34.17 I-6.237 J-14.255
G3 X39.395 Y36.073 I0.519 J0.976
G1 X37.115 Y37.557
X37.035 Y37.604
X36.951 Y37.645
X33.422 Y39.17
G3 X33.109 Y39.253 I-0.439 J-1.015
G1 X22.552 Y40.46
G3 X22.2 Y38.28 I-0.126 J-1.098
G2 X26.538 Y36.845 I-4.13 J-19.757
X33.495 Y31.669 I-8.863 J-19.176
G3 X34.527 Y30.985 I1.796 J1.59
G2 X38.273 Y28.847 I-3.565 J-10.599
G1 X38.308 Y28.81
X38.334 Y28.766
X38.35 Y28.718
X38.356 Y28.667
X38.399 Y2.035
X38.394 Y1.984
X38.377 Y1.935
X38.351 Y1.89
X38.315 Y1.853
X38.272 Y1.824
G2 X37.207 Y1.315 I-7.197 J13.676
G3 X35.863 Y0.39 I1.729 J-3.95
G2 X32.773 Y-2.275 I-17.863 J17.591
G3 X32.552 Y-3.847 I0.651 J-0.893
X34.129 Y-4.02 I0.873 J0.678
G1 X36.765 Y-1.841
G3 X36.95 Y-1.645 I-0.704 J0.852
G1 X38.787 Y0.846
G3 X38.975 Y1.255 I-0.89 J0.656
G1 X40.078 Y6.073
G3 X38.277 Y7.156 I-1.078 J0.247
G2 X34.527 Y5.015 I-7.315 J8.458
G3 X33.495 Y4.331 I0.765 J-2.273
G2 X22.072 Y-2.279 I-15.628 J13.83
X18.118 Y-0.497 I-0.745 J3.623
G3 X14.615 Y2.058 I-4.616 J-2.649
G2 X10.565 Y3.521 I3.316 J15.514
X4.83 Y8.485 I7.701 J14.691
G3 X4.117 Y8.911 I-0.853 J-0.617
G2 X-0.025 Y11.114 I0.895 J6.68
X-1.692 Y15.5 I4.935 J4.386
G1 Y20.5
G2 X-0.025 Y24.886 I6.602 J0
X4.117 Y27.089 I5.038 J-4.477
G3 X4.83 Y27.515 I-0.14 J1.044
G2 X18.07 Y34.292 I13.274 J-9.609
X25.435 Y32.479 I0 J-15.865
X31.17 Y27.515 I-7.701 J-14.691
G3 X31.883 Y27.089 I0.853 J0.617
G2 X36.025 Y24.886 I-0.895 J-6.679
X37.692 Y20.5 I-4.935 J-4.386
G1 Y15.5
G2 X36.025 Y11.114 I-6.602 J0
X31.883 Y8.911 I-5.038 J4.477
G3 X31.17 Y8.485 I0.14 J-1.044
G2 X17.93 Y1.708 I-13.274 J9.609
X14.615 Y2.058 I0 J15.865
X11.741 Y5.32 I0.763 J3.568
G3 X9.84 Y9.229 I-6.01 J-0.506
G2 X7.059 Y13.12 I8.16 J8.771
G1 X5
G2 X2.62 Y15.5 I0 J2.38
G1 Y20.5
G2 X5 Y22.88 I2.38 J0
G1 X7.059
G2 X28.941 Y22.88 I10.941 J-4.88
G1 X31
G2 X33.38 Y20.5 I0 J-2.38
G1 Y15.5
G2 X31 Y13.12 I-2.38 J0
G1 X28.941
G2 X9.84 Y9.229 I-10.941 J4.88
G3 X9.459 Y9.149 I-0.162 J-0.174
G1 X4.317 Y-2.711
G2 X3.959 Y-2.809 I-0.218 J0.095
G1 X3.893 Y-2.761 Z-4.207 F50
X3.83 Y-2.715 Z-4.227
X3.771 Y-2.672 Z-4.261
X3.716 Y-2.632 Z-4.306
X3.669 Y-2.598 Z-4.362
X3.631 Y-2.569 Z-4.428
X3.601 Y-2.548 Z-4.5
X3.572 Y-2.527 Z-4.572
X3.533 Y-2.499 Z-4.638
X3.486 Y-2.464 Z-4.694
X3.432 Y-2.425 Z-4.739
X3.372 Y-2.381 Z-4.773
X3.309 Y-2.335 Z-4.793
X3.244 Y-2.288 Z-4.8
X3.229 Y-2.277
G2 X0.137 Y0.39 I14.771 J20.258 F150
G3 X-1.207 Y1.315 I-3.072 J-3.026
G2 X-2.273 Y1.83 I6.237 J14.255
G3 X-3.395 Y-0.073 I-0.519 J-0.976
G1 X-1.115 Y-1.557
X-1.035 Y-1.604
X-0.951 Y-1.645
X2.578 Y-3.17
G3 X2.891 Y-3.253 I0.439 J1.015
G1 X13.448 Y-4.46
G3 X13.8 Y-2.28 I0.126 J1.098
G2 X9.462 Y-0.845 I4.13 J19.757
X2.505 Y4.331 I8.864 J19.176
G3 X1.473 Y5.015 I-1.796 J-1.59
G2 X-2.273 Y7.153 I3.565 J10.599
G1 X-2.308 Y7.19
X-2.334 Y7.234
X-2.35 Y7.282
X-2.356 Y7.333
X-2.399 Y33.965
X-2.394 Y34.016
X-2.377 Y34.065
X-2.351 Y34.11
X-2.315 Y34.147
X-2.272 Y34.176
G2 X-1.207 Y34.685 I7.197 J-13.676
G3 X0.137 Y35.61 I-1.729 J3.95
G2 X3.227 Y38.275 I17.863 J-17.591
G3 X3.449 Y39.847 I-0.651 J0.893
X1.871 Y40.02 I-0.873 J-0.678
G1 X-0.765 Y37.841
G3 X-0.95 Y37.645 I0.704 J-0.852
G1 X-2.787 Y35.154
G3 X-2.975 Y34.745 I0.89 J-0.656
G1 X-4.078 Y29.927
G3 X-2.277 Y28.844 I1.078 J-0.247
G2 X1.473 Y30.985 I7.315 J-8.458
G3 X2.505 Y31.669 I-0.765 J2.273
G2 X13.928 Y38.279 I15.628 J-13.83
G1 X32.63 Y38.322
X32.68 Y38.317
X32.728 Y38.302
X32.771 Y38.277
G2 X35.863 Y35.61 I-14.771 J-20.258
G3 X37.207 Y34.685 I3.072 J3.026
G2 X38.273 Y34.17 I-6.237 J-14.255
G3 X39.395 Y36.073 I0.519 J0.976
G1 X37.115 Y37.557
X37.035 Y37.604
X36.951 Y37.645
X33.422 Y39.17
G3 X33.109 Y39.253 I-0.439 J-1.015
G1 X22.552 Y40.46
G3 X22.2 Y38.28 I-0.126 J-1.098
G2 X26.538 Y36.845 I-4.13 J-19.757
X33.495 Y31.669 I-8.863 J-19.176
G3 X34.527 Y30.985 I1.796 J1.59
G2 X38.273 Y28.847 I-3.565 J-10.599
G1 X38.308 Y28.81
X38.334 Y28.766
X38.35 Y28.718
X38.356 Y28.667
X38.399 Y2.035
X38.394 Y1.984
X38.377 Y1.935
X38.351 Y1.89
X38.315 Y1.853
X38.272 Y1.824
G2 X37.207 Y1.315 I-7.197 J13.676
G3 X35.863 Y0.39 I1.729 J-3.95
G2 X32.773 Y-2.275 I-17.863 J17.591
G3 X32.552 Y-3.847 I0.651 J-0.893
X34.129 Y-4.02 I0.873 J0.678
G1 X36.765 Y-1.841
G3 X36.95 Y-1.645 I-0.704 J0.852
G1 X38.787 Y0.846
G3 X38.975 Y1.255 I-0.89 J0.656
G1 X40.078 Y6.073
G3 X38.277 Y7.156 I-1.078 J0.247
G2 X34.527 Y5.015 I-7.315 J8.458
G3 X33.495 Y4.331 I0.765 J-2.273
G2 X22.072 Y-2.279 I-15.628 J13.83
X18.118 Y-0.497 I-0.745 J3.623
G3 X14.615 Y2.058 I-4.616 J-2.649
G2 X10.565 Y3.521 I3.316 J15.514
X4.83 Y8.485 I7.701 J14.691
G3 X4.117 Y8.911 I-0.853 J-0.617
G2 X-0.025 Y11.114 I0.895 J6.68
X-1.692 Y15.5 I4.935 J4.386
G1 Y20.5
G2 X-0.025 Y24.886 I6.602 J0
X4.117 Y27.089 I5.038 J-4.477
G3 X4.83 Y27.515 I-0.14 J1.044
G2 X18.07 Y34.292 I13.274 J-9.609
X25.435 Y32.479 I0 J-15.865
X31.17 Y27.515 I-7.701 J-14.691
G3 X31.883 Y27.089 I0.853 J0.617
G2 X36.025 Y24.886 I-0.895 J-6.679
X37.692 Y20.5 I-4.935 J-4.386
G1 Y15.5
G2 X36.025 Y11.114 I-6.602 J0
X31.883 Y8.911 I-5.038 J4.477
G3 X31.17 Y8.485 I0.14 J-1.044
G2 X17.93 Y1.708 I-13.274 J9.609
X14.615 Y2.058 I0 J15.865
X11.741 Y5.32 I0.763 J3.568
G3 X9.84 Y9.229 I-6.01 J-0.506
G2 X7.059 Y13.12 I8.16 J8.771
G1 X5
G2 X2.62 Y15.5 I0 J2.38
G1 Y20.5
G2 X5 Y22.88 I2.38 J0
G1 X7.059
G2 X28.941 Y22.88 I10.941 J-4.88
G1 X31
G2 X33.38 Y20.5 I0 J-2.38
G1 Y15.5
G2 X31 Y13.12 I-2.38 J0
G1 X28.941
G2 X9.84 Y9.229 I-10.941 J4.88
G3 X9.459 Y9.149 I-0.162 J-0.174
G1 X4.317 Y-2.711
G2 X3.959 Y-2.809 I-0.218 J0.095
G1 X3.893 Y-2.761 Z-4.807 F50
X3.83 Y-2.715 Z-4.827
X3.771 Y-2.672 Z-4.861
X3.716 Y-2.632 Z-4.906
X3.669 Y-2.598 Z-4.962
X3.631 Y-2.569 Z-5.028
X3.601 Y-2.548 Z-5.1
X3.572 Y-2.527 Z-5.172
X3.533 Y-2.499 Z-5.238
X3.486 Y-2.464 Z-5.294
X3.432 Y-2.425 Z-5.339
X3.372 Y-2.381 Z-5.373
X3.309 Y-2.335 Z-5.393
X3.244 Y-2.288 Z-5.4
X3.229 Y-2.277
G2 X0.137 Y0.39 I14.771 J20.258 F150
G3 X-1.207 Y1.315 I-3.072 J-3.026
G2 X-2.273 Y1.83 I6.237 J14.255
G3 X-3.395 Y-0.073 I-0.519 J-0.976
G1 X-1.115 Y-1.557
X-1.035 Y-1.604
X-0.951 Y-1.645
X2.578 Y-3.17
G3 X2.891 Y-3.253 I0.439 J1.015
G1 X13.448 Y-4.46
G3 X13.8 Y-2.28 I0.126 J1.098
G2 X9.462 Y-0.845 I4.13 J19.757
X2.505 Y4.331 I8.864 J19.176
G3 X1.473 Y5.015 I-1.796 J-1.59
G2 X-2.273 Y7.153 I3.565 J10.599
G1 X-2.308 Y7.19
X-2.334 Y7.234
X-2.35 Y7.282
X-2.356 Y7.333
X-2.399 Y33.965
X-2.394 Y34.016
X-2.377 Y34.065
X-2.351 Y34.11
X-2.315 Y34.147
X-2.272 Y34.176
G2 X-1.207 Y34.685 I7.197 J-13.676
G3 X0.137 Y35.61 I-1.729 J3.95
G2 X3.227 Y38.275 I17.863 J-17.591
G3 X3.449 Y39.847 I-0.651 J0.893
X1.871 Y40.02 I-0.873 J-0.678
G1 X-0.765 Y37.841
G3 X-0.95 Y37.645 I0.704 J-0.852
G1 X-2.787 Y35.154
G3 X-2.975 Y34.745 I0.89 J-0.656
G1 X-4.078 Y29.927
G3 X-2.277 Y28.844 I1.078 J-0.247
G2 X1.473 Y30.985 I7.315 J-8.458
G3 X2.505 Y31.669 I-0.765 J2.273
G2 X13.928 Y38.279 I15.628 J-13.83
G1 X32.63 Y38.322
X32.68 Y38.317
X32.728 Y38.302
X32.771 Y38.277
G2 X35.863 Y35.61 I-14.771 J-20.258
G3 X37.207 Y34.685 I3.072 J3.026
G2 X38.273 Y34.17 I-6.237 J-14.255
G3 X39.395 Y36.073 I0.519 J0.976
G1 X37.115 Y37.557
X37.035 Y37.604
X36.951 Y37.645
X33.422 Y39.17
G3 X33.109 Y39.253 I-0.439 J-1.015
G1 X22.552 Y40.46
G3 X22.2 Y38.28 I-0.126 J-1.098
G2 X26.538 Y36.845 I-4.13 J-19.757
X33.495 Y31.669 I-8.863 J-19.176
G3 X34.527 Y30.985 I1.796 J1.59
G2 X38.273 Y28.847 I-3.565 J-10.599
G1 X38.308 Y28.81
X38.334 Y28.766
X38.35 Y28.718
X38.356 Y28.667
X38.399 Y2.035
X38.394 Y1.984
X38.377 Y1.935
X38.351 Y1.89
X38.315 Y1.853
X38.272 Y1.824
G2 X37.207 Y1.315 I-7.197 J13.676
G3 X35.863 Y0.39 I1.729 J-3.95
G2 X32.773 Y-2.275 I-17.863 J17.591
G3 X32.552 Y-3.847 I0.651 J-0.893
X34.129 Y-4.02 I0.873 J0.678
G1 X36.765 Y-1.841
G3 X36.95 Y-1.645 I-0.704 J0.852
G1 X38.787 Y0.846
G3 X38.975 Y1.255 I-0.89 J0.656
G1 X40.078 Y6.073
G3 X38.277 Y7.156 I-1.078 J0.247
G2 X34.527 Y5.015 I-7.315 J8.458
G3 X33.495 Y4.331 I0.765 J-2.273
G2 X22.072 Y-2.279 I-15.628 J13.83
X18.118 Y-0.497 I-0.745 J3.623
G3 X14.615 Y2.058 I-4.616 J-2.649
G2 X10.565 Y3.521 I3.316 J15.514
X4.83 Y8.485 I7.701 J14.691
G3 X4.117 Y8.911 I-0.853 J-0.617
G2 X-0.025 Y11.114 I0.895 J6.68
X-1.692 Y15.5 I4.935 J4.386
G1 Y20.5
G2 X-0.025 Y24.886 I6.602 J0
X4.117 Y27.089 I5.038 J-4.477
G3 X4.83 Y27.515 I-0.14 J1.044
G2 X18.07 Y34.292 I13.274 J-9.609
X25.435 Y32.479 I0 J-15.865
X31.17 Y27.515 I-7.701 J-14.691
G3 X31.883 Y27.089 I0.853 J0.617
G2 X36.025 Y24.886 I-0.895 J-6.679
X37.692 Y20.5 I-4.935 J-4.386
G1 Y15.5
G2 X36.025 Y11.114 I-6.602 J0
X31.883 Y8.911 I-5.038 J4.477
G3 X31.17 Y8.485 I0.14 J-1.044
G2 X17.93 Y1.708 I-13.274 J9.609
X14.615 Y2.058 I0 J15.865
X11.741 Y5.32 I0.763 J3.568
G3 X9.84 Y9.229 I-6.01 J-0.506
G2 X7.059 Y13.12 I8.16 J8.771
G1 X5
G2 X2.62 Y15.5 I0 J2.38
G1 Y20.5
G2 X5 Y22.88 I2.38 J0
G1 X7.059
G2 X28.941 Y22.88 I10.941 J-4.88
G1 X31
G2 X33.38 Y20.5 I0 J-2.38
G1 Y15.5
G2 X31 Y13.12 I-2.38 J0
G1 X28.941
G2 X9.84 Y9.229 I-10.941 J4.88
G3 X9.459 Y9.149 I-0.162 J-0.174
G1 X4.317 Y-2.711
G2 X3.959 Y-2.809 I-0.218 J0.095
G1 X3.893 Y-2.761 Z-5.407 F50
X3.83 Y-2.715 Z-5.427
X3.771 Y-2.672 Z-5.461
X3.716 Y-2.632 Z-5.506
X3.669 Y-2.598 Z-5.562
X3.631 Y-2.569 Z-5.628
X3.601 Y-2.548 Z-5.7
X3.572 Y-2.527 Z-5.772
X3.533 Y-2.499 Z-5.838
X3.486 Y-2.464 Z-5.894
X3.432 Y-2.425 Z-5.939
X3.372 Y-2.381 Z-5.973
X3.309 Y-2.335 Z-5.993
X3.244 Y-2.288 Z-6
X3.229 Y-2.277
G2 X0.137 Y0.39 I14.771 J20.258 F150
G3 X-1.207 Y1.315 I-3.072 J-3.026
G2 X-2.273 Y1.83 I6.237 J14.255
G3 X-3.395 Y-0.073 I-0.519 J-0.976
G1 X-1.115 Y-1.557
X-1.035 Y-1.604
X-0.951 Y-1.645
X2.578 Y-3.17
G3 X2.891 Y-3.253 I0.439 J1.015
G1 X13.448 Y-4.46
G3 X13.8 Y-2.28 I0.126 J1.098
G2 X9.462 Y-0.845 I4.13 J19.757
X2.505 Y4.331 I8.864 J19.176
G3 X1.473 Y5.015 I-1.796 J-1.59
G2 X-2.273 Y7.153 I3.565 J10.599
G1 X-2.308 Y7.19
X-2.334 Y7.234
X-2.35 Y7.282
X-2.356 Y7.333
X-2.399 Y33.965
X-2.394 Y34.016
X-2.377 Y34.065
X-2.351 Y34.11
X-2.315 Y34.147
X-2.272 Y34.176
G2 X-1.207 Y34.685 I7.197 J-13.676
G3 X0.137 Y35.61 I-1.729 J3.95
G2 X3.227 Y38.275 I17.863 J-17.591
G3 X3.449 Y39.847 I-0.651 J0.893
X1.871 Y40.02 I-0.873 J-0.678
G1 X-0.765 Y37.841
G3 X-0.95 Y37.645 I0.704 J-0.852
G1 X-2.787 Y35.154
G3 X-2.975 Y34.745 I0.89 J-0.656
G1 X-4.078 Y29.927
G3 X-2.277 Y28.844 I1.078 J-0.247
G2 X1.473 Y30.985 I7.315 J-8.458
G3 X2.505 Y31.669 I-0.765 J2.273
G2 X13.928 Y38.279 I15.628 J-13.83
G1 X32.63 Y38.322
X32.68 Y38.317
X32.728 Y38.302
X32.771 Y38.277
G2 X35.863 Y35.61 I-14.771 J-20.258
G3 X37.207 Y34.685 I3.072 J3.026
G2 X38.273 Y34.17 I-6.237 J-14.255
G3 X39.395 Y36.073 I0.519 J0.976
G1 X37.115 Y37.557
X37.035 Y37.604
X36.951 Y37.645
X33.422 Y39.17
G3 X33.109 Y39.253 I-0.439 J-1.015
G1 X22.552 Y40.46
G3 X22.2 Y38.28 I-0.126 J-1.098
G2 X26.538 Y36.845 I-4.13 J-19.757
X33.495 Y31.669 I-8.863 J-19.176
G3 X34.527 Y30.985 I1.796 J1.59
G2 X38.273 Y28.847 I-3.565 J-10.599
G1 X38.308 Y28.81
X38.334 Y28.766
X38.35 Y28.718
X38.356 Y28.667
X38.399 Y2.035
X38.394 Y1.984
X38.377 Y1.935
X38.351 Y1.89
X38.315 Y1.853
X38.272 Y1.824
G2 X37.207 Y1.315 I-7.197 J13.676
G3 X35.863 Y0.39 I1.729 J-3.95
G2 X32.773 Y-2.275 I-17.863 J17.591
G3 X32.552 Y-3.847 I0.651 J-0.893
X34.129 Y-4.02 I0.873 J0.678
G1 X36.765 Y-1.841
G3 X36.95 Y-1.645 I-0.704 J0.852
G1 X38.787 Y0.846
G3 X38.975 Y1.255 I-0.89 J0.656
G1 X40.078 Y6.073
G3 X38.277 Y7.156 I-1.078 J0.247
G2 X34.527 Y5.015 I-7.315 J8.458
G3 X33.495 Y4.331 I0.765 J-2.273
G2 X22.072 Y-2.279 I-15.628 J13.83
X18.118 Y-0.497 I-0.745 J3.623
G3 X14.615 Y2.058 I-4.616 J-2.649
G2 X10.565 Y3.521 I3.316 J15.514
X4.83 Y8.485 I7.701 J14.691
G3 X4.117 Y8.911 I-0.853 J-0.617
G2 X-0.025 Y11.114 I0.895 J6.68
X-1.692 Y15.5 I4.935 J4.386
G1 Y20.5
G2 X-0.025 Y24.886 I6.602 J0
X4.117 Y27.089 I5.038 J-4.477
G3 X4.83 Y27.515 I-0.14 J1.044
G2 X18.07 Y34.292 I13.274 J-9.609
X25.435 Y32.479 I0 J-15.865
X31.17 Y27.515 I-7.701 J-14.691
G3 X31.883 Y27.089 I0.853 J0.617
G2 X36.025 Y24.886 I-0.895 J-6.679
X37.692 Y20.5 I-4.935 J-4.386
G1 Y15.5
G2 X36.025 Y11.114 I-6.602 J0
X31.883 Y8.911 I-5.038 J4.477
G3 X31.17 Y8.485 I0.14 J-1.044
G2 X17.93 Y1.708 I-13.274 J9.609
X14.615 Y2.058 I0 J15.865
X11.741 Y5.32 I0.763 J3.568
G3 X9.84 Y9.229 I-6.01 J-0.506
G2 X7.059 Y13.12 I8.16 J8.771
G1 X5
G2 X2.62 Y15.5 I0 J2.38
G1 Y20.5
G2 X5 Y22.88 I2.38 J0
G1 X7.059
G2 X28.941 Y22.88 I10.941 J-4.88
G1 X31
G2 X33.38 Y20.5 I0 J-2.38
G1 Y15.5
G2 X31 Y13.12 I-2.38 J0
G1 X28.941
G2 X9.84 Y9.229 I-10.941 J4.88
G3 X9.459 Y9.149 I-0.162 J-0.174
G1 X4.317 Y-2.711
G2 X3.959 Y-2.809 I-0.218 J0.095
G1 X3.893 Y-2.761 Z-6.007 F50
X3.83 Y-2.715 Z-6.027
X3.771 Y-2.672 Z-6.061
X3.716 Y-2.632 Z-6.106
X3.669 Y-2.598 Z-6.162
X3.631 Y-2.569 Z-6.228
X3.601 Y-2.548 Z-6.3
X3.572 Y-2.527 Z-6.372
X3.533 Y-2.499 Z-6.438
X3.486 Y-2.464 Z-6.494
X3.432 Y-2.425 Z-6.539
X3.372 Y-2.381 Z-6.573
X3.309 Y-2.335 Z-6.593
X3.244 Y-2.288 Z-6.6
X3.229 Y-2.277
G2 X0.137 Y0.39 I14.771 J20.258 F150
G3 X-1.207 Y1.315 I-3.072 J-3.026
G2 X-2.273 Y1.83 I6.237 J14.255
G3 X-3.395 Y-0.073 I-0.519 J-0.976
G1 X-1.115 Y-1.557
X-1.035 Y-1.604
X-0.951 Y-1.645
X2.578 Y-3.17
G3 X2.891 Y-3.253 I0.439 J1.015
G1 X13.448 Y-4.46
G3 X13.8 Y-2.28 I0.126 J1.098
G2 X9.462 Y-0.845 I4.13 J19.757
X2.505 Y4.331 I8.864 J19.176
G3 X1.473 Y5.015 I-1.796 J-1.59
G2 X-2.273 Y7.153 I3.565 J10.599
G1 X-2.308 Y7.19
X-2.334 Y7.234
X-2.35 Y7.282
X-2.356 Y7.333
X-2.399 Y33.965
X-2.394 Y34.016
X-2.377 Y34.065
X-2.351 Y34.11
X-2.315 Y34.147
X-2.272 Y34.176
G2 X-1.207 Y34.685 I7.197 J-13.676
G3 X0.137 Y35.61 I-1.729 J3.95
G2 X3.227 Y38.275 I17.863 J-17.591
G3 X3.449 Y39.847 I-0.651 J0.893
X1.871 Y40.02 I-0.873 J-0.678
G1 X-0.765 Y37.841
G3 X-0.95 Y37.645 I0.704 J-0.852
G1 X-2.787 Y35.154
G3 X-2.975 Y34.745 I0.89 J-0.656
G1 X-4.078 Y29.927
G3 X-2.277 Y28.844 I1.078 J-0.247
G2 X1.473 Y30.985 I7.315 J-8.458
G3 X2.505 Y31.669 I-0.765 J2.273
G2 X13.928 Y38.279 I15.628 J-13.83
G1 X32.63 Y38.322
X32.68 Y38.317
X32.728 Y38.302
X32.771 Y38.277
G2 X35.863 Y35.61 I-14.771 J-20.258
G3 X37.207 Y34.685 I3.072 J3.026
G2 X38.273 Y34.17 I-6.237 J-14.255
G3 X39.395 Y36.073 I0.519 J0.976
G1 X37.115 Y37.557
X37.035 Y37.604
X36.951 Y37.645
X33.422 Y39.17
G3 X33.109 Y39.253 I-0.439 J-1.015
G1 X22.552 Y40.46
G3 X22.2 Y38.28 I-0.126 J-1.098
G2 X26.538 Y36.845 I-4.13 J-19.757
X33.495 Y31.669 I-8.863 J-19.176
G3 X34.527 Y30.985 I1.796 J1.59
G2 X38.273 Y28.847 I-3.565 J-10.599
G1 X38.308 Y28.81
X38.334 Y28.766
X38.35 Y28.718
X38.356 Y28.667
X38.399 Y2.035
X38.394 Y1.984
X38.377 Y1.935
X38.351 Y1.89
X38.315 Y1.853
X38.272 Y1.824
G2 X37.207 Y1.315 I-7.197 J13.676
G3 X35.863 Y0.39 I1.729 J-3.95
G2 X32.773 Y-2.275 I-17.863 J17.591
G3 X32.552 Y-3.847 I0.651 J-0.893
X34.129 Y-4.02 I0.873 J0.678
G1 X36.765 Y-1.841
G3 X36.95 Y-1.645 I-0.704 J0.852
G1 X38.787 Y0.846
G3 X38.975 Y1.255 I-0.89 J0.656
G1 X40.078 Y6.073
G3 X38.277 Y7.156 I-1.078 J0.247
G2 X34.527 Y5.015 I-7.315 J8.458
G3 X33.495 Y4.331 I0.765 J-2.273
G2 X22.072 Y-2.279 I-15.628 J13.83
X18.118 Y-0.497 I-0.745 J3.623
G3 X14.615 Y2.058 I-4.616 J-2.649
G2 X10.565 Y3.521 I3.316 J15.514
X4.83 Y8.485 I7.701 J14.691
G3 X4.117 Y8.911 I-0.853 J-0.617
G2 X-0.025 Y11.114 I0.895 J6.68
X-1.692 Y15.5 I4.935 J4.386
G1 Y20.5
G2 X-0.025 Y24.886 I6.602 J0
X4.117 Y27.089 I5.038 J-4.477
G3 X4.83 Y27.515 I-0.14 J1.044
G2 X18.07 Y34.292 I13.274 J-9.609
X25.435 Y32.479 I0 J-15.865
X31.17 Y27.515 I-7.701 J-14.691
G3 X31.883 Y27.089 I0.853 J0.617
G2 X36.025 Y24.886 I-0.895 J-6.679
X37.692 Y20.5 I-4.935 J-4.386
G1 Y15.5
G2 X36.025 Y11.114 I-6.602 J0
X31.883 Y8.911 I-5.038 J4.477
G3 X31.17 Y8.485 I0.14 J-1.044
G2 X17.93 Y1.708 I-13.274 J9.609
X14.615 Y2.058 I0 J15.865
X11.741 Y5.32 I0.763 J3.568
G3 X9.84 Y9.229 I-6.01 J-0.506
G2 X7.059 Y13.12 I8.16 J8.771
G1 X5
G2 X2.62 Y15.5 I0 J2.38
G1 Y20.5
G2 X5 Y22.88 I2.38 J0
G1 X7.059
G2 X28.941 Y22.88 I10.941 J-4.88
G1 X31
G2 X33.38 Y20.5 I0 J-2.38
G1 Y15.5
G2 X31 Y13.12 I-2.38 J0
G1 X28.941
G2 X9.84 Y9.229 I-10.941 J4.88
G3 X9.459 Y9.149 I-0.162 J-0.174
G1 X4.317 Y-2.711
G2 X3.959 Y-2.809 I-0.218 J0.095
G1 X3.893 Y-2.761 Z-6.607 F50
X3.83 Y-2.715 Z-6.627
X3.771 Y-2.672 Z-6.661
X3.716 Y-2.632 Z-6.706
X3.669 Y-2.598 Z-6.762
X3.631 Y-2.569 Z-6.828
X3.601 Y-2.548 Z-6.9
X3.572 Y-2.527 Z-6.972
X3.533 Y-2.499 Z-7.038
X3.486 Y-2.464 Z-7.094
X3.432 Y-2.425 Z-7.139
X3.372 Y-2.381 Z-7.173
X3.309 Y-2.335 Z-7.193
X3.244 Y-2.288 Z-7.2
X3.229 Y-2.277
G2 X0.137 Y0.39 I14.771 J20.258 F150
G3 X-1.207 Y1.315 I-3.072 J-3.026
G2 X-2.273 Y1.83 I6.237 J14.255
G3 X-3.395 Y-0.073 I-0.519 J-0.976
G1 X-1.115 Y-1.557
X-1.035 Y-1.604
X-0.951 Y-1.645
X2.578 Y-3.17
G3 X2.891 Y-3.253 I0.439 J1.015
G1 X13.448 Y-4.46
G3 X13.8 Y-2.28 I0.126 J1.098
G2 X9.462 Y-0.845 I4.13 J19.757
X2.505 Y4.331 I8.864 J19.176
G3 X1.473 Y5.015 I-1.796 J-1.59
G2 X-2.273 Y7.153 I3.565 J10.599
G1 X-2.308 Y7.19
X-2.334 Y7.234
X-2.35 Y7.282
X-2.356 Y7.333
X-2.399 Y33.965
X-2.394 Y34.016
X-2.377 Y34.065
X-2.351 Y34.11
X-2.315 Y34.147
X-2.272 Y34.176
G2 X-1.207 Y34.685 I7.197 J-13.676
G3 X0.137 Y35.61 I-1.729 J3.95
G2 X3.227 Y38.275 I17.863 J-17.591
G3 X3.449 Y39.847 I-0.651 J0.893
X1.871 Y40.02 I-0.873 J-0.678
G1 X-0.765 Y37.841
G3 X-0.95 Y37.645 I0.704 J-0.852
G1 X-2.787 Y35.154
G3 X-2.975 Y34.745 I0.89 J-0.656
G1 X-4.078 Y29.927
G3 X-2.277 Y28.844 I1.078 J-0.247
G2 X1.473 Y30.985 I7.315 J-8.458
G3 X2.505 Y31.669 I-0.765 J2.273
G2 X13.928 Y38.279 I15.628 J-13.83
G1 X32.63 Y38.322
X32.68 Y38.317
X32.728 Y38.302
X32.771 Y38.277
G2 X35.863 Y35.61 I-14.771 J-20.258
G3 X37.207 Y34.685 I3.072 J3.026
G2 X38.273 Y34.17 I-6.237 J-14.255
G3 X39.395 Y36.073 I0.519 J0.976
G1 X37.115 Y37.557
X37.035 Y37.604
X36.951 Y37.645
X33.422 Y39.17
G3 X33.109 Y39.253 I-0.439 J-1.015
G1 X22.552 Y40.46
G3 X22.2 Y38.28 I-0.126 J-1.098
G2 X26.538 Y36.845 I-4.13 J-19.757
X33.495 Y31.669 I-8.863 J-19.176
G3 X34.527 Y30.985 I1.796 J1.59
G2 X38.273 Y28.847 I-3.565 J-10.599
G1 X38.308 Y28.81
X38.334 Y28.766
X38.35 Y28.718
X38.356 Y28.667
X38.399 Y2.035
X38.394 Y1.984
X38.377 Y1.935
X38.351 Y1.89
X38.315 Y1.853
X38.272 Y1.824
G2 X37.207 Y1.315 I-7.197 J13.676
G3 X35.863 Y0.39 I1.729 J-3.95
G2 X32.773 Y-2.275 I-17.863 J17.591
G3 X32.552 Y-3.847 I0.651 J-0.893
X34.129 Y-4.02 I0.873 J0.678
G1 X36.765 Y-1.841
G3 X36.95 Y-1.645 I-0.704 J0.852
G1 X38.787 Y0.846
G3 X38.975 Y1.255 I-0.89 J0.656
G1 X40.078 Y6.073
G3 X38.277 Y7.156 I-1.078 J0.247
G2 X34.527 Y5.015 I-7.315 J8.458
G3 X33.495 Y4.331 I0.765 J-2.273
G2 X22.072 Y-2.279 I-15.628 J13.83
X18.118 Y-0.497 I-0.745 J3.623
G3 X14.615 Y2.058 I-4.616 J-2.649
G2 X10.565 Y3.521 I3.316 J15.514
X4.83 Y8.485 I7.701 J14.691
G3 X4.117 Y8.911 I-0.853 J-0.617
G2 X-0.025 Y11.114 I0.895 J6.68
X-1.692 Y15.5 I4.935 J4.386
G1 Y20.5
G2 X-0.025 Y24.886 I6.602 J0
X4.117 Y27.089 I5.038 J-4.477
G3 X4.83 Y27.515 I-0.14 J1.044
G2 X18.07 Y34.292 I13.274 J-9.609
X25.435 Y32.479 I0 J-15.865
X31.17 Y27.515 I-7.701 J-14.691
G3 X31.883 Y27.089 I0.853 J0.617
G2 X36.025 Y24.886 I-0.895 J-6.679
X37.692 Y20.5 I-4.935 J-4.386
G1 Y15.5
G2 X36.025 Y11.114 I-6.602 J0
X31.883 Y8.911 I-5.038 J4.477
G3 X31.17 Y8.485 I0.14 J-1.044
G2 X17.93 Y1.708 I-13.274 J9.609
X14.615 Y2.058 I0 J15.865
X11.741 Y5.32 I0.763 J3.568
G3 X9.84 Y9.229 I-6.01 J-0.506
G2 X7.059 Y13.12 I8.16 J8.771
G1 X5
G2 X2.62 Y15.5 I0 J2.38
G1 Y20.5
G2 X5 Y22.88 I2.38 J0
G1 X7.059
G2 X28.941 Y22.88 I10.941 J-4.88
G1 X31
G2 X33.38 Y20.5 I0 J-2.38
G1 Y15.5
G2 X31 Y13.12 I-2.38 J0
G1 X28.941
G2 X9.84 Y9.229 I-10.941 J4.88
G3 X9.459 Y9.149 I-0.162 J-0.174
G1 X4.317 Y-2.711
G2 X3.959 Y-2.809 I-0.218 J0.095
G1 X3.893 Y-2.761 Z-7.207 F50
X3.83 Y-2.715 Z-7.227
X3.771 Y-2.672 Z-7.261
X3.716 Y-2.632 Z-7.306
X3.669 Y-2.598 Z-7.362
X3.631 Y-2.569 Z-7.428
X3.601 Y-2.548 Z-7.5
X3.572 Y-2.527 Z-7.572
X3.533 Y-2.499 Z-7.638
X3.486 Y-2.464 Z-7.694
X3.432 Y-2.425 Z-7.739
X3.372 Y-2.381 Z-7.773
X3.309 Y-2.335 Z-7.793
X3.244 Y-2.288 Z-7.8
X3.229 Y-2.277
G2 X0.137 Y0.39 I14.771 J20.258 F150
G3 X-1.207 Y1.315 I-3.072 J-3.026
G2 X-2.273 Y1.83 I6.237 J14.255
G3 X-3.395 Y-0.073 I-0.519 J-0.976
G1 X-1.115 Y-1.557
X-1.035 Y-1.604
X-0.951 Y-1.645
X2.578 Y-3.17
G3 X2.891 Y-3.253 I0.439 J1.015
G1 X13.448 Y-4.46
G3 X13.8 Y-2.28 I0.126 J1.098
G2 X9.462 Y-0.845 I4.13 J19.757
X2.505 Y4.331 I8.864 J19.176
G3 X1.473 Y5.015 I-1.796 J-1.59
G2 X-2.273 Y7.153 I3.565 J10.599
G1 X-2.308 Y7.19
X-2.334 Y7.234
X-2.35 Y7.282
X-2.356 Y7.333
X-2.399 Y33.965
X-2.394 Y34.016
X-2.377 Y34.065
X-2.351 Y34.11
X-2.315 Y34.147
X-2.272 Y34.176
G2 X-1.207 Y34.685 I7.197 J-13.676
G3 X0.137 Y35.61 I-1.729 J3.95
G2 X3.227 Y38.275 I17.863 J-17.591
G3 X3.449 Y39.847 I-0.651 J0.893
X1.871 Y40.02 I-0.873 J-0.678
G1 X-0.765 Y37.841
G3 X-0.95 Y37.645 I0.704 J-0.852
G1 X-2.787 Y35.154
G3 X-2.975 Y34.745 I0.89 J-0.656
G1 X-4.078 Y29.927
G3 X-2.277 Y28.844 I1.078 J-0.247
G2 X1.473 Y30.985 I7.315 J-8.458
G3 X2.505 Y31.669 I-0.765 J2.273
G2 X13.928 Y38.279 I15.628 J-13.83
G1 X32.63 Y38.322
X32.68 Y38.317
X32.728 Y38.302
X32.771 Y38.277
G2 X35.863 Y35.61 I-14.771 J-20.258
G3 X37.207 Y34.685 I3.072 J3.026
G2 X38.273 Y34.17 I-6.237 J-14.255
G3 X39.395 Y36.073 I0.519 J0.976
G1 X37.115 Y37.557
X37.035 Y37.604
X36.951 Y37.645
X33.422 Y39.17
G3 X33.109 Y39.253 I-0.439 J-1.015
G1 X22.552 Y40.46
G3 X22.2 Y38.28 I-0.126 J-1.098
G2 X26.538 Y36.845 I-4.13 J-19.757
X33.495 Y31.669 I-8.863 J-19.176
G3 X34.527 Y30.985 I1.796 J1.59
G2 X38.273 Y28.847 I-3.565 J-10.599
G1 X38.308 Y28.81
X38.334 Y28.766
X38.35 Y28.718
X38.356 Y28.667
X38.399 Y2.035
X38.394 Y1.984
X38.377 Y1.935
X38.351 Y1.89
X38.315 Y1.853
X38.272 Y1.824
G2 X37.207 Y1.315 I-7.197 J13.676
G3 X35.863 Y0.39 I1.729 J-3.95
G2 X32.773 Y-2.275 I-17.863 J17.591
G3 X32.552 Y-3.847 I0.651 J-0.893
X34.129 Y-4.02 I0.873 J0.678
G1 X36.765 Y-1.841
G3 X36.95 Y-1.645 I-0.704 J0.852
G1 X38.787 Y0.846
G3 X38.975 Y1.255 I-0.89 J0.656
G1 X40.078 Y6.073
G3 X38.277 Y7.156 I-1.078 J0.247
G2 X34.527 Y5.015 I-7.315 J8.458
G3 X33.495 Y4.331 I0.765 J-2.273
G2 X22.072 Y-2.279 I-15.628 J13.83
X18.118 Y-0.497 I-0.745 J3.623
G3 X14.615 Y2.058 I-4.616 J-2.649
G2 X10.565 Y3.521 I3.316 J15.514
X4.83 Y8.485 I7.701 J14.691
G3 X4.117 Y8.911 I-0.853 J-0.617
G2 X-0.025 Y11.114 I0.895 J6.68
X-1.692 Y15.5 I4.935 J4.386
G1 Y20.5
G2 X-0.025 Y24.886 I6.602 J0
X4.117 Y27.089 I5.038 J-4.477
G3 X4.83 Y27.515 I-0.14 J1.044
G2 X18.07 Y34.292 I13.274 J-9.609
X25.435 Y32.479 I0 J-15.865
X31.17 Y27.515 I-7.701 J-14.691
G3 X31.883 Y27.089 I0.853 J0.617
G2 X36.025 Y24.886 I-0.895 J-6.679
X37.692 Y20.5 I-4.935 J-4.386
G1 Y15.5
G2 X36.025 Y11.114 I-6.602 J0
X31.883 Y8.911 I-5.038 J4.477
G3 X31.17 Y8.485 I0.14 J-1.044
G2 X17.93 Y1.708 I-13.274 J9.609
X14.615 Y2.058 I0 J15.865
X11.741 Y5.32 I0.763 J3.568
G3 X9.84 Y9.229 I-6.01 J-0.506
G2 X7.059 Y13.12 I8.16 J8.771
G1 X5
G2 X2.62 Y15.5 I0 J2.38
G1 Y20.5
G2 X5 Y22.88 I2.38 J0
G1 X7.059
G2 X28.941 Y22.88 I10.941 J-4.88
G1 X31
G2 X33.38 Y20.5 I0 J-2.38
G1 Y15.5
G2 X31 Y13.12 I-2.38 J0
G1 X28.941
G2 X9.84 Y9.229 I-10.941 J4.88
G3 X9.459 Y9.149 I-0.162 J-0.174
G1 X4.317 Y-2.711
G2 X3.959 Y-2.809 I-0.218 J0.095
G1 X3.893 Y-2.761 Z-7.807 F50
X3.83 Y-2.715 Z-7.827
X3.771 Y-2.672 Z-7.861
X3.716 Y-2.632 Z-7.906
X3.669 Y-2.598 Z-7.962
X3.631 Y-2.569 Z-8.028
X3.601 Y-2.548 Z-8.1
X3.572 Y-2.527 Z-8.172
X3.533 Y-2.499 Z-8.238
X3.486 Y-2.464 Z-8.294
X3.432 Y-2.425 Z-8.339
X3.372 Y-2.381 Z-8.373
X3.309 Y-2.335 Z-8.393
X3.244 Y-2.288 Z-8.4
X3.229 Y-2.277
G2 X0.137 Y0.39 I14.771 J20.258 F150
G3 X-1.207 Y1.315 I-3.072 J-3.026
G2 X-2.273 Y1.83 I6.237 J14.255
G3 X-3.395 Y-0.073 I-0.519 J-0.976
G1 X-1.115 Y-1.557
X-1.035 Y-1.604
X-0.951 Y-1.645
X2.578 Y-3.17
G3 X2.891 Y-3.253 I0.439 J1.015
G1 X13.448 Y-4.46
G3 X13.8 Y-2.28 I0.126 J1.098
G2 X9.462 Y-0.845 I4.13 J19.757
X2.505 Y4.331 I8.864 J19.176
G3 X1.473 Y5.015 I-1.796 J-1.59
G2 X-2.273 Y7.153 I3.565 J10.599
G1 X-2.308 Y7.19
X-2.334 Y7.234
X-2.35 Y7.282
X-2.356 Y7.333
X-2.399 Y33.965
X-2.394 Y34.016
X-2.377 Y34.065
X-2.351 Y34.11
X-2.315 Y34.147
X-2.272 Y34.176
G2 X-1.207 Y34.685 I7.197 J-13.676
G3 X0.137 Y35.61 I-1.729 J3.95
G2 X3.227 Y38.275 I17.863 J-17.591
G3 X3.449 Y39.847 I-0.651 J0.893
X1.871 Y40.02 I-0.873 J-0.678
G1 X-0.765 Y37.841
G3 X-0.95 Y37.645 I0.704 J-0.852
G1 X-2.787 Y35.154
G3 X-2.975 Y34.745 I0.89 J-0.656
G1 X-4.078 Y29.927
G3 X-2.277 Y28.844 I1.078 J-0.247
G2 X1.473 Y30.985 I7.315 J-8.458
G3 X2.505 Y31.669 I-0.765 J2.273
G2 X13.928 Y38.279 I15.628 J-13.83
G1 X32.63 Y38.322
X32.68 Y38.317
X32.728 Y38.302
X32.771 Y38.277
G2 X35.863 Y35.61 I-14.771 J-20.258
G3 X37.207 Y34.685 I3.072 J3.026
G2 X38.273 Y34.17 I-6.237 J-14.255
G3 X39.395 Y36.073 I0.519 J0.976
G1 X37.115 Y37.557
X37.035 Y37.604
X36.951 Y37.645
X33.422 Y39.17
G3 X33.109 Y39.253 I-0.439 J-1.015
G1 X22.552 Y40.46
G3 X22.2 Y38.28 I-0.126 J-1.098
G2 X26.538 Y36.845 I-4.13 J-19.757
X33.495 Y31.669 I-8.863 J-19.176
G3 X34.527 Y30.985 I1.796 J1.59
G2 X38.273 Y28.847 I-3.565 J-10.599
G1 X38.308 Y28.81
X38.334 Y28.766
X38.35 Y28.718
X38.356 Y28.667
X38.399 Y2.035
X38.394 Y1.984
X38.377 Y1.935
X38.351 Y1.89
X38.315 Y1.853
X38.272 Y1.824
G2 X37.207 Y1.315 I-7.197 J13.676
G3 X35.863 Y0.39 I1.729 J-3.95
G2 X32.773 Y-2.275 I-17.863 J17.591
G3 X32.552 Y-3.847 I0.651 J-0.893
X34.129 Y-4.02 I0.873 J0.678
G1 X36.765 Y-1.841
G3 X36.95 Y-1.645 I-0.704 J0.852
G1 X38.787 Y0.846
G3 X38.975 Y1.255 I-0.89 J0.656
G1 X40.078 Y6.073
G3 X38.277 Y7.156 I-1.078 J0.247
G2 X34.527 Y5.015 I-7.315 J8.458
G3 X33.495 Y4.331 I0.765 J-2.273
G2 X22.072 Y-2.279 I-15.628 J13.83
X18.118 Y-0.497 I-0.745 J3.623
G3 X14.615 Y2.058 I-4.616 J-2.649
G2 X10.565 Y3.521 I3.316 J15.514
X4.83 Y8.485 I7.701 J14.691
G3 X4.117 Y8.911 I-0.853 J-0.617
G2 X-0.025 Y11.114 I0.895 J6.68
X-1.692 Y15.5 I4.935 J4.386
G1 Y20.5
G2 X-0.025 Y24.886 I6.602 J0
X4.117 Y27.089 I5.038 J-4.477
G3 X4.83 Y27.515 I-0.14 J1.044
G2 X18.07 Y34.292 I13.274 J-9.609
X25.435 Y32.479 I0 J-15.865
X31.17 Y27.515 I-7.701 J-14.691
G3 X31.883 Y27.089 I0.853 J0.617
G2 X36.025 Y24.886 I-0.895 J-6.679
X37.692 Y20.5 I-4.935 J-4.386
G1 Y15.5
G2 X36.025 Y11.114 I-6.602 J0
X31.883 Y8.911 I-5.038 J4.477
G3 X31.17 Y8.485 I0.14 J-1.044
G2 X17.93 Y1.708 I-13.274 J9.609
X14.615 Y2.058 I0 J15.865
X11.741 Y5.32 I0.763 J3.568
G3 X9.84 Y9.229 I-6.01 J-0.506
G2 X7.059 Y13.12 I8.16 J8.771
G1 X5
G2 X2.62 Y15.5 I0 J2.38
G1 Y20.5
G2 X5 Y22.88 I2.38 J0
G1 X7.059
G2 X28.941 Y22.88 I10.941 J-4.88
G1 X31
G2 X33.38 Y20.5 I0 J-2.38
G1 Y15.5
G2 X31 Y13.12 I-2.38 J0
G1 X28.941
G2 X9.84 Y9.229 I-10.941 J4.88
G3 X9.459 Y9.149 I-0.162 J-0.174
G1 X4.317 Y-2.711
G2 X3.959 Y-2.809 I-0.218 J0.095
G1 X3.893 Y-2.761 Z-8.407 F50
X3.83 Y-2.715 Z-8.427
X3.771 Y-2.672 Z-8.461
X3.716 Y-2.632 Z-8.506
X3.669 Y-2.598 Z-8.562
X3.631 Y-2.569 Z-8.628
X3.601 Y-2.548 Z-8.7
X3.572 Y-2.527 Z-8.772
X3.533 Y-2.499 Z-8.838
X3.486 Y-2.464 Z-8.894
X3.432 Y-2.425 Z-8.939
X3.372 Y-2.381 Z-8.973
X3.309 Y-2.335 Z-8.993
X3.244 Y-2.288 Z-9
X3.229 Y-2.277
G2 X0.137 Y0.39 I14.771 J20.258 F150
G3 X-1.207 Y1.315 I-3.072 J-3.026
G2 X-2.273 Y1.83 I6.237 J14.255
G3 X-3.395 Y-0.073 I-0.519 J-0.976
G1 X-1.115 Y-1.557
X-1.035 Y-1.604
X-0.951 Y-1.645
X2.578 Y-3.17
G3 X2.891 Y-3.253 I0.439 J1.015
G1 X13.448 Y-4.46
G3 X13.8 Y-2.28 I0.126 J1.098
G2 X9.462 Y-0.845 I4.13 J19.757
X2.505 Y4.331 I8.864 J19.176
G3 X1.473 Y5.015 I-1.796 J-1.59
G2 X-2.273 Y7.153 I3.565 J10.599
G1 X-2.308 Y7.19
X-2.334 Y7.234
X-2.35 Y7.282
X-2.356 Y7.333
X-2.399 Y33.965
X-2.394 Y34.016
X-2.377 Y34.065
X-2.351 Y34.11
X-2.315 Y34.147
X-2.272 Y34.176
G2 X-1.207 Y34.685 I7.197 J-13.676
G3 X0.137 Y35.61 I-1.729 J3.95
G2 X3.227 Y38.275 I17.863 J-17.591
G3 X3.449 Y39.847 I-0.651 J0.893
X1.871 Y40.02 I-0.873 J-0.678
G1 X-0.765 Y37.841
G3 X-0.95 Y37.645 I0.704 J-0.852
G1 X-2.787 Y35.154
G3 X-2.975 Y34.745 I0.89 J-0.656
G1 X-4.078 Y29.927
G3 X-2.277 Y28.844 I1.078 J-0.247
G2 X1.473 Y30.985 I7.315 J-8.458
G3 X2.505 Y31.669 I-0.765 J2.273
G2 X13.928 Y38.279 I15.628 J-13.83
G1 X32.63 Y38.322
X32.68 Y38.317
X32.728 Y38.302
X32.771 Y38.277
G2 X35.863 Y35.61 I-14.771 J-20.258
G3 X37.207 Y34.685 I3.072 J3.026
G2 X38.273 Y34.17 I-6.237 J-14.255
G3 X39.395 Y36.073 I0.519 J0.976
G1 X37.115 Y37.557
X37.035 Y37.604
X36.951 Y37.645
X33.422 Y39.17
G3 X33.109 Y39.253 I-0.439 J-1.015
G1 X22.552 Y40.46
G3 X22.2 Y38.28 I-0.126 J-1.098
G2 X26.538 Y36.845 I-4.13 J-19.757
X33.495 Y31.669 I-8.863 J-19.176
G3 X34.527 Y30.985 I1.796 J1.59
G2 X38.273 Y28.847 I-3.565 J-10.599
G1 X38.308 Y28.81
X38.334 Y28.766
X38.35 Y28.718
X38.356 Y28.667
X38.399 Y2.035
X38.394 Y1.984
X38.377 Y1.935
X38.351 Y1.89
X38.315 Y1.853
X38.272 Y1.824
G2 X37.207 Y1.315 I-7.197 J13.676
G3 X35.863 Y0.39 I1.729 J-3.95
G2 X32.773 Y-2.275 I-17.863 J17.591
G3 X32.552 Y-3.847 I0.651 J-0.893
X34.129 Y-4.02 I0.873 J0.678
G1 X36.765 Y-1.841
G3 X36.95 Y-1.645 I-0.704 J0.852
G1 X38.787 Y0.846
G3 X38.975 Y1.255 I-0.89 J0.656
G1 X40.078 Y6.073
G3 X38.277 Y7.156 I-1.078 J0.247
G2 X34.527 Y5.015 I-7.315 J8.458
G3 X33.495 Y4.331 I0.765 J-2.273
G2 X22.072 Y-2.279 I-15.628 J13.83
X18.118 Y-0.497 I-0.745 J3.623
G3 X14.615 Y2.058 I-4.616 J-2.649
G2 X10.565 Y3.521 I3.316 J15.514
X4.83 Y8.485 I7.701 J14.691
G3 X4.117 Y8.911 I-0.853 J-0.617
G2 X-0.025 Y11.114 I0.895 J6.68
X-1.692 Y15.5 I4.935 J4.386
G1 Y20.5
G2 X-0.025 Y24.886 I6.602 J0
X4.117 Y27.089 I5.038 J-4.477
G3 X4.83 Y27.515 I-0.14 J1.044
G2 X18.07 Y34.292 I13.274 J-9.609
X25.435 Y32.479 I0 J-15.865
X31.17 Y27.515 I-7.701 J-14.691
G3 X31.883 Y27.089 I0.853 J0.617
G2 X36.025 Y24.886 I-0.895 J-6.679
X37.692 Y20.5 I-4.935 J-4.386
G1 Y15.5
G2 X36.025 Y11.114 I-6.602 J0
X31.883 Y8.911 I-5.038 J4.477
G3 X31.17 Y8.485 I0.14 J-1.044
G2 X17.93 Y1.708 I-13.274 J9.609
X14.615 Y2.058 I0 J15.865
X11.741 Y5.32 I0.763 J3.568
G3 X9.84 Y9.229 I-6.01 J-0.506
G2 X7.059 Y13.12 I8.16 J8.771
G1 X5
G2 X2.62 Y15.5 I0 J2.38
G1 Y20.5
G2 X5 Y22.88 I2.38 J0
G1 X7.059
G2 X28.941 Y22.88 I10.941 J-4.88
G1 X31
G2 X33.38 Y20.5 I0 J-2.38
G1 Y15.5
G2 X31 Y13.12 I-2.38 J0
G1 X28.941
G2 X9.84 Y9.229 I-10.941 J4.88
G1 X9.793 Y9.267 Z-8.988
X9.741 Y9.3 Z-8.976
X9.686 Y9.325 Z-8.964
X9.612 Y9.347 Z-8.912
X9.535 Y9.356 Z-8.861
X9.484 Z-8.783
X9.433 Y9.349 Z-8.706
X9.397 Y9.342 Z-8.524
Z10

(Drill1)
G0 X26.75 Y26.75
Z10
Z5
Z-4
G1 Z-9 F50
Z-9.5
X26.755 Y26.759 F150
X26.765
X26.77 Y26.75
G2 X26.73 Y26.75 I-0.02 J0
X26.77 Y26.75 I0.02 J0
G1 X26.75
Z-10 F50
X26.755 Y26.759 F150
X26.765
X26.77 Y26.75
G2 X26.73 Y26.75 I-0.02 J0
X26.77 Y26.75 I0.02 J0
G1 X26.75
Z-10.5 F50
X26.755 Y26.759 F150
X26.765
X26.77 Y26.75
G2 X26.73 Y26.75 I-0.02 J0
X26.77 Y26.75 I0.02 J0
G1 X26.75
Z-11 F50
X26.755 Y26.759 F150
X26.765
X26.77 Y26.75
G2 X26.73 Y26.75 I-0.02 J0
X26.77 Y26.75 I0.02 J0
G1 X26.75
G0 Z5
X9.25
Z-4
G1 Z-9 F50
Z-9.5
X9.255 Y26.759 F150
X9.265
X9.27 Y26.75
G2 X9.23 Y26.75 I-0.02 J0
X9.27 Y26.75 I0.02 J0
G1 X9.25
Z-10 F50
X9.255 Y26.759 F150
X9.265
X9.27 Y26.75
G2 X9.23 Y26.75 I-0.02 J0
X9.27 Y26.75 I0.02 J0
G1 X9.25
Z-10.5 F50
X9.255 Y26.759 F150
X9.265
X9.27 Y26.75
G2 X9.23 Y26.75 I-0.02 J0
X9.27 Y26.75 I0.02 J0
G1 X9.25
Z-11 F50
X9.255 Y26.759 F150
X9.265
X9.27 Y26.75
G2 X9.23 Y26.75 I-0.02 J0
X9.27 Y26.75 I0.02 J0
G1 X9.25
G0 Z5
Y9.25
Z-4
G1 Z-9 F50
Z-9.5
X9.255 Y9.259 F150
X9.265
X9.27 Y9.25
G2 X9.23 Y9.25 I-0.02 J0
X9.27 Y9.25 I0.02 J0
G1 X9.25
Z-10 F50
X9.255 Y9.259 F150
X9.265
X9.27 Y9.25
G2 X9.23 Y9.25 I-0.02 J0
X9.27 Y9.25 I0.02 J0
G1 X9.25
Z-10.5 F50
X9.255 Y9.259 F150
X9.265
X9.27 Y9.25
G2 X9.23 Y9.25 I-0.02 J0
X9.27 Y9.25 I0.02 J0
G1 X9.25
Z-11 F50
X9.255 Y9.259 F150
X9.265
X9.27 Y9.25
G2 X9.23 Y9.25 I-0.02 J0
X9.27 Y9.25 I0.02 J0
G1 X9.25
G0 Z5
X26.75
Z-4
G1 Z-9 F50
Z-9.5
X26.755 Y9.259 F150
X26.765
X26.77 Y9.25
G2 X26.73 Y9.25 I-0.02 J0
X26.77 Y9.25 I0.02 J0
G1 X26.75
Z-10 F50
X26.755 Y9.259 F150
X26.765
X26.77 Y9.25
G2 X26.73 Y9.25 I-0.02 J0
X26.77 Y9.25 I0.02 J0
G1 X26.75
Z-10.5 F50
X26.755 Y9.259 F150
X26.765
X26.77 Y9.25
G2 X26.73 Y9.25 I-0.02 J0
X26.77 Y9.25 I0.02 J0
G1 X26.75
Z-11 F50
X26.755 Y9.259 F150
X26.765
X26.77 Y9.25
G2 X26.73 Y9.25 I-0.02 J0
X26.77 Y9.25 I0.02 J0
G1 X26.75
G0 Z5
Z10
(When using Fusion 360 for Personal Use, the feedrate of)
(rapid moves is reduced to match the feedrate of cutting)
(moves, which can increase machining time. Unrestricted rapid)
(moves are available with a Fusion 360 Subscription.)

(2D Contour5)
X18.476 Y-2.808
G1 Z10 F250
Z-3
Z-6.4 F25
Z-8.124
G19 G3 Y-2.332 Z-8.6 J0.476 K0 F250
G1 Y-1.856
G17 G3 X18 Y-1.38 I-0.476 J0
G2 X18 Y37.38 I0 J19.38
X18 Y-1.38 I0 J-19.38
G3 X17.524 Y-1.856 I0 J-0.476
G1 Y-2.332
G19 G2 Y-2.808 Z-8.124 J0 K0.476
G1 Z5
X18.476
Z-3
Z-7 F25
Z-8.724
G3 Y-2.332 Z-9.2 J0.476 K0 F250
G1 Y-1.856
G17 G3 X18 Y-1.38 I-0.476 J0
G2 X18 Y37.38 I0 J19.38
X18 Y-1.38 I0 J-19.38
G3 X17.524 Y-1.856 I0 J-0.476
G1 Y-2.332
G19 G2 Y-2.808 Z-8.724 J0 K0.476
G1 Z5
X18.476
Z-3
Z-7.6 F25
Z-9.324
G3 Y-2.332 Z-9.8 J0.476 K0 F250
G1 Y-1.856
G17 G3 X18 Y-1.38 I-0.476 J0
G2 X18 Y37.38 I0 J19.38
X18 Y-1.38 I0 J-19.38
G3 X17.524 Y-1.856 I0 J-0.476
G1 Y-2.332
G19 G2 Y-2.808 Z-9.324 J0 K0.476
G1 Z5
X18.476
Z-3
Z-8.2 F25
Z-9.924
G3 Y-2.332 Z-10.4 J0.476 K0 F250
G1 Y-1.856
G17 G3 X18 Y-1.38 I-0.476 J0
G2 X18 Y37.38 I0 J19.38
X18 Y-1.38 I0 J-19.38
G3 X17.524 Y-1.856 I0 J-0.476
G1 Y-2.332
G19 G2 Y-2.808 Z-9.924 J0 K0.476
G1 Z5
X18.476
Z-3
Z-8.8 F25
Z-10.524
G3 Y-2.332 Z-11 J0.476 K0 F250
G1 Y-1.856
G17 G3 X18 Y-1.38 I-0.476 J0
G2 X18 Y37.38 I0 J19.38
X18 Y-1.38 I0 J-19.38
G3 X17.524 Y-1.856 I0 J-0.476
G1 Y-2.332
G19 G2 Y-2.808 Z-10.524 J0 K0.476
G1 Z5
X18.476
Z-3
Z-9.4 F25
Z-11.124
G3 Y-2.332 Z-11.6 J0.476 K0 F250
G1 Y-1.856
G17 G3 X18 Y-1.38 I-0.476 J0
G2 X18 Y37.38 I0 J19.38
X18 Y-1.38 I0 J-19.38
G3 X17.524 Y-1.856 I0 J-0.476
G1 Y-2.332
G19 G2 Y-2.808 Z-11.124 J0 K0.476
G1 Z5
X18.476
Z-3
Z-10 F25
Z-11.724
G3 Y-2.332 Z-12.2 J0.476 K0 F250
G1 Y-1.856
G17 G3 X18 Y-1.38 I-0.476 J0
G2 X18 Y37.38 I0 J19.38
X18 Y-1.38 I0 J-19.38
G3 X17.524 Y-1.856 I0 J-0.476
G1 Y-2.332
G19 G2 Y-2.808 Z-11.724 J0 K0.476
G1 Z5
X18.476
Z-3
Z-10.6 F25
Z-12.324
G3 Y-2.332 Z-12.8 J0.476 K0 F250
G1 Y-1.856
G17 G3 X18 Y-1.38 I-0.476 J0
G2 X18 Y37.38 I0 J19.38
X18 Y-1.38 I0 J-19.38
G3 X17.524 Y-1.856 I0 J-0.476
G1 Y-2.332
G19 G2 Y-2.808 Z-12.324 J0 K0.476
G1 Z5
X18.476
Z-3
Z-11.2 F25
Z-12.924
G3 Y-2.332 Z-13.4 J0.476 K0 F250
G1 Y-1.856
G17 G3 X18 Y-1.38 I-0.476 J0
G2 X18 Y37.38 I0 J19.38
X18 Y-1.38 I0 J-19.38
G3 X17.524 Y-1.856 I0 J-0.476
G1 Y-2.332
G19 G2 Y-2.808 Z-12.924 J0 K0.476
G1 Z5
X18.476
Z-3
Z-11.8 F25
Z-13.524
G3 Y-2.332 Z-14 J0.476 K0 F250
G1 Y-1.856
G17 G3 X18 Y-1.38 I-0.476 J0
G2 X18 Y37.38 I0 J19.38
X18 Y-1.38 I0 J-19.38
G3 X17.524 Y-1.856 I0 J-0.476
G1 Y-2.332
G19 G2 Y-2.808 Z-13.524 J0 K0.476
G1 Z10
G17
M9
G28 G91 Z0
G90
G28 G91 X0 Y0
G90
M5
M30
