(metal_coupler_14mm_drill)
(Machine)
(  vendor: Autodesk)
(  model: Generic 3-axis)
(  description: This machine has XY axis on the Table and Z axis on the Head)
(T1  D=4.76 CR=0 - ZMIN=-11 - flat end mill)
G90 G94
G17
G21
G28 G91 Z0
G90

(Drill1)
T1
S24000 M3
G54
M8
G0 X26.75 Y26.75
Z10
Z5
Z-4
G1 Z-9 F50
Z-9.5
G2 X29.011 Y26.75 I1.13 J0 F150
X24.37 Y26.75 I-2.321 J0
X29.13 Y26.75 I2.38 J0
X24.37 Y26.75 I-2.38 J0
G1 X26.75
Z-10 F50
G2 X29.011 Y26.75 I1.13 J0 F150
X24.37 Y26.75 I-2.321 J0
X29.13 Y26.75 I2.38 J0
X24.37 Y26.75 I-2.38 J0
G1 X26.75
Z-10.5 F50
G2 X29.011 Y26.75 I1.13 J0 F150
X24.37 Y26.75 I-2.321 J0
X29.13 Y26.75 I2.38 J0
X24.37 Y26.75 I-2.38 J0
G1 X26.75
Z-11 F50
G2 X29.011 Y26.75 I1.13 J0 F150
X24.37 Y26.75 I-2.321 J0
X29.13 Y26.75 I2.38 J0
X24.37 Y26.75 I-2.38 J0
G1 X26.75
G0 Z5
X9.25
Z-4
G1 Z-9 F50
Z-9.5
G2 X11.511 Y26.75 I1.13 J0 F150
X6.87 Y26.75 I-2.321 J0
X11.63 Y26.75 I2.38 J0
X6.87 Y26.75 I-2.38 J0
G1 X9.25
Z-10 F50
G2 X11.511 Y26.75 I1.13 J0 F150
X6.87 Y26.75 I-2.321 J0
X11.63 Y26.75 I2.38 J0
X6.87 Y26.75 I-2.38 J0
G1 X9.25
Z-10.5 F50
G2 X11.511 Y26.75 I1.13 J0 F150
X6.87 Y26.75 I-2.321 J0
X11.63 Y26.75 I2.38 J0
X6.87 Y26.75 I-2.38 J0
G1 X9.25
Z-11 F50
G2 X11.511 Y26.75 I1.13 J0 F150
X6.87 Y26.75 I-2.321 J0
X11.63 Y26.75 I2.38 J0
X6.87 Y26.75 I-2.38 J0
G1 X9.25
G0 Z5
Y9.25
Z-4
G1 Z-9 F50
Z-9.5
G2 X11.511 Y9.25 I1.13 J0 F150
X6.87 Y9.25 I-2.321 J0
X11.63 Y9.25 I2.38 J0
X6.87 Y9.25 I-2.38 J0
G1 X9.25
Z-10 F50
G2 X11.511 Y9.25 I1.13 J0 F150
X6.87 Y9.25 I-2.321 J0
X11.63 Y9.25 I2.38 J0
X6.87 Y9.25 I-2.38 J0
G1 X9.25
Z-10.5 F50
G2 X11.511 Y9.25 I1.13 J0 F150
X6.87 Y9.25 I-2.321 J0
X11.63 Y9.25 I2.38 J0
X6.87 Y9.25 I-2.38 J0
G1 X9.25
Z-11 F50
G2 X11.511 Y9.25 I1.13 J0 F150
X6.87 Y9.25 I-2.321 J0
X11.63 Y9.25 I2.38 J0
X6.87 Y9.25 I-2.38 J0
G1 X9.25
G0 Z5
X26.75
Z-4
G1 Z-9 F50
Z-9.5
G2 X29.011 Y9.25 I1.13 J0 F150
X24.37 Y9.25 I-2.321 J0
X29.13 Y9.25 I2.38 J0
X24.37 Y9.25 I-2.38 J0
G1 X26.75
Z-10 F50
G2 X29.011 Y9.25 I1.13 J0 F150
X24.37 Y9.25 I-2.321 J0
X29.13 Y9.25 I2.38 J0
X24.37 Y9.25 I-2.38 J0
G1 X26.75
Z-10.5 F50
G2 X29.011 Y9.25 I1.13 J0 F150
X24.37 Y9.25 I-2.321 J0
X29.13 Y9.25 I2.38 J0
X24.37 Y9.25 I-2.38 J0
G1 X26.75
Z-11 F50
G2 X29.011 Y9.25 I1.13 J0 F150
X24.37 Y9.25 I-2.321 J0
X29.13 Y9.25 I2.38 J0
X24.37 Y9.25 I-2.38 J0
G1 X26.75
G0 Z5
Z10
M9
G28 G91 Z0
G90
G28 G91 X0 Y0
G90
M5
M30
