(metal_coupler_14mm_wdrill)
(Machine)
(  vendor: Autodesk)
(  model: GARAGE CNC)
(  description: GARAGE CNC)
(T3  D=3.1 CR=0 - ZMIN=-14 - flat end mill)
G90 G94
G17
G21
(When using Fusion 360 for Personal Use, the feedrate of)
(rapid moves is reduced to match the feedrate of cutting)
(moves, which can increase machining time. Unrestricted rapid)
(moves are available with a Fusion 360 Subscription.)

(2D Pocket3)
T3
S24000 M3
G54
M8
G0 X20.181 Y17.327
Z10
G1 Z5 F200
Z2.81 F100
X20.176 Y17.349 Z2.694 F150
X20.16 Y17.411 Z2.594
X20.131 Y17.503 Z2.527
X20.088 Y17.61 Z2.5
G3 X17.4 Y16.407 Z2.338 I-1.344 J-0.602
X20.088 Y17.61 Z2.177 I1.344 J0.602
X17.4 Y16.407 Z2.015 I-1.344 J-0.602
X20.088 Y17.61 Z1.854 I1.344 J0.602
X17.4 Y16.407 Z1.692 I-1.344 J-0.602
X20.088 Y17.61 Z1.531 I1.344 J0.602
X17.4 Y16.407 Z1.369 I-1.344 J-0.602
X20.088 Y17.61 Z1.208 I1.344 J0.602
X17.4 Y16.407 Z1.046 I-1.344 J-0.602
X20.088 Y17.61 Z0.885 I1.344 J0.602
X17.4 Y16.407 Z0.723 I-1.344 J-0.602
X20.088 Y17.61 Z0.561 I1.344 J0.602
X17.4 Y16.407 Z0.4 I-1.344 J-0.602
X20.088 Y17.61 Z0.238 I1.344 J0.602
X17.4 Y16.407 Z0.077 I-1.344 J-0.602
X20.088 Y17.61 Z-0.085 I1.344 J0.602
X17.4 Y16.407 Z-0.246 I-1.344 J-0.602
X20.088 Y17.61 Z-0.408 I1.344 J0.602
X17.86 Y18.187 Z-0.5 I-1.344 J-0.602
X18.14 Y17.813 I0.14 J-0.187 F200
X17.86 Y18.187 I-0.14 J0.187
G2 X16.297 Y17.887 I-1.089 J1.451
G3 X15.285 Y16.658 I-0.228 J-0.843
X20.848 Y16.928 I2.723 J1.342
G2 X21.045 Y17.339 I2.446 J-0.92
X21.287 Y17.725 I7.714 J-4.564
G3 X21.287 Y18.275 I-0.415 J0.275
G2 X21.045 Y18.661 I7.472 J4.95
X20.848 Y19.072 I2.249 J1.331
G3 X14.972 Y18 I-2.841 J-1.069
X15.285 Y16.658 I3.036 J0
G2 X15.165 Y14.773 I-1.7 J-0.838
G3 X15.683 Y12.957 I1.037 J-0.687
X23.195 Y16.046 I2.317 J5.043
G2 X24.645 Y17.05 I1.451 J-0.546
G1 X25.95
Y18.95
X24.645
G2 X23.195 Y19.954 I0 J1.55
G3 X12.805 Y16.046 I-5.195 J-1.954
X15.683 Y12.957 I5.195 J1.954
G1 X15.735 Y12.941
X15.79 Y12.94
X15.843 Y12.954
X15.89 Y12.982
X19.184 Y15.591
X19.211 Y15.609
X19.241 Y15.623
G3 X18.246 Y18.394 Z-0.662 I-0.497 J1.386 F150
X19.241 Y15.623 Z-0.823 I0.497 J-1.386
X20.04 Y17.707 Z-0.912 I-0.497 J1.386
X17.86 Y18.187 Z-1 I-1.296 J-0.698
X18.14 Y17.813 I0.14 J-0.187 F200
X17.86 Y18.187 I-0.14 J0.187
G2 X16.297 Y17.887 I-1.089 J1.451
G3 X15.285 Y16.658 I-0.228 J-0.843
X20.848 Y16.928 I2.723 J1.342
G2 X21.045 Y17.339 I2.446 J-0.92
X21.287 Y17.725 I7.714 J-4.564
G3 X21.287 Y18.275 I-0.415 J0.275
G2 X21.045 Y18.661 I7.472 J4.95
X20.848 Y19.072 I2.249 J1.331
G3 X14.972 Y18 I-2.841 J-1.069
X15.285 Y16.658 I3.036 J0
G2 X15.165 Y14.773 I-1.7 J-0.838
G3 X15.683 Y12.957 I1.037 J-0.687
X23.195 Y16.046 I2.317 J5.043
G2 X24.645 Y17.05 I1.451 J-0.546
G1 X25.95
Y18.95
X24.645
G2 X23.195 Y19.954 I0 J1.55
G3 X12.805 Y16.046 I-5.195 J-1.954
X15.683 Y12.957 I5.195 J1.954
G1 X15.735 Y12.941
X15.79 Y12.94
X15.843 Y12.954
X15.89 Y12.982
X19.184 Y15.591
X19.211 Y15.609
X19.241 Y15.623
G3 X18.246 Y18.394 Z-1.162 I-0.497 J1.386 F150
X19.241 Y15.623 Z-1.323 I0.497 J-1.386
X20.04 Y17.707 Z-1.412 I-0.497 J1.386
X17.86 Y18.187 Z-1.5 I-1.296 J-0.698
X18.14 Y17.813 I0.14 J-0.187 F200
X17.86 Y18.187 I-0.14 J0.187
G2 X16.297 Y17.887 I-1.089 J1.451
G3 X15.285 Y16.658 I-0.228 J-0.843
X20.848 Y16.928 I2.723 J1.342
G2 X21.045 Y17.339 I2.446 J-0.92
X21.287 Y17.725 I7.714 J-4.564
G3 X21.287 Y18.275 I-0.415 J0.275
G2 X21.045 Y18.661 I7.472 J4.95
X20.848 Y19.072 I2.249 J1.331
G3 X14.972 Y18 I-2.841 J-1.069
X15.285 Y16.658 I3.036 J0
G2 X15.165 Y14.773 I-1.7 J-0.838
G3 X15.683 Y12.957 I1.037 J-0.687
X23.195 Y16.046 I2.317 J5.043
G2 X24.645 Y17.05 I1.451 J-0.546
G1 X25.95
Y18.95
X24.645
G2 X23.195 Y19.954 I0 J1.55
G3 X12.805 Y16.046 I-5.195 J-1.954
X15.683 Y12.957 I5.195 J1.954
G1 X15.735 Y12.941
X15.79 Y12.94
X15.843 Y12.954
X15.89 Y12.982
X19.184 Y15.591
X19.211 Y15.609
X19.241 Y15.623
G3 X18.246 Y18.394 Z-1.662 I-0.497 J1.386 F150
X19.241 Y15.623 Z-1.823 I0.497 J-1.386
X20.04 Y17.707 Z-1.912 I-0.497 J1.386
X17.86 Y18.187 Z-2 I-1.296 J-0.698
X18.14 Y17.813 I0.14 J-0.187 F200
X17.86 Y18.187 I-0.14 J0.187
G2 X16.297 Y17.887 I-1.089 J1.451
G3 X15.285 Y16.658 I-0.228 J-0.843
X20.848 Y16.928 I2.723 J1.342
G2 X21.045 Y17.339 I2.446 J-0.92
X21.287 Y17.725 I7.714 J-4.564
G3 X21.287 Y18.275 I-0.415 J0.275
G2 X21.045 Y18.661 I7.472 J4.95
X20.848 Y19.072 I2.249 J1.331
G3 X14.972 Y18 I-2.841 J-1.069
X15.285 Y16.658 I3.036 J0
G2 X15.165 Y14.773 I-1.7 J-0.838
G3 X15.683 Y12.957 I1.037 J-0.687
X23.195 Y16.046 I2.317 J5.043
G2 X24.645 Y17.05 I1.451 J-0.546
G1 X25.95
Y18.95
X24.645
G2 X23.195 Y19.954 I0 J1.55
G3 X12.805 Y16.046 I-5.195 J-1.954
X15.683 Y12.957 I5.195 J1.954
G1 X15.735 Y12.941
X15.79 Y12.94
X15.843 Y12.954
X15.89 Y12.982
X19.184 Y15.591
X19.211 Y15.609
X19.241 Y15.623
G3 X18.246 Y18.394 Z-2.162 I-0.497 J1.386 F150
X19.241 Y15.623 Z-2.323 I0.497 J-1.386
X20.04 Y17.707 Z-2.412 I-0.497 J1.386
X17.86 Y18.187 Z-2.5 I-1.296 J-0.698
X18.14 Y17.813 I0.14 J-0.187 F200
X17.86 Y18.187 I-0.14 J0.187
G2 X16.297 Y17.887 I-1.089 J1.451
G3 X15.285 Y16.658 I-0.228 J-0.843
X20.848 Y16.928 I2.723 J1.342
G2 X21.045 Y17.339 I2.446 J-0.92
X21.287 Y17.725 I7.714 J-4.564
G3 X21.287 Y18.275 I-0.415 J0.275
G2 X21.045 Y18.661 I7.472 J4.95
X20.848 Y19.072 I2.249 J1.331
G3 X14.972 Y18 I-2.841 J-1.069
X15.285 Y16.658 I3.036 J0
G2 X15.165 Y14.773 I-1.7 J-0.838
G3 X15.683 Y12.957 I1.037 J-0.687
X23.195 Y16.046 I2.317 J5.043
G2 X24.645 Y17.05 I1.451 J-0.546
G1 X25.95
Y18.95
X24.645
G2 X23.195 Y19.954 I0 J1.55
G3 X12.805 Y16.046 I-5.195 J-1.954
X15.683 Y12.957 I5.195 J1.954
G1 X15.735 Y12.941
X15.79 Y12.94
X15.843 Y12.954
X15.89 Y12.982
X19.184 Y15.591
X19.211 Y15.609
X19.241 Y15.623
G3 X18.246 Y18.394 Z-2.662 I-0.497 J1.386 F150
X19.241 Y15.623 Z-2.823 I0.497 J-1.386
X20.04 Y17.707 Z-2.912 I-0.497 J1.386
X17.86 Y18.187 Z-3 I-1.296 J-0.698
X18.14 Y17.813 I0.14 J-0.187 F200
X17.86 Y18.187 I-0.14 J0.187
G2 X16.297 Y17.887 I-1.089 J1.451
G3 X15.285 Y16.658 I-0.228 J-0.843
X20.848 Y16.928 I2.723 J1.342
G2 X21.045 Y17.339 I2.446 J-0.92
X21.287 Y17.725 I7.714 J-4.564
G3 X21.287 Y18.275 I-0.415 J0.275
G2 X21.045 Y18.661 I7.472 J4.95
X20.848 Y19.072 I2.249 J1.331
G3 X14.972 Y18 I-2.841 J-1.069
X15.285 Y16.658 I3.036 J0
G2 X15.165 Y14.773 I-1.7 J-0.838
G3 X15.683 Y12.957 I1.037 J-0.687
X23.195 Y16.046 I2.317 J5.043
G2 X24.645 Y17.05 I1.451 J-0.546
G1 X25.95
Y18.95
X24.645
G2 X23.195 Y19.954 I0 J1.55
G3 X12.805 Y16.046 I-5.195 J-1.954
X15.683 Y12.957 I5.195 J1.954
G1 X15.735 Y12.941
X15.79 Y12.94
X15.843 Y12.954
X15.89 Y12.982
X19.184 Y15.591
X19.211 Y15.609
X19.241 Y15.623
G3 X18.246 Y18.394 Z-3.162 I-0.497 J1.386 F150
X19.241 Y15.623 Z-3.323 I0.497 J-1.386
X20.04 Y17.707 Z-3.412 I-0.497 J1.386
X17.86 Y18.187 Z-3.5 I-1.296 J-0.698
X18.14 Y17.813 I0.14 J-0.187 F200
X17.86 Y18.187 I-0.14 J0.187
G2 X16.297 Y17.887 I-1.089 J1.451
G3 X15.285 Y16.658 I-0.228 J-0.843
X20.848 Y16.928 I2.723 J1.342
G2 X21.045 Y17.339 I2.446 J-0.92
X21.287 Y17.725 I7.714 J-4.564
G3 X21.287 Y18.275 I-0.415 J0.275
G2 X21.045 Y18.661 I7.472 J4.95
X20.848 Y19.072 I2.249 J1.331
G3 X14.972 Y18 I-2.841 J-1.069
X15.285 Y16.658 I3.036 J0
G2 X15.165 Y14.773 I-1.7 J-0.838
G3 X15.683 Y12.957 I1.037 J-0.687
X23.195 Y16.046 I2.317 J5.043
G2 X24.645 Y17.05 I1.451 J-0.546
G1 X25.95
Y18.95
X24.645
G2 X23.195 Y19.954 I0 J1.55
G3 X12.805 Y16.046 I-5.195 J-1.954
X15.683 Y12.957 I5.195 J1.954
G1 X15.735 Y12.941
X15.79 Y12.94
X15.843 Y12.954
X15.89 Y12.982
X19.184 Y15.591
X19.211 Y15.609
X19.241 Y15.623
G3 X18.246 Y18.394 Z-3.662 I-0.497 J1.386 F150
X19.241 Y15.623 Z-3.823 I0.497 J-1.386
X20.04 Y17.707 Z-3.912 I-0.497 J1.386
X17.86 Y18.187 Z-4 I-1.296 J-0.698
X18.14 Y17.813 I0.14 J-0.187 F200
X17.86 Y18.187 I-0.14 J0.187
G2 X16.297 Y17.887 I-1.089 J1.451
G3 X15.285 Y16.658 I-0.228 J-0.843
X20.848 Y16.928 I2.723 J1.342
G2 X21.045 Y17.339 I2.446 J-0.92
X21.287 Y17.725 I7.714 J-4.564
G3 X21.287 Y18.275 I-0.415 J0.275
G2 X21.045 Y18.661 I7.472 J4.95
X20.848 Y19.072 I2.249 J1.331
G3 X14.972 Y18 I-2.841 J-1.069
X15.285 Y16.658 I3.036 J0
G2 X15.165 Y14.773 I-1.7 J-0.838
G3 X15.683 Y12.957 I1.037 J-0.687
X23.195 Y16.046 I2.317 J5.043
G2 X24.645 Y17.05 I1.451 J-0.546
G1 X25.95
Y18.95
X24.645
G2 X23.195 Y19.954 I0 J1.55
G3 X12.805 Y16.046 I-5.195 J-1.954
X15.683 Y12.957 I5.195 J1.954
G1 X15.735 Y12.941
X15.79 Y12.94
X15.843 Y12.954
X15.89 Y12.982
X19.184 Y15.591
X19.211 Y15.609
X19.241 Y15.623
G3 X18.246 Y18.394 Z-4.162 I-0.497 J1.386 F150
X19.241 Y15.623 Z-4.323 I0.497 J-1.386
X20.04 Y17.707 Z-4.412 I-0.497 J1.386
X17.86 Y18.187 Z-4.5 I-1.296 J-0.698
X18.14 Y17.813 I0.14 J-0.187 F200
X17.86 Y18.187 I-0.14 J0.187
G2 X16.297 Y17.887 I-1.089 J1.451
G3 X15.285 Y16.658 I-0.228 J-0.843
X20.848 Y16.928 I2.723 J1.342
G2 X21.045 Y17.339 I2.446 J-0.92
X21.287 Y17.725 I7.714 J-4.564
G3 X21.287 Y18.275 I-0.415 J0.275
G2 X21.045 Y18.661 I7.472 J4.95
X20.848 Y19.072 I2.249 J1.331
G3 X14.972 Y18 I-2.841 J-1.069
X15.285 Y16.658 I3.036 J0
G2 X15.165 Y14.773 I-1.7 J-0.838
G3 X15.683 Y12.957 I1.037 J-0.687
X23.195 Y16.046 I2.317 J5.043
G2 X24.645 Y17.05 I1.451 J-0.546
G1 X25.95
Y18.95
X24.645
G2 X23.195 Y19.954 I0 J1.55
G3 X12.805 Y16.046 I-5.195 J-1.954
X15.683 Y12.957 I5.195 J1.954
G1 X15.735 Y12.941
X15.79 Y12.94
X15.843 Y12.954
X15.89 Y12.982
X19.184 Y15.591
X19.211 Y15.609
X19.241 Y15.623
G3 X18.246 Y18.394 Z-4.662 I-0.497 J1.386 F150
X19.241 Y15.623 Z-4.823 I0.497 J-1.386
X20.04 Y17.707 Z-4.912 I-0.497 J1.386
X17.86 Y18.187 Z-5 I-1.296 J-0.698
X18.14 Y17.813 I0.14 J-0.187 F200
X17.86 Y18.187 I-0.14 J0.187
G2 X16.297 Y17.887 I-1.089 J1.451
G3 X15.285 Y16.658 I-0.228 J-0.843
X20.848 Y16.928 I2.723 J1.342
G2 X21.045 Y17.339 I2.446 J-0.92
X21.287 Y17.725 I7.714 J-4.564
G3 X21.287 Y18.275 I-0.415 J0.275
G2 X21.045 Y18.661 I7.472 J4.95
X20.848 Y19.072 I2.249 J1.331
G3 X14.972 Y18 I-2.841 J-1.069
X15.285 Y16.658 I3.036 J0
G2 X15.165 Y14.773 I-1.7 J-0.838
G3 X15.683 Y12.957 I1.037 J-0.687
X23.195 Y16.046 I2.317 J5.043
G2 X24.645 Y17.05 I1.451 J-0.546
G1 X25.95
Y18.95
X24.645
G2 X23.195 Y19.954 I0 J1.55
G3 X12.805 Y16.046 I-5.195 J-1.954
X15.683 Y12.957 I5.195 J1.954
G1 X15.735 Y12.941
X15.79 Y12.94
X15.843 Y12.954
X15.89 Y12.982
X19.184 Y15.591
X19.211 Y15.609
X19.241 Y15.623
G3 X18.246 Y18.394 Z-5.162 I-0.497 J1.386 F150
X19.241 Y15.623 Z-5.323 I0.497 J-1.386
X20.04 Y17.707 Z-5.412 I-0.497 J1.386
X17.86 Y18.187 Z-5.5 I-1.296 J-0.698
X18.14 Y17.813 I0.14 J-0.187 F200
X17.86 Y18.187 I-0.14 J0.187
G2 X16.297 Y17.887 I-1.089 J1.451
G3 X15.285 Y16.658 I-0.228 J-0.843
X20.848 Y16.928 I2.723 J1.342
G2 X21.045 Y17.339 I2.446 J-0.92
X21.287 Y17.725 I7.714 J-4.564
G3 X21.287 Y18.275 I-0.415 J0.275
G2 X21.045 Y18.661 I7.472 J4.95
X20.848 Y19.072 I2.249 J1.331
G3 X14.972 Y18 I-2.841 J-1.069
X15.285 Y16.658 I3.036 J0
G2 X15.165 Y14.773 I-1.7 J-0.838
G3 X15.683 Y12.957 I1.037 J-0.687
X23.195 Y16.046 I2.317 J5.043
G2 X24.645 Y17.05 I1.451 J-0.546
G1 X25.95
Y18.95
X24.645
G2 X23.195 Y19.954 I0 J1.55
G3 X12.805 Y16.046 I-5.195 J-1.954
X15.683 Y12.957 I5.195 J1.954
G1 X15.735 Y12.941
X15.79 Y12.94
X15.843 Y12.954
X15.89 Y12.982
X19.184 Y15.591
X19.211 Y15.609
X19.241 Y15.623
G3 X18.246 Y18.394 Z-5.662 I-0.497 J1.386 F150
X19.241 Y15.623 Z-5.823 I0.497 J-1.386
X20.04 Y17.707 Z-5.912 I-0.497 J1.386
X17.86 Y18.187 Z-6 I-1.296 J-0.698
X18.14 Y17.813 I0.14 J-0.187 F200
X17.86 Y18.187 I-0.14 J0.187
G2 X16.297 Y17.887 I-1.089 J1.451
G3 X15.285 Y16.658 I-0.228 J-0.843
X20.848 Y16.928 I2.723 J1.342
G2 X21.045 Y17.339 I2.446 J-0.92
X21.287 Y17.725 I7.714 J-4.564
G3 X21.287 Y18.275 I-0.415 J0.275
G2 X21.045 Y18.661 I7.472 J4.95
X20.848 Y19.072 I2.249 J1.331
G3 X14.972 Y18 I-2.841 J-1.069
X15.285 Y16.658 I3.036 J0
G2 X15.165 Y14.773 I-1.7 J-0.838
G3 X15.683 Y12.957 I1.037 J-0.687
X23.195 Y16.046 I2.317 J5.043
G2 X24.645 Y17.05 I1.451 J-0.546
G1 X25.95
Y18.95
X24.645
G2 X23.195 Y19.954 I0 J1.55
G3 X12.805 Y16.046 I-5.195 J-1.954
X15.683 Y12.957 I5.195 J1.954
G1 X15.735 Y12.941
X15.79 Y12.94
X15.843 Y12.954
X15.89 Y12.982
X19.184 Y15.591
X19.211 Y15.609
X19.241 Y15.623
G3 X18.246 Y18.394 Z-6.162 I-0.497 J1.386 F150
X19.241 Y15.623 Z-6.323 I0.497 J-1.386
X20.04 Y17.707 Z-6.412 I-0.497 J1.386
X17.86 Y18.187 Z-6.5 I-1.296 J-0.698
X18.14 Y17.813 I0.14 J-0.187 F200
X17.86 Y18.187 I-0.14 J0.187
G2 X16.297 Y17.887 I-1.089 J1.451
G3 X15.285 Y16.658 I-0.228 J-0.843
X20.848 Y16.928 I2.723 J1.342
G2 X21.045 Y17.339 I2.446 J-0.92
X21.287 Y17.725 I7.714 J-4.564
G3 X21.287 Y18.275 I-0.415 J0.275
G2 X21.045 Y18.661 I7.472 J4.95
X20.848 Y19.072 I2.249 J1.331
G3 X14.972 Y18 I-2.841 J-1.069
X15.285 Y16.658 I3.036 J0
G2 X15.165 Y14.773 I-1.7 J-0.838
G3 X15.683 Y12.957 I1.037 J-0.687
X23.195 Y16.046 I2.317 J5.043
G2 X24.645 Y17.05 I1.451 J-0.546
G1 X25.95
Y18.95
X24.645
G2 X23.195 Y19.954 I0 J1.55
G3 X12.805 Y16.046 I-5.195 J-1.954
X15.683 Y12.957 I5.195 J1.954
G1 X15.735 Y12.941
X15.79 Y12.94
X15.843 Y12.954
X15.89 Y12.982
X19.184 Y15.591
X19.211 Y15.609
X19.241 Y15.623
G3 X18.246 Y18.394 Z-6.662 I-0.497 J1.386 F150
X19.241 Y15.623 Z-6.823 I0.497 J-1.386
X20.04 Y17.707 Z-6.912 I-0.497 J1.386
X17.86 Y18.187 Z-7 I-1.296 J-0.698
X18.14 Y17.813 I0.14 J-0.187 F200
X17.86 Y18.187 I-0.14 J0.187
G2 X16.297 Y17.887 I-1.089 J1.451
G3 X15.285 Y16.658 I-0.228 J-0.843
X20.848 Y16.928 I2.723 J1.342
G2 X21.045 Y17.339 I2.446 J-0.92
X21.287 Y17.725 I7.714 J-4.564
G3 X21.287 Y18.275 I-0.415 J0.275
G2 X21.045 Y18.661 I7.472 J4.95
X20.848 Y19.072 I2.249 J1.331
G3 X14.972 Y18 I-2.841 J-1.069
X15.285 Y16.658 I3.036 J0
G2 X15.165 Y14.773 I-1.7 J-0.838
G3 X15.683 Y12.957 I1.037 J-0.687
X23.195 Y16.046 I2.317 J5.043
G2 X24.645 Y17.05 I1.451 J-0.546
G1 X25.95
Y18.95
X24.645
G2 X23.195 Y19.954 I0 J1.55
G3 X12.805 Y16.046 I-5.195 J-1.954
X15.683 Y12.957 I5.195 J1.954
G1 X15.735 Y12.941
X15.79 Y12.94
X15.843 Y12.954
X15.89 Y12.982
X19.184 Y15.591
X19.211 Y15.609
X19.241 Y15.623
G3 X18.246 Y18.394 Z-7.162 I-0.497 J1.386 F150
X19.241 Y15.623 Z-7.323 I0.497 J-1.386
X20.04 Y17.707 Z-7.412 I-0.497 J1.386
X17.86 Y18.187 Z-7.5 I-1.296 J-0.698
X18.14 Y17.813 I0.14 J-0.187 F200
X17.86 Y18.187 I-0.14 J0.187
G2 X16.297 Y17.887 I-1.089 J1.451
G3 X15.285 Y16.658 I-0.228 J-0.843
X20.848 Y16.928 I2.723 J1.342
G2 X21.045 Y17.339 I2.446 J-0.92
X21.287 Y17.725 I7.714 J-4.564
G3 X21.287 Y18.275 I-0.415 J0.275
G2 X21.045 Y18.661 I7.472 J4.95
X20.848 Y19.072 I2.249 J1.331
G3 X14.972 Y18 I-2.841 J-1.069
X15.285 Y16.658 I3.036 J0
G2 X15.165 Y14.773 I-1.7 J-0.838
G3 X15.683 Y12.957 I1.037 J-0.687
X23.195 Y16.046 I2.317 J5.043
G2 X24.645 Y17.05 I1.451 J-0.546
G1 X25.95
Y18.95
X24.645
G2 X23.195 Y19.954 I0 J1.55
G3 X12.805 Y16.046 I-5.195 J-1.954
X15.683 Y12.957 I5.195 J1.954
G1 X15.735 Y12.941
X15.79 Y12.94
X15.843 Y12.954
X15.89 Y12.982
X19.184 Y15.591
X19.211 Y15.609
X19.241 Y15.623
G3 X18.246 Y18.394 Z-7.662 I-0.497 J1.386 F150
X19.241 Y15.623 Z-7.823 I0.497 J-1.386
X20.04 Y17.707 Z-7.912 I-0.497 J1.386
X17.86 Y18.187 Z-8 I-1.296 J-0.698
X18.14 Y17.813 I0.14 J-0.187 F200
X17.86 Y18.187 I-0.14 J0.187
G2 X16.297 Y17.887 I-1.089 J1.451
G3 X15.285 Y16.658 I-0.228 J-0.843
X20.848 Y16.928 I2.723 J1.342
G2 X21.045 Y17.339 I2.446 J-0.92
X21.287 Y17.725 I7.714 J-4.564
G3 X21.287 Y18.275 I-0.415 J0.275
G2 X21.045 Y18.661 I7.472 J4.95
X20.848 Y19.072 I2.249 J1.331
G3 X14.972 Y18 I-2.841 J-1.069
X15.285 Y16.658 I3.036 J0
G2 X15.165 Y14.773 I-1.7 J-0.838
G3 X15.683 Y12.957 I1.037 J-0.687
X23.195 Y16.046 I2.317 J5.043
G2 X24.645 Y17.05 I1.451 J-0.546
G1 X25.95
Y18.95
X24.645
G2 X23.195 Y19.954 I0 J1.55
G3 X12.805 Y16.046 I-5.195 J-1.954
X15.683 Y12.957 I5.195 J1.954
G1 X15.735 Y12.941
X15.79 Y12.94
X15.843 Y12.954
X15.89 Y12.982
X19.184 Y15.591
X19.211 Y15.609
X19.241 Y15.623
G3 X18.246 Y18.394 Z-8.162 I-0.497 J1.386 F150
X19.241 Y15.623 Z-8.323 I0.497 J-1.386
X20.04 Y17.707 Z-8.412 I-0.497 J1.386
X17.86 Y18.187 Z-8.5 I-1.296 J-0.698
X18.14 Y17.813 I0.14 J-0.187 F200
X17.86 Y18.187 I-0.14 J0.187
G2 X16.297 Y17.887 I-1.089 J1.451
G3 X15.285 Y16.658 I-0.228 J-0.843
X20.848 Y16.928 I2.723 J1.342
G2 X21.045 Y17.339 I2.446 J-0.92
X21.287 Y17.725 I7.714 J-4.564
G3 X21.287 Y18.275 I-0.415 J0.275
G2 X21.045 Y18.661 I7.472 J4.95
X20.848 Y19.072 I2.249 J1.331
G3 X14.972 Y18 I-2.841 J-1.069
X15.285 Y16.658 I3.036 J0
G2 X15.165 Y14.773 I-1.7 J-0.838
G3 X15.683 Y12.957 I1.037 J-0.687
X23.195 Y16.046 I2.317 J5.043
G2 X24.645 Y17.05 I1.451 J-0.546
G1 X25.95
Y18.95
X24.645
G2 X23.195 Y19.954 I0 J1.55
G3 X12.805 Y16.046 I-5.195 J-1.954
X15.683 Y12.957 I5.195 J1.954
G1 X15.735 Y12.941
X15.79 Y12.94
X15.843 Y12.954
X15.89 Y12.982
X19.184 Y15.591
X19.211 Y15.609
X19.241 Y15.623
G3 X18.246 Y18.394 Z-8.662 I-0.497 J1.386 F150
X19.241 Y15.623 Z-8.823 I0.497 J-1.386
X20.04 Y17.707 Z-8.912 I-0.497 J1.386
X17.86 Y18.187 Z-9 I-1.296 J-0.698
X18.14 Y17.813 I0.14 J-0.187 F200
X17.86 Y18.187 I-0.14 J0.187
G2 X16.297 Y17.887 I-1.089 J1.451
G3 X15.285 Y16.658 I-0.228 J-0.843
X20.848 Y16.928 I2.723 J1.342
G2 X21.045 Y17.339 I2.446 J-0.92
X21.287 Y17.725 I7.714 J-4.564
G3 X21.287 Y18.275 I-0.415 J0.275
G2 X21.045 Y18.661 I7.472 J4.95
X20.848 Y19.072 I2.249 J1.331
G3 X14.972 Y18 I-2.841 J-1.069
X15.285 Y16.658 I3.036 J0
G2 X15.165 Y14.773 I-1.7 J-0.838
G3 X15.683 Y12.957 I1.037 J-0.687
X23.195 Y16.046 I2.317 J5.043
G2 X24.645 Y17.05 I1.451 J-0.546
G1 X25.95
Y18.95
X24.645
G2 X23.195 Y19.954 I0 J1.55
G3 X12.805 Y16.046 I-5.195 J-1.954
X15.683 Y12.957 I5.195 J1.954
G1 X15.735 Y12.941
X15.79 Y12.94
X15.843 Y12.954
X15.89 Y12.982
X19.184 Y15.591
X19.211 Y15.609
X19.241 Y15.623
G3 X18.246 Y18.394 Z-9.162 I-0.497 J1.386 F150
X19.241 Y15.623 Z-9.323 I0.497 J-1.386
X20.04 Y17.707 Z-9.412 I-0.497 J1.386
X17.86 Y18.187 Z-9.5 I-1.296 J-0.698
X18.14 Y17.813 I0.14 J-0.187 F200
X17.86 Y18.187 I-0.14 J0.187
G2 X16.297 Y17.887 I-1.089 J1.451
G3 X15.285 Y16.658 I-0.228 J-0.843
X20.848 Y16.928 I2.723 J1.342
G2 X21.045 Y17.339 I2.446 J-0.92
X21.287 Y17.725 I7.714 J-4.564
G3 X21.287 Y18.275 I-0.415 J0.275
G2 X21.045 Y18.661 I7.472 J4.95
X20.848 Y19.072 I2.249 J1.331
G3 X14.972 Y18 I-2.841 J-1.069
X15.285 Y16.658 I3.036 J0
G2 X15.165 Y14.773 I-1.7 J-0.838
G3 X15.683 Y12.957 I1.037 J-0.687
X23.195 Y16.046 I2.317 J5.043
G2 X24.645 Y17.05 I1.451 J-0.546
G1 X25.95
Y18.95
X24.645
G2 X23.195 Y19.954 I0 J1.55
G3 X12.805 Y16.046 I-5.195 J-1.954
X15.683 Y12.957 I5.195 J1.954
G1 X15.735 Y12.941
X15.79 Y12.94
X15.843 Y12.954
X15.89 Y12.982
X19.184 Y15.591
X19.211 Y15.609
X19.241 Y15.623
G3 X18.246 Y18.394 Z-9.662 I-0.497 J1.386 F150
X19.241 Y15.623 Z-9.823 I0.497 J-1.386
X20.04 Y17.707 Z-9.912 I-0.497 J1.386
X17.86 Y18.187 Z-10 I-1.296 J-0.698
X18.14 Y17.813 I0.14 J-0.187 F200
X17.86 Y18.187 I-0.14 J0.187
G2 X16.297 Y17.887 I-1.089 J1.451
G3 X15.285 Y16.658 I-0.228 J-0.843
X20.848 Y16.928 I2.723 J1.342
G2 X21.045 Y17.339 I2.446 J-0.92
X21.287 Y17.725 I7.714 J-4.564
G3 X21.287 Y18.275 I-0.415 J0.275
G2 X21.045 Y18.661 I7.472 J4.95
X20.848 Y19.072 I2.249 J1.331
G3 X14.972 Y18 I-2.841 J-1.069
X15.285 Y16.658 I3.036 J0
G2 X15.165 Y14.773 I-1.7 J-0.838
G3 X15.683 Y12.957 I1.037 J-0.687
X23.195 Y16.046 I2.317 J5.043
G2 X24.645 Y17.05 I1.451 J-0.546
G1 X25.95
Y18.95
X24.645
G2 X23.195 Y19.954 I0 J1.55
G3 X12.805 Y16.046 I-5.195 J-1.954
X15.683 Y12.957 I5.195 J1.954
G1 X15.735 Y12.941
X15.79 Y12.94
X15.843 Y12.954
X15.89 Y12.982
X19.184 Y15.591
X19.211 Y15.609
X19.241 Y15.623
G3 X18.246 Y18.394 Z-10.162 I-0.497 J1.386 F150
X19.241 Y15.623 Z-10.323 I0.497 J-1.386
X20.04 Y17.707 Z-10.412 I-0.497 J1.386
X17.86 Y18.187 Z-10.5 I-1.296 J-0.698
X18.14 Y17.813 I0.14 J-0.187 F200
X17.86 Y18.187 I-0.14 J0.187
G2 X16.297 Y17.887 I-1.089 J1.451
G3 X15.285 Y16.658 I-0.228 J-0.843
X20.848 Y16.928 I2.723 J1.342
G2 X21.045 Y17.339 I2.446 J-0.92
X21.287 Y17.725 I7.714 J-4.564
G3 X21.287 Y18.275 I-0.415 J0.275
G2 X21.045 Y18.661 I7.472 J4.95
X20.848 Y19.072 I2.249 J1.331
G3 X14.972 Y18 I-2.841 J-1.069
X15.285 Y16.658 I3.036 J0
G2 X15.165 Y14.773 I-1.7 J-0.838
G3 X15.683 Y12.957 I1.037 J-0.687
X23.195 Y16.046 I2.317 J5.043
G2 X24.645 Y17.05 I1.451 J-0.546
G1 X25.95
Y18.95
X24.645
G2 X23.195 Y19.954 I0 J1.55
G3 X12.805 Y16.046 I-5.195 J-1.954
X15.683 Y12.957 I5.195 J1.954
G1 X15.735 Y12.941
X15.79 Y12.94
X15.843 Y12.954
X15.89 Y12.982
X19.184 Y15.591
X19.211 Y15.609
X19.241 Y15.623
G3 X18.246 Y18.394 Z-10.662 I-0.497 J1.386 F150
X19.241 Y15.623 Z-10.823 I0.497 J-1.386
X20.04 Y17.707 Z-10.912 I-0.497 J1.386
X17.86 Y18.187 Z-11 I-1.296 J-0.698
X18.14 Y17.813 I0.14 J-0.187 F200
X17.86 Y18.187 I-0.14 J0.187
G2 X16.297 Y17.887 I-1.089 J1.451
G3 X15.285 Y16.658 I-0.228 J-0.843
X20.848 Y16.928 I2.723 J1.342
G2 X21.045 Y17.339 I2.446 J-0.92
X21.287 Y17.725 I7.714 J-4.564
G3 X21.287 Y18.275 I-0.415 J0.275
G2 X21.045 Y18.661 I7.472 J4.95
X20.848 Y19.072 I2.249 J1.331
G3 X14.972 Y18 I-2.841 J-1.069
X15.285 Y16.658 I3.036 J0
G2 X15.165 Y14.773 I-1.7 J-0.838
G3 X15.683 Y12.957 I1.037 J-0.687
X23.195 Y16.046 I2.317 J5.043
G2 X24.645 Y17.05 I1.451 J-0.546
G1 X25.95
Y18.95
X24.645
G2 X23.195 Y19.954 I0 J1.55
G3 X12.805 Y16.046 I-5.195 J-1.954
X15.683 Y12.957 I5.195 J1.954
G1 X15.735 Y12.941
X15.79 Y12.94
X15.843 Y12.954
X15.89 Y12.982
X19.184 Y15.591
X19.211 Y15.609
X19.241 Y15.623
G3 X18.246 Y18.394 Z-11.162 I-0.497 J1.386 F150
X19.241 Y15.623 Z-11.323 I0.497 J-1.386
X20.04 Y17.707 Z-11.412 I-0.497 J1.386
X17.86 Y18.187 Z-11.5 I-1.296 J-0.698
X18.14 Y17.813 I0.14 J-0.187 F200
X17.86 Y18.187 I-0.14 J0.187
G2 X16.297 Y17.887 I-1.089 J1.451
G3 X15.285 Y16.658 I-0.228 J-0.843
X20.848 Y16.928 I2.723 J1.342
G2 X21.045 Y17.339 I2.446 J-0.92
X21.287 Y17.725 I7.714 J-4.564
G3 X21.287 Y18.275 I-0.415 J0.275
G2 X21.045 Y18.661 I7.472 J4.95
X20.848 Y19.072 I2.249 J1.331
G3 X14.972 Y18 I-2.841 J-1.069
X15.285 Y16.658 I3.036 J0
G2 X15.165 Y14.773 I-1.7 J-0.838
G3 X15.683 Y12.957 I1.037 J-0.687
X23.195 Y16.046 I2.317 J5.043
G2 X24.645 Y17.05 I1.451 J-0.546
G1 X25.95
Y18.95
X24.645
G2 X23.195 Y19.954 I0 J1.55
G3 X12.805 Y16.046 I-5.195 J-1.954
X15.683 Y12.957 I5.195 J1.954
G1 X15.735 Y12.941
X15.79 Y12.94
X15.843 Y12.954
X15.89 Y12.982
X19.184 Y15.591
X19.211 Y15.609
X19.241 Y15.623
G3 X18.246 Y18.394 Z-11.662 I-0.497 J1.386 F150
X19.241 Y15.623 Z-11.823 I0.497 J-1.386
X20.04 Y17.707 Z-11.912 I-0.497 J1.386
X17.86 Y18.187 Z-12 I-1.296 J-0.698
X18.14 Y17.813 I0.14 J-0.187 F200
X17.86 Y18.187 I-0.14 J0.187
G2 X16.297 Y17.887 I-1.089 J1.451
G3 X15.285 Y16.658 I-0.228 J-0.843
X20.848 Y16.928 I2.723 J1.342
G2 X21.045 Y17.339 I2.446 J-0.92
X21.287 Y17.725 I7.714 J-4.564
G3 X21.287 Y18.275 I-0.415 J0.275
G2 X21.045 Y18.661 I7.472 J4.95
X20.848 Y19.072 I2.249 J1.331
G3 X14.972 Y18 I-2.841 J-1.069
X15.285 Y16.658 I3.036 J0
G2 X15.165 Y14.773 I-1.7 J-0.838
G3 X15.683 Y12.957 I1.037 J-0.687
X23.195 Y16.046 I2.317 J5.043
G2 X24.645 Y17.05 I1.451 J-0.546
G1 X25.95
Y18.95
X24.645
G2 X23.195 Y19.954 I0 J1.55
G3 X12.805 Y16.046 I-5.195 J-1.954
X15.683 Y12.957 I5.195 J1.954
G1 X15.735 Y12.941
X15.79 Y12.94
X15.843 Y12.954
X15.89 Y12.982
X19.184 Y15.591
X19.211 Y15.609
X19.241 Y15.623
G3 X18.246 Y18.394 Z-12.162 I-0.497 J1.386 F150
X19.241 Y15.623 Z-12.323 I0.497 J-1.386
X20.04 Y17.707 Z-12.412 I-0.497 J1.386
X17.86 Y18.187 Z-12.5 I-1.296 J-0.698
X18.14 Y17.813 I0.14 J-0.187 F200
X17.86 Y18.187 I-0.14 J0.187
G2 X16.297 Y17.887 I-1.089 J1.451
G3 X15.285 Y16.658 I-0.228 J-0.843
X20.848 Y16.928 I2.723 J1.342
G2 X21.045 Y17.339 I2.446 J-0.92
X21.287 Y17.725 I7.714 J-4.564
G3 X21.287 Y18.275 I-0.415 J0.275
G2 X21.045 Y18.661 I7.472 J4.95
X20.848 Y19.072 I2.249 J1.331
G3 X14.972 Y18 I-2.841 J-1.069
X15.285 Y16.658 I3.036 J0
G2 X15.165 Y14.773 I-1.7 J-0.838
G3 X15.683 Y12.957 I1.037 J-0.687
X23.195 Y16.046 I2.317 J5.043
G2 X24.645 Y17.05 I1.451 J-0.546
G1 X25.95
Y18.95
X24.645
G2 X23.195 Y19.954 I0 J1.55
G3 X12.805 Y16.046 I-5.195 J-1.954
X15.683 Y12.957 I5.195 J1.954
G1 X15.735 Y12.941
X15.79 Y12.94
X15.843 Y12.954
X15.89 Y12.982
X19.184 Y15.591
X19.211 Y15.609
X19.241 Y15.623
G3 X18.246 Y18.394 Z-12.662 I-0.497 J1.386 F150
X19.241 Y15.623 Z-12.823 I0.497 J-1.386
X20.04 Y17.707 Z-12.912 I-0.497 J1.386
X17.86 Y18.187 Z-13 I-1.296 J-0.698
X18.14 Y17.813 I0.14 J-0.187 F200
X17.86 Y18.187 I-0.14 J0.187
G2 X16.297 Y17.887 I-1.089 J1.451
G3 X15.285 Y16.658 I-0.228 J-0.843
X20.848 Y16.928 I2.723 J1.342
G2 X21.045 Y17.339 I2.446 J-0.92
X21.287 Y17.725 I7.714 J-4.564
G3 X21.287 Y18.275 I-0.415 J0.275
G2 X21.045 Y18.661 I7.472 J4.95
X20.848 Y19.072 I2.249 J1.331
G3 X14.972 Y18 I-2.841 J-1.069
X15.285 Y16.658 I3.036 J0
G2 X15.165 Y14.773 I-1.7 J-0.838
G3 X15.683 Y12.957 I1.037 J-0.687
X23.195 Y16.046 I2.317 J5.043
G2 X24.645 Y17.05 I1.451 J-0.546
G1 X25.95
Y18.95
X24.645
G2 X23.195 Y19.954 I0 J1.55
G3 X12.805 Y16.046 I-5.195 J-1.954
X15.683 Y12.957 I5.195 J1.954
G1 X15.735 Y12.941
X15.79 Y12.94
X15.843 Y12.954
X15.89 Y12.982
X19.184 Y15.591
X19.211 Y15.609
X19.241 Y15.623
G3 X18.246 Y18.394 Z-13.162 I-0.497 J1.386 F150
X19.241 Y15.623 Z-13.323 I0.497 J-1.386
X20.04 Y17.707 Z-13.412 I-0.497 J1.386
X17.86 Y18.187 Z-13.5 I-1.296 J-0.698
X18.14 Y17.813 I0.14 J-0.187 F200
X17.86 Y18.187 I-0.14 J0.187
G2 X16.297 Y17.887 I-1.089 J1.451
G3 X15.285 Y16.658 I-0.228 J-0.843
X20.848 Y16.928 I2.723 J1.342
G2 X21.045 Y17.339 I2.446 J-0.92
X21.287 Y17.725 I7.714 J-4.564
G3 X21.287 Y18.275 I-0.415 J0.275
G2 X21.045 Y18.661 I7.472 J4.95
X20.848 Y19.072 I2.249 J1.331
G3 X14.972 Y18 I-2.841 J-1.069
X15.285 Y16.658 I3.036 J0
G2 X15.165 Y14.773 I-1.7 J-0.838
G3 X15.683 Y12.957 I1.037 J-0.687
X23.195 Y16.046 I2.317 J5.043
G2 X24.645 Y17.05 I1.451 J-0.546
G1 X25.95
Y18.95
X24.645
G2 X23.195 Y19.954 I0 J1.55
G3 X12.805 Y16.046 I-5.195 J-1.954
X15.683 Y12.957 I5.195 J1.954
G1 X15.735 Y12.941
X15.79 Y12.94
X15.843 Y12.954
X15.89 Y12.982
X19.184 Y15.591
X19.211 Y15.609
X19.241 Y15.623
G3 X18.246 Y18.394 Z-13.662 I-0.497 J1.386 F150
X19.241 Y15.623 Z-13.823 I0.497 J-1.386
X20.04 Y17.707 Z-13.912 I-0.497 J1.386
X17.86 Y18.187 Z-14 I-1.296 J-0.698
X18.14 Y17.813 I0.14 J-0.187 F200
X17.86 Y18.187 I-0.14 J0.187
G2 X16.297 Y17.887 I-1.089 J1.451
G3 X15.285 Y16.658 I-0.228 J-0.843
X20.848 Y16.928 I2.723 J1.342
G2 X21.045 Y17.339 I2.446 J-0.92
X21.287 Y17.725 I7.714 J-4.564
G3 X21.287 Y18.275 I-0.415 J0.275
G2 X21.045 Y18.661 I7.472 J4.95
X20.848 Y19.072 I2.249 J1.331
G3 X14.972 Y18 I-2.841 J-1.069
X15.285 Y16.658 I3.036 J0
G2 X15.165 Y14.773 I-1.7 J-0.838
G3 X15.683 Y12.957 I1.037 J-0.687
X23.195 Y16.046 I2.317 J5.043
G2 X24.645 Y17.05 I1.451 J-0.546
G1 X25.95
Y18.95
X24.645
G2 X23.195 Y19.954 I0 J1.55
G3 X12.805 Y16.046 I-5.195 J-1.954
X15.683 Y12.957 I5.195 J1.954
G1 X15.739 Y12.937 Z-13.988
X15.797 Y12.929 Z-13.976
X15.847 Y12.931 Z-13.943
X15.897 Y12.94 Z-13.909
X15.959 Y12.966 Z-13.809
X15.979 Y12.978 Z-13.69
Z10
(When using Fusion 360 for Personal Use, the feedrate of)
(rapid moves is reduced to match the feedrate of cutting)
(moves, which can increase machining time. Unrestricted rapid)
(moves are available with a Fusion 360 Subscription.)

(2D Pocket2)
G0 X3.755 Y-2.889
G1 Z10 F200
Z5
Z-0.19 F100
X3.749 Y-2.884 Z-0.259
X3.732 Y-2.869 Z-0.325
X3.703 Y-2.846 Z-0.383
X3.665 Y-2.814 Z-0.432
X3.62 Y-2.777 Z-0.469
X3.569 Y-2.735 Z-0.492
X3.516 Y-2.691 Z-0.5
X2.01 Y-1.449
G2 X1.589 Y-1.094 I16.023 J19.429 F200
G3 X0.213 Y-0.324 I-2.607 J-3.041
G2 X-1.446 Y0.319 I4.807 J14.886
G3 X-2.395 Y-0.052 I-0.294 J-0.648
X-2 Y-0.991 I0.655 J-0.277
G1 X-0.257 Y-1.676
X-0.187 Y-1.699
X-0.115 Y-1.715
X1.557 Y-1.998
X6.536 Y-2.765
G3 X6.996 Y-1.443 I0.108 J0.703
G2 X2.894 Y1.552 I11.036 J19.424
G3 X1.717 Y2.198 I-1.899 J-2.063
G2 X-1.448 Y3.519 I3.298 J12.361
G3 X-2.44 Y3.23 I-0.359 J-0.614
X-2.098 Y2.256 I0.632 J-0.325
G1 X2 Y0.422
X2.045 Y0.4
X6.645 Y-2.062
G3 X6.928 Y-2.144 I0.336 J0.627
G1 X16.676 Y-2.869
G3 X17.438 Y-2.208 I0.053 J0.709
X16.774 Y-1.45 I-0.71 J0.049
G2 X4.178 Y4.263 I1.227 J19.448
G3 X3.207 Y4.777 I-1.303 J-1.287
G2 X-1.441 Y6.981 I1.81 J9.82
G1 X-1.471 Y7.013
X-1.493 Y7.05
X-1.507 Y7.09
X-1.512 Y7.133
X-1.558 Y35.509
X-1.553 Y35.554
X-1.537 Y35.598
X-1.512 Y35.636
X-1.479 Y35.668
X-1.44 Y35.691
G2 X0.213 Y36.324 I6.375 J-14.191
G3 X1.589 Y37.094 I-1.231 J3.812
G2 X2.008 Y37.446 I16.7 J-19.486
G3 X1.157 Y38.584 I-0.451 J0.55
G1 X-0.052 Y37.762
X-0.113 Y37.716
X-1.731 Y36.34
G3 X-1.968 Y35.937 I0.461 J-0.542
G1 X-2.504 Y33.25
G3 X-1.449 Y32.496 I0.698 J-0.139
G2 X1.717 Y33.802 I6.389 J-10.996
G3 X2.894 Y34.448 I-0.723 J2.71
G2 X7.005 Y37.448 I15.198 J-16.511
G3 X7.252 Y38.452 I-0.351 J0.618
X6.236 Y38.642 I-0.598 J-0.385
G1 X2.052 Y35.606
X-1.806 Y33.111
G3 X-2.122 Y32.627 I0.386 J-0.597
G1 X-2.601 Y29.677
G3 X-1.439 Y29.021 I0.702 J-0.114
G2 X3.207 Y31.223 I6.456 J-7.617
G3 X4.178 Y31.737 I-0.332 J1.801
G2 X16.366 Y37.449 I13.836 J-13.664
G1 X33.944 Y37.485
X33.989 Y37.48
X34.033 Y37.464
X34.071 Y37.439
G2 X37.11 Y34.461 I-16.072 J-19.439
X37.441 Y34.069 I-19.111 J-16.461
G3 X38.45 Y33.979 I0.548 J0.453
X38.526 Y34.989 I-0.46 J0.542
G1 X37.063 Y36.669
G3 X36.842 Y36.839 I-0.536 J-0.467
G1 X34.525 Y37.987
X34.457 Y38.017
X34.386 Y38.039
X34.314 Y38.053
X29.537 Y38.764
G3 X29.08 Y37.443 I-0.105 J-0.703
G2 X30.206 Y36.755 I-11.059 J-19.371
X35.031 Y32.516 I-12.206 J-18.755
X36.937 Y29.922 I-17.031 J-14.516
X37.447 Y29.05 I-13.229 J-8.328
G3 X38.456 Y28.791 I0.625 J0.339
X38.642 Y29.815 I-0.383 J0.599
G1 X35.044 Y34.634
G3 X34.84 Y34.819 I-0.57 J-0.426
G1 X29.433 Y38.061
G3 X29.121 Y38.16 I-0.366 J-0.61
G1 X19.78 Y38.866
G3 X19.666 Y37.449 I-0.054 J-0.709
G2 X35.822 Y25.883 I-1.652 J-19.375
G3 X35.962 Y25.613 I2.19 J0.969
G2 X37.047 Y23.157 I-9.02 J-5.45
X37.432 Y20.5 I-8.968 J-2.657
G3 X37.449 Y19.747 I16.529 J0
G1 X37.495 Y2.069
X37.49 Y2.023
X37.474 Y1.98
X37.449 Y1.941
G2 X34.065 Y-1.442 I-19.416 J16.038
G3 X33.975 Y-2.45 I0.453 J-0.549
X34.985 Y-2.527 I0.543 J0.46
G1 X36.673 Y-1.057
G3 X36.843 Y-0.837 I-0.467 J0.536
G1 X37.997 Y1.488
X38.027 Y1.557
X38.049 Y1.628
X38.064 Y1.701
X38.771 Y6.483
G3 X37.445 Y6.932 I-0.704 J0.104
G2 X37.187 Y6.484 I-12.997 J7.198
X29.057 Y-1.449 I-19.155 J11.497
G3 X28.813 Y-2.458 I0.351 J-0.619
X29.834 Y-2.637 I0.595 J0.39
G1 X34.64 Y0.963
G3 X34.824 Y1.167 I-0.426 J0.569
G1 X38.067 Y6.587
G3 X38.166 Y6.898 I-0.61 J0.365
G1 X38.869 Y16.131
G3 X38.205 Y16.895 I-0.709 J0.054
X37.45 Y16.22 I-0.044 J-0.71
X37.432 Y15.5 I14.778 J-0.72
G2 X37.047 Y12.843 I-9.353 J0
X35.962 Y10.387 I-10.104 J2.994
G3 X35.822 Y10.117 I2.05 J-1.239
G2 X19.237 Y-1.449 I-17.821 J7.881
G1 X10.543 Y-4.821
X10.505 Y-4.831
X10.465 Y-4.83
X10.426 Y-4.82
X10.392 Y-4.799
X10.364 Y-4.771
X-6.866 Y17.754
X-6.886 Y17.79
X-6.897 Y17.83
X-6.896 Y17.872
X-6.884 Y17.911
X-6.862 Y17.947
X-1.445 Y24.483
G2 X-0.137 Y26.382 I6.364 J-2.983
X4.659 Y28.556 I5.141 J-4.964
G3 X5.412 Y28.921 I-0.051 J1.066
G2 X11.09 Y33.182 I12.845 J-11.203
X18.022 Y34.71 I6.932 J-14.955
X27.177 Y31.933 I0 J-16.48
X33.307 Y24.588 I-9.411 J-14.086
G3 X33.478 Y24.265 I2.197 J0.953
G2 X34.31 Y22.463 I-6.503 J-4.096
X34.61 Y20.5 I-6.277 J-1.963
G3 X34.66 Y19.215 I16.529 J0
G2 X34.71 Y17.931 I-16.479 J-1.285
X34.532 Y14.746 I-28.624 J0
X33.478 Y11.735 I-7.096 J0.794
G3 X33.307 Y11.412 I2.027 J-1.276
G2 X27.177 Y4.067 I-15.541 J6.741
X18.022 Y1.29 I-9.155 J13.703
X11.09 Y2.818 I0 J16.484
X5.412 Y7.079 I7.167 J15.464
G3 X4.659 Y7.444 I-0.805 J-0.702
G2 X-0.137 Y9.618 I0.345 J7.138
X-1.45 Y11.527 I5.056 J4.882
X-0.683 Y14.276 I1.987 J0.927
G3 X0.662 Y16.794 I-1.685 J2.518
G1 Y21.5
G2 X5 Y25.826 I4.326 J0
X5.531 Y25.81 I0 J-8.503
G3 X6.062 Y25.793 I0.531 J8.486
X6.74 Y26.139 I0 J0.838
G2 X11.684 Y30.394 I11.451 J-8.306
X18.022 Y31.938 I6.337 J-12.232
X25.734 Y29.567 I0 J-13.729
X30.836 Y23.316 I-7.932 J-11.68
G3 X31.06 Y22.899 I2.211 J0.921
G2 X31.628 Y21.757 I-4.042 J-2.723
X31.838 Y20.5 I-3.664 J-1.257
G3 X31.888 Y19.215 I16.529 J0
G2 X31.938 Y17.931 I-16.479 J-1.285
X31.888 Y16.715 I-14.796 J0
G3 X31.838 Y15.5 I14.746 J-1.215
G2 X31.628 Y14.243 I-3.874 J0
X31.06 Y13.101 I-4.61 J1.582
G3 X30.836 Y12.684 I1.986 J-1.338
G2 X25.734 Y6.433 I-13.033 J5.429
X18.022 Y4.062 I-7.713 J11.358
X11.684 Y5.606 I0 J13.776
X6.74 Y9.861 I6.508 J12.561
G3 X6.062 Y10.207 I-0.679 J-0.492
X5.531 Y10.19 I0 J-8.503
G2 X5 Y10.174 I-0.531 J8.486
X0.662 Y14.5 I0 J4.338
G1 Y16.794
G2 X2.056 Y18.885 I2.265 J0
G3 X3.45 Y20.976 I-0.871 J2.091
G1 Y21.5
G2 X5 Y23.05 I1.55 J0
G1 X8.059
G2 X28.534 Y21.655 I9.941 J-5.05
X29.05 Y20.5 I-1.034 J-1.155
G1 Y19.491
G2 X29.05 Y16.509 I-11.05 J-1.491
G1 Y15.5
G2 X28.534 Y14.345 I-1.55 J0
X8.059 Y12.95 I-10.534 J3.655
G1 X5
G2 X3.45 Y14.5 I0 J1.55
G1 Y20.976
X3.447 Y21.013
X3.436 Y21.049
X-2.11 Y35.182
G2 X-2.006 Y35.437 I0.186 J0.073
G1 X-1.95 Y35.462 Z-0.506 F100
X-1.897 Y35.486 Z-0.524
X-1.848 Y35.508 Z-0.552
X-1.805 Y35.527 Z-0.591
X-1.77 Y35.543 Z-0.638
X-1.744 Y35.555 Z-0.692
X-1.728 Y35.562 Z-0.75
X-1.712 Y35.569 Z-0.808
X-1.686 Y35.581 Z-0.862
X-1.651 Y35.597 Z-0.909
X-1.608 Y35.616 Z-0.948
X-1.559 Y35.638 Z-0.976
X-1.506 Y35.662 Z-0.994
X-1.451 Y35.687 Z-1
X-1.44 Y35.691
G2 X0.213 Y36.324 I6.375 J-14.191 F200
G3 X1.589 Y37.094 I-1.231 J3.812
G2 X2.008 Y37.446 I16.7 J-19.486
G3 X1.157 Y38.584 I-0.451 J0.55
G1 X-0.052 Y37.762
X-0.113 Y37.716
X-1.731 Y36.34
G3 X-1.968 Y35.937 I0.461 J-0.542
G1 X-2.504 Y33.25
G3 X-1.449 Y32.496 I0.698 J-0.139
G2 X1.717 Y33.802 I6.389 J-10.996
G3 X2.894 Y34.448 I-0.723 J2.71
G2 X7.005 Y37.448 I15.198 J-16.511
G3 X7.252 Y38.452 I-0.351 J0.618
X6.236 Y38.642 I-0.598 J-0.385
G1 X2.052 Y35.606
X-1.806 Y33.111
G3 X-2.122 Y32.627 I0.386 J-0.597
G1 X-2.601 Y29.677
G3 X-1.439 Y29.021 I0.702 J-0.114
G2 X3.207 Y31.223 I6.456 J-7.617
G3 X4.178 Y31.737 I-0.332 J1.801
G2 X16.366 Y37.449 I13.836 J-13.664
G1 X33.944 Y37.485
X33.989 Y37.48
X34.033 Y37.464
X34.071 Y37.439
G2 X37.11 Y34.461 I-16.072 J-19.439
X37.441 Y34.069 I-19.111 J-16.461
G3 X38.45 Y33.979 I0.548 J0.453
X38.526 Y34.989 I-0.46 J0.542
G1 X37.063 Y36.669
G3 X36.842 Y36.839 I-0.536 J-0.467
G1 X34.525 Y37.987
X34.457 Y38.017
X34.386 Y38.039
X34.314 Y38.053
X29.537 Y38.764
G3 X29.08 Y37.443 I-0.105 J-0.703
G2 X30.206 Y36.755 I-11.059 J-19.371
X35.031 Y32.516 I-12.206 J-18.755
X36.937 Y29.922 I-17.031 J-14.516
X37.447 Y29.05 I-13.229 J-8.328
G3 X38.456 Y28.791 I0.625 J0.339
X38.642 Y29.815 I-0.383 J0.599
G1 X35.044 Y34.634
G3 X34.84 Y34.819 I-0.57 J-0.426
G1 X29.433 Y38.061
G3 X29.121 Y38.16 I-0.366 J-0.61
G1 X19.78 Y38.866
G3 X19.666 Y37.449 I-0.054 J-0.709
G2 X35.822 Y25.883 I-1.652 J-19.375
G3 X35.962 Y25.613 I2.19 J0.969
G2 X37.047 Y23.157 I-9.02 J-5.45
X37.432 Y20.5 I-8.968 J-2.657
G3 X37.449 Y19.747 I16.529 J0
G1 X37.495 Y2.069
X37.49 Y2.023
X37.474 Y1.98
X37.449 Y1.941
G2 X34.065 Y-1.442 I-19.416 J16.038
G3 X33.975 Y-2.45 I0.453 J-0.549
X34.985 Y-2.527 I0.543 J0.46
G1 X36.673 Y-1.057
G3 X36.843 Y-0.837 I-0.467 J0.536
G1 X37.997 Y1.488
X38.027 Y1.557
X38.049 Y1.628
X38.064 Y1.701
X38.771 Y6.483
G3 X37.445 Y6.932 I-0.704 J0.104
G2 X37.187 Y6.484 I-12.997 J7.198
X29.057 Y-1.449 I-19.155 J11.497
G3 X28.813 Y-2.458 I0.351 J-0.619
X29.834 Y-2.637 I0.595 J0.39
G1 X34.64 Y0.963
G3 X34.824 Y1.167 I-0.426 J0.569
G1 X38.067 Y6.587
G3 X38.166 Y6.898 I-0.61 J0.365
G1 X38.869 Y16.131
G3 X38.205 Y16.895 I-0.709 J0.054
X37.45 Y16.22 I-0.044 J-0.71
X37.432 Y15.5 I14.778 J-0.72
G2 X37.047 Y12.843 I-9.353 J0
X35.962 Y10.387 I-10.104 J2.994
G3 X35.822 Y10.117 I2.05 J-1.239
G2 X19.237 Y-1.449 I-17.821 J7.881
G1 X2.137 Y-1.495
X2.092 Y-1.489
X2.048 Y-1.474
X2.01 Y-1.449
G2 X1.589 Y-1.094 I16.023 J19.429
G3 X0.213 Y-0.324 I-2.607 J-3.041
G2 X-1.446 Y0.319 I4.807 J14.886
G3 X-2.395 Y-0.052 I-0.294 J-0.648
X-2 Y-0.991 I0.655 J-0.277
G1 X-0.257 Y-1.676
X-0.187 Y-1.699
X-0.115 Y-1.715
X1.557 Y-1.998
X6.536 Y-2.765
G3 X6.996 Y-1.443 I0.108 J0.703
G2 X2.894 Y1.552 I11.036 J19.424
G3 X1.717 Y2.198 I-1.899 J-2.063
G2 X-1.448 Y3.519 I3.298 J12.361
G3 X-2.44 Y3.23 I-0.359 J-0.614
X-2.098 Y2.256 I0.632 J-0.325
G1 X2 Y0.422
X2.045 Y0.4
X6.645 Y-2.062
G3 X6.928 Y-2.144 I0.336 J0.627
G1 X16.676 Y-2.869
G3 X17.438 Y-2.208 I0.053 J0.709
X16.774 Y-1.45 I-0.71 J0.049
G2 X4.178 Y4.263 I1.227 J19.448
G3 X3.207 Y4.777 I-1.303 J-1.287
G2 X-1.441 Y6.981 I1.81 J9.82
G1 X-1.471 Y7.013
X-1.493 Y7.05
X-1.507 Y7.091
X-1.512 Y7.134
X-1.464 Y24.399
X-1.459 Y24.442
X-1.445 Y24.483
G2 X-0.137 Y26.382 I6.364 J-2.983
X4.659 Y28.556 I5.141 J-4.964
G3 X5.412 Y28.921 I-0.051 J1.066
G2 X11.09 Y33.182 I12.845 J-11.203
X18.022 Y34.71 I6.932 J-14.955
X27.177 Y31.933 I0 J-16.48
X33.307 Y24.588 I-9.411 J-14.086
G3 X33.478 Y24.265 I2.197 J0.953
G2 X34.31 Y22.463 I-6.503 J-4.096
X34.61 Y20.5 I-6.277 J-1.963
G3 X34.66 Y19.215 I16.529 J0
G2 X34.71 Y17.931 I-16.479 J-1.285
X34.532 Y14.746 I-28.624 J0
X33.478 Y11.735 I-7.096 J0.794
G3 X33.307 Y11.412 I2.027 J-1.276
G2 X27.177 Y4.067 I-15.541 J6.741
X18.022 Y1.29 I-9.155 J13.703
X11.09 Y2.818 I0 J16.484
X5.412 Y7.079 I7.167 J15.464
G3 X4.659 Y7.444 I-0.805 J-0.702
G2 X-0.137 Y9.618 I0.345 J7.138
X-1.45 Y11.527 I5.056 J4.882
X-0.683 Y14.276 I1.987 J0.927
G3 X0.662 Y16.794 I-1.685 J2.518
G1 Y21.5
G2 X5 Y25.826 I4.326 J0
X5.531 Y25.81 I0 J-8.503
G3 X6.062 Y25.793 I0.531 J8.486
X6.74 Y26.139 I0 J0.838
G2 X11.684 Y30.394 I11.451 J-8.306
X18.022 Y31.938 I6.337 J-12.232
X25.734 Y29.567 I0 J-13.729
X30.836 Y23.316 I-7.932 J-11.68
G3 X31.06 Y22.899 I2.211 J0.921
G2 X31.628 Y21.757 I-4.042 J-2.723
X31.838 Y20.5 I-3.664 J-1.257
G3 X31.888 Y19.215 I16.529 J0
G2 X31.938 Y17.931 I-16.479 J-1.285
X31.888 Y16.715 I-14.796 J0
G3 X31.838 Y15.5 I14.746 J-1.215
G2 X31.628 Y14.243 I-3.874 J0
X31.06 Y13.101 I-4.61 J1.582
G3 X30.836 Y12.684 I1.986 J-1.338
G2 X25.734 Y6.433 I-13.033 J5.429
X18.022 Y4.062 I-7.713 J11.358
X11.684 Y5.606 I0 J13.776
X6.74 Y9.861 I6.508 J12.561
G3 X6.062 Y10.207 I-0.679 J-0.492
X5.531 Y10.19 I0 J-8.503
G2 X5 Y10.174 I-0.531 J8.486
X0.662 Y14.5 I0 J4.338
G1 Y16.794
G2 X2.056 Y18.885 I2.265 J0
G3 X3.45 Y20.976 I-0.871 J2.091
G1 Y21.5
G2 X5 Y23.05 I1.55 J0
G1 X8.059
G2 X28.534 Y21.655 I9.941 J-5.05
X29.05 Y20.5 I-1.034 J-1.155
G1 Y19.491
G2 X29.05 Y16.509 I-11.05 J-1.491
G1 Y15.5
G2 X28.534 Y14.345 I-1.55 J0
X8.059 Y12.95 I-10.534 J3.655
G1 X5
G2 X3.45 Y14.5 I0 J1.55
G1 Y20.976
X3.447 Y21.013
X3.436 Y21.049
X-2.11 Y35.182
G2 X-2.006 Y35.437 I0.186 J0.073
G1 X-1.95 Y35.462 Z-1.006 F100
X-1.897 Y35.486 Z-1.024
X-1.848 Y35.508 Z-1.052
X-1.805 Y35.527 Z-1.091
X-1.77 Y35.543 Z-1.138
X-1.744 Y35.555 Z-1.192
X-1.728 Y35.562 Z-1.25
X-1.712 Y35.569 Z-1.308
X-1.686 Y35.581 Z-1.362
X-1.651 Y35.597 Z-1.409
X-1.608 Y35.616 Z-1.448
X-1.559 Y35.638 Z-1.476
X-1.506 Y35.662 Z-1.494
X-1.451 Y35.687 Z-1.5
X-1.44 Y35.691
G2 X0.213 Y36.324 I6.375 J-14.191 F200
G3 X1.589 Y37.094 I-1.231 J3.812
G2 X2.008 Y37.446 I16.7 J-19.486
G3 X1.157 Y38.584 I-0.451 J0.55
G1 X-0.052 Y37.762
X-0.113 Y37.716
X-1.731 Y36.34
G3 X-1.968 Y35.937 I0.461 J-0.542
G1 X-2.504 Y33.25
G3 X-1.449 Y32.496 I0.698 J-0.139
G2 X1.717 Y33.802 I6.389 J-10.996
G3 X2.894 Y34.448 I-0.723 J2.71
G2 X7.005 Y37.448 I15.198 J-16.511
G3 X7.252 Y38.452 I-0.351 J0.618
X6.236 Y38.642 I-0.598 J-0.385
G1 X2.052 Y35.606
X-1.806 Y33.111
G3 X-2.122 Y32.627 I0.386 J-0.597
G1 X-2.601 Y29.677
G3 X-1.439 Y29.021 I0.702 J-0.114
G2 X3.207 Y31.223 I6.456 J-7.617
G3 X4.178 Y31.737 I-0.332 J1.801
G2 X16.366 Y37.449 I13.836 J-13.664
G1 X33.944 Y37.485
X33.989 Y37.48
X34.033 Y37.464
X34.071 Y37.439
G2 X37.11 Y34.461 I-16.072 J-19.439
X37.441 Y34.069 I-19.111 J-16.461
G3 X38.45 Y33.979 I0.548 J0.453
X38.526 Y34.989 I-0.46 J0.542
G1 X37.063 Y36.669
G3 X36.842 Y36.839 I-0.536 J-0.467
G1 X34.525 Y37.987
X34.457 Y38.017
X34.386 Y38.039
X34.314 Y38.053
X29.537 Y38.764
G3 X29.08 Y37.443 I-0.105 J-0.703
G2 X30.206 Y36.755 I-11.059 J-19.371
X35.031 Y32.516 I-12.206 J-18.755
X36.937 Y29.922 I-17.031 J-14.516
X37.447 Y29.05 I-13.229 J-8.328
G3 X38.456 Y28.791 I0.625 J0.339
X38.642 Y29.815 I-0.383 J0.599
G1 X35.044 Y34.634
G3 X34.84 Y34.819 I-0.57 J-0.426
G1 X29.433 Y38.061
G3 X29.121 Y38.16 I-0.366 J-0.61
G1 X19.78 Y38.866
G3 X19.666 Y37.449 I-0.054 J-0.709
G2 X35.822 Y25.883 I-1.652 J-19.375
G3 X35.962 Y25.613 I2.19 J0.969
G2 X37.047 Y23.157 I-9.02 J-5.45
X37.432 Y20.5 I-8.968 J-2.657
G3 X37.449 Y19.747 I16.529 J0
G1 X37.495 Y2.069
X37.49 Y2.023
X37.474 Y1.98
X37.449 Y1.941
G2 X34.065 Y-1.442 I-19.416 J16.038
G3 X33.975 Y-2.45 I0.453 J-0.549
X34.985 Y-2.527 I0.543 J0.46
G1 X36.673 Y-1.057
G3 X36.843 Y-0.837 I-0.467 J0.536
G1 X37.997 Y1.488
X38.027 Y1.557
X38.049 Y1.628
X38.064 Y1.701
X38.771 Y6.483
G3 X37.445 Y6.932 I-0.704 J0.104
G2 X37.187 Y6.484 I-12.997 J7.198
X29.057 Y-1.449 I-19.155 J11.497
G3 X28.813 Y-2.458 I0.351 J-0.619
X29.834 Y-2.637 I0.595 J0.39
G1 X34.64 Y0.963
G3 X34.824 Y1.167 I-0.426 J0.569
G1 X38.067 Y6.587
G3 X38.166 Y6.898 I-0.61 J0.365
G1 X38.869 Y16.131
G3 X38.205 Y16.895 I-0.709 J0.054
X37.45 Y16.22 I-0.044 J-0.71
X37.432 Y15.5 I14.778 J-0.72
G2 X37.047 Y12.843 I-9.353 J0
X35.962 Y10.387 I-10.104 J2.994
G3 X35.822 Y10.117 I2.05 J-1.239
G2 X19.237 Y-1.449 I-17.821 J7.881
G1 X2.137 Y-1.495
X2.092 Y-1.489
X2.048 Y-1.474
X2.01 Y-1.449
G2 X1.589 Y-1.094 I16.023 J19.429
G3 X0.213 Y-0.324 I-2.607 J-3.041
G2 X-1.446 Y0.319 I4.807 J14.886
G3 X-2.395 Y-0.052 I-0.294 J-0.648
X-2 Y-0.991 I0.655 J-0.277
G1 X-0.257 Y-1.676
X-0.187 Y-1.699
X-0.115 Y-1.715
X1.557 Y-1.998
X6.536 Y-2.765
G3 X6.996 Y-1.443 I0.108 J0.703
G2 X2.894 Y1.552 I11.036 J19.424
G3 X1.717 Y2.198 I-1.899 J-2.063
G2 X-1.448 Y3.519 I3.298 J12.361
G3 X-2.44 Y3.23 I-0.359 J-0.614
X-2.098 Y2.256 I0.632 J-0.325
G1 X2 Y0.422
X2.045 Y0.4
X6.645 Y-2.062
G3 X6.928 Y-2.144 I0.336 J0.627
G1 X16.676 Y-2.869
G3 X17.438 Y-2.208 I0.053 J0.709
X16.774 Y-1.45 I-0.71 J0.049
G2 X4.178 Y4.263 I1.227 J19.448
G3 X3.207 Y4.777 I-1.303 J-1.287
G2 X-1.441 Y6.981 I1.81 J9.82
G1 X-1.471 Y7.013
X-1.493 Y7.05
X-1.507 Y7.091
X-1.512 Y7.134
X-1.464 Y24.399
X-1.459 Y24.442
X-1.445 Y24.483
G2 X-0.137 Y26.382 I6.364 J-2.983
X4.659 Y28.556 I5.141 J-4.964
G3 X5.412 Y28.921 I-0.051 J1.066
G2 X11.09 Y33.182 I12.845 J-11.203
X18.022 Y34.71 I6.932 J-14.955
X27.177 Y31.933 I0 J-16.48
X33.307 Y24.588 I-9.411 J-14.086
G3 X33.478 Y24.265 I2.197 J0.953
G2 X34.31 Y22.463 I-6.503 J-4.096
X34.61 Y20.5 I-6.277 J-1.963
G3 X34.66 Y19.215 I16.529 J0
G2 X34.71 Y17.931 I-16.479 J-1.285
X34.532 Y14.746 I-28.624 J0
X33.478 Y11.735 I-7.096 J0.794
G3 X33.307 Y11.412 I2.027 J-1.276
G2 X27.177 Y4.067 I-15.541 J6.741
X18.022 Y1.29 I-9.155 J13.703
X11.09 Y2.818 I0 J16.484
X5.412 Y7.079 I7.167 J15.464
G3 X4.659 Y7.444 I-0.805 J-0.702
G2 X-0.137 Y9.618 I0.345 J7.138
X-1.45 Y11.527 I5.056 J4.882
X-0.683 Y14.276 I1.987 J0.927
G3 X0.662 Y16.794 I-1.685 J2.518
G1 Y21.5
G2 X5 Y25.826 I4.326 J0
X5.531 Y25.81 I0 J-8.503
G3 X6.062 Y25.793 I0.531 J8.486
X6.74 Y26.139 I0 J0.838
G2 X11.684 Y30.394 I11.451 J-8.306
X18.022 Y31.938 I6.337 J-12.232
X25.734 Y29.567 I0 J-13.729
X30.836 Y23.316 I-7.932 J-11.68
G3 X31.06 Y22.899 I2.211 J0.921
G2 X31.628 Y21.757 I-4.042 J-2.723
X31.838 Y20.5 I-3.664 J-1.257
G3 X31.888 Y19.215 I16.529 J0
G2 X31.938 Y17.931 I-16.479 J-1.285
X31.888 Y16.715 I-14.796 J0
G3 X31.838 Y15.5 I14.746 J-1.215
G2 X31.628 Y14.243 I-3.874 J0
X31.06 Y13.101 I-4.61 J1.582
G3 X30.836 Y12.684 I1.986 J-1.338
G2 X25.734 Y6.433 I-13.033 J5.429
X18.022 Y4.062 I-7.713 J11.358
X11.684 Y5.606 I0 J13.776
X6.74 Y9.861 I6.508 J12.561
G3 X6.062 Y10.207 I-0.679 J-0.492
X5.531 Y10.19 I0 J-8.503
G2 X5 Y10.174 I-0.531 J8.486
X0.662 Y14.5 I0 J4.338
G1 Y16.794
G2 X2.056 Y18.885 I2.265 J0
G3 X3.45 Y20.976 I-0.871 J2.091
G1 Y21.5
G2 X5 Y23.05 I1.55 J0
G1 X8.059
G2 X28.534 Y21.655 I9.941 J-5.05
X29.05 Y20.5 I-1.034 J-1.155
G1 Y19.491
G2 X29.05 Y16.509 I-11.05 J-1.491
G1 Y15.5
G2 X28.534 Y14.345 I-1.55 J0
X8.059 Y12.95 I-10.534 J3.655
G1 X5
G2 X3.45 Y14.5 I0 J1.55
G1 Y20.976
X3.447 Y21.013
X3.436 Y21.049
X-2.11 Y35.182
G2 X-2.006 Y35.437 I0.186 J0.073
G1 X-1.95 Y35.462 Z-1.506 F100
X-1.897 Y35.486 Z-1.524
X-1.848 Y35.508 Z-1.552
X-1.805 Y35.527 Z-1.591
X-1.77 Y35.543 Z-1.638
X-1.744 Y35.555 Z-1.692
X-1.728 Y35.562 Z-1.75
X-1.712 Y35.569 Z-1.808
X-1.686 Y35.581 Z-1.862
X-1.651 Y35.597 Z-1.909
X-1.608 Y35.616 Z-1.948
X-1.559 Y35.638 Z-1.976
X-1.506 Y35.662 Z-1.994
X-1.451 Y35.687 Z-2
X-1.44 Y35.691
G2 X0.213 Y36.324 I6.375 J-14.191 F200
G3 X1.589 Y37.094 I-1.231 J3.812
G2 X2.008 Y37.446 I16.7 J-19.486
G3 X1.157 Y38.584 I-0.451 J0.55
G1 X-0.052 Y37.762
X-0.113 Y37.716
X-1.731 Y36.34
G3 X-1.968 Y35.937 I0.461 J-0.542
G1 X-2.504 Y33.25
G3 X-1.449 Y32.496 I0.698 J-0.139
G2 X1.717 Y33.802 I6.389 J-10.996
G3 X2.894 Y34.448 I-0.723 J2.71
G2 X7.005 Y37.448 I15.198 J-16.511
G3 X7.252 Y38.452 I-0.351 J0.618
X6.236 Y38.642 I-0.598 J-0.385
G1 X2.052 Y35.606
X-1.806 Y33.111
G3 X-2.122 Y32.627 I0.386 J-0.597
G1 X-2.601 Y29.677
G3 X-1.439 Y29.021 I0.702 J-0.114
G2 X3.207 Y31.223 I6.456 J-7.617
G3 X4.178 Y31.737 I-0.332 J1.801
G2 X16.366 Y37.449 I13.836 J-13.664
G1 X33.944 Y37.485
X33.989 Y37.48
X34.033 Y37.464
X34.071 Y37.439
G2 X37.11 Y34.461 I-16.072 J-19.439
X37.441 Y34.069 I-19.111 J-16.461
G3 X38.45 Y33.979 I0.548 J0.453
X38.526 Y34.989 I-0.46 J0.542
G1 X37.063 Y36.669
G3 X36.842 Y36.839 I-0.536 J-0.467
G1 X34.525 Y37.987
X34.457 Y38.017
X34.386 Y38.039
X34.314 Y38.053
X29.537 Y38.764
G3 X29.08 Y37.443 I-0.105 J-0.703
G2 X30.206 Y36.755 I-11.059 J-19.371
X35.031 Y32.516 I-12.206 J-18.755
X36.937 Y29.922 I-17.031 J-14.516
X37.447 Y29.05 I-13.229 J-8.328
G3 X38.456 Y28.791 I0.625 J0.339
X38.642 Y29.815 I-0.383 J0.599
G1 X35.044 Y34.634
G3 X34.84 Y34.819 I-0.57 J-0.426
G1 X29.433 Y38.061
G3 X29.121 Y38.16 I-0.366 J-0.61
G1 X19.78 Y38.866
G3 X19.666 Y37.449 I-0.054 J-0.709
G2 X35.822 Y25.883 I-1.652 J-19.375
G3 X35.962 Y25.613 I2.19 J0.969
G2 X37.047 Y23.157 I-9.02 J-5.45
X37.432 Y20.5 I-8.968 J-2.657
G3 X37.449 Y19.747 I16.529 J0
G1 X37.495 Y2.069
X37.49 Y2.023
X37.474 Y1.98
X37.449 Y1.941
G2 X34.065 Y-1.442 I-19.416 J16.038
G3 X33.975 Y-2.45 I0.453 J-0.549
X34.985 Y-2.527 I0.543 J0.46
G1 X36.673 Y-1.057
G3 X36.843 Y-0.837 I-0.467 J0.536
G1 X37.997 Y1.488
X38.027 Y1.557
X38.049 Y1.628
X38.064 Y1.701
X38.771 Y6.483
G3 X37.445 Y6.932 I-0.704 J0.104
G2 X37.187 Y6.484 I-12.997 J7.198
X29.057 Y-1.449 I-19.155 J11.497
G3 X28.813 Y-2.458 I0.351 J-0.619
X29.834 Y-2.637 I0.595 J0.39
G1 X34.64 Y0.963
G3 X34.824 Y1.167 I-0.426 J0.569
G1 X38.067 Y6.587
G3 X38.166 Y6.898 I-0.61 J0.365
G1 X38.869 Y16.131
G3 X38.205 Y16.895 I-0.709 J0.054
X37.45 Y16.22 I-0.044 J-0.71
X37.432 Y15.5 I14.778 J-0.72
G2 X37.047 Y12.843 I-9.353 J0
X35.962 Y10.387 I-10.104 J2.994
G3 X35.822 Y10.117 I2.05 J-1.239
G2 X19.237 Y-1.449 I-17.821 J7.881
G1 X2.137 Y-1.495
X2.092 Y-1.489
X2.048 Y-1.474
X2.01 Y-1.449
G2 X1.589 Y-1.094 I16.023 J19.429
G3 X0.213 Y-0.324 I-2.607 J-3.041
G2 X-1.446 Y0.319 I4.807 J14.886
G3 X-2.395 Y-0.052 I-0.294 J-0.648
X-2 Y-0.991 I0.655 J-0.277
G1 X-0.257 Y-1.676
X-0.187 Y-1.699
X-0.115 Y-1.715
X1.557 Y-1.998
X6.536 Y-2.765
G3 X6.996 Y-1.443 I0.108 J0.703
G2 X2.894 Y1.552 I11.036 J19.424
G3 X1.717 Y2.198 I-1.899 J-2.063
G2 X-1.448 Y3.519 I3.298 J12.361
G3 X-2.44 Y3.23 I-0.359 J-0.614
X-2.098 Y2.256 I0.632 J-0.325
G1 X2 Y0.422
X2.045 Y0.4
X6.645 Y-2.062
G3 X6.928 Y-2.144 I0.336 J0.627
G1 X16.676 Y-2.869
G3 X17.438 Y-2.208 I0.053 J0.709
X16.774 Y-1.45 I-0.71 J0.049
G2 X4.178 Y4.263 I1.227 J19.448
G3 X3.207 Y4.777 I-1.303 J-1.287
G2 X-1.441 Y6.981 I1.81 J9.82
G1 X-1.471 Y7.013
X-1.493 Y7.05
X-1.507 Y7.091
X-1.512 Y7.134
X-1.464 Y24.399
X-1.459 Y24.442
X-1.445 Y24.483
G2 X-0.137 Y26.382 I6.364 J-2.983
X4.659 Y28.556 I5.141 J-4.964
G3 X5.412 Y28.921 I-0.051 J1.066
G2 X11.09 Y33.182 I12.845 J-11.203
X18.022 Y34.71 I6.932 J-14.955
X27.177 Y31.933 I0 J-16.48
X33.307 Y24.588 I-9.411 J-14.086
G3 X33.478 Y24.265 I2.197 J0.953
G2 X34.31 Y22.463 I-6.503 J-4.096
X34.61 Y20.5 I-6.277 J-1.963
G3 X34.66 Y19.215 I16.529 J0
G2 X34.71 Y17.931 I-16.479 J-1.285
X34.532 Y14.746 I-28.624 J0
X33.478 Y11.735 I-7.096 J0.794
G3 X33.307 Y11.412 I2.027 J-1.276
G2 X27.177 Y4.067 I-15.541 J6.741
X18.022 Y1.29 I-9.155 J13.703
X11.09 Y2.818 I0 J16.484
X5.412 Y7.079 I7.167 J15.464
G3 X4.659 Y7.444 I-0.805 J-0.702
G2 X-0.137 Y9.618 I0.345 J7.138
X-1.45 Y11.527 I5.056 J4.882
X-0.683 Y14.276 I1.987 J0.927
G3 X0.662 Y16.794 I-1.685 J2.518
G1 Y21.5
G2 X5 Y25.826 I4.326 J0
X5.531 Y25.81 I0 J-8.503
G3 X6.062 Y25.793 I0.531 J8.486
X6.74 Y26.139 I0 J0.838
G2 X11.684 Y30.394 I11.451 J-8.306
X18.022 Y31.938 I6.337 J-12.232
X25.734 Y29.567 I0 J-13.729
X30.836 Y23.316 I-7.932 J-11.68
G3 X31.06 Y22.899 I2.211 J0.921
G2 X31.628 Y21.757 I-4.042 J-2.723
X31.838 Y20.5 I-3.664 J-1.257
G3 X31.888 Y19.215 I16.529 J0
G2 X31.938 Y17.931 I-16.479 J-1.285
X31.888 Y16.715 I-14.796 J0
G3 X31.838 Y15.5 I14.746 J-1.215
G2 X31.628 Y14.243 I-3.874 J0
X31.06 Y13.101 I-4.61 J1.582
G3 X30.836 Y12.684 I1.986 J-1.338
G2 X25.734 Y6.433 I-13.033 J5.429
X18.022 Y4.062 I-7.713 J11.358
X11.684 Y5.606 I0 J13.776
X6.74 Y9.861 I6.508 J12.561
G3 X6.062 Y10.207 I-0.679 J-0.492
X5.531 Y10.19 I0 J-8.503
G2 X5 Y10.174 I-0.531 J8.486
X0.662 Y14.5 I0 J4.338
G1 Y16.794
G2 X2.056 Y18.885 I2.265 J0
G3 X3.45 Y20.976 I-0.871 J2.091
G1 Y21.5
G2 X5 Y23.05 I1.55 J0
G1 X8.059
G2 X28.534 Y21.655 I9.941 J-5.05
X29.05 Y20.5 I-1.034 J-1.155
G1 Y19.491
G2 X29.05 Y16.509 I-11.05 J-1.491
G1 Y15.5
G2 X28.534 Y14.345 I-1.55 J0
X8.059 Y12.95 I-10.534 J3.655
G1 X5
G2 X3.45 Y14.5 I0 J1.55
G1 Y20.976
X3.447 Y21.013
X3.436 Y21.049
X-2.11 Y35.182
G2 X-2.006 Y35.437 I0.186 J0.073
G1 X-1.95 Y35.462 Z-2.006 F100
X-1.897 Y35.486 Z-2.024
X-1.848 Y35.508 Z-2.052
X-1.805 Y35.527 Z-2.091
X-1.77 Y35.543 Z-2.138
X-1.744 Y35.555 Z-2.192
X-1.728 Y35.562 Z-2.25
X-1.712 Y35.569 Z-2.308
X-1.686 Y35.581 Z-2.362
X-1.651 Y35.597 Z-2.409
X-1.608 Y35.616 Z-2.448
X-1.559 Y35.638 Z-2.476
X-1.506 Y35.662 Z-2.494
X-1.451 Y35.687 Z-2.5
X-1.44 Y35.691
G2 X0.213 Y36.324 I6.375 J-14.191 F200
G3 X1.589 Y37.094 I-1.231 J3.812
G2 X2.008 Y37.446 I16.7 J-19.486
G3 X1.157 Y38.584 I-0.451 J0.55
G1 X-0.052 Y37.762
X-0.113 Y37.716
X-1.731 Y36.34
G3 X-1.968 Y35.937 I0.461 J-0.542
G1 X-2.504 Y33.25
G3 X-1.449 Y32.496 I0.698 J-0.139
G2 X1.717 Y33.802 I6.389 J-10.996
G3 X2.894 Y34.448 I-0.723 J2.71
G2 X7.005 Y37.448 I15.198 J-16.511
G3 X7.252 Y38.452 I-0.351 J0.618
X6.236 Y38.642 I-0.598 J-0.385
G1 X2.052 Y35.606
X-1.806 Y33.111
G3 X-2.122 Y32.627 I0.386 J-0.597
G1 X-2.601 Y29.677
G3 X-1.439 Y29.021 I0.702 J-0.114
G2 X3.207 Y31.223 I6.456 J-7.617
G3 X4.178 Y31.737 I-0.332 J1.801
G2 X16.366 Y37.449 I13.836 J-13.664
G1 X33.944 Y37.485
X33.989 Y37.48
X34.033 Y37.464
X34.071 Y37.439
G2 X37.11 Y34.461 I-16.072 J-19.439
X37.441 Y34.069 I-19.111 J-16.461
G3 X38.45 Y33.979 I0.548 J0.453
X38.526 Y34.989 I-0.46 J0.542
G1 X37.063 Y36.669
G3 X36.842 Y36.839 I-0.536 J-0.467
G1 X34.525 Y37.987
X34.457 Y38.017
X34.386 Y38.039
X34.314 Y38.053
X29.537 Y38.764
G3 X29.08 Y37.443 I-0.105 J-0.703
G2 X30.206 Y36.755 I-11.059 J-19.371
X35.031 Y32.516 I-12.206 J-18.755
X36.937 Y29.922 I-17.031 J-14.516
X37.447 Y29.05 I-13.229 J-8.328
G3 X38.456 Y28.791 I0.625 J0.339
X38.642 Y29.815 I-0.383 J0.599
G1 X35.044 Y34.634
G3 X34.84 Y34.819 I-0.57 J-0.426
G1 X29.433 Y38.061
G3 X29.121 Y38.16 I-0.366 J-0.61
G1 X19.78 Y38.866
G3 X19.666 Y37.449 I-0.054 J-0.709
G2 X35.822 Y25.883 I-1.652 J-19.375
G3 X35.962 Y25.613 I2.19 J0.969
G2 X37.047 Y23.157 I-9.02 J-5.45
X37.432 Y20.5 I-8.968 J-2.657
G3 X37.449 Y19.747 I16.529 J0
G1 X37.495 Y2.069
X37.49 Y2.023
X37.474 Y1.98
X37.449 Y1.941
G2 X34.065 Y-1.442 I-19.416 J16.038
G3 X33.975 Y-2.45 I0.453 J-0.549
X34.985 Y-2.527 I0.543 J0.46
G1 X36.673 Y-1.057
G3 X36.843 Y-0.837 I-0.467 J0.536
G1 X37.997 Y1.488
X38.027 Y1.557
X38.049 Y1.628
X38.064 Y1.701
X38.771 Y6.483
G3 X37.445 Y6.932 I-0.704 J0.104
G2 X37.187 Y6.484 I-12.997 J7.198
X29.057 Y-1.449 I-19.155 J11.497
G3 X28.813 Y-2.458 I0.351 J-0.619
X29.834 Y-2.637 I0.595 J0.39
G1 X34.64 Y0.963
G3 X34.824 Y1.167 I-0.426 J0.569
G1 X38.067 Y6.587
G3 X38.166 Y6.898 I-0.61 J0.365
G1 X38.869 Y16.131
G3 X38.205 Y16.895 I-0.709 J0.054
X37.45 Y16.22 I-0.044 J-0.71
X37.432 Y15.5 I14.778 J-0.72
G2 X37.047 Y12.843 I-9.353 J0
X35.962 Y10.387 I-10.104 J2.994
G3 X35.822 Y10.117 I2.05 J-1.239
G2 X19.237 Y-1.449 I-17.821 J7.881
G1 X2.137 Y-1.495
X2.092 Y-1.489
X2.048 Y-1.474
X2.01 Y-1.449
G2 X1.589 Y-1.094 I16.023 J19.429
G3 X0.213 Y-0.324 I-2.607 J-3.041
G2 X-1.446 Y0.319 I4.807 J14.886
G3 X-2.395 Y-0.052 I-0.294 J-0.648
X-2 Y-0.991 I0.655 J-0.277
G1 X-0.257 Y-1.676
X-0.187 Y-1.699
X-0.115 Y-1.715
X1.557 Y-1.998
X6.536 Y-2.765
G3 X6.996 Y-1.443 I0.108 J0.703
G2 X2.894 Y1.552 I11.036 J19.424
G3 X1.717 Y2.198 I-1.899 J-2.063
G2 X-1.448 Y3.519 I3.298 J12.361
G3 X-2.44 Y3.23 I-0.359 J-0.614
X-2.098 Y2.256 I0.632 J-0.325
G1 X2 Y0.422
X2.045 Y0.4
X6.645 Y-2.062
G3 X6.928 Y-2.144 I0.336 J0.627
G1 X16.676 Y-2.869
G3 X17.438 Y-2.208 I0.053 J0.709
X16.774 Y-1.45 I-0.71 J0.049
G2 X4.178 Y4.263 I1.227 J19.448
G3 X3.207 Y4.777 I-1.303 J-1.287
G2 X-1.441 Y6.981 I1.81 J9.82
G1 X-1.471 Y7.013
X-1.493 Y7.05
X-1.507 Y7.091
X-1.512 Y7.134
X-1.464 Y24.399
X-1.459 Y24.442
X-1.445 Y24.483
G2 X-0.137 Y26.382 I6.364 J-2.983
X4.659 Y28.556 I5.141 J-4.964
G3 X5.412 Y28.921 I-0.051 J1.066
G2 X11.09 Y33.182 I12.845 J-11.203
X18.022 Y34.71 I6.932 J-14.955
X27.177 Y31.933 I0 J-16.48
X33.307 Y24.588 I-9.411 J-14.086
G3 X33.478 Y24.265 I2.197 J0.953
G2 X34.31 Y22.463 I-6.503 J-4.096
X34.61 Y20.5 I-6.277 J-1.963
G3 X34.66 Y19.215 I16.529 J0
G2 X34.71 Y17.931 I-16.479 J-1.285
X34.532 Y14.746 I-28.624 J0
X33.478 Y11.735 I-7.096 J0.794
G3 X33.307 Y11.412 I2.027 J-1.276
G2 X27.177 Y4.067 I-15.541 J6.741
X18.022 Y1.29 I-9.155 J13.703
X11.09 Y2.818 I0 J16.484
X5.412 Y7.079 I7.167 J15.464
G3 X4.659 Y7.444 I-0.805 J-0.702
G2 X-0.137 Y9.618 I0.345 J7.138
X-1.45 Y11.527 I5.056 J4.882
X-0.683 Y14.276 I1.987 J0.927
G3 X0.662 Y16.794 I-1.685 J2.518
G1 Y21.5
G2 X5 Y25.826 I4.326 J0
X5.531 Y25.81 I0 J-8.503
G3 X6.062 Y25.793 I0.531 J8.486
X6.74 Y26.139 I0 J0.838
G2 X11.684 Y30.394 I11.451 J-8.306
X18.022 Y31.938 I6.337 J-12.232
X25.734 Y29.567 I0 J-13.729
X30.836 Y23.316 I-7.932 J-11.68
G3 X31.06 Y22.899 I2.211 J0.921
G2 X31.628 Y21.757 I-4.042 J-2.723
X31.838 Y20.5 I-3.664 J-1.257
G3 X31.888 Y19.215 I16.529 J0
G2 X31.938 Y17.931 I-16.479 J-1.285
X31.888 Y16.715 I-14.796 J0
G3 X31.838 Y15.5 I14.746 J-1.215
G2 X31.628 Y14.243 I-3.874 J0
X31.06 Y13.101 I-4.61 J1.582
G3 X30.836 Y12.684 I1.986 J-1.338
G2 X25.734 Y6.433 I-13.033 J5.429
X18.022 Y4.062 I-7.713 J11.358
X11.684 Y5.606 I0 J13.776
X6.74 Y9.861 I6.508 J12.561
G3 X6.062 Y10.207 I-0.679 J-0.492
X5.531 Y10.19 I0 J-8.503
G2 X5 Y10.174 I-0.531 J8.486
X0.662 Y14.5 I0 J4.338
G1 Y16.794
G2 X2.056 Y18.885 I2.265 J0
G3 X3.45 Y20.976 I-0.871 J2.091
G1 Y21.5
G2 X5 Y23.05 I1.55 J0
G1 X8.059
G2 X28.534 Y21.655 I9.941 J-5.05
X29.05 Y20.5 I-1.034 J-1.155
G1 Y19.491
G2 X29.05 Y16.509 I-11.05 J-1.491
G1 Y15.5
G2 X28.534 Y14.345 I-1.55 J0
X8.059 Y12.95 I-10.534 J3.655
G1 X5
G2 X3.45 Y14.5 I0 J1.55
G1 Y20.976
X3.447 Y21.013
X3.436 Y21.049
X-2.11 Y35.182
G2 X-2.006 Y35.437 I0.186 J0.073
G1 X-1.95 Y35.462 Z-2.506 F100
X-1.897 Y35.486 Z-2.524
X-1.848 Y35.508 Z-2.552
X-1.805 Y35.527 Z-2.591
X-1.77 Y35.543 Z-2.638
X-1.744 Y35.555 Z-2.692
X-1.728 Y35.562 Z-2.75
X-1.712 Y35.569 Z-2.808
X-1.686 Y35.581 Z-2.862
X-1.651 Y35.597 Z-2.909
X-1.608 Y35.616 Z-2.948
X-1.559 Y35.638 Z-2.976
X-1.506 Y35.662 Z-2.994
X-1.451 Y35.687 Z-3
X-1.44 Y35.691
G2 X0.213 Y36.324 I6.375 J-14.191 F200
G3 X1.589 Y37.094 I-1.231 J3.812
G2 X2.008 Y37.446 I16.7 J-19.486
G3 X1.157 Y38.584 I-0.451 J0.55
G1 X-0.052 Y37.762
X-0.113 Y37.716
X-1.731 Y36.34
G3 X-1.968 Y35.937 I0.461 J-0.542
G1 X-2.504 Y33.25
G3 X-1.449 Y32.496 I0.698 J-0.139
G2 X1.717 Y33.802 I6.389 J-10.996
G3 X2.894 Y34.448 I-0.723 J2.71
G2 X7.005 Y37.448 I15.198 J-16.511
G3 X7.252 Y38.452 I-0.351 J0.618
X6.236 Y38.642 I-0.598 J-0.385
G1 X2.052 Y35.606
X-1.806 Y33.111
G3 X-2.122 Y32.627 I0.386 J-0.597
G1 X-2.601 Y29.677
G3 X-1.439 Y29.021 I0.702 J-0.114
G2 X3.207 Y31.223 I6.456 J-7.617
G3 X4.178 Y31.737 I-0.332 J1.801
G2 X16.366 Y37.449 I13.836 J-13.664
G1 X33.944 Y37.485
X33.989 Y37.48
X34.033 Y37.464
X34.071 Y37.439
G2 X37.11 Y34.461 I-16.072 J-19.439
X37.441 Y34.069 I-19.111 J-16.461
G3 X38.45 Y33.979 I0.548 J0.453
X38.526 Y34.989 I-0.46 J0.542
G1 X37.063 Y36.669
G3 X36.842 Y36.839 I-0.536 J-0.467
G1 X34.525 Y37.987
X34.457 Y38.017
X34.386 Y38.039
X34.314 Y38.053
X29.537 Y38.764
G3 X29.08 Y37.443 I-0.105 J-0.703
G2 X30.206 Y36.755 I-11.059 J-19.371
X35.031 Y32.516 I-12.206 J-18.755
X36.937 Y29.922 I-17.031 J-14.516
X37.447 Y29.05 I-13.229 J-8.328
G3 X38.456 Y28.791 I0.625 J0.339
X38.642 Y29.815 I-0.383 J0.599
G1 X35.044 Y34.634
G3 X34.84 Y34.819 I-0.57 J-0.426
G1 X29.433 Y38.061
G3 X29.121 Y38.16 I-0.366 J-0.61
G1 X19.78 Y38.866
G3 X19.666 Y37.449 I-0.054 J-0.709
G2 X35.822 Y25.883 I-1.652 J-19.375
G3 X35.962 Y25.613 I2.19 J0.969
G2 X37.047 Y23.157 I-9.02 J-5.45
X37.432 Y20.5 I-8.968 J-2.657
G3 X37.449 Y19.747 I16.529 J0
G1 X37.495 Y2.069
X37.49 Y2.023
X37.474 Y1.98
X37.449 Y1.941
G2 X34.065 Y-1.442 I-19.416 J16.038
G3 X33.975 Y-2.45 I0.453 J-0.549
X34.985 Y-2.527 I0.543 J0.46
G1 X36.673 Y-1.057
G3 X36.843 Y-0.837 I-0.467 J0.536
G1 X37.997 Y1.488
X38.027 Y1.557
X38.049 Y1.628
X38.064 Y1.701
X38.771 Y6.483
G3 X37.445 Y6.932 I-0.704 J0.104
G2 X37.187 Y6.484 I-12.997 J7.198
X29.057 Y-1.449 I-19.155 J11.497
G3 X28.813 Y-2.458 I0.351 J-0.619
X29.834 Y-2.637 I0.595 J0.39
G1 X34.64 Y0.963
G3 X34.824 Y1.167 I-0.426 J0.569
G1 X38.067 Y6.587
G3 X38.166 Y6.898 I-0.61 J0.365
G1 X38.869 Y16.131
G3 X38.205 Y16.895 I-0.709 J0.054
X37.45 Y16.22 I-0.044 J-0.71
X37.432 Y15.5 I14.778 J-0.72
G2 X37.047 Y12.843 I-9.353 J0
X35.962 Y10.387 I-10.104 J2.994
G3 X35.822 Y10.117 I2.05 J-1.239
G2 X19.237 Y-1.449 I-17.821 J7.881
G1 X2.137 Y-1.495
X2.092 Y-1.489
X2.048 Y-1.474
X2.01 Y-1.449
G2 X1.589 Y-1.094 I16.023 J19.429
G3 X0.213 Y-0.324 I-2.607 J-3.041
G2 X-1.446 Y0.319 I4.807 J14.886
G3 X-2.395 Y-0.052 I-0.294 J-0.648
X-2 Y-0.991 I0.655 J-0.277
G1 X-0.257 Y-1.676
X-0.187 Y-1.699
X-0.115 Y-1.715
X1.557 Y-1.998
X6.536 Y-2.765
G3 X6.996 Y-1.443 I0.108 J0.703
G2 X2.894 Y1.552 I11.036 J19.424
G3 X1.717 Y2.198 I-1.899 J-2.063
G2 X-1.448 Y3.519 I3.298 J12.361
G3 X-2.44 Y3.23 I-0.359 J-0.614
X-2.098 Y2.256 I0.632 J-0.325
G1 X2 Y0.422
X2.045 Y0.4
X6.645 Y-2.062
G3 X6.928 Y-2.144 I0.336 J0.627
G1 X16.676 Y-2.869
G3 X17.438 Y-2.208 I0.053 J0.709
X16.774 Y-1.45 I-0.71 J0.049
G2 X4.178 Y4.263 I1.227 J19.448
G3 X3.207 Y4.777 I-1.303 J-1.287
G2 X-1.441 Y6.981 I1.81 J9.82
G1 X-1.471 Y7.013
X-1.493 Y7.05
X-1.507 Y7.091
X-1.512 Y7.134
X-1.464 Y24.399
X-1.459 Y24.442
X-1.445 Y24.483
G2 X-0.137 Y26.382 I6.364 J-2.983
X4.659 Y28.556 I5.141 J-4.964
G3 X5.412 Y28.921 I-0.051 J1.066
G2 X11.09 Y33.182 I12.845 J-11.203
X18.022 Y34.71 I6.932 J-14.955
X27.177 Y31.933 I0 J-16.48
X33.307 Y24.588 I-9.411 J-14.086
G3 X33.478 Y24.265 I2.197 J0.953
G2 X34.31 Y22.463 I-6.503 J-4.096
X34.61 Y20.5 I-6.277 J-1.963
G3 X34.66 Y19.215 I16.529 J0
G2 X34.71 Y17.931 I-16.479 J-1.285
X34.532 Y14.746 I-28.624 J0
X33.478 Y11.735 I-7.096 J0.794
G3 X33.307 Y11.412 I2.027 J-1.276
G2 X27.177 Y4.067 I-15.541 J6.741
X18.022 Y1.29 I-9.155 J13.703
X11.09 Y2.818 I0 J16.484
X5.412 Y7.079 I7.167 J15.464
G3 X4.659 Y7.444 I-0.805 J-0.702
G2 X-0.137 Y9.618 I0.345 J7.138
X-1.45 Y11.527 I5.056 J4.882
X-0.683 Y14.276 I1.987 J0.927
G3 X0.662 Y16.794 I-1.685 J2.518
G1 Y21.5
G2 X5 Y25.826 I4.326 J0
X5.531 Y25.81 I0 J-8.503
G3 X6.062 Y25.793 I0.531 J8.486
X6.74 Y26.139 I0 J0.838
G2 X11.684 Y30.394 I11.451 J-8.306
X18.022 Y31.938 I6.337 J-12.232
X25.734 Y29.567 I0 J-13.729
X30.836 Y23.316 I-7.932 J-11.68
G3 X31.06 Y22.899 I2.211 J0.921
G2 X31.628 Y21.757 I-4.042 J-2.723
X31.838 Y20.5 I-3.664 J-1.257
G3 X31.888 Y19.215 I16.529 J0
G2 X31.938 Y17.931 I-16.479 J-1.285
X31.888 Y16.715 I-14.796 J0
G3 X31.838 Y15.5 I14.746 J-1.215
G2 X31.628 Y14.243 I-3.874 J0
X31.06 Y13.101 I-4.61 J1.582
G3 X30.836 Y12.684 I1.986 J-1.338
G2 X25.734 Y6.433 I-13.033 J5.429
X18.022 Y4.062 I-7.713 J11.358
X11.684 Y5.606 I0 J13.776
X6.74 Y9.861 I6.508 J12.561
G3 X6.062 Y10.207 I-0.679 J-0.492
X5.531 Y10.19 I0 J-8.503
G2 X5 Y10.174 I-0.531 J8.486
X0.662 Y14.5 I0 J4.338
G1 Y16.794
G2 X2.056 Y18.885 I2.265 J0
G3 X3.45 Y20.976 I-0.871 J2.091
G1 Y21.5
G2 X5 Y23.05 I1.55 J0
G1 X8.059
G2 X28.534 Y21.655 I9.941 J-5.05
X29.05 Y20.5 I-1.034 J-1.155
G1 Y19.491
G2 X29.05 Y16.509 I-11.05 J-1.491
G1 Y15.5
G2 X28.534 Y14.345 I-1.55 J0
X8.059 Y12.95 I-10.534 J3.655
G1 X5
G2 X3.45 Y14.5 I0 J1.55
G1 Y20.976
X3.447 Y21.013
X3.436 Y21.049
X-2.11 Y35.182
G2 X-2.006 Y35.437 I0.186 J0.073
G1 X-1.95 Y35.462 Z-3.006 F100
X-1.897 Y35.486 Z-3.024
X-1.848 Y35.508 Z-3.052
X-1.805 Y35.527 Z-3.091
X-1.77 Y35.543 Z-3.138
X-1.744 Y35.555 Z-3.192
X-1.728 Y35.562 Z-3.25
X-1.712 Y35.569 Z-3.308
X-1.686 Y35.581 Z-3.362
X-1.651 Y35.597 Z-3.409
X-1.608 Y35.616 Z-3.448
X-1.559 Y35.638 Z-3.476
X-1.506 Y35.662 Z-3.494
X-1.451 Y35.687 Z-3.5
X-1.44 Y35.691
G2 X0.213 Y36.324 I6.375 J-14.191 F200
G3 X1.589 Y37.094 I-1.231 J3.812
G2 X2.008 Y37.446 I16.7 J-19.486
G3 X1.157 Y38.584 I-0.451 J0.55
G1 X-0.052 Y37.762
X-0.113 Y37.716
X-1.731 Y36.34
G3 X-1.968 Y35.937 I0.461 J-0.542
G1 X-2.504 Y33.25
G3 X-1.449 Y32.496 I0.698 J-0.139
G2 X1.717 Y33.802 I6.389 J-10.996
G3 X2.894 Y34.448 I-0.723 J2.71
G2 X7.005 Y37.448 I15.198 J-16.511
G3 X7.252 Y38.452 I-0.351 J0.618
X6.236 Y38.642 I-0.598 J-0.385
G1 X2.052 Y35.606
X-1.806 Y33.111
G3 X-2.122 Y32.627 I0.386 J-0.597
G1 X-2.601 Y29.677
G3 X-1.439 Y29.021 I0.702 J-0.114
G2 X3.207 Y31.223 I6.456 J-7.617
G3 X4.178 Y31.737 I-0.332 J1.801
G2 X16.366 Y37.449 I13.836 J-13.664
G1 X33.944 Y37.485
X33.989 Y37.48
X34.033 Y37.464
X34.071 Y37.439
G2 X37.11 Y34.461 I-16.072 J-19.439
X37.441 Y34.069 I-19.111 J-16.461
G3 X38.45 Y33.979 I0.548 J0.453
X38.526 Y34.989 I-0.46 J0.542
G1 X37.063 Y36.669
G3 X36.842 Y36.839 I-0.536 J-0.467
G1 X34.525 Y37.987
X34.457 Y38.017
X34.386 Y38.039
X34.314 Y38.053
X29.537 Y38.764
G3 X29.08 Y37.443 I-0.105 J-0.703
G2 X30.206 Y36.755 I-11.059 J-19.371
X35.031 Y32.516 I-12.206 J-18.755
X36.937 Y29.922 I-17.031 J-14.516
X37.447 Y29.05 I-13.229 J-8.328
G3 X38.456 Y28.791 I0.625 J0.339
X38.642 Y29.815 I-0.383 J0.599
G1 X35.044 Y34.634
G3 X34.84 Y34.819 I-0.57 J-0.426
G1 X29.433 Y38.061
G3 X29.121 Y38.16 I-0.366 J-0.61
G1 X19.78 Y38.866
G3 X19.666 Y37.449 I-0.054 J-0.709
G2 X35.822 Y25.883 I-1.652 J-19.375
G3 X35.962 Y25.613 I2.19 J0.969
G2 X37.047 Y23.157 I-9.02 J-5.45
X37.432 Y20.5 I-8.968 J-2.657
G3 X37.449 Y19.747 I16.529 J0
G1 X37.495 Y2.069
X37.49 Y2.023
X37.474 Y1.98
X37.449 Y1.941
G2 X34.065 Y-1.442 I-19.416 J16.038
G3 X33.975 Y-2.45 I0.453 J-0.549
X34.985 Y-2.527 I0.543 J0.46
G1 X36.673 Y-1.057
G3 X36.843 Y-0.837 I-0.467 J0.536
G1 X37.997 Y1.488
X38.027 Y1.557
X38.049 Y1.628
X38.064 Y1.701
X38.771 Y6.483
G3 X37.445 Y6.932 I-0.704 J0.104
G2 X37.187 Y6.484 I-12.997 J7.198
X29.057 Y-1.449 I-19.155 J11.497
G3 X28.813 Y-2.458 I0.351 J-0.619
X29.834 Y-2.637 I0.595 J0.39
G1 X34.64 Y0.963
G3 X34.824 Y1.167 I-0.426 J0.569
G1 X38.067 Y6.587
G3 X38.166 Y6.898 I-0.61 J0.365
G1 X38.869 Y16.131
G3 X38.205 Y16.895 I-0.709 J0.054
X37.45 Y16.22 I-0.044 J-0.71
X37.432 Y15.5 I14.778 J-0.72
G2 X37.047 Y12.843 I-9.353 J0
X35.962 Y10.387 I-10.104 J2.994
G3 X35.822 Y10.117 I2.05 J-1.239
G2 X19.237 Y-1.449 I-17.821 J7.881
G1 X2.137 Y-1.495
X2.092 Y-1.489
X2.048 Y-1.474
X2.01 Y-1.449
G2 X1.589 Y-1.094 I16.023 J19.429
G3 X0.213 Y-0.324 I-2.607 J-3.041
G2 X-1.446 Y0.319 I4.807 J14.886
G3 X-2.395 Y-0.052 I-0.294 J-0.648
X-2 Y-0.991 I0.655 J-0.277
G1 X-0.257 Y-1.676
X-0.187 Y-1.699
X-0.115 Y-1.715
X1.557 Y-1.998
X6.536 Y-2.765
G3 X6.996 Y-1.443 I0.108 J0.703
G2 X2.894 Y1.552 I11.036 J19.424
G3 X1.717 Y2.198 I-1.899 J-2.063
G2 X-1.448 Y3.519 I3.298 J12.361
G3 X-2.44 Y3.23 I-0.359 J-0.614
X-2.098 Y2.256 I0.632 J-0.325
G1 X2 Y0.422
X2.045 Y0.4
X6.645 Y-2.062
G3 X6.928 Y-2.144 I0.336 J0.627
G1 X16.676 Y-2.869
G3 X17.438 Y-2.208 I0.053 J0.709
X16.774 Y-1.45 I-0.71 J0.049
G2 X4.178 Y4.263 I1.227 J19.448
G3 X3.207 Y4.777 I-1.303 J-1.287
G2 X-1.441 Y6.981 I1.81 J9.82
G1 X-1.471 Y7.013
X-1.493 Y7.05
X-1.507 Y7.091
X-1.512 Y7.134
X-1.464 Y24.399
X-1.459 Y24.442
X-1.445 Y24.483
G2 X-0.137 Y26.382 I6.364 J-2.983
X4.659 Y28.556 I5.141 J-4.964
G3 X5.412 Y28.921 I-0.051 J1.066
G2 X11.09 Y33.182 I12.845 J-11.203
X18.022 Y34.71 I6.932 J-14.955
X27.177 Y31.933 I0 J-16.48
X33.307 Y24.588 I-9.411 J-14.086
G3 X33.478 Y24.265 I2.197 J0.953
G2 X34.31 Y22.463 I-6.503 J-4.096
X34.61 Y20.5 I-6.277 J-1.963
G3 X34.66 Y19.215 I16.529 J0
G2 X34.71 Y17.931 I-16.479 J-1.285
X34.532 Y14.746 I-28.624 J0
X33.478 Y11.735 I-7.096 J0.794
G3 X33.307 Y11.412 I2.027 J-1.276
G2 X27.177 Y4.067 I-15.541 J6.741
X18.022 Y1.29 I-9.155 J13.703
X11.09 Y2.818 I0 J16.484
X5.412 Y7.079 I7.167 J15.464
G3 X4.659 Y7.444 I-0.805 J-0.702
G2 X-0.137 Y9.618 I0.345 J7.138
X-1.45 Y11.527 I5.056 J4.882
X-0.683 Y14.276 I1.987 J0.927
G3 X0.662 Y16.794 I-1.685 J2.518
G1 Y21.5
G2 X5 Y25.826 I4.326 J0
X5.531 Y25.81 I0 J-8.503
G3 X6.062 Y25.793 I0.531 J8.486
X6.74 Y26.139 I0 J0.838
G2 X11.684 Y30.394 I11.451 J-8.306
X18.022 Y31.938 I6.337 J-12.232
X25.734 Y29.567 I0 J-13.729
X30.836 Y23.316 I-7.932 J-11.68
G3 X31.06 Y22.899 I2.211 J0.921
G2 X31.628 Y21.757 I-4.042 J-2.723
X31.838 Y20.5 I-3.664 J-1.257
G3 X31.888 Y19.215 I16.529 J0
G2 X31.938 Y17.931 I-16.479 J-1.285
X31.888 Y16.715 I-14.796 J0
G3 X31.838 Y15.5 I14.746 J-1.215
G2 X31.628 Y14.243 I-3.874 J0
X31.06 Y13.101 I-4.61 J1.582
G3 X30.836 Y12.684 I1.986 J-1.338
G2 X25.734 Y6.433 I-13.033 J5.429
X18.022 Y4.062 I-7.713 J11.358
X11.684 Y5.606 I0 J13.776
X6.74 Y9.861 I6.508 J12.561
G3 X6.062 Y10.207 I-0.679 J-0.492
X5.531 Y10.19 I0 J-8.503
G2 X5 Y10.174 I-0.531 J8.486
X0.662 Y14.5 I0 J4.338
G1 Y16.794
G2 X2.056 Y18.885 I2.265 J0
G3 X3.45 Y20.976 I-0.871 J2.091
G1 Y21.5
G2 X5 Y23.05 I1.55 J0
G1 X8.059
G2 X28.534 Y21.655 I9.941 J-5.05
X29.05 Y20.5 I-1.034 J-1.155
G1 Y19.491
G2 X29.05 Y16.509 I-11.05 J-1.491
G1 Y15.5
G2 X28.534 Y14.345 I-1.55 J0
X8.059 Y12.95 I-10.534 J3.655
G1 X5
G2 X3.45 Y14.5 I0 J1.55
G1 Y20.976
X3.447 Y21.013
X3.436 Y21.049
X-2.11 Y35.182
G2 X-2.006 Y35.437 I0.186 J0.073
G1 X-1.95 Y35.462 Z-3.506 F100
X-1.897 Y35.486 Z-3.524
X-1.848 Y35.508 Z-3.552
X-1.805 Y35.527 Z-3.591
X-1.77 Y35.543 Z-3.638
X-1.744 Y35.555 Z-3.692
X-1.728 Y35.562 Z-3.75
X-1.712 Y35.569 Z-3.808
X-1.686 Y35.581 Z-3.862
X-1.651 Y35.597 Z-3.909
X-1.608 Y35.616 Z-3.948
X-1.559 Y35.638 Z-3.976
X-1.506 Y35.662 Z-3.994
X-1.451 Y35.687 Z-4
X-1.44 Y35.691
G2 X0.213 Y36.324 I6.375 J-14.191 F200
G3 X1.589 Y37.094 I-1.231 J3.812
G2 X2.008 Y37.446 I16.7 J-19.486
G3 X1.157 Y38.584 I-0.451 J0.55
G1 X-0.052 Y37.762
X-0.113 Y37.716
X-1.731 Y36.34
G3 X-1.968 Y35.937 I0.461 J-0.542
G1 X-2.504 Y33.25
G3 X-1.449 Y32.496 I0.698 J-0.139
G2 X1.717 Y33.802 I6.389 J-10.996
G3 X2.894 Y34.448 I-0.723 J2.71
G2 X7.005 Y37.448 I15.198 J-16.511
G3 X7.252 Y38.452 I-0.351 J0.618
X6.236 Y38.642 I-0.598 J-0.385
G1 X2.052 Y35.606
X-1.806 Y33.111
G3 X-2.122 Y32.627 I0.386 J-0.597
G1 X-2.601 Y29.677
G3 X-1.439 Y29.021 I0.702 J-0.114
G2 X3.207 Y31.223 I6.456 J-7.617
G3 X4.178 Y31.737 I-0.332 J1.801
G2 X16.366 Y37.449 I13.836 J-13.664
G1 X33.944 Y37.485
X33.989 Y37.48
X34.033 Y37.464
X34.071 Y37.439
G2 X37.11 Y34.461 I-16.072 J-19.439
X37.441 Y34.069 I-19.111 J-16.461
G3 X38.45 Y33.979 I0.548 J0.453
X38.526 Y34.989 I-0.46 J0.542
G1 X37.063 Y36.669
G3 X36.842 Y36.839 I-0.536 J-0.467
G1 X34.525 Y37.987
X34.457 Y38.017
X34.386 Y38.039
X34.314 Y38.053
X29.537 Y38.764
G3 X29.08 Y37.443 I-0.105 J-0.703
G2 X30.206 Y36.755 I-11.059 J-19.371
X35.031 Y32.516 I-12.206 J-18.755
X36.937 Y29.922 I-17.031 J-14.516
X37.447 Y29.05 I-13.229 J-8.328
G3 X38.456 Y28.791 I0.625 J0.339
X38.642 Y29.815 I-0.383 J0.599
G1 X35.044 Y34.634
G3 X34.84 Y34.819 I-0.57 J-0.426
G1 X29.433 Y38.061
G3 X29.121 Y38.16 I-0.366 J-0.61
G1 X19.78 Y38.866
G3 X19.666 Y37.449 I-0.054 J-0.709
G2 X35.822 Y25.883 I-1.652 J-19.375
G3 X35.962 Y25.613 I2.19 J0.969
G2 X37.047 Y23.157 I-9.02 J-5.45
X37.432 Y20.5 I-8.968 J-2.657
G3 X37.449 Y19.747 I16.529 J0
G1 X37.495 Y2.069
X37.49 Y2.023
X37.474 Y1.98
X37.449 Y1.941
G2 X34.065 Y-1.442 I-19.416 J16.038
G3 X33.975 Y-2.45 I0.453 J-0.549
X34.985 Y-2.527 I0.543 J0.46
G1 X36.673 Y-1.057
G3 X36.843 Y-0.837 I-0.467 J0.536
G1 X37.997 Y1.488
X38.027 Y1.557
X38.049 Y1.628
X38.064 Y1.701
X38.771 Y6.483
G3 X37.445 Y6.932 I-0.704 J0.104
G2 X37.187 Y6.484 I-12.997 J7.198
X29.057 Y-1.449 I-19.155 J11.497
G3 X28.813 Y-2.458 I0.351 J-0.619
X29.834 Y-2.637 I0.595 J0.39
G1 X34.64 Y0.963
G3 X34.824 Y1.167 I-0.426 J0.569
G1 X38.067 Y6.587
G3 X38.166 Y6.898 I-0.61 J0.365
G1 X38.869 Y16.131
G3 X38.205 Y16.895 I-0.709 J0.054
X37.45 Y16.22 I-0.044 J-0.71
X37.432 Y15.5 I14.778 J-0.72
G2 X37.047 Y12.843 I-9.353 J0
X35.962 Y10.387 I-10.104 J2.994
G3 X35.822 Y10.117 I2.05 J-1.239
G2 X19.237 Y-1.449 I-17.821 J7.881
G1 X2.137 Y-1.495
X2.092 Y-1.489
X2.048 Y-1.474
X2.01 Y-1.449
G2 X1.589 Y-1.094 I16.023 J19.429
G3 X0.213 Y-0.324 I-2.607 J-3.041
G2 X-1.446 Y0.319 I4.807 J14.886
G3 X-2.395 Y-0.052 I-0.294 J-0.648
X-2 Y-0.991 I0.655 J-0.277
G1 X-0.257 Y-1.676
X-0.187 Y-1.699
X-0.115 Y-1.715
X1.557 Y-1.998
X6.536 Y-2.765
G3 X6.996 Y-1.443 I0.108 J0.703
G2 X2.894 Y1.552 I11.036 J19.424
G3 X1.717 Y2.198 I-1.899 J-2.063
G2 X-1.448 Y3.519 I3.298 J12.361
G3 X-2.44 Y3.23 I-0.359 J-0.614
X-2.098 Y2.256 I0.632 J-0.325
G1 X2 Y0.422
X2.045 Y0.4
X6.645 Y-2.062
G3 X6.928 Y-2.144 I0.336 J0.627
G1 X16.676 Y-2.869
G3 X17.438 Y-2.208 I0.053 J0.709
X16.774 Y-1.45 I-0.71 J0.049
G2 X4.178 Y4.263 I1.227 J19.448
G3 X3.207 Y4.777 I-1.303 J-1.287
G2 X-1.441 Y6.981 I1.81 J9.82
G1 X-1.471 Y7.013
X-1.493 Y7.05
X-1.507 Y7.091
X-1.512 Y7.134
X-1.464 Y24.399
X-1.459 Y24.442
X-1.445 Y24.483
G2 X-0.137 Y26.382 I6.364 J-2.983
X4.659 Y28.556 I5.141 J-4.964
G3 X5.412 Y28.921 I-0.051 J1.066
G2 X11.09 Y33.182 I12.845 J-11.203
X18.022 Y34.71 I6.932 J-14.955
X27.177 Y31.933 I0 J-16.48
X33.307 Y24.588 I-9.411 J-14.086
G3 X33.478 Y24.265 I2.197 J0.953
G2 X34.31 Y22.463 I-6.503 J-4.096
X34.61 Y20.5 I-6.277 J-1.963
G3 X34.66 Y19.215 I16.529 J0
G2 X34.71 Y17.931 I-16.479 J-1.285
X34.532 Y14.746 I-28.624 J0
X33.478 Y11.735 I-7.096 J0.794
G3 X33.307 Y11.412 I2.027 J-1.276
G2 X27.177 Y4.067 I-15.541 J6.741
X18.022 Y1.29 I-9.155 J13.703
X11.09 Y2.818 I0 J16.484
X5.412 Y7.079 I7.167 J15.464
G3 X4.659 Y7.444 I-0.805 J-0.702
G2 X-0.137 Y9.618 I0.345 J7.138
X-1.45 Y11.527 I5.056 J4.882
X-0.683 Y14.276 I1.987 J0.927
G3 X0.662 Y16.794 I-1.685 J2.518
G1 Y21.5
G2 X5 Y25.826 I4.326 J0
X5.531 Y25.81 I0 J-8.503
G3 X6.062 Y25.793 I0.531 J8.486
X6.74 Y26.139 I0 J0.838
G2 X11.684 Y30.394 I11.451 J-8.306
X18.022 Y31.938 I6.337 J-12.232
X25.734 Y29.567 I0 J-13.729
X30.836 Y23.316 I-7.932 J-11.68
G3 X31.06 Y22.899 I2.211 J0.921
G2 X31.628 Y21.757 I-4.042 J-2.723
X31.838 Y20.5 I-3.664 J-1.257
G3 X31.888 Y19.215 I16.529 J0
G2 X31.938 Y17.931 I-16.479 J-1.285
X31.888 Y16.715 I-14.796 J0
G3 X31.838 Y15.5 I14.746 J-1.215
G2 X31.628 Y14.243 I-3.874 J0
X31.06 Y13.101 I-4.61 J1.582
G3 X30.836 Y12.684 I1.986 J-1.338
G2 X25.734 Y6.433 I-13.033 J5.429
X18.022 Y4.062 I-7.713 J11.358
X11.684 Y5.606 I0 J13.776
X6.74 Y9.861 I6.508 J12.561
G3 X6.062 Y10.207 I-0.679 J-0.492
X5.531 Y10.19 I0 J-8.503
G2 X5 Y10.174 I-0.531 J8.486
X0.662 Y14.5 I0 J4.338
G1 Y16.794
G2 X2.056 Y18.885 I2.265 J0
G3 X3.45 Y20.976 I-0.871 J2.091
G1 Y21.5
G2 X5 Y23.05 I1.55 J0
G1 X8.059
G2 X28.534 Y21.655 I9.941 J-5.05
X29.05 Y20.5 I-1.034 J-1.155
G1 Y19.491
G2 X29.05 Y16.509 I-11.05 J-1.491
G1 Y15.5
G2 X28.534 Y14.345 I-1.55 J0
X8.059 Y12.95 I-10.534 J3.655
G1 X5
G2 X3.45 Y14.5 I0 J1.55
G1 Y20.976
X3.447 Y21.013
X3.436 Y21.049
X-2.11 Y35.182
G2 X-2.006 Y35.437 I0.186 J0.073
G1 X-1.95 Y35.462 Z-4.006 F100
X-1.897 Y35.486 Z-4.024
X-1.848 Y35.508 Z-4.052
X-1.805 Y35.527 Z-4.091
X-1.77 Y35.543 Z-4.138
X-1.744 Y35.555 Z-4.192
X-1.728 Y35.562 Z-4.25
X-1.712 Y35.569 Z-4.308
X-1.686 Y35.581 Z-4.362
X-1.651 Y35.597 Z-4.409
X-1.608 Y35.616 Z-4.448
X-1.559 Y35.638 Z-4.476
X-1.506 Y35.662 Z-4.494
X-1.451 Y35.687 Z-4.5
X-1.44 Y35.691
G2 X0.213 Y36.324 I6.375 J-14.191 F200
G3 X1.589 Y37.094 I-1.231 J3.812
G2 X2.008 Y37.446 I16.7 J-19.486
G3 X1.157 Y38.584 I-0.451 J0.55
G1 X-0.052 Y37.762
X-0.113 Y37.716
X-1.731 Y36.34
G3 X-1.968 Y35.937 I0.461 J-0.542
G1 X-2.504 Y33.25
G3 X-1.449 Y32.496 I0.698 J-0.139
G2 X1.717 Y33.802 I6.389 J-10.996
G3 X2.894 Y34.448 I-0.723 J2.71
G2 X7.005 Y37.448 I15.198 J-16.511
G3 X7.252 Y38.452 I-0.351 J0.618
X6.236 Y38.642 I-0.598 J-0.385
G1 X2.052 Y35.606
X-1.806 Y33.111
G3 X-2.122 Y32.627 I0.386 J-0.597
G1 X-2.601 Y29.677
G3 X-1.439 Y29.021 I0.702 J-0.114
G2 X3.207 Y31.223 I6.456 J-7.617
G3 X4.178 Y31.737 I-0.332 J1.801
G2 X16.366 Y37.449 I13.836 J-13.664
G1 X33.944 Y37.485
X33.989 Y37.48
X34.033 Y37.464
X34.071 Y37.439
G2 X37.11 Y34.461 I-16.072 J-19.439
X37.441 Y34.069 I-19.111 J-16.461
G3 X38.45 Y33.979 I0.548 J0.453
X38.526 Y34.989 I-0.46 J0.542
G1 X37.063 Y36.669
G3 X36.842 Y36.839 I-0.536 J-0.467
G1 X34.525 Y37.987
X34.457 Y38.017
X34.386 Y38.039
X34.314 Y38.053
X29.537 Y38.764
G3 X29.08 Y37.443 I-0.105 J-0.703
G2 X30.206 Y36.755 I-11.059 J-19.371
X35.031 Y32.516 I-12.206 J-18.755
X36.937 Y29.922 I-17.031 J-14.516
X37.447 Y29.05 I-13.229 J-8.328
G3 X38.456 Y28.791 I0.625 J0.339
X38.642 Y29.815 I-0.383 J0.599
G1 X35.044 Y34.634
G3 X34.84 Y34.819 I-0.57 J-0.426
G1 X29.433 Y38.061
G3 X29.121 Y38.16 I-0.366 J-0.61
G1 X19.78 Y38.866
G3 X19.666 Y37.449 I-0.054 J-0.709
G2 X35.822 Y25.883 I-1.652 J-19.375
G3 X35.962 Y25.613 I2.19 J0.969
G2 X37.047 Y23.157 I-9.02 J-5.45
X37.432 Y20.5 I-8.968 J-2.657
G3 X37.449 Y19.747 I16.529 J0
G1 X37.495 Y2.069
X37.49 Y2.023
X37.474 Y1.98
X37.449 Y1.941
G2 X34.065 Y-1.442 I-19.416 J16.038
G3 X33.975 Y-2.45 I0.453 J-0.549
X34.985 Y-2.527 I0.543 J0.46
G1 X36.673 Y-1.057
G3 X36.843 Y-0.837 I-0.467 J0.536
G1 X37.997 Y1.488
X38.027 Y1.557
X38.049 Y1.628
X38.064 Y1.701
X38.771 Y6.483
G3 X37.445 Y6.932 I-0.704 J0.104
G2 X37.187 Y6.484 I-12.997 J7.198
X29.057 Y-1.449 I-19.155 J11.497
G3 X28.813 Y-2.458 I0.351 J-0.619
X29.834 Y-2.637 I0.595 J0.39
G1 X34.64 Y0.963
G3 X34.824 Y1.167 I-0.426 J0.569
G1 X38.067 Y6.587
G3 X38.166 Y6.898 I-0.61 J0.365
G1 X38.869 Y16.131
G3 X38.205 Y16.895 I-0.709 J0.054
X37.45 Y16.22 I-0.044 J-0.71
X37.432 Y15.5 I14.778 J-0.72
G2 X37.047 Y12.843 I-9.353 J0
X35.962 Y10.387 I-10.104 J2.994
G3 X35.822 Y10.117 I2.05 J-1.239
G2 X19.237 Y-1.449 I-17.821 J7.881
G1 X2.137 Y-1.495
X2.092 Y-1.489
X2.048 Y-1.474
X2.01 Y-1.449
G2 X1.589 Y-1.094 I16.023 J19.429
G3 X0.213 Y-0.324 I-2.607 J-3.041
G2 X-1.446 Y0.319 I4.807 J14.886
G3 X-2.395 Y-0.052 I-0.294 J-0.648
X-2 Y-0.991 I0.655 J-0.277
G1 X-0.257 Y-1.676
X-0.187 Y-1.699
X-0.115 Y-1.715
X1.557 Y-1.998
X6.536 Y-2.765
G3 X6.996 Y-1.443 I0.108 J0.703
G2 X2.894 Y1.552 I11.036 J19.424
G3 X1.717 Y2.198 I-1.899 J-2.063
G2 X-1.448 Y3.519 I3.298 J12.361
G3 X-2.44 Y3.23 I-0.359 J-0.614
X-2.098 Y2.256 I0.632 J-0.325
G1 X2 Y0.422
X2.045 Y0.4
X6.645 Y-2.062
G3 X6.928 Y-2.144 I0.336 J0.627
G1 X16.676 Y-2.869
G3 X17.438 Y-2.208 I0.053 J0.709
X16.774 Y-1.45 I-0.71 J0.049
G2 X4.178 Y4.263 I1.227 J19.448
G3 X3.207 Y4.777 I-1.303 J-1.287
G2 X-1.441 Y6.981 I1.81 J9.82
G1 X-1.471 Y7.013
X-1.493 Y7.05
X-1.507 Y7.091
X-1.512 Y7.134
X-1.464 Y24.399
X-1.459 Y24.442
X-1.445 Y24.483
G2 X-0.137 Y26.382 I6.364 J-2.983
X4.659 Y28.556 I5.141 J-4.964
G3 X5.412 Y28.921 I-0.051 J1.066
G2 X11.09 Y33.182 I12.845 J-11.203
X18.022 Y34.71 I6.932 J-14.955
X27.177 Y31.933 I0 J-16.48
X33.307 Y24.588 I-9.411 J-14.086
G3 X33.478 Y24.265 I2.197 J0.953
G2 X34.31 Y22.463 I-6.503 J-4.096
X34.61 Y20.5 I-6.277 J-1.963
G3 X34.66 Y19.215 I16.529 J0
G2 X34.71 Y17.931 I-16.479 J-1.285
X34.532 Y14.746 I-28.624 J0
X33.478 Y11.735 I-7.096 J0.794
G3 X33.307 Y11.412 I2.027 J-1.276
G2 X27.177 Y4.067 I-15.541 J6.741
X18.022 Y1.29 I-9.155 J13.703
X11.09 Y2.818 I0 J16.484
X5.412 Y7.079 I7.167 J15.464
G3 X4.659 Y7.444 I-0.805 J-0.702
G2 X-0.137 Y9.618 I0.345 J7.138
X-1.45 Y11.527 I5.056 J4.882
X-0.683 Y14.276 I1.987 J0.927
G3 X0.662 Y16.794 I-1.685 J2.518
G1 Y21.5
G2 X5 Y25.826 I4.326 J0
X5.531 Y25.81 I0 J-8.503
G3 X6.062 Y25.793 I0.531 J8.486
X6.74 Y26.139 I0 J0.838
G2 X11.684 Y30.394 I11.451 J-8.306
X18.022 Y31.938 I6.337 J-12.232
X25.734 Y29.567 I0 J-13.729
X30.836 Y23.316 I-7.932 J-11.68
G3 X31.06 Y22.899 I2.211 J0.921
G2 X31.628 Y21.757 I-4.042 J-2.723
X31.838 Y20.5 I-3.664 J-1.257
G3 X31.888 Y19.215 I16.529 J0
G2 X31.938 Y17.931 I-16.479 J-1.285
X31.888 Y16.715 I-14.796 J0
G3 X31.838 Y15.5 I14.746 J-1.215
G2 X31.628 Y14.243 I-3.874 J0
X31.06 Y13.101 I-4.61 J1.582
G3 X30.836 Y12.684 I1.986 J-1.338
G2 X25.734 Y6.433 I-13.033 J5.429
X18.022 Y4.062 I-7.713 J11.358
X11.684 Y5.606 I0 J13.776
X6.74 Y9.861 I6.508 J12.561
G3 X6.062 Y10.207 I-0.679 J-0.492
X5.531 Y10.19 I0 J-8.503
G2 X5 Y10.174 I-0.531 J8.486
X0.662 Y14.5 I0 J4.338
G1 Y16.794
G2 X2.056 Y18.885 I2.265 J0
G3 X3.45 Y20.976 I-0.871 J2.091
G1 Y21.5
G2 X5 Y23.05 I1.55 J0
G1 X8.059
G2 X28.534 Y21.655 I9.941 J-5.05
X29.05 Y20.5 I-1.034 J-1.155
G1 Y19.491
G2 X29.05 Y16.509 I-11.05 J-1.491
G1 Y15.5
G2 X28.534 Y14.345 I-1.55 J0
X8.059 Y12.95 I-10.534 J3.655
G1 X5
G2 X3.45 Y14.5 I0 J1.55
G1 Y20.976
X3.447 Y21.013
X3.436 Y21.049
X-2.11 Y35.182
G2 X-2.006 Y35.437 I0.186 J0.073
G1 X-1.95 Y35.462 Z-4.506 F100
X-1.897 Y35.486 Z-4.524
X-1.848 Y35.508 Z-4.552
X-1.805 Y35.527 Z-4.591
X-1.77 Y35.543 Z-4.638
X-1.744 Y35.555 Z-4.692
X-1.728 Y35.562 Z-4.75
X-1.712 Y35.569 Z-4.808
X-1.686 Y35.581 Z-4.862
X-1.651 Y35.597 Z-4.909
X-1.608 Y35.616 Z-4.948
X-1.559 Y35.638 Z-4.976
X-1.506 Y35.662 Z-4.994
X-1.451 Y35.687 Z-5
X-1.44 Y35.691
G2 X0.213 Y36.324 I6.375 J-14.191 F200
G3 X1.589 Y37.094 I-1.231 J3.812
G2 X2.008 Y37.446 I16.7 J-19.486
G3 X1.157 Y38.584 I-0.451 J0.55
G1 X-0.052 Y37.762
X-0.113 Y37.716
X-1.731 Y36.34
G3 X-1.968 Y35.937 I0.461 J-0.542
G1 X-2.504 Y33.25
G3 X-1.449 Y32.496 I0.698 J-0.139
G2 X1.717 Y33.802 I6.389 J-10.996
G3 X2.894 Y34.448 I-0.723 J2.71
G2 X7.005 Y37.448 I15.198 J-16.511
G3 X7.252 Y38.452 I-0.351 J0.618
X6.236 Y38.642 I-0.598 J-0.385
G1 X2.052 Y35.606
X-1.806 Y33.111
G3 X-2.122 Y32.627 I0.386 J-0.597
G1 X-2.601 Y29.677
G3 X-1.439 Y29.021 I0.702 J-0.114
G2 X3.207 Y31.223 I6.456 J-7.617
G3 X4.178 Y31.737 I-0.332 J1.801
G2 X16.366 Y37.449 I13.836 J-13.664
G1 X33.944 Y37.485
X33.989 Y37.48
X34.033 Y37.464
X34.071 Y37.439
G2 X37.11 Y34.461 I-16.072 J-19.439
X37.441 Y34.069 I-19.111 J-16.461
G3 X38.45 Y33.979 I0.548 J0.453
X38.526 Y34.989 I-0.46 J0.542
G1 X37.063 Y36.669
G3 X36.842 Y36.839 I-0.536 J-0.467
G1 X34.525 Y37.987
X34.457 Y38.017
X34.386 Y38.039
X34.314 Y38.053
X29.537 Y38.764
G3 X29.08 Y37.443 I-0.105 J-0.703
G2 X30.206 Y36.755 I-11.059 J-19.371
X35.031 Y32.516 I-12.206 J-18.755
X36.937 Y29.922 I-17.031 J-14.516
X37.447 Y29.05 I-13.229 J-8.328
G3 X38.456 Y28.791 I0.625 J0.339
X38.642 Y29.815 I-0.383 J0.599
G1 X35.044 Y34.634
G3 X34.84 Y34.819 I-0.57 J-0.426
G1 X29.433 Y38.061
G3 X29.121 Y38.16 I-0.366 J-0.61
G1 X19.78 Y38.866
G3 X19.666 Y37.449 I-0.054 J-0.709
G2 X35.822 Y25.883 I-1.652 J-19.375
G3 X35.962 Y25.613 I2.19 J0.969
G2 X37.047 Y23.157 I-9.02 J-5.45
X37.432 Y20.5 I-8.968 J-2.657
G3 X37.449 Y19.747 I16.529 J0
G1 X37.495 Y2.069
X37.49 Y2.023
X37.474 Y1.98
X37.449 Y1.941
G2 X34.065 Y-1.442 I-19.416 J16.038
G3 X33.975 Y-2.45 I0.453 J-0.549
X34.985 Y-2.527 I0.543 J0.46
G1 X36.673 Y-1.057
G3 X36.843 Y-0.837 I-0.467 J0.536
G1 X37.997 Y1.488
X38.027 Y1.557
X38.049 Y1.628
X38.064 Y1.701
X38.771 Y6.483
G3 X37.445 Y6.932 I-0.704 J0.104
G2 X37.187 Y6.484 I-12.997 J7.198
X29.057 Y-1.449 I-19.155 J11.497
G3 X28.813 Y-2.458 I0.351 J-0.619
X29.834 Y-2.637 I0.595 J0.39
G1 X34.64 Y0.963
G3 X34.824 Y1.167 I-0.426 J0.569
G1 X38.067 Y6.587
G3 X38.166 Y6.898 I-0.61 J0.365
G1 X38.869 Y16.131
G3 X38.205 Y16.895 I-0.709 J0.054
X37.45 Y16.22 I-0.044 J-0.71
X37.432 Y15.5 I14.778 J-0.72
G2 X37.047 Y12.843 I-9.353 J0
X35.962 Y10.387 I-10.104 J2.994
G3 X35.822 Y10.117 I2.05 J-1.239
G2 X19.237 Y-1.449 I-17.821 J7.881
G1 X2.137 Y-1.495
X2.092 Y-1.489
X2.048 Y-1.474
X2.01 Y-1.449
G2 X1.589 Y-1.094 I16.023 J19.429
G3 X0.213 Y-0.324 I-2.607 J-3.041
G2 X-1.446 Y0.319 I4.807 J14.886
G3 X-2.395 Y-0.052 I-0.294 J-0.648
X-2 Y-0.991 I0.655 J-0.277
G1 X-0.257 Y-1.676
X-0.187 Y-1.699
X-0.115 Y-1.715
X1.557 Y-1.998
X6.536 Y-2.765
G3 X6.996 Y-1.443 I0.108 J0.703
G2 X2.894 Y1.552 I11.036 J19.424
G3 X1.717 Y2.198 I-1.899 J-2.063
G2 X-1.448 Y3.519 I3.298 J12.361
G3 X-2.44 Y3.23 I-0.359 J-0.614
X-2.098 Y2.256 I0.632 J-0.325
G1 X2 Y0.422
X2.045 Y0.4
X6.645 Y-2.062
G3 X6.928 Y-2.144 I0.336 J0.627
G1 X16.676 Y-2.869
G3 X17.438 Y-2.208 I0.053 J0.709
X16.774 Y-1.45 I-0.71 J0.049
G2 X4.178 Y4.263 I1.227 J19.448
G3 X3.207 Y4.777 I-1.303 J-1.287
G2 X-1.441 Y6.981 I1.81 J9.82
G1 X-1.471 Y7.013
X-1.493 Y7.05
X-1.507 Y7.091
X-1.512 Y7.134
X-1.464 Y24.399
X-1.459 Y24.442
X-1.445 Y24.483
G2 X-0.137 Y26.382 I6.364 J-2.983
X4.659 Y28.556 I5.141 J-4.964
G3 X5.412 Y28.921 I-0.051 J1.066
G2 X11.09 Y33.182 I12.845 J-11.203
X18.022 Y34.71 I6.932 J-14.955
X27.177 Y31.933 I0 J-16.48
X33.307 Y24.588 I-9.411 J-14.086
G3 X33.478 Y24.265 I2.197 J0.953
G2 X34.31 Y22.463 I-6.503 J-4.096
X34.61 Y20.5 I-6.277 J-1.963
G3 X34.66 Y19.215 I16.529 J0
G2 X34.71 Y17.931 I-16.479 J-1.285
X34.532 Y14.746 I-28.624 J0
X33.478 Y11.735 I-7.096 J0.794
G3 X33.307 Y11.412 I2.027 J-1.276
G2 X27.177 Y4.067 I-15.541 J6.741
X18.022 Y1.29 I-9.155 J13.703
X11.09 Y2.818 I0 J16.484
X5.412 Y7.079 I7.167 J15.464
G3 X4.659 Y7.444 I-0.805 J-0.702
G2 X-0.137 Y9.618 I0.345 J7.138
X-1.45 Y11.527 I5.056 J4.882
X-0.683 Y14.276 I1.987 J0.927
G3 X0.662 Y16.794 I-1.685 J2.518
G1 Y21.5
G2 X5 Y25.826 I4.326 J0
X5.531 Y25.81 I0 J-8.503
G3 X6.062 Y25.793 I0.531 J8.486
X6.74 Y26.139 I0 J0.838
G2 X11.684 Y30.394 I11.451 J-8.306
X18.022 Y31.938 I6.337 J-12.232
X25.734 Y29.567 I0 J-13.729
X30.836 Y23.316 I-7.932 J-11.68
G3 X31.06 Y22.899 I2.211 J0.921
G2 X31.628 Y21.757 I-4.042 J-2.723
X31.838 Y20.5 I-3.664 J-1.257
G3 X31.888 Y19.215 I16.529 J0
G2 X31.938 Y17.931 I-16.479 J-1.285
X31.888 Y16.715 I-14.796 J0
G3 X31.838 Y15.5 I14.746 J-1.215
G2 X31.628 Y14.243 I-3.874 J0
X31.06 Y13.101 I-4.61 J1.582
G3 X30.836 Y12.684 I1.986 J-1.338
G2 X25.734 Y6.433 I-13.033 J5.429
X18.022 Y4.062 I-7.713 J11.358
X11.684 Y5.606 I0 J13.776
X6.74 Y9.861 I6.508 J12.561
G3 X6.062 Y10.207 I-0.679 J-0.492
X5.531 Y10.19 I0 J-8.503
G2 X5 Y10.174 I-0.531 J8.486
X0.662 Y14.5 I0 J4.338
G1 Y16.794
G2 X2.056 Y18.885 I2.265 J0
G3 X3.45 Y20.976 I-0.871 J2.091
G1 Y21.5
G2 X5 Y23.05 I1.55 J0
G1 X8.059
G2 X28.534 Y21.655 I9.941 J-5.05
X29.05 Y20.5 I-1.034 J-1.155
G1 Y19.491
G2 X29.05 Y16.509 I-11.05 J-1.491
G1 Y15.5
G2 X28.534 Y14.345 I-1.55 J0
X8.059 Y12.95 I-10.534 J3.655
G1 X5
G2 X3.45 Y14.5 I0 J1.55
G1 Y20.976
X3.447 Y21.013
X3.436 Y21.049
X-2.11 Y35.182
G2 X-2.006 Y35.437 I0.186 J0.073
G1 X-1.95 Y35.462 Z-5.006 F100
X-1.897 Y35.486 Z-5.024
X-1.848 Y35.508 Z-5.052
X-1.805 Y35.527 Z-5.091
X-1.77 Y35.543 Z-5.138
X-1.744 Y35.555 Z-5.192
X-1.728 Y35.562 Z-5.25
X-1.712 Y35.569 Z-5.308
X-1.686 Y35.581 Z-5.362
X-1.651 Y35.597 Z-5.409
X-1.608 Y35.616 Z-5.448
X-1.559 Y35.638 Z-5.476
X-1.506 Y35.662 Z-5.494
X-1.451 Y35.687 Z-5.5
X-1.44 Y35.691
G2 X0.213 Y36.324 I6.375 J-14.191 F200
G3 X1.589 Y37.094 I-1.231 J3.812
G2 X2.008 Y37.446 I16.7 J-19.486
G3 X1.157 Y38.584 I-0.451 J0.55
G1 X-0.052 Y37.762
X-0.113 Y37.716
X-1.731 Y36.34
G3 X-1.968 Y35.937 I0.461 J-0.542
G1 X-2.504 Y33.25
G3 X-1.449 Y32.496 I0.698 J-0.139
G2 X1.717 Y33.802 I6.389 J-10.996
G3 X2.894 Y34.448 I-0.723 J2.71
G2 X7.005 Y37.448 I15.198 J-16.511
G3 X7.252 Y38.452 I-0.351 J0.618
X6.236 Y38.642 I-0.598 J-0.385
G1 X2.052 Y35.606
X-1.806 Y33.111
G3 X-2.122 Y32.627 I0.386 J-0.597
G1 X-2.601 Y29.677
G3 X-1.439 Y29.021 I0.702 J-0.114
G2 X3.207 Y31.223 I6.456 J-7.617
G3 X4.178 Y31.737 I-0.332 J1.801
G2 X16.366 Y37.449 I13.836 J-13.664
G1 X33.944 Y37.485
X33.989 Y37.48
X34.033 Y37.464
X34.071 Y37.439
G2 X37.11 Y34.461 I-16.072 J-19.439
X37.441 Y34.069 I-19.111 J-16.461
G3 X38.45 Y33.979 I0.548 J0.453
X38.526 Y34.989 I-0.46 J0.542
G1 X37.063 Y36.669
G3 X36.842 Y36.839 I-0.536 J-0.467
G1 X34.525 Y37.987
X34.457 Y38.017
X34.386 Y38.039
X34.314 Y38.053
X29.537 Y38.764
G3 X29.08 Y37.443 I-0.105 J-0.703
G2 X30.206 Y36.755 I-11.059 J-19.371
X35.031 Y32.516 I-12.206 J-18.755
X36.937 Y29.922 I-17.031 J-14.516
X37.447 Y29.05 I-13.229 J-8.328
G3 X38.456 Y28.791 I0.625 J0.339
X38.642 Y29.815 I-0.383 J0.599
G1 X35.044 Y34.634
G3 X34.84 Y34.819 I-0.57 J-0.426
G1 X29.433 Y38.061
G3 X29.121 Y38.16 I-0.366 J-0.61
G1 X19.78 Y38.866
G3 X19.666 Y37.449 I-0.054 J-0.709
G2 X35.822 Y25.883 I-1.652 J-19.375
G3 X35.962 Y25.613 I2.19 J0.969
G2 X37.047 Y23.157 I-9.02 J-5.45
X37.432 Y20.5 I-8.968 J-2.657
G3 X37.449 Y19.747 I16.529 J0
G1 X37.495 Y2.069
X37.49 Y2.023
X37.474 Y1.98
X37.449 Y1.941
G2 X34.065 Y-1.442 I-19.416 J16.038
G3 X33.975 Y-2.45 I0.453 J-0.549
X34.985 Y-2.527 I0.543 J0.46
G1 X36.673 Y-1.057
G3 X36.843 Y-0.837 I-0.467 J0.536
G1 X37.997 Y1.488
X38.027 Y1.557
X38.049 Y1.628
X38.064 Y1.701
X38.771 Y6.483
G3 X37.445 Y6.932 I-0.704 J0.104
G2 X37.187 Y6.484 I-12.997 J7.198
X29.057 Y-1.449 I-19.155 J11.497
G3 X28.813 Y-2.458 I0.351 J-0.619
X29.834 Y-2.637 I0.595 J0.39
G1 X34.64 Y0.963
G3 X34.824 Y1.167 I-0.426 J0.569
G1 X38.067 Y6.587
G3 X38.166 Y6.898 I-0.61 J0.365
G1 X38.869 Y16.131
G3 X38.205 Y16.895 I-0.709 J0.054
X37.45 Y16.22 I-0.044 J-0.71
X37.432 Y15.5 I14.778 J-0.72
G2 X37.047 Y12.843 I-9.353 J0
X35.962 Y10.387 I-10.104 J2.994
G3 X35.822 Y10.117 I2.05 J-1.239
G2 X19.237 Y-1.449 I-17.821 J7.881
G1 X2.137 Y-1.495
X2.092 Y-1.489
X2.048 Y-1.474
X2.01 Y-1.449
G2 X1.589 Y-1.094 I16.023 J19.429
G3 X0.213 Y-0.324 I-2.607 J-3.041
G2 X-1.446 Y0.319 I4.807 J14.886
G3 X-2.395 Y-0.052 I-0.294 J-0.648
X-2 Y-0.991 I0.655 J-0.277
G1 X-0.257 Y-1.676
X-0.187 Y-1.699
X-0.115 Y-1.715
X1.557 Y-1.998
X6.536 Y-2.765
G3 X6.996 Y-1.443 I0.108 J0.703
G2 X2.894 Y1.552 I11.036 J19.424
G3 X1.717 Y2.198 I-1.899 J-2.063
G2 X-1.448 Y3.519 I3.298 J12.361
G3 X-2.44 Y3.23 I-0.359 J-0.614
X-2.098 Y2.256 I0.632 J-0.325
G1 X2 Y0.422
X2.045 Y0.4
X6.645 Y-2.062
G3 X6.928 Y-2.144 I0.336 J0.627
G1 X16.676 Y-2.869
G3 X17.438 Y-2.208 I0.053 J0.709
X16.774 Y-1.45 I-0.71 J0.049
G2 X4.178 Y4.263 I1.227 J19.448
G3 X3.207 Y4.777 I-1.303 J-1.287
G2 X-1.441 Y6.981 I1.81 J9.82
G1 X-1.471 Y7.013
X-1.493 Y7.05
X-1.507 Y7.091
X-1.512 Y7.134
X-1.464 Y24.399
X-1.459 Y24.442
X-1.445 Y24.483
G2 X-0.137 Y26.382 I6.364 J-2.983
X4.659 Y28.556 I5.141 J-4.964
G3 X5.412 Y28.921 I-0.051 J1.066
G2 X11.09 Y33.182 I12.845 J-11.203
X18.022 Y34.71 I6.932 J-14.955
X27.177 Y31.933 I0 J-16.48
X33.307 Y24.588 I-9.411 J-14.086
G3 X33.478 Y24.265 I2.197 J0.953
G2 X34.31 Y22.463 I-6.503 J-4.096
X34.61 Y20.5 I-6.277 J-1.963
G3 X34.66 Y19.215 I16.529 J0
G2 X34.71 Y17.931 I-16.479 J-1.285
X34.532 Y14.746 I-28.624 J0
X33.478 Y11.735 I-7.096 J0.794
G3 X33.307 Y11.412 I2.027 J-1.276
G2 X27.177 Y4.067 I-15.541 J6.741
X18.022 Y1.29 I-9.155 J13.703
X11.09 Y2.818 I0 J16.484
X5.412 Y7.079 I7.167 J15.464
G3 X4.659 Y7.444 I-0.805 J-0.702
G2 X-0.137 Y9.618 I0.345 J7.138
X-1.45 Y11.527 I5.056 J4.882
X-0.683 Y14.276 I1.987 J0.927
G3 X0.662 Y16.794 I-1.685 J2.518
G1 Y21.5
G2 X5 Y25.826 I4.326 J0
X5.531 Y25.81 I0 J-8.503
G3 X6.062 Y25.793 I0.531 J8.486
X6.74 Y26.139 I0 J0.838
G2 X11.684 Y30.394 I11.451 J-8.306
X18.022 Y31.938 I6.337 J-12.232
X25.734 Y29.567 I0 J-13.729
X30.836 Y23.316 I-7.932 J-11.68
G3 X31.06 Y22.899 I2.211 J0.921
G2 X31.628 Y21.757 I-4.042 J-2.723
X31.838 Y20.5 I-3.664 J-1.257
G3 X31.888 Y19.215 I16.529 J0
G2 X31.938 Y17.931 I-16.479 J-1.285
X31.888 Y16.715 I-14.796 J0
G3 X31.838 Y15.5 I14.746 J-1.215
G2 X31.628 Y14.243 I-3.874 J0
X31.06 Y13.101 I-4.61 J1.582
G3 X30.836 Y12.684 I1.986 J-1.338
G2 X25.734 Y6.433 I-13.033 J5.429
X18.022 Y4.062 I-7.713 J11.358
X11.684 Y5.606 I0 J13.776
X6.74 Y9.861 I6.508 J12.561
G3 X6.062 Y10.207 I-0.679 J-0.492
X5.531 Y10.19 I0 J-8.503
G2 X5 Y10.174 I-0.531 J8.486
X0.662 Y14.5 I0 J4.338
G1 Y16.794
G2 X2.056 Y18.885 I2.265 J0
G3 X3.45 Y20.976 I-0.871 J2.091
G1 Y21.5
G2 X5 Y23.05 I1.55 J0
G1 X8.059
G2 X28.534 Y21.655 I9.941 J-5.05
X29.05 Y20.5 I-1.034 J-1.155
G1 Y19.491
G2 X29.05 Y16.509 I-11.05 J-1.491
G1 Y15.5
G2 X28.534 Y14.345 I-1.55 J0
X8.059 Y12.95 I-10.534 J3.655
G1 X5
G2 X3.45 Y14.5 I0 J1.55
G1 Y20.976
X3.447 Y21.013
X3.436 Y21.049
X-2.11 Y35.182
G2 X-2.006 Y35.437 I0.186 J0.073
G1 X-1.95 Y35.462 Z-5.506 F100
X-1.897 Y35.486 Z-5.524
X-1.848 Y35.508 Z-5.552
X-1.805 Y35.527 Z-5.591
X-1.77 Y35.543 Z-5.638
X-1.744 Y35.555 Z-5.692
X-1.728 Y35.562 Z-5.75
X-1.712 Y35.569 Z-5.808
X-1.686 Y35.581 Z-5.862
X-1.651 Y35.597 Z-5.909
X-1.608 Y35.616 Z-5.948
X-1.559 Y35.638 Z-5.976
X-1.506 Y35.662 Z-5.994
X-1.451 Y35.687 Z-6
X-1.44 Y35.691
G2 X0.213 Y36.324 I6.375 J-14.191 F200
G3 X1.589 Y37.094 I-1.231 J3.812
G2 X2.008 Y37.446 I16.7 J-19.486
G3 X1.157 Y38.584 I-0.451 J0.55
G1 X-0.052 Y37.762
X-0.113 Y37.716
X-1.731 Y36.34
G3 X-1.968 Y35.937 I0.461 J-0.542
G1 X-2.504 Y33.25
G3 X-1.449 Y32.496 I0.698 J-0.139
G2 X1.717 Y33.802 I6.389 J-10.996
G3 X2.894 Y34.448 I-0.723 J2.71
G2 X7.005 Y37.448 I15.198 J-16.511
G3 X7.252 Y38.452 I-0.351 J0.618
X6.236 Y38.642 I-0.598 J-0.385
G1 X2.052 Y35.606
X-1.806 Y33.111
G3 X-2.122 Y32.627 I0.386 J-0.597
G1 X-2.601 Y29.677
G3 X-1.439 Y29.021 I0.702 J-0.114
G2 X3.207 Y31.223 I6.456 J-7.617
G3 X4.178 Y31.737 I-0.332 J1.801
G2 X16.366 Y37.449 I13.836 J-13.664
G1 X33.944 Y37.485
X33.989 Y37.48
X34.033 Y37.464
X34.071 Y37.439
G2 X37.11 Y34.461 I-16.072 J-19.439
X37.441 Y34.069 I-19.111 J-16.461
G3 X38.45 Y33.979 I0.548 J0.453
X38.526 Y34.989 I-0.46 J0.542
G1 X37.063 Y36.669
G3 X36.842 Y36.839 I-0.536 J-0.467
G1 X34.525 Y37.987
X34.457 Y38.017
X34.386 Y38.039
X34.314 Y38.053
X29.537 Y38.764
G3 X29.08 Y37.443 I-0.105 J-0.703
G2 X30.206 Y36.755 I-11.059 J-19.371
X35.031 Y32.516 I-12.206 J-18.755
X36.937 Y29.922 I-17.031 J-14.516
X37.447 Y29.05 I-13.229 J-8.328
G3 X38.456 Y28.791 I0.625 J0.339
X38.642 Y29.815 I-0.383 J0.599
G1 X35.044 Y34.634
G3 X34.84 Y34.819 I-0.57 J-0.426
G1 X29.433 Y38.061
G3 X29.121 Y38.16 I-0.366 J-0.61
G1 X19.78 Y38.866
G3 X19.666 Y37.449 I-0.054 J-0.709
G2 X35.822 Y25.883 I-1.652 J-19.375
G3 X35.962 Y25.613 I2.19 J0.969
G2 X37.047 Y23.157 I-9.02 J-5.45
X37.432 Y20.5 I-8.968 J-2.657
G3 X37.449 Y19.747 I16.529 J0
G1 X37.495 Y2.069
X37.49 Y2.023
X37.474 Y1.98
X37.449 Y1.941
G2 X34.065 Y-1.442 I-19.416 J16.038
G3 X33.975 Y-2.45 I0.453 J-0.549
X34.985 Y-2.527 I0.543 J0.46
G1 X36.673 Y-1.057
G3 X36.843 Y-0.837 I-0.467 J0.536
G1 X37.997 Y1.488
X38.027 Y1.557
X38.049 Y1.628
X38.064 Y1.701
X38.771 Y6.483
G3 X37.445 Y6.932 I-0.704 J0.104
G2 X37.187 Y6.484 I-12.997 J7.198
X29.057 Y-1.449 I-19.155 J11.497
G3 X28.813 Y-2.458 I0.351 J-0.619
X29.834 Y-2.637 I0.595 J0.39
G1 X34.64 Y0.963
G3 X34.824 Y1.167 I-0.426 J0.569
G1 X38.067 Y6.587
G3 X38.166 Y6.898 I-0.61 J0.365
G1 X38.869 Y16.131
G3 X38.205 Y16.895 I-0.709 J0.054
X37.45 Y16.22 I-0.044 J-0.71
X37.432 Y15.5 I14.778 J-0.72
G2 X37.047 Y12.843 I-9.353 J0
X35.962 Y10.387 I-10.104 J2.994
G3 X35.822 Y10.117 I2.05 J-1.239
G2 X19.237 Y-1.449 I-17.821 J7.881
G1 X2.137 Y-1.495
X2.092 Y-1.489
X2.048 Y-1.474
X2.01 Y-1.449
G2 X1.589 Y-1.094 I16.023 J19.429
G3 X0.213 Y-0.324 I-2.607 J-3.041
G2 X-1.446 Y0.319 I4.807 J14.886
G3 X-2.395 Y-0.052 I-0.294 J-0.648
X-2 Y-0.991 I0.655 J-0.277
G1 X-0.257 Y-1.676
X-0.187 Y-1.699
X-0.115 Y-1.715
X1.557 Y-1.998
X6.536 Y-2.765
G3 X6.996 Y-1.443 I0.108 J0.703
G2 X2.894 Y1.552 I11.036 J19.424
G3 X1.717 Y2.198 I-1.899 J-2.063
G2 X-1.448 Y3.519 I3.298 J12.361
G3 X-2.44 Y3.23 I-0.359 J-0.614
X-2.098 Y2.256 I0.632 J-0.325
G1 X2 Y0.422
X2.045 Y0.4
X6.645 Y-2.062
G3 X6.928 Y-2.144 I0.336 J0.627
G1 X16.676 Y-2.869
G3 X17.438 Y-2.208 I0.053 J0.709
X16.774 Y-1.45 I-0.71 J0.049
G2 X4.178 Y4.263 I1.227 J19.448
G3 X3.207 Y4.777 I-1.303 J-1.287
G2 X-1.441 Y6.981 I1.81 J9.82
G1 X-1.471 Y7.013
X-1.493 Y7.05
X-1.507 Y7.091
X-1.512 Y7.134
X-1.464 Y24.399
X-1.459 Y24.442
X-1.445 Y24.483
G2 X-0.137 Y26.382 I6.364 J-2.983
X4.659 Y28.556 I5.141 J-4.964
G3 X5.412 Y28.921 I-0.051 J1.066
G2 X11.09 Y33.182 I12.845 J-11.203
X18.022 Y34.71 I6.932 J-14.955
X27.177 Y31.933 I0 J-16.48
X33.307 Y24.588 I-9.411 J-14.086
G3 X33.478 Y24.265 I2.197 J0.953
G2 X34.31 Y22.463 I-6.503 J-4.096
X34.61 Y20.5 I-6.277 J-1.963
G3 X34.66 Y19.215 I16.529 J0
G2 X34.71 Y17.931 I-16.479 J-1.285
X34.532 Y14.746 I-28.624 J0
X33.478 Y11.735 I-7.096 J0.794
G3 X33.307 Y11.412 I2.027 J-1.276
G2 X27.177 Y4.067 I-15.541 J6.741
X18.022 Y1.29 I-9.155 J13.703
X11.09 Y2.818 I0 J16.484
X5.412 Y7.079 I7.167 J15.464
G3 X4.659 Y7.444 I-0.805 J-0.702
G2 X-0.137 Y9.618 I0.345 J7.138
X-1.45 Y11.527 I5.056 J4.882
X-0.683 Y14.276 I1.987 J0.927
G3 X0.662 Y16.794 I-1.685 J2.518
G1 Y21.5
G2 X5 Y25.826 I4.326 J0
X5.531 Y25.81 I0 J-8.503
G3 X6.062 Y25.793 I0.531 J8.486
X6.74 Y26.139 I0 J0.838
G2 X11.684 Y30.394 I11.451 J-8.306
X18.022 Y31.938 I6.337 J-12.232
X25.734 Y29.567 I0 J-13.729
X30.836 Y23.316 I-7.932 J-11.68
G3 X31.06 Y22.899 I2.211 J0.921
G2 X31.628 Y21.757 I-4.042 J-2.723
X31.838 Y20.5 I-3.664 J-1.257
G3 X31.888 Y19.215 I16.529 J0
G2 X31.938 Y17.931 I-16.479 J-1.285
X31.888 Y16.715 I-14.796 J0
G3 X31.838 Y15.5 I14.746 J-1.215
G2 X31.628 Y14.243 I-3.874 J0
X31.06 Y13.101 I-4.61 J1.582
G3 X30.836 Y12.684 I1.986 J-1.338
G2 X25.734 Y6.433 I-13.033 J5.429
X18.022 Y4.062 I-7.713 J11.358
X11.684 Y5.606 I0 J13.776
X6.74 Y9.861 I6.508 J12.561
G3 X6.062 Y10.207 I-0.679 J-0.492
X5.531 Y10.19 I0 J-8.503
G2 X5 Y10.174 I-0.531 J8.486
X0.662 Y14.5 I0 J4.338
G1 Y16.794
G2 X2.056 Y18.885 I2.265 J0
G3 X3.45 Y20.976 I-0.871 J2.091
G1 Y21.5
G2 X5 Y23.05 I1.55 J0
G1 X8.059
G2 X28.534 Y21.655 I9.941 J-5.05
X29.05 Y20.5 I-1.034 J-1.155
G1 Y19.491
G2 X29.05 Y16.509 I-11.05 J-1.491
G1 Y15.5
G2 X28.534 Y14.345 I-1.55 J0
X8.059 Y12.95 I-10.534 J3.655
G1 X5
G2 X3.45 Y14.5 I0 J1.55
G1 Y20.976
X3.447 Y21.013
X3.436 Y21.049
X-2.11 Y35.182
G2 X-2.006 Y35.437 I0.186 J0.073
G1 X-1.95 Y35.462 Z-6.006 F100
X-1.897 Y35.486 Z-6.024
X-1.848 Y35.508 Z-6.052
X-1.805 Y35.527 Z-6.091
X-1.77 Y35.543 Z-6.138
X-1.744 Y35.555 Z-6.192
X-1.728 Y35.562 Z-6.25
X-1.712 Y35.569 Z-6.308
X-1.686 Y35.581 Z-6.362
X-1.651 Y35.597 Z-6.409
X-1.608 Y35.616 Z-6.448
X-1.559 Y35.638 Z-6.476
X-1.506 Y35.662 Z-6.494
X-1.451 Y35.687 Z-6.5
X-1.44 Y35.691
G2 X0.213 Y36.324 I6.375 J-14.191 F200
G3 X1.589 Y37.094 I-1.231 J3.812
G2 X2.008 Y37.446 I16.7 J-19.486
G3 X1.157 Y38.584 I-0.451 J0.55
G1 X-0.052 Y37.762
X-0.113 Y37.716
X-1.731 Y36.34
G3 X-1.968 Y35.937 I0.461 J-0.542
G1 X-2.504 Y33.25
G3 X-1.449 Y32.496 I0.698 J-0.139
G2 X1.717 Y33.802 I6.389 J-10.996
G3 X2.894 Y34.448 I-0.723 J2.71
G2 X7.005 Y37.448 I15.198 J-16.511
G3 X7.252 Y38.452 I-0.351 J0.618
X6.236 Y38.642 I-0.598 J-0.385
G1 X2.052 Y35.606
X-1.806 Y33.111
G3 X-2.122 Y32.627 I0.386 J-0.597
G1 X-2.601 Y29.677
G3 X-1.439 Y29.021 I0.702 J-0.114
G2 X3.207 Y31.223 I6.456 J-7.617
G3 X4.178 Y31.737 I-0.332 J1.801
G2 X16.366 Y37.449 I13.836 J-13.664
G1 X33.944 Y37.485
X33.989 Y37.48
X34.033 Y37.464
X34.071 Y37.439
G2 X37.11 Y34.461 I-16.072 J-19.439
X37.441 Y34.069 I-19.111 J-16.461
G3 X38.45 Y33.979 I0.548 J0.453
X38.526 Y34.989 I-0.46 J0.542
G1 X37.063 Y36.669
G3 X36.842 Y36.839 I-0.536 J-0.467
G1 X34.525 Y37.987
X34.457 Y38.017
X34.386 Y38.039
X34.314 Y38.053
X29.537 Y38.764
G3 X29.08 Y37.443 I-0.105 J-0.703
G2 X30.206 Y36.755 I-11.059 J-19.371
X35.031 Y32.516 I-12.206 J-18.755
X36.937 Y29.922 I-17.031 J-14.516
X37.447 Y29.05 I-13.229 J-8.328
G3 X38.456 Y28.791 I0.625 J0.339
X38.642 Y29.815 I-0.383 J0.599
G1 X35.044 Y34.634
G3 X34.84 Y34.819 I-0.57 J-0.426
G1 X29.433 Y38.061
G3 X29.121 Y38.16 I-0.366 J-0.61
G1 X19.78 Y38.866
G3 X19.666 Y37.449 I-0.054 J-0.709
G2 X35.822 Y25.883 I-1.652 J-19.375
G3 X35.962 Y25.613 I2.19 J0.969
G2 X37.047 Y23.157 I-9.02 J-5.45
X37.432 Y20.5 I-8.968 J-2.657
G3 X37.449 Y19.747 I16.529 J0
G1 X37.495 Y2.069
X37.49 Y2.023
X37.474 Y1.98
X37.449 Y1.941
G2 X34.065 Y-1.442 I-19.416 J16.038
G3 X33.975 Y-2.45 I0.453 J-0.549
X34.985 Y-2.527 I0.543 J0.46
G1 X36.673 Y-1.057
G3 X36.843 Y-0.837 I-0.467 J0.536
G1 X37.997 Y1.488
X38.027 Y1.557
X38.049 Y1.628
X38.064 Y1.701
X38.771 Y6.483
G3 X37.445 Y6.932 I-0.704 J0.104
G2 X37.187 Y6.484 I-12.997 J7.198
X29.057 Y-1.449 I-19.155 J11.497
G3 X28.813 Y-2.458 I0.351 J-0.619
X29.834 Y-2.637 I0.595 J0.39
G1 X34.64 Y0.963
G3 X34.824 Y1.167 I-0.426 J0.569
G1 X38.067 Y6.587
G3 X38.166 Y6.898 I-0.61 J0.365
G1 X38.869 Y16.131
G3 X38.205 Y16.895 I-0.709 J0.054
X37.45 Y16.22 I-0.044 J-0.71
X37.432 Y15.5 I14.778 J-0.72
G2 X37.047 Y12.843 I-9.353 J0
X35.962 Y10.387 I-10.104 J2.994
G3 X35.822 Y10.117 I2.05 J-1.239
G2 X19.237 Y-1.449 I-17.821 J7.881
G1 X2.137 Y-1.495
X2.092 Y-1.489
X2.048 Y-1.474
X2.01 Y-1.449
G2 X1.589 Y-1.094 I16.023 J19.429
G3 X0.213 Y-0.324 I-2.607 J-3.041
G2 X-1.446 Y0.319 I4.807 J14.886
G3 X-2.395 Y-0.052 I-0.294 J-0.648
X-2 Y-0.991 I0.655 J-0.277
G1 X-0.257 Y-1.676
X-0.187 Y-1.699
X-0.115 Y-1.715
X1.557 Y-1.998
X6.536 Y-2.765
G3 X6.996 Y-1.443 I0.108 J0.703
G2 X2.894 Y1.552 I11.036 J19.424
G3 X1.717 Y2.198 I-1.899 J-2.063
G2 X-1.448 Y3.519 I3.298 J12.361
G3 X-2.44 Y3.23 I-0.359 J-0.614
X-2.098 Y2.256 I0.632 J-0.325
G1 X2 Y0.422
X2.045 Y0.4
X6.645 Y-2.062
G3 X6.928 Y-2.144 I0.336 J0.627
G1 X16.676 Y-2.869
G3 X17.438 Y-2.208 I0.053 J0.709
X16.774 Y-1.45 I-0.71 J0.049
G2 X4.178 Y4.263 I1.227 J19.448
G3 X3.207 Y4.777 I-1.303 J-1.287
G2 X-1.441 Y6.981 I1.81 J9.82
G1 X-1.471 Y7.013
X-1.493 Y7.05
X-1.507 Y7.091
X-1.512 Y7.134
X-1.464 Y24.399
X-1.459 Y24.442
X-1.445 Y24.483
G2 X-0.137 Y26.382 I6.364 J-2.983
X4.659 Y28.556 I5.141 J-4.964
G3 X5.412 Y28.921 I-0.051 J1.066
G2 X11.09 Y33.182 I12.845 J-11.203
X18.022 Y34.71 I6.932 J-14.955
X27.177 Y31.933 I0 J-16.48
X33.307 Y24.588 I-9.411 J-14.086
G3 X33.478 Y24.265 I2.197 J0.953
G2 X34.31 Y22.463 I-6.503 J-4.096
X34.61 Y20.5 I-6.277 J-1.963
G3 X34.66 Y19.215 I16.529 J0
G2 X34.71 Y17.931 I-16.479 J-1.285
X34.532 Y14.746 I-28.624 J0
X33.478 Y11.735 I-7.096 J0.794
G3 X33.307 Y11.412 I2.027 J-1.276
G2 X27.177 Y4.067 I-15.541 J6.741
X18.022 Y1.29 I-9.155 J13.703
X11.09 Y2.818 I0 J16.484
X5.412 Y7.079 I7.167 J15.464
G3 X4.659 Y7.444 I-0.805 J-0.702
G2 X-0.137 Y9.618 I0.345 J7.138
X-1.45 Y11.527 I5.056 J4.882
X-0.683 Y14.276 I1.987 J0.927
G3 X0.662 Y16.794 I-1.685 J2.518
G1 Y21.5
G2 X5 Y25.826 I4.326 J0
X5.531 Y25.81 I0 J-8.503
G3 X6.062 Y25.793 I0.531 J8.486
X6.74 Y26.139 I0 J0.838
G2 X11.684 Y30.394 I11.451 J-8.306
X18.022 Y31.938 I6.337 J-12.232
X25.734 Y29.567 I0 J-13.729
X30.836 Y23.316 I-7.932 J-11.68
G3 X31.06 Y22.899 I2.211 J0.921
G2 X31.628 Y21.757 I-4.042 J-2.723
X31.838 Y20.5 I-3.664 J-1.257
G3 X31.888 Y19.215 I16.529 J0
G2 X31.938 Y17.931 I-16.479 J-1.285
X31.888 Y16.715 I-14.796 J0
G3 X31.838 Y15.5 I14.746 J-1.215
G2 X31.628 Y14.243 I-3.874 J0
X31.06 Y13.101 I-4.61 J1.582
G3 X30.836 Y12.684 I1.986 J-1.338
G2 X25.734 Y6.433 I-13.033 J5.429
X18.022 Y4.062 I-7.713 J11.358
X11.684 Y5.606 I0 J13.776
X6.74 Y9.861 I6.508 J12.561
G3 X6.062 Y10.207 I-0.679 J-0.492
X5.531 Y10.19 I0 J-8.503
G2 X5 Y10.174 I-0.531 J8.486
X0.662 Y14.5 I0 J4.338
G1 Y16.794
G2 X2.056 Y18.885 I2.265 J0
G3 X3.45 Y20.976 I-0.871 J2.091
G1 Y21.5
G2 X5 Y23.05 I1.55 J0
G1 X8.059
G2 X28.534 Y21.655 I9.941 J-5.05
X29.05 Y20.5 I-1.034 J-1.155
G1 Y19.491
G2 X29.05 Y16.509 I-11.05 J-1.491
G1 Y15.5
G2 X28.534 Y14.345 I-1.55 J0
X8.059 Y12.95 I-10.534 J3.655
G1 X5
G2 X3.45 Y14.5 I0 J1.55
G1 Y20.976
X3.447 Y21.013
X3.436 Y21.049
X-2.11 Y35.182
G2 X-2.006 Y35.437 I0.186 J0.073
G1 X-1.95 Y35.462 Z-6.506 F100
X-1.897 Y35.486 Z-6.524
X-1.848 Y35.508 Z-6.552
X-1.805 Y35.527 Z-6.591
X-1.77 Y35.543 Z-6.638
X-1.744 Y35.555 Z-6.692
X-1.728 Y35.562 Z-6.75
X-1.712 Y35.569 Z-6.808
X-1.686 Y35.581 Z-6.862
X-1.651 Y35.597 Z-6.909
X-1.608 Y35.616 Z-6.948
X-1.559 Y35.638 Z-6.976
X-1.506 Y35.662 Z-6.994
X-1.451 Y35.687 Z-7
X-1.44 Y35.691
G2 X0.213 Y36.324 I6.375 J-14.191 F200
G3 X1.589 Y37.094 I-1.231 J3.812
G2 X2.008 Y37.446 I16.7 J-19.486
G3 X1.157 Y38.584 I-0.451 J0.55
G1 X-0.052 Y37.762
X-0.113 Y37.716
X-1.731 Y36.34
G3 X-1.968 Y35.937 I0.461 J-0.542
G1 X-2.504 Y33.25
G3 X-1.449 Y32.496 I0.698 J-0.139
G2 X1.717 Y33.802 I6.389 J-10.996
G3 X2.894 Y34.448 I-0.723 J2.71
G2 X7.005 Y37.448 I15.198 J-16.511
G3 X7.252 Y38.452 I-0.351 J0.618
X6.236 Y38.642 I-0.598 J-0.385
G1 X2.052 Y35.606
X-1.806 Y33.111
G3 X-2.122 Y32.627 I0.386 J-0.597
G1 X-2.601 Y29.677
G3 X-1.439 Y29.021 I0.702 J-0.114
G2 X3.207 Y31.223 I6.456 J-7.617
G3 X4.178 Y31.737 I-0.332 J1.801
G2 X16.366 Y37.449 I13.836 J-13.664
G1 X33.944 Y37.485
X33.989 Y37.48
X34.033 Y37.464
X34.071 Y37.439
G2 X37.11 Y34.461 I-16.072 J-19.439
X37.441 Y34.069 I-19.111 J-16.461
G3 X38.45 Y33.979 I0.548 J0.453
X38.526 Y34.989 I-0.46 J0.542
G1 X37.063 Y36.669
G3 X36.842 Y36.839 I-0.536 J-0.467
G1 X34.525 Y37.987
X34.457 Y38.017
X34.386 Y38.039
X34.314 Y38.053
X29.537 Y38.764
G3 X29.08 Y37.443 I-0.105 J-0.703
G2 X30.206 Y36.755 I-11.059 J-19.371
X35.031 Y32.516 I-12.206 J-18.755
X36.937 Y29.922 I-17.031 J-14.516
X37.447 Y29.05 I-13.229 J-8.328
G3 X38.456 Y28.791 I0.625 J0.339
X38.642 Y29.815 I-0.383 J0.599
G1 X35.044 Y34.634
G3 X34.84 Y34.819 I-0.57 J-0.426
G1 X29.433 Y38.061
G3 X29.121 Y38.16 I-0.366 J-0.61
G1 X19.78 Y38.866
G3 X19.666 Y37.449 I-0.054 J-0.709
G2 X35.822 Y25.883 I-1.652 J-19.375
G3 X35.962 Y25.613 I2.19 J0.969
G2 X37.047 Y23.157 I-9.02 J-5.45
