(metal_coupler_14mm_wdrill)
(Machine)
(  vendor: Autodesk)
(  model: GARAGE CNC)
(  description: GARAGE CNC)
(T3  D=3.1 CR=0 - ZMIN=-14 - flat end mill)
G90 G94
G17
G21
(When using Fusion 360 for Personal Use, the feedrate of)
(rapid moves is reduced to match the feedrate of cutting)
(moves, which can increase machining time. Unrestricted rapid)
(moves are available with a Fusion 360 Subscription.)

(2D Pocket3)
T3
S24000 M3
G54
M8
G0 X16.245 Y19.397
Z10
G1 Z5 F300
Z2.81 F150
X16.223 Y19.389 Z2.694
X16.163 Y19.367 Z2.594
X16.074 Y19.328 Z2.527
X15.972 Y19.274 Z2.5
G3 X17.449 Y16.726 Z2.338 I0.738 J-1.274
X15.972 Y19.274 Z2.177 I-0.738 J1.274
X17.449 Y16.726 Z2.015 I0.738 J-1.274
X15.972 Y19.274 Z1.854 I-0.738 J1.274
X17.449 Y16.726 Z1.692 I0.738 J-1.274
X15.972 Y19.274 Z1.531 I-0.738 J1.274
X17.449 Y16.726 Z1.369 I0.738 J-1.274
X15.972 Y19.274 Z1.208 I-0.738 J1.274
X17.449 Y16.726 Z1.046 I0.738 J-1.274
X15.972 Y19.274 Z0.885 I-0.738 J1.274
X17.449 Y16.726 Z0.723 I0.738 J-1.274
X15.972 Y19.274 Z0.561 I-0.738 J1.274
X17.449 Y16.726 Z0.4 I0.738 J-1.274
X15.972 Y19.274 Z0.238 I-0.738 J1.274
X17.449 Y16.726 Z0.077 I0.738 J-1.274
X15.972 Y19.274 Z-0.085 I-0.738 J1.274
X17.449 Y16.726 Z-0.246 I0.738 J-1.274
X18.183 Y18 Z-0.3 I-0.738 J1.274
X17.817 Y18 I-0.183 J0 F300
X18.183 Y18 I0.183 J0
G2 X18.749 Y19.509 I2.294 J0
G3 X18.107 Y20.987 I-0.672 J0.587
X15.022 Y18 I-0.099 J-2.984
X20.799 Y16.938 I2.986 J0
G2 X20.994 Y17.344 I2.433 J-0.923
X21.234 Y17.725 I7.824 J-4.643
G3 X21.234 Y18.275 I-0.415 J0.275
G2 X20.994 Y18.656 I7.584 J5.024
X20.799 Y19.062 I2.237 J1.328
G3 X18.107 Y20.987 I-2.791 J-1.059
G2 X16.509 Y21.979 I0.063 J1.885
G3 X14.67 Y22.378 I-1.09 J-0.586
X21.33 Y13.622 I3.33 J-4.378
X23.143 Y16.05 I-3.33 J4.378
G2 X24.592 Y17.05 I1.449 J-0.55
G1 X26.95
Y18.95
X24.592
G2 X23.143 Y19.95 I0 J1.55
G3 X14.67 Y22.378 I-5.143 J-1.95
X14.176 Y20.709 Z-0.36 I0.891 J-1.172 F150
G1 X15.325 Y17.503 Z-0.468
G3 X18.183 Y18 Z-0.6 I1.386 J0.497
X17.817 Y18 I-0.183 J0 F300
X18.183 Y18 I0.183 J0
G2 X18.749 Y19.509 I2.294 J0
G3 X18.107 Y20.987 I-0.672 J0.587
X15.022 Y18 I-0.099 J-2.984
X20.799 Y16.938 I2.986 J0
G2 X20.994 Y17.344 I2.433 J-0.923
X21.234 Y17.725 I7.824 J-4.643
G3 X21.234 Y18.275 I-0.415 J0.275
G2 X20.994 Y18.656 I7.584 J5.024
X20.799 Y19.062 I2.237 J1.328
G3 X18.107 Y20.987 I-2.791 J-1.059
G2 X16.509 Y21.979 I0.063 J1.885
G3 X14.67 Y22.378 I-1.09 J-0.586
X21.33 Y13.622 I3.33 J-4.378
X23.143 Y16.05 I-3.33 J4.378
G2 X24.592 Y17.05 I1.449 J-0.55
G1 X26.95
Y18.95
X24.592
G2 X23.143 Y19.95 I0 J1.55
G3 X14.67 Y22.378 I-5.143 J-1.95
X14.176 Y20.709 Z-0.66 I0.891 J-1.172 F150
G1 X15.325 Y17.503 Z-0.768
G3 X18.183 Y18 Z-0.9 I1.386 J0.497
X17.817 Y18 I-0.183 J0 F300
X18.183 Y18 I0.183 J0
G2 X18.749 Y19.509 I2.294 J0
G3 X18.107 Y20.987 I-0.672 J0.587
X15.022 Y18 I-0.099 J-2.984
X20.799 Y16.938 I2.986 J0
G2 X20.994 Y17.344 I2.433 J-0.923
X21.234 Y17.725 I7.824 J-4.643
G3 X21.234 Y18.275 I-0.415 J0.275
G2 X20.994 Y18.656 I7.584 J5.024
X20.799 Y19.062 I2.237 J1.328
G3 X18.107 Y20.987 I-2.791 J-1.059
G2 X16.509 Y21.979 I0.063 J1.885
G3 X14.67 Y22.378 I-1.09 J-0.586
X21.33 Y13.622 I3.33 J-4.378
X23.143 Y16.05 I-3.33 J4.378
G2 X24.592 Y17.05 I1.449 J-0.55
G1 X26.95
Y18.95
X24.592
G2 X23.143 Y19.95 I0 J1.55
G3 X14.67 Y22.378 I-5.143 J-1.95
X14.176 Y20.709 Z-0.96 I0.891 J-1.172 F150
G1 X15.325 Y17.503 Z-1.068
G3 X18.183 Y18 Z-1.2 I1.386 J0.497
X17.817 Y18 I-0.183 J0 F300
X18.183 Y18 I0.183 J0
G2 X18.749 Y19.509 I2.294 J0
G3 X18.107 Y20.987 I-0.672 J0.587
X15.022 Y18 I-0.099 J-2.984
X20.799 Y16.938 I2.986 J0
G2 X20.994 Y17.344 I2.433 J-0.923
X21.234 Y17.725 I7.824 J-4.643
G3 X21.234 Y18.275 I-0.415 J0.275
G2 X20.994 Y18.656 I7.584 J5.024
X20.799 Y19.062 I2.237 J1.328
G3 X18.107 Y20.987 I-2.791 J-1.059
G2 X16.509 Y21.979 I0.063 J1.885
G3 X14.67 Y22.378 I-1.09 J-0.586
X21.33 Y13.622 I3.33 J-4.378
X23.143 Y16.05 I-3.33 J4.378
G2 X24.592 Y17.05 I1.449 J-0.55
G1 X26.95
Y18.95
X24.592
G2 X23.143 Y19.95 I0 J1.55
G3 X14.67 Y22.378 I-5.143 J-1.95
X14.176 Y20.709 Z-1.26 I0.891 J-1.172 F150
G1 X15.325 Y17.503 Z-1.368
G3 X18.183 Y18 Z-1.5 I1.386 J0.497
X17.817 Y18 I-0.183 J0 F300
X18.183 Y18 I0.183 J0
G2 X18.749 Y19.509 I2.294 J0
G3 X18.107 Y20.987 I-0.672 J0.587
X15.022 Y18 I-0.099 J-2.984
X20.799 Y16.938 I2.986 J0
G2 X20.994 Y17.344 I2.433 J-0.923
X21.234 Y17.725 I7.824 J-4.643
G3 X21.234 Y18.275 I-0.415 J0.275
G2 X20.994 Y18.656 I7.584 J5.024
X20.799 Y19.062 I2.237 J1.328
G3 X18.107 Y20.987 I-2.791 J-1.059
G2 X16.509 Y21.979 I0.063 J1.885
G3 X14.67 Y22.378 I-1.09 J-0.586
X21.33 Y13.622 I3.33 J-4.378
X23.143 Y16.05 I-3.33 J4.378
G2 X24.592 Y17.05 I1.449 J-0.55
G1 X26.95
Y18.95
X24.592
G2 X23.143 Y19.95 I0 J1.55
G3 X14.67 Y22.378 I-5.143 J-1.95
X14.176 Y20.709 Z-1.56 I0.891 J-1.172 F150
G1 X15.325 Y17.503 Z-1.668
G3 X18.183 Y18 Z-1.8 I1.386 J0.497
X17.817 Y18 I-0.183 J0 F300
X18.183 Y18 I0.183 J0
G2 X18.749 Y19.509 I2.294 J0
G3 X18.107 Y20.987 I-0.672 J0.587
X15.022 Y18 I-0.099 J-2.984
X20.799 Y16.938 I2.986 J0
G2 X20.994 Y17.344 I2.433 J-0.923
X21.234 Y17.725 I7.824 J-4.643
G3 X21.234 Y18.275 I-0.415 J0.275
G2 X20.994 Y18.656 I7.584 J5.024
X20.799 Y19.062 I2.237 J1.328
G3 X18.107 Y20.987 I-2.791 J-1.059
G2 X16.509 Y21.979 I0.063 J1.885
G3 X14.67 Y22.378 I-1.09 J-0.586
X21.33 Y13.622 I3.33 J-4.378
X23.143 Y16.05 I-3.33 J4.378
G2 X24.592 Y17.05 I1.449 J-0.55
G1 X26.95
Y18.95
X24.592
G2 X23.143 Y19.95 I0 J1.55
G3 X14.67 Y22.378 I-5.143 J-1.95
X14.176 Y20.709 Z-1.86 I0.891 J-1.172 F150
G1 X15.325 Y17.503 Z-1.968
G3 X18.183 Y18 Z-2.1 I1.386 J0.497
X17.817 Y18 I-0.183 J0 F300
X18.183 Y18 I0.183 J0
G2 X18.749 Y19.509 I2.294 J0
G3 X18.107 Y20.987 I-0.672 J0.587
X15.022 Y18 I-0.099 J-2.984
X20.799 Y16.938 I2.986 J0
G2 X20.994 Y17.344 I2.433 J-0.923
X21.234 Y17.725 I7.824 J-4.643
G3 X21.234 Y18.275 I-0.415 J0.275
G2 X20.994 Y18.656 I7.584 J5.024
X20.799 Y19.062 I2.237 J1.328
G3 X18.107 Y20.987 I-2.791 J-1.059
G2 X16.509 Y21.979 I0.063 J1.885
G3 X14.67 Y22.378 I-1.09 J-0.586
X21.33 Y13.622 I3.33 J-4.378
X23.143 Y16.05 I-3.33 J4.378
G2 X24.592 Y17.05 I1.449 J-0.55
G1 X26.95
Y18.95
X24.592
G2 X23.143 Y19.95 I0 J1.55
G3 X14.67 Y22.378 I-5.143 J-1.95
X14.176 Y20.709 Z-2.16 I0.891 J-1.172 F150
G1 X15.325 Y17.503 Z-2.268
G3 X18.183 Y18 Z-2.4 I1.386 J0.497
X17.817 Y18 I-0.183 J0 F300
X18.183 Y18 I0.183 J0
G2 X18.749 Y19.509 I2.294 J0
G3 X18.107 Y20.987 I-0.672 J0.587
X15.022 Y18 I-0.099 J-2.984
X20.799 Y16.938 I2.986 J0
G2 X20.994 Y17.344 I2.433 J-0.923
X21.234 Y17.725 I7.824 J-4.643
G3 X21.234 Y18.275 I-0.415 J0.275
G2 X20.994 Y18.656 I7.584 J5.024
X20.799 Y19.062 I2.237 J1.328
G3 X18.107 Y20.987 I-2.791 J-1.059
G2 X16.509 Y21.979 I0.063 J1.885
G3 X14.67 Y22.378 I-1.09 J-0.586
X21.33 Y13.622 I3.33 J-4.378
X23.143 Y16.05 I-3.33 J4.378
G2 X24.592 Y17.05 I1.449 J-0.55
G1 X26.95
Y18.95
X24.592
G2 X23.143 Y19.95 I0 J1.55
G3 X14.67 Y22.378 I-5.143 J-1.95
X14.176 Y20.709 Z-2.46 I0.891 J-1.172 F150
G1 X15.325 Y17.503 Z-2.568
G3 X18.183 Y18 Z-2.7 I1.386 J0.497
X17.817 Y18 I-0.183 J0 F300
X18.183 Y18 I0.183 J0
G2 X18.749 Y19.509 I2.294 J0
G3 X18.107 Y20.987 I-0.672 J0.587
X15.022 Y18 I-0.099 J-2.984
X20.799 Y16.938 I2.986 J0
G2 X20.994 Y17.344 I2.433 J-0.923
X21.234 Y17.725 I7.824 J-4.643
G3 X21.234 Y18.275 I-0.415 J0.275
G2 X20.994 Y18.656 I7.584 J5.024
X20.799 Y19.062 I2.237 J1.328
G3 X18.107 Y20.987 I-2.791 J-1.059
G2 X16.509 Y21.979 I0.063 J1.885
G3 X14.67 Y22.378 I-1.09 J-0.586
X21.33 Y13.622 I3.33 J-4.378
X23.143 Y16.05 I-3.33 J4.378
G2 X24.592 Y17.05 I1.449 J-0.55
G1 X26.95
Y18.95
X24.592
G2 X23.143 Y19.95 I0 J1.55
G3 X14.67 Y22.378 I-5.143 J-1.95
X14.176 Y20.709 Z-2.76 I0.891 J-1.172 F150
G1 X15.325 Y17.503 Z-2.868
G3 X18.183 Y18 Z-3 I1.386 J0.497
X17.817 Y18 I-0.183 J0 F300
X18.183 Y18 I0.183 J0
G2 X18.749 Y19.509 I2.294 J0
G3 X18.107 Y20.987 I-0.672 J0.587
X15.022 Y18 I-0.099 J-2.984
X20.799 Y16.938 I2.986 J0
G2 X20.994 Y17.344 I2.433 J-0.923
X21.234 Y17.725 I7.824 J-4.643
G3 X21.234 Y18.275 I-0.415 J0.275
G2 X20.994 Y18.656 I7.584 J5.024
X20.799 Y19.062 I2.237 J1.328
G3 X18.107 Y20.987 I-2.791 J-1.059
G2 X16.509 Y21.979 I0.063 J1.885
G3 X14.67 Y22.378 I-1.09 J-0.586
X21.33 Y13.622 I3.33 J-4.378
X23.143 Y16.05 I-3.33 J4.378
G2 X24.592 Y17.05 I1.449 J-0.55
G1 X26.95
Y18.95
X24.592
G2 X23.143 Y19.95 I0 J1.55
G3 X14.67 Y22.378 I-5.143 J-1.95
X14.176 Y20.709 Z-3.06 I0.891 J-1.172 F150
G1 X15.325 Y17.503 Z-3.168
G3 X18.183 Y18 Z-3.3 I1.386 J0.497
X17.817 Y18 I-0.183 J0 F300
X18.183 Y18 I0.183 J0
G2 X18.749 Y19.509 I2.294 J0
G3 X18.107 Y20.987 I-0.672 J0.587
X15.022 Y18 I-0.099 J-2.984
X20.799 Y16.938 I2.986 J0
G2 X20.994 Y17.344 I2.433 J-0.923
X21.234 Y17.725 I7.824 J-4.643
G3 X21.234 Y18.275 I-0.415 J0.275
G2 X20.994 Y18.656 I7.584 J5.024
X20.799 Y19.062 I2.237 J1.328
G3 X18.107 Y20.987 I-2.791 J-1.059
G2 X16.509 Y21.979 I0.063 J1.885
G3 X14.67 Y22.378 I-1.09 J-0.586
X21.33 Y13.622 I3.33 J-4.378
X23.143 Y16.05 I-3.33 J4.378
G2 X24.592 Y17.05 I1.449 J-0.55
G1 X26.95
Y18.95
X24.592
G2 X23.143 Y19.95 I0 J1.55
G3 X14.67 Y22.378 I-5.143 J-1.95
X14.176 Y20.709 Z-3.36 I0.891 J-1.172 F150
G1 X15.325 Y17.503 Z-3.468
G3 X18.183 Y18 Z-3.6 I1.386 J0.497
X17.817 Y18 I-0.183 J0 F300
X18.183 Y18 I0.183 J0
G2 X18.749 Y19.509 I2.294 J0
G3 X18.107 Y20.987 I-0.672 J0.587
X15.022 Y18 I-0.099 J-2.984
X20.799 Y16.938 I2.986 J0
G2 X20.994 Y17.344 I2.433 J-0.923
X21.234 Y17.725 I7.824 J-4.643
G3 X21.234 Y18.275 I-0.415 J0.275
G2 X20.994 Y18.656 I7.584 J5.024
X20.799 Y19.062 I2.237 J1.328
G3 X18.107 Y20.987 I-2.791 J-1.059
G2 X16.509 Y21.979 I0.063 J1.885
G3 X14.67 Y22.378 I-1.09 J-0.586
X21.33 Y13.622 I3.33 J-4.378
X23.143 Y16.05 I-3.33 J4.378
G2 X24.592 Y17.05 I1.449 J-0.55
G1 X26.95
Y18.95
X24.592
G2 X23.143 Y19.95 I0 J1.55
G3 X14.67 Y22.378 I-5.143 J-1.95
X14.176 Y20.709 Z-3.66 I0.891 J-1.172 F150
G1 X15.325 Y17.503 Z-3.768
G3 X18.183 Y18 Z-3.9 I1.386 J0.497
X17.817 Y18 I-0.183 J0 F300
X18.183 Y18 I0.183 J0
G2 X18.749 Y19.509 I2.294 J0
G3 X18.107 Y20.987 I-0.672 J0.587
X15.022 Y18 I-0.099 J-2.984
X20.799 Y16.938 I2.986 J0
G2 X20.994 Y17.344 I2.433 J-0.923
X21.234 Y17.725 I7.824 J-4.643
G3 X21.234 Y18.275 I-0.415 J0.275
G2 X20.994 Y18.656 I7.584 J5.024
X20.799 Y19.062 I2.237 J1.328
G3 X18.107 Y20.987 I-2.791 J-1.059
G2 X16.509 Y21.979 I0.063 J1.885
G3 X14.67 Y22.378 I-1.09 J-0.586
X21.33 Y13.622 I3.33 J-4.378
X23.143 Y16.05 I-3.33 J4.378
G2 X24.592 Y17.05 I1.449 J-0.55
G1 X26.95
Y18.95
X24.592
G2 X23.143 Y19.95 I0 J1.55
G3 X14.67 Y22.378 I-5.143 J-1.95
X14.176 Y20.709 Z-3.96 I0.891 J-1.172 F150
G1 X15.325 Y17.503 Z-4.068
G3 X18.183 Y18 Z-4.2 I1.386 J0.497
X17.817 Y18 I-0.183 J0 F300
X18.183 Y18 I0.183 J0
G2 X18.749 Y19.509 I2.294 J0
G3 X18.107 Y20.987 I-0.672 J0.587
X15.022 Y18 I-0.099 J-2.984
X20.799 Y16.938 I2.986 J0
G2 X20.994 Y17.344 I2.433 J-0.923
X21.234 Y17.725 I7.824 J-4.643
G3 X21.234 Y18.275 I-0.415 J0.275
G2 X20.994 Y18.656 I7.584 J5.024
X20.799 Y19.062 I2.237 J1.328
G3 X18.107 Y20.987 I-2.791 J-1.059
G2 X16.509 Y21.979 I0.063 J1.885
G3 X14.67 Y22.378 I-1.09 J-0.586
X21.33 Y13.622 I3.33 J-4.378
X23.143 Y16.05 I-3.33 J4.378
G2 X24.592 Y17.05 I1.449 J-0.55
G1 X26.95
Y18.95
X24.592
G2 X23.143 Y19.95 I0 J1.55
G3 X14.67 Y22.378 I-5.143 J-1.95
X14.176 Y20.709 Z-4.26 I0.891 J-1.172 F150
G1 X15.325 Y17.503 Z-4.368
G3 X18.183 Y18 Z-4.5 I1.386 J0.497
X17.817 Y18 I-0.183 J0 F300
X18.183 Y18 I0.183 J0
G2 X18.749 Y19.509 I2.294 J0
G3 X18.107 Y20.987 I-0.672 J0.587
X15.022 Y18 I-0.099 J-2.984
X20.799 Y16.938 I2.986 J0
G2 X20.994 Y17.344 I2.433 J-0.923
X21.234 Y17.725 I7.824 J-4.643
G3 X21.234 Y18.275 I-0.415 J0.275
G2 X20.994 Y18.656 I7.584 J5.024
X20.799 Y19.062 I2.237 J1.328
G3 X18.107 Y20.987 I-2.791 J-1.059
G2 X16.509 Y21.979 I0.063 J1.885
G3 X14.67 Y22.378 I-1.09 J-0.586
X21.33 Y13.622 I3.33 J-4.378
X23.143 Y16.05 I-3.33 J4.378
G2 X24.592 Y17.05 I1.449 J-0.55
G1 X26.95
Y18.95
X24.592
G2 X23.143 Y19.95 I0 J1.55
G3 X14.67 Y22.378 I-5.143 J-1.95
X14.176 Y20.709 Z-4.56 I0.891 J-1.172 F150
G1 X15.325 Y17.503 Z-4.668
G3 X18.183 Y18 Z-4.8 I1.386 J0.497
X17.817 Y18 I-0.183 J0 F300
X18.183 Y18 I0.183 J0
G2 X18.749 Y19.509 I2.294 J0
G3 X18.107 Y20.987 I-0.672 J0.587
X15.022 Y18 I-0.099 J-2.984
X20.799 Y16.938 I2.986 J0
G2 X20.994 Y17.344 I2.433 J-0.923
X21.234 Y17.725 I7.824 J-4.643
G3 X21.234 Y18.275 I-0.415 J0.275
G2 X20.994 Y18.656 I7.584 J5.024
X20.799 Y19.062 I2.237 J1.328
G3 X18.107 Y20.987 I-2.791 J-1.059
G2 X16.509 Y21.979 I0.063 J1.885
G3 X14.67 Y22.378 I-1.09 J-0.586
X21.33 Y13.622 I3.33 J-4.378
X23.143 Y16.05 I-3.33 J4.378
G2 X24.592 Y17.05 I1.449 J-0.55
G1 X26.95
Y18.95
X24.592
G2 X23.143 Y19.95 I0 J1.55
G3 X14.67 Y22.378 I-5.143 J-1.95
X14.176 Y20.709 Z-4.86 I0.891 J-1.172 F150
G1 X15.325 Y17.503 Z-4.968
G3 X18.183 Y18 Z-5.1 I1.386 J0.497
X17.817 Y18 I-0.183 J0 F300
X18.183 Y18 I0.183 J0
G2 X18.749 Y19.509 I2.294 J0
G3 X18.107 Y20.987 I-0.672 J0.587
X15.022 Y18 I-0.099 J-2.984
X20.799 Y16.938 I2.986 J0
G2 X20.994 Y17.344 I2.433 J-0.923
X21.234 Y17.725 I7.824 J-4.643
G3 X21.234 Y18.275 I-0.415 J0.275
G2 X20.994 Y18.656 I7.584 J5.024
X20.799 Y19.062 I2.237 J1.328
G3 X18.107 Y20.987 I-2.791 J-1.059
G2 X16.509 Y21.979 I0.063 J1.885
G3 X14.67 Y22.378 I-1.09 J-0.586
X21.33 Y13.622 I3.33 J-4.378
X23.143 Y16.05 I-3.33 J4.378
G2 X24.592 Y17.05 I1.449 J-0.55
G1 X26.95
Y18.95
X24.592
G2 X23.143 Y19.95 I0 J1.55
G3 X14.67 Y22.378 I-5.143 J-1.95
X14.176 Y20.709 Z-5.16 I0.891 J-1.172 F150
G1 X15.325 Y17.503 Z-5.268
G3 X18.183 Y18 Z-5.4 I1.386 J0.497
X17.817 Y18 I-0.183 J0 F300
X18.183 Y18 I0.183 J0
G2 X18.749 Y19.509 I2.294 J0
G3 X18.107 Y20.987 I-0.672 J0.587
X15.022 Y18 I-0.099 J-2.984
X20.799 Y16.938 I2.986 J0
G2 X20.994 Y17.344 I2.433 J-0.923
X21.234 Y17.725 I7.824 J-4.643
G3 X21.234 Y18.275 I-0.415 J0.275
G2 X20.994 Y18.656 I7.584 J5.024
X20.799 Y19.062 I2.237 J1.328
G3 X18.107 Y20.987 I-2.791 J-1.059
G2 X16.509 Y21.979 I0.063 J1.885
G3 X14.67 Y22.378 I-1.09 J-0.586
X21.33 Y13.622 I3.33 J-4.378
X23.143 Y16.05 I-3.33 J4.378
G2 X24.592 Y17.05 I1.449 J-0.55
G1 X26.95
Y18.95
X24.592
G2 X23.143 Y19.95 I0 J1.55
G3 X14.67 Y22.378 I-5.143 J-1.95
X14.176 Y20.709 Z-5.46 I0.891 J-1.172 F150
G1 X15.325 Y17.503 Z-5.568
G3 X18.183 Y18 Z-5.7 I1.386 J0.497
X17.817 Y18 I-0.183 J0 F300
X18.183 Y18 I0.183 J0
G2 X18.749 Y19.509 I2.294 J0
G3 X18.107 Y20.987 I-0.672 J0.587
X15.022 Y18 I-0.099 J-2.984
X20.799 Y16.938 I2.986 J0
G2 X20.994 Y17.344 I2.433 J-0.923
X21.234 Y17.725 I7.824 J-4.643
G3 X21.234 Y18.275 I-0.415 J0.275
G2 X20.994 Y18.656 I7.584 J5.024
X20.799 Y19.062 I2.237 J1.328
G3 X18.107 Y20.987 I-2.791 J-1.059
G2 X16.509 Y21.979 I0.063 J1.885
G3 X14.67 Y22.378 I-1.09 J-0.586
X21.33 Y13.622 I3.33 J-4.378
X23.143 Y16.05 I-3.33 J4.378
G2 X24.592 Y17.05 I1.449 J-0.55
G1 X26.95
Y18.95
X24.592
G2 X23.143 Y19.95 I0 J1.55
G3 X14.67 Y22.378 I-5.143 J-1.95
X14.176 Y20.709 Z-5.76 I0.891 J-1.172 F150
G1 X15.325 Y17.503 Z-5.868
G3 X18.183 Y18 Z-6 I1.386 J0.497
X17.817 Y18 I-0.183 J0 F300
X18.183 Y18 I0.183 J0
G2 X18.749 Y19.509 I2.294 J0
G3 X18.107 Y20.987 I-0.672 J0.587
X15.022 Y18 I-0.099 J-2.984
X20.799 Y16.938 I2.986 J0
G2 X20.994 Y17.344 I2.433 J-0.923
X21.234 Y17.725 I7.824 J-4.643
G3 X21.234 Y18.275 I-0.415 J0.275
G2 X20.994 Y18.656 I7.584 J5.024
X20.799 Y19.062 I2.237 J1.328
G3 X18.107 Y20.987 I-2.791 J-1.059
G2 X16.509 Y21.979 I0.063 J1.885
G3 X14.67 Y22.378 I-1.09 J-0.586
X21.33 Y13.622 I3.33 J-4.378
X23.143 Y16.05 I-3.33 J4.378
G2 X24.592 Y17.05 I1.449 J-0.55
G1 X26.95
Y18.95
X24.592
G2 X23.143 Y19.95 I0 J1.55
G3 X14.67 Y22.378 I-5.143 J-1.95
X14.176 Y20.709 Z-6.06 I0.891 J-1.172 F150
G1 X15.325 Y17.503 Z-6.168
G3 X18.183 Y18 Z-6.3 I1.386 J0.497
X17.817 Y18 I-0.183 J0 F300
X18.183 Y18 I0.183 J0
G2 X18.749 Y19.509 I2.294 J0
G3 X18.107 Y20.987 I-0.672 J0.587
X15.022 Y18 I-0.099 J-2.984
X20.799 Y16.938 I2.986 J0
G2 X20.994 Y17.344 I2.433 J-0.923
X21.234 Y17.725 I7.824 J-4.643
G3 X21.234 Y18.275 I-0.415 J0.275
G2 X20.994 Y18.656 I7.584 J5.024
X20.799 Y19.062 I2.237 J1.328
G3 X18.107 Y20.987 I-2.791 J-1.059
G2 X16.509 Y21.979 I0.063 J1.885
G3 X14.67 Y22.378 I-1.09 J-0.586
X21.33 Y13.622 I3.33 J-4.378
X23.143 Y16.05 I-3.33 J4.378
G2 X24.592 Y17.05 I1.449 J-0.55
G1 X26.95
Y18.95
X24.592
G2 X23.143 Y19.95 I0 J1.55
G3 X14.67 Y22.378 I-5.143 J-1.95
X14.176 Y20.709 Z-6.36 I0.891 J-1.172 F150
G1 X15.325 Y17.503 Z-6.468
G3 X18.183 Y18 Z-6.6 I1.386 J0.497
X17.817 Y18 I-0.183 J0 F300
X18.183 Y18 I0.183 J0
G2 X18.749 Y19.509 I2.294 J0
G3 X18.107 Y20.987 I-0.672 J0.587
X15.022 Y18 I-0.099 J-2.984
X20.799 Y16.938 I2.986 J0
G2 X20.994 Y17.344 I2.433 J-0.923
X21.234 Y17.725 I7.824 J-4.643
G3 X21.234 Y18.275 I-0.415 J0.275
G2 X20.994 Y18.656 I7.584 J5.024
X20.799 Y19.062 I2.237 J1.328
G3 X18.107 Y20.987 I-2.791 J-1.059
G2 X16.509 Y21.979 I0.063 J1.885
G3 X14.67 Y22.378 I-1.09 J-0.586
X21.33 Y13.622 I3.33 J-4.378
X23.143 Y16.05 I-3.33 J4.378
G2 X24.592 Y17.05 I1.449 J-0.55
G1 X26.95
Y18.95
X24.592
G2 X23.143 Y19.95 I0 J1.55
G3 X14.67 Y22.378 I-5.143 J-1.95
X14.176 Y20.709 Z-6.66 I0.891 J-1.172 F150
G1 X15.325 Y17.503 Z-6.768
G3 X18.183 Y18 Z-6.9 I1.386 J0.497
X17.817 Y18 I-0.183 J0 F300
X18.183 Y18 I0.183 J0
G2 X18.749 Y19.509 I2.294 J0
G3 X18.107 Y20.987 I-0.672 J0.587
X15.022 Y18 I-0.099 J-2.984
X20.799 Y16.938 I2.986 J0
G2 X20.994 Y17.344 I2.433 J-0.923
X21.234 Y17.725 I7.824 J-4.643
G3 X21.234 Y18.275 I-0.415 J0.275
G2 X20.994 Y18.656 I7.584 J5.024
X20.799 Y19.062 I2.237 J1.328
G3 X18.107 Y20.987 I-2.791 J-1.059
G2 X16.509 Y21.979 I0.063 J1.885
G3 X14.67 Y22.378 I-1.09 J-0.586
X21.33 Y13.622 I3.33 J-4.378
X23.143 Y16.05 I-3.33 J4.378
G2 X24.592 Y17.05 I1.449 J-0.55
G1 X26.95
Y18.95
X24.592
G2 X23.143 Y19.95 I0 J1.55
G3 X14.67 Y22.378 I-5.143 J-1.95
X14.176 Y20.709 Z-6.96 I0.891 J-1.172 F150
G1 X15.325 Y17.503 Z-7.068
G3 X18.183 Y18 Z-7.2 I1.386 J0.497
X17.817 Y18 I-0.183 J0 F300
X18.183 Y18 I0.183 J0
G2 X18.749 Y19.509 I2.294 J0
G3 X18.107 Y20.987 I-0.672 J0.587
X15.022 Y18 I-0.099 J-2.984
X20.799 Y16.938 I2.986 J0
G2 X20.994 Y17.344 I2.433 J-0.923
X21.234 Y17.725 I7.824 J-4.643
G3 X21.234 Y18.275 I-0.415 J0.275
G2 X20.994 Y18.656 I7.584 J5.024
X20.799 Y19.062 I2.237 J1.328
G3 X18.107 Y20.987 I-2.791 J-1.059
G2 X16.509 Y21.979 I0.063 J1.885
G3 X14.67 Y22.378 I-1.09 J-0.586
X21.33 Y13.622 I3.33 J-4.378
X23.143 Y16.05 I-3.33 J4.378
G2 X24.592 Y17.05 I1.449 J-0.55
G1 X26.95
Y18.95
X24.592
G2 X23.143 Y19.95 I0 J1.55
G3 X14.67 Y22.378 I-5.143 J-1.95
X14.176 Y20.709 Z-7.26 I0.891 J-1.172 F150
G1 X15.325 Y17.503 Z-7.368
G3 X18.183 Y18 Z-7.5 I1.386 J0.497
X17.817 Y18 I-0.183 J0 F300
X18.183 Y18 I0.183 J0
G2 X18.749 Y19.509 I2.294 J0
G3 X18.107 Y20.987 I-0.672 J0.587
X15.022 Y18 I-0.099 J-2.984
X20.799 Y16.938 I2.986 J0
G2 X20.994 Y17.344 I2.433 J-0.923
X21.234 Y17.725 I7.824 J-4.643
G3 X21.234 Y18.275 I-0.415 J0.275
G2 X20.994 Y18.656 I7.584 J5.024
X20.799 Y19.062 I2.237 J1.328
G3 X18.107 Y20.987 I-2.791 J-1.059
G2 X16.509 Y21.979 I0.063 J1.885
G3 X14.67 Y22.378 I-1.09 J-0.586
X21.33 Y13.622 I3.33 J-4.378
X23.143 Y16.05 I-3.33 J4.378
G2 X24.592 Y17.05 I1.449 J-0.55
G1 X26.95
Y18.95
X24.592
G2 X23.143 Y19.95 I0 J1.55
G3 X14.67 Y22.378 I-5.143 J-1.95
X14.176 Y20.709 Z-7.56 I0.891 J-1.172 F150
G1 X15.325 Y17.503 Z-7.668
G3 X18.183 Y18 Z-7.8 I1.386 J0.497
X17.817 Y18 I-0.183 J0 F300
X18.183 Y18 I0.183 J0
G2 X18.749 Y19.509 I2.294 J0
G3 X18.107 Y20.987 I-0.672 J0.587
X15.022 Y18 I-0.099 J-2.984
X20.799 Y16.938 I2.986 J0
G2 X20.994 Y17.344 I2.433 J-0.923
X21.234 Y17.725 I7.824 J-4.643
G3 X21.234 Y18.275 I-0.415 J0.275
G2 X20.994 Y18.656 I7.584 J5.024
X20.799 Y19.062 I2.237 J1.328
G3 X18.107 Y20.987 I-2.791 J-1.059
G2 X16.509 Y21.979 I0.063 J1.885
G3 X14.67 Y22.378 I-1.09 J-0.586
X21.33 Y13.622 I3.33 J-4.378
X23.143 Y16.05 I-3.33 J4.378
G2 X24.592 Y17.05 I1.449 J-0.55
G1 X26.95
Y18.95
X24.592
G2 X23.143 Y19.95 I0 J1.55
G3 X14.67 Y22.378 I-5.143 J-1.95
X14.176 Y20.709 Z-7.86 I0.891 J-1.172 F150
G1 X15.325 Y17.503 Z-7.968
G3 X18.183 Y18 Z-8.1 I1.386 J0.497
X17.817 Y18 I-0.183 J0 F300
X18.183 Y18 I0.183 J0
G2 X18.749 Y19.509 I2.294 J0
G3 X18.107 Y20.987 I-0.672 J0.587
X15.022 Y18 I-0.099 J-2.984
X20.799 Y16.938 I2.986 J0
G2 X20.994 Y17.344 I2.433 J-0.923
X21.234 Y17.725 I7.824 J-4.643
G3 X21.234 Y18.275 I-0.415 J0.275
G2 X20.994 Y18.656 I7.584 J5.024
X20.799 Y19.062 I2.237 J1.328
G3 X18.107 Y20.987 I-2.791 J-1.059
G2 X16.509 Y21.979 I0.063 J1.885
G3 X14.67 Y22.378 I-1.09 J-0.586
X21.33 Y13.622 I3.33 J-4.378
X23.143 Y16.05 I-3.33 J4.378
G2 X24.592 Y17.05 I1.449 J-0.55
G1 X26.95
Y18.95
X24.592
G2 X23.143 Y19.95 I0 J1.55
G3 X14.67 Y22.378 I-5.143 J-1.95
X14.176 Y20.709 Z-8.16 I0.891 J-1.172 F150
G1 X15.325 Y17.503 Z-8.268
G3 X18.183 Y18 Z-8.4 I1.386 J0.497
X17.817 Y18 I-0.183 J0 F300
X18.183 Y18 I0.183 J0
G2 X18.749 Y19.509 I2.294 J0
G3 X18.107 Y20.987 I-0.672 J0.587
X15.022 Y18 I-0.099 J-2.984
X20.799 Y16.938 I2.986 J0
G2 X20.994 Y17.344 I2.433 J-0.923
X21.234 Y17.725 I7.824 J-4.643
G3 X21.234 Y18.275 I-0.415 J0.275
G2 X20.994 Y18.656 I7.584 J5.024
X20.799 Y19.062 I2.237 J1.328
G3 X18.107 Y20.987 I-2.791 J-1.059
G2 X16.509 Y21.979 I0.063 J1.885
G3 X14.67 Y22.378 I-1.09 J-0.586
X21.33 Y13.622 I3.33 J-4.378
X23.143 Y16.05 I-3.33 J4.378
G2 X24.592 Y17.05 I1.449 J-0.55
G1 X26.95
Y18.95
X24.592
G2 X23.143 Y19.95 I0 J1.55
G3 X14.67 Y22.378 I-5.143 J-1.95
X14.176 Y20.709 Z-8.46 I0.891 J-1.172 F150
G1 X15.325 Y17.503 Z-8.568
G3 X18.183 Y18 Z-8.7 I1.386 J0.497
X17.817 Y18 I-0.183 J0 F300
X18.183 Y18 I0.183 J0
G2 X18.749 Y19.509 I2.294 J0
G3 X18.107 Y20.987 I-0.672 J0.587
X15.022 Y18 I-0.099 J-2.984
X20.799 Y16.938 I2.986 J0
G2 X20.994 Y17.344 I2.433 J-0.923
X21.234 Y17.725 I7.824 J-4.643
G3 X21.234 Y18.275 I-0.415 J0.275
G2 X20.994 Y18.656 I7.584 J5.024
X20.799 Y19.062 I2.237 J1.328
G3 X18.107 Y20.987 I-2.791 J-1.059
G2 X16.509 Y21.979 I0.063 J1.885
G3 X14.67 Y22.378 I-1.09 J-0.586
X21.33 Y13.622 I3.33 J-4.378
X23.143 Y16.05 I-3.33 J4.378
G2 X24.592 Y17.05 I1.449 J-0.55
G1 X26.95
Y18.95
X24.592
G2 X23.143 Y19.95 I0 J1.55
G3 X14.67 Y22.378 I-5.143 J-1.95
X14.176 Y20.709 Z-8.76 I0.891 J-1.172 F150
G1 X15.325 Y17.503 Z-8.868
G3 X18.183 Y18 Z-9 I1.386 J0.497
X17.817 Y18 I-0.183 J0 F300
X18.183 Y18 I0.183 J0
G2 X18.749 Y19.509 I2.294 J0
G3 X18.107 Y20.987 I-0.672 J0.587
X15.022 Y18 I-0.099 J-2.984
X20.799 Y16.938 I2.986 J0
G2 X20.994 Y17.344 I2.433 J-0.923
X21.234 Y17.725 I7.824 J-4.643
G3 X21.234 Y18.275 I-0.415 J0.275
G2 X20.994 Y18.656 I7.584 J5.024
X20.799 Y19.062 I2.237 J1.328
G3 X18.107 Y20.987 I-2.791 J-1.059
G2 X16.509 Y21.979 I0.063 J1.885
G3 X14.67 Y22.378 I-1.09 J-0.586
X21.33 Y13.622 I3.33 J-4.378
X23.143 Y16.05 I-3.33 J4.378
G2 X24.592 Y17.05 I1.449 J-0.55
G1 X26.95
Y18.95
X24.592
G2 X23.143 Y19.95 I0 J1.55
G3 X14.67 Y22.378 I-5.143 J-1.95
X14.176 Y20.709 Z-9.06 I0.891 J-1.172 F150
G1 X15.325 Y17.503 Z-9.168
G3 X18.183 Y18 Z-9.3 I1.386 J0.497
X17.817 Y18 I-0.183 J0 F300
X18.183 Y18 I0.183 J0
G2 X18.749 Y19.509 I2.294 J0
G3 X18.107 Y20.987 I-0.672 J0.587
X15.022 Y18 I-0.099 J-2.984
X20.799 Y16.938 I2.986 J0
G2 X20.994 Y17.344 I2.433 J-0.923
X21.234 Y17.725 I7.824 J-4.643
G3 X21.234 Y18.275 I-0.415 J0.275
G2 X20.994 Y18.656 I7.584 J5.024
X20.799 Y19.062 I2.237 J1.328
G3 X18.107 Y20.987 I-2.791 J-1.059
G2 X16.509 Y21.979 I0.063 J1.885
G3 X14.67 Y22.378 I-1.09 J-0.586
X21.33 Y13.622 I3.33 J-4.378
X23.143 Y16.05 I-3.33 J4.378
G2 X24.592 Y17.05 I1.449 J-0.55
G1 X26.95
Y18.95
X24.592
G2 X23.143 Y19.95 I0 J1.55
G3 X14.67 Y22.378 I-5.143 J-1.95
X14.176 Y20.709 Z-9.36 I0.891 J-1.172 F150
G1 X15.325 Y17.503 Z-9.468
G3 X18.183 Y18 Z-9.6 I1.386 J0.497
X17.817 Y18 I-0.183 J0 F300
X18.183 Y18 I0.183 J0
G2 X18.749 Y19.509 I2.294 J0
G3 X18.107 Y20.987 I-0.672 J0.587
X15.022 Y18 I-0.099 J-2.984
X20.799 Y16.938 I2.986 J0
G2 X20.994 Y17.344 I2.433 J-0.923
X21.234 Y17.725 I7.824 J-4.643
G3 X21.234 Y18.275 I-0.415 J0.275
G2 X20.994 Y18.656 I7.584 J5.024
X20.799 Y19.062 I2.237 J1.328
G3 X18.107 Y20.987 I-2.791 J-1.059
G2 X16.509 Y21.979 I0.063 J1.885
G3 X14.67 Y22.378 I-1.09 J-0.586
X21.33 Y13.622 I3.33 J-4.378
X23.143 Y16.05 I-3.33 J4.378
G2 X24.592 Y17.05 I1.449 J-0.55
G1 X26.95
Y18.95
X24.592
G2 X23.143 Y19.95 I0 J1.55
G3 X14.67 Y22.378 I-5.143 J-1.95
X14.176 Y20.709 Z-9.66 I0.891 J-1.172 F150
G1 X15.325 Y17.503 Z-9.768
G3 X18.183 Y18 Z-9.9 I1.386 J0.497
X17.817 Y18 I-0.183 J0 F300
X18.183 Y18 I0.183 J0
G2 X18.749 Y19.509 I2.294 J0
G3 X18.107 Y20.987 I-0.672 J0.587
X15.022 Y18 I-0.099 J-2.984
X20.799 Y16.938 I2.986 J0
G2 X20.994 Y17.344 I2.433 J-0.923
X21.234 Y17.725 I7.824 J-4.643
G3 X21.234 Y18.275 I-0.415 J0.275
G2 X20.994 Y18.656 I7.584 J5.024
X20.799 Y19.062 I2.237 J1.328
G3 X18.107 Y20.987 I-2.791 J-1.059
G2 X16.509 Y21.979 I0.063 J1.885
G3 X14.67 Y22.378 I-1.09 J-0.586
X21.33 Y13.622 I3.33 J-4.378
X23.143 Y16.05 I-3.33 J4.378
G2 X24.592 Y17.05 I1.449 J-0.55
G1 X26.95
Y18.95
X24.592
G2 X23.143 Y19.95 I0 J1.55
G3 X14.67 Y22.378 I-5.143 J-1.95
X14.176 Y20.709 Z-9.96 I0.891 J-1.172 F150
G1 X15.325 Y17.503 Z-10.068
G3 X18.183 Y18 Z-10.2 I1.386 J0.497
X17.817 Y18 I-0.183 J0 F300
X18.183 Y18 I0.183 J0
G2 X18.749 Y19.509 I2.294 J0
G3 X18.107 Y20.987 I-0.672 J0.587
X15.022 Y18 I-0.099 J-2.984
X20.799 Y16.938 I2.986 J0
G2 X20.994 Y17.344 I2.433 J-0.923
X21.234 Y17.725 I7.824 J-4.643
G3 X21.234 Y18.275 I-0.415 J0.275
G2 X20.994 Y18.656 I7.584 J5.024
X20.799 Y19.062 I2.237 J1.328
G3 X18.107 Y20.987 I-2.791 J-1.059
G2 X16.509 Y21.979 I0.063 J1.885
G3 X14.67 Y22.378 I-1.09 J-0.586
X21.33 Y13.622 I3.33 J-4.378
X23.143 Y16.05 I-3.33 J4.378
G2 X24.592 Y17.05 I1.449 J-0.55
G1 X26.95
Y18.95
X24.592
G2 X23.143 Y19.95 I0 J1.55
G3 X14.67 Y22.378 I-5.143 J-1.95
X14.176 Y20.709 Z-10.26 I0.891 J-1.172 F150
G1 X15.325 Y17.503 Z-10.368
G3 X18.183 Y18 Z-10.5 I1.386 J0.497
X17.817 Y18 I-0.183 J0 F300
X18.183 Y18 I0.183 J0
G2 X18.749 Y19.509 I2.294 J0
G3 X18.107 Y20.987 I-0.672 J0.587
X15.022 Y18 I-0.099 J-2.984
X20.799 Y16.938 I2.986 J0
G2 X20.994 Y17.344 I2.433 J-0.923
X21.234 Y17.725 I7.824 J-4.643
G3 X21.234 Y18.275 I-0.415 J0.275
G2 X20.994 Y18.656 I7.584 J5.024
X20.799 Y19.062 I2.237 J1.328
G3 X18.107 Y20.987 I-2.791 J-1.059
G2 X16.509 Y21.979 I0.063 J1.885
G3 X14.67 Y22.378 I-1.09 J-0.586
X21.33 Y13.622 I3.33 J-4.378
X23.143 Y16.05 I-3.33 J4.378
G2 X24.592 Y17.05 I1.449 J-0.55
G1 X26.95
Y18.95
X24.592
G2 X23.143 Y19.95 I0 J1.55
G3 X14.67 Y22.378 I-5.143 J-1.95
X14.176 Y20.709 Z-10.56 I0.891 J-1.172 F150
G1 X15.325 Y17.503 Z-10.668
G3 X18.183 Y18 Z-10.8 I1.386 J0.497
X17.817 Y18 I-0.183 J0 F300
X18.183 Y18 I0.183 J0
G2 X18.749 Y19.509 I2.294 J0
G3 X18.107 Y20.987 I-0.672 J0.587
X15.022 Y18 I-0.099 J-2.984
X20.799 Y16.938 I2.986 J0
G2 X20.994 Y17.344 I2.433 J-0.923
X21.234 Y17.725 I7.824 J-4.643
G3 X21.234 Y18.275 I-0.415 J0.275
G2 X20.994 Y18.656 I7.584 J5.024
X20.799 Y19.062 I2.237 J1.328
G3 X18.107 Y20.987 I-2.791 J-1.059
G2 X16.509 Y21.979 I0.063 J1.885
G3 X14.67 Y22.378 I-1.09 J-0.586
X21.33 Y13.622 I3.33 J-4.378
X23.143 Y16.05 I-3.33 J4.378
G2 X24.592 Y17.05 I1.449 J-0.55
G1 X26.95
Y18.95
X24.592
G2 X23.143 Y19.95 I0 J1.55
G3 X14.67 Y22.378 I-5.143 J-1.95
X14.176 Y20.709 Z-10.86 I0.891 J-1.172 F150
G1 X15.325 Y17.503 Z-10.968
G3 X18.183 Y18 Z-11.1 I1.386 J0.497
X17.817 Y18 I-0.183 J0 F300
X18.183 Y18 I0.183 J0
G2 X18.749 Y19.509 I2.294 J0
G3 X18.107 Y20.987 I-0.672 J0.587
X15.022 Y18 I-0.099 J-2.984
X20.799 Y16.938 I2.986 J0
G2 X20.994 Y17.344 I2.433 J-0.923
X21.234 Y17.725 I7.824 J-4.643
G3 X21.234 Y18.275 I-0.415 J0.275
G2 X20.994 Y18.656 I7.584 J5.024
X20.799 Y19.062 I2.237 J1.328
G3 X18.107 Y20.987 I-2.791 J-1.059
G2 X16.509 Y21.979 I0.063 J1.885
G3 X14.67 Y22.378 I-1.09 J-0.586
X21.33 Y13.622 I3.33 J-4.378
X23.143 Y16.05 I-3.33 J4.378
G2 X24.592 Y17.05 I1.449 J-0.55
G1 X26.95
Y18.95
X24.592
G2 X23.143 Y19.95 I0 J1.55
G3 X14.67 Y22.378 I-5.143 J-1.95
X14.176 Y20.709 Z-11.16 I0.891 J-1.172 F150
G1 X15.325 Y17.503 Z-11.268
G3 X18.183 Y18 Z-11.4 I1.386 J0.497
X17.817 Y18 I-0.183 J0 F300
X18.183 Y18 I0.183 J0
G2 X18.749 Y19.509 I2.294 J0
G3 X18.107 Y20.987 I-0.672 J0.587
X15.022 Y18 I-0.099 J-2.984
X20.799 Y16.938 I2.986 J0
G2 X20.994 Y17.344 I2.433 J-0.923
X21.234 Y17.725 I7.824 J-4.643
G3 X21.234 Y18.275 I-0.415 J0.275
G2 X20.994 Y18.656 I7.584 J5.024
X20.799 Y19.062 I2.237 J1.328
G3 X18.107 Y20.987 I-2.791 J-1.059
G2 X16.509 Y21.979 I0.063 J1.885
G3 X14.67 Y22.378 I-1.09 J-0.586
X21.33 Y13.622 I3.33 J-4.378
X23.143 Y16.05 I-3.33 J4.378
G2 X24.592 Y17.05 I1.449 J-0.55
G1 X26.95
Y18.95
X24.592
G2 X23.143 Y19.95 I0 J1.55
G3 X14.67 Y22.378 I-5.143 J-1.95
X14.176 Y20.709 Z-11.46 I0.891 J-1.172 F150
G1 X15.325 Y17.503 Z-11.568
G3 X18.183 Y18 Z-11.7 I1.386 J0.497
X17.817 Y18 I-0.183 J0 F300
X18.183 Y18 I0.183 J0
G2 X18.749 Y19.509 I2.294 J0
G3 X18.107 Y20.987 I-0.672 J0.587
X15.022 Y18 I-0.099 J-2.984
X20.799 Y16.938 I2.986 J0
G2 X20.994 Y17.344 I2.433 J-0.923
X21.234 Y17.725 I7.824 J-4.643
G3 X21.234 Y18.275 I-0.415 J0.275
G2 X20.994 Y18.656 I7.584 J5.024
X20.799 Y19.062 I2.237 J1.328
G3 X18.107 Y20.987 I-2.791 J-1.059
G2 X16.509 Y21.979 I0.063 J1.885
G3 X14.67 Y22.378 I-1.09 J-0.586
X21.33 Y13.622 I3.33 J-4.378
X23.143 Y16.05 I-3.33 J4.378
G2 X24.592 Y17.05 I1.449 J-0.55
G1 X26.95
Y18.95
X24.592
G2 X23.143 Y19.95 I0 J1.55
G3 X14.67 Y22.378 I-5.143 J-1.95
X14.176 Y20.709 Z-11.76 I0.891 J-1.172 F150
G1 X15.325 Y17.503 Z-11.868
G3 X18.183 Y18 Z-12 I1.386 J0.497
X17.817 Y18 I-0.183 J0 F300
X18.183 Y18 I0.183 J0
G2 X18.749 Y19.509 I2.294 J0
G3 X18.107 Y20.987 I-0.672 J0.587
X15.022 Y18 I-0.099 J-2.984
X20.799 Y16.938 I2.986 J0
G2 X20.994 Y17.344 I2.433 J-0.923
X21.234 Y17.725 I7.824 J-4.643
G3 X21.234 Y18.275 I-0.415 J0.275
G2 X20.994 Y18.656 I7.584 J5.024
X20.799 Y19.062 I2.237 J1.328
G3 X18.107 Y20.987 I-2.791 J-1.059
G2 X16.509 Y21.979 I0.063 J1.885
G3 X14.67 Y22.378 I-1.09 J-0.586
X21.33 Y13.622 I3.33 J-4.378
X23.143 Y16.05 I-3.33 J4.378
G2 X24.592 Y17.05 I1.449 J-0.55
G1 X26.95
Y18.95
X24.592
G2 X23.143 Y19.95 I0 J1.55
G3 X14.67 Y22.378 I-5.143 J-1.95
X14.176 Y20.709 Z-12.06 I0.891 J-1.172 F150
G1 X15.325 Y17.503 Z-12.168
G3 X18.183 Y18 Z-12.3 I1.386 J0.497
X17.817 Y18 I-0.183 J0 F300
X18.183 Y18 I0.183 J0
G2 X18.749 Y19.509 I2.294 J0
G3 X18.107 Y20.987 I-0.672 J0.587
X15.022 Y18 I-0.099 J-2.984
X20.799 Y16.938 I2.986 J0
G2 X20.994 Y17.344 I2.433 J-0.923
X21.234 Y17.725 I7.824 J-4.643
G3 X21.234 Y18.275 I-0.415 J0.275
G2 X20.994 Y18.656 I7.584 J5.024
X20.799 Y19.062 I2.237 J1.328
G3 X18.107 Y20.987 I-2.791 J-1.059
G2 X16.509 Y21.979 I0.063 J1.885
G3 X14.67 Y22.378 I-1.09 J-0.586
X21.33 Y13.622 I3.33 J-4.378
X23.143 Y16.05 I-3.33 J4.378
G2 X24.592 Y17.05 I1.449 J-0.55
G1 X26.95
Y18.95
X24.592
G2 X23.143 Y19.95 I0 J1.55
G3 X14.67 Y22.378 I-5.143 J-1.95
X14.176 Y20.709 Z-12.36 I0.891 J-1.172 F150
G1 X15.325 Y17.503 Z-12.468
G3 X18.183 Y18 Z-12.6 I1.386 J0.497
X17.817 Y18 I-0.183 J0 F300
X18.183 Y18 I0.183 J0
G2 X18.749 Y19.509 I2.294 J0
G3 X18.107 Y20.987 I-0.672 J0.587
X15.022 Y18 I-0.099 J-2.984
X20.799 Y16.938 I2.986 J0
G2 X20.994 Y17.344 I2.433 J-0.923
X21.234 Y17.725 I7.824 J-4.643
G3 X21.234 Y18.275 I-0.415 J0.275
G2 X20.994 Y18.656 I7.584 J5.024
X20.799 Y19.062 I2.237 J1.328
G3 X18.107 Y20.987 I-2.791 J-1.059
G2 X16.509 Y21.979 I0.063 J1.885
G3 X14.67 Y22.378 I-1.09 J-0.586
X21.33 Y13.622 I3.33 J-4.378
X23.143 Y16.05 I-3.33 J4.378
G2 X24.592 Y17.05 I1.449 J-0.55
G1 X26.95
Y18.95
X24.592
G2 X23.143 Y19.95 I0 J1.55
G3 X14.67 Y22.378 I-5.143 J-1.95
X14.176 Y20.709 Z-12.66 I0.891 J-1.172 F150
G1 X15.325 Y17.503 Z-12.768
G3 X18.183 Y18 Z-12.9 I1.386 J0.497
X17.817 Y18 I-0.183 J0 F300
X18.183 Y18 I0.183 J0
G2 X18.749 Y19.509 I2.294 J0
G3 X18.107 Y20.987 I-0.672 J0.587
X15.022 Y18 I-0.099 J-2.984
X20.799 Y16.938 I2.986 J0
G2 X20.994 Y17.344 I2.433 J-0.923
X21.234 Y17.725 I7.824 J-4.643
G3 X21.234 Y18.275 I-0.415 J0.275
G2 X20.994 Y18.656 I7.584 J5.024
X20.799 Y19.062 I2.237 J1.328
G3 X18.107 Y20.987 I-2.791 J-1.059
G2 X16.509 Y21.979 I0.063 J1.885
G3 X14.67 Y22.378 I-1.09 J-0.586
X21.33 Y13.622 I3.33 J-4.378
X23.143 Y16.05 I-3.33 J4.378
G2 X24.592 Y17.05 I1.449 J-0.55
G1 X26.95
Y18.95
X24.592
G2 X23.143 Y19.95 I0 J1.55
G3 X14.67 Y22.378 I-5.143 J-1.95
X14.176 Y20.709 Z-12.96 I0.891 J-1.172 F150
G1 X15.325 Y17.503 Z-13.068
G3 X18.183 Y18 Z-13.2 I1.386 J0.497
X17.817 Y18 I-0.183 J0 F300
X18.183 Y18 I0.183 J0
G2 X18.749 Y19.509 I2.294 J0
G3 X18.107 Y20.987 I-0.672 J0.587
X15.022 Y18 I-0.099 J-2.984
X20.799 Y16.938 I2.986 J0
G2 X20.994 Y17.344 I2.433 J-0.923
X21.234 Y17.725 I7.824 J-4.643
G3 X21.234 Y18.275 I-0.415 J0.275
G2 X20.994 Y18.656 I7.584 J5.024
X20.799 Y19.062 I2.237 J1.328
G3 X18.107 Y20.987 I-2.791 J-1.059
G2 X16.509 Y21.979 I0.063 J1.885
G3 X14.67 Y22.378 I-1.09 J-0.586
X21.33 Y13.622 I3.33 J-4.378
X23.143 Y16.05 I-3.33 J4.378
G2 X24.592 Y17.05 I1.449 J-0.55
G1 X26.95
Y18.95
X24.592
G2 X23.143 Y19.95 I0 J1.55
G3 X14.67 Y22.378 I-5.143 J-1.95
X14.176 Y20.709 Z-13.26 I0.891 J-1.172 F150
G1 X15.325 Y17.503 Z-13.368
G3 X18.183 Y18 Z-13.5 I1.386 J0.497
X17.817 Y18 I-0.183 J0 F300
X18.183 Y18 I0.183 J0
G2 X18.749 Y19.509 I2.294 J0
G3 X18.107 Y20.987 I-0.672 J0.587
X15.022 Y18 I-0.099 J-2.984
X20.799 Y16.938 I2.986 J0
G2 X20.994 Y17.344 I2.433 J-0.923
X21.234 Y17.725 I7.824 J-4.643
G3 X21.234 Y18.275 I-0.415 J0.275
G2 X20.994 Y18.656 I7.584 J5.024
X20.799 Y19.062 I2.237 J1.328
G3 X18.107 Y20.987 I-2.791 J-1.059
G2 X16.509 Y21.979 I0.063 J1.885
G3 X14.67 Y22.378 I-1.09 J-0.586
X21.33 Y13.622 I3.33 J-4.378
X23.143 Y16.05 I-3.33 J4.378
G2 X24.592 Y17.05 I1.449 J-0.55
G1 X26.95
Y18.95
X24.592
G2 X23.143 Y19.95 I0 J1.55
G3 X14.67 Y22.378 I-5.143 J-1.95
X14.176 Y20.709 Z-13.56 I0.891 J-1.172 F150
G1 X15.325 Y17.503 Z-13.668
G3 X18.183 Y18 Z-13.8 I1.386 J0.497
X17.817 Y18 I-0.183 J0 F300
X18.183 Y18 I0.183 J0
G2 X18.749 Y19.509 I2.294 J0
G3 X18.107 Y20.987 I-0.672 J0.587
X15.022 Y18 I-0.099 J-2.984
X20.799 Y16.938 I2.986 J0
G2 X20.994 Y17.344 I2.433 J-0.923
X21.234 Y17.725 I7.824 J-4.643
G3 X21.234 Y18.275 I-0.415 J0.275
G2 X20.994 Y18.656 I7.584 J5.024
X20.799 Y19.062 I2.237 J1.328
G3 X18.107 Y20.987 I-2.791 J-1.059
G2 X16.509 Y21.979 I0.063 J1.885
G3 X14.67 Y22.378 I-1.09 J-0.586
X21.33 Y13.622 I3.33 J-4.378
X23.143 Y16.05 I-3.33 J4.378
G2 X24.592 Y17.05 I1.449 J-0.55
G1 X26.95
Y18.95
X24.592
G2 X23.143 Y19.95 I0 J1.55
G3 X14.67 Y22.378 I-5.143 J-1.95
X14.176 Y20.709 Z-13.84 I0.891 J-1.172 F150
G1 X15.325 Y17.503 Z-13.912
G3 X18.183 Y18 Z-14 I1.386 J0.497
X17.817 Y18 I-0.183 J0 F300
X18.183 Y18 I0.183 J0
G2 X18.749 Y19.509 I2.294 J0
G3 X18.107 Y20.987 I-0.672 J0.587
X15.022 Y18 I-0.099 J-2.984
X20.799 Y16.938 I2.986 J0
G2 X20.994 Y17.344 I2.433 J-0.923
X21.234 Y17.725 I7.824 J-4.643
G3 X21.234 Y18.275 I-0.415 J0.275
G2 X20.994 Y18.656 I7.584 J5.024
X20.799 Y19.062 I2.237 J1.328
G3 X18.107 Y20.987 I-2.791 J-1.059
G2 X16.509 Y21.979 I0.063 J1.885
G3 X14.67 Y22.378 I-1.09 J-0.586
X21.33 Y13.622 I3.33 J-4.378
X23.143 Y16.05 I-3.33 J4.378
G2 X24.592 Y17.05 I1.449 J-0.55
G1 X26.95
Y18.95
X24.592
G2 X23.143 Y19.95 I0 J1.55
G3 X14.67 Y22.378 I-5.143 J-1.95
G1 X14.627 Y22.337 Z-13.988
X14.592 Y22.29 Z-13.976
X14.57 Y22.245 Z-13.943
X14.555 Y22.197 Z-13.909
X14.548 Y22.13 Z-13.809
X14.549 Y22.106 Z-13.69
Z10
(When using Fusion 360 for Personal Use, the feedrate of)
(rapid moves is reduced to match the feedrate of cutting)
(moves, which can increase machining time. Unrestricted rapid)
(moves are available with a Fusion 360 Subscription.)

(2D Pocket2)
G0 X32.312 Y38.751
G1 Z10 F300
Z5
Z0.01 F150
X32.318 Y38.747 Z-0.059
X32.336 Y38.732 Z-0.125
X32.365 Y38.709 Z-0.183
X32.403 Y38.678 Z-0.232
X32.448 Y38.64 Z-0.269
X32.499 Y38.599 Z-0.292
X32.553 Y38.555 Z-0.3
X33.909 Y37.446
G2 X34.283 Y37.135 I-15.909 J-19.467 F300
G3 X35.642 Y36.392 I2.483 J2.925
G2 X37.436 Y35.719 I-4.582 J-14.953
G3 X38.383 Y36.096 I0.29 J0.649
X37.98 Y37.033 I-0.657 J0.272
G1 X36.175 Y37.724
X36.099 Y37.748
X36.02 Y37.764
X34.36 Y37.997
X29.347 Y38.773
G3 X28.89 Y37.45 I-0.109 J-0.703
G2 X33 Y34.474 I-10.89 J-19.372
G3 X34.162 Y33.851 I1.813 J1.985
G2 X37.438 Y32.53 I-3.098 J-12.409
G1 X37.479 Y32.499
X37.511 Y32.457
X37.531 Y32.409
X37.538 Y32.357
X37.556 Y0.457
X37.551 Y0.411
X37.535 Y0.368
X37.51 Y0.329
X37.477 Y0.297
X37.437 Y0.274
G2 X35.642 Y-0.392 I-6.295 J14.226
G3 X34.283 Y-1.135 I1.124 J-3.669
G2 X33.915 Y-1.442 I-16.658 J19.625
G3 X34.751 Y-2.59 I0.45 J-0.551
G1 X35.959 Y-1.809
X36.022 Y-1.763
X37.725 Y-0.376
G3 X37.974 Y0.041 I-0.449 J0.552
G1 X38.486 Y2.701
G3 X37.436 Y3.453 I-0.698 J0.134
G2 X34.162 Y2.149 I-6.298 J11.047
G3 X33 Y1.526 I0.651 J-2.608
G2 X28.89 Y-1.447 I-15 J16.417
G3 X28.638 Y-2.449 I0.348 J-0.62
X29.654 Y-2.644 I0.599 J0.383
G1 X33.875 Y0.398
X37.788 Y2.836
G3 X38.113 Y3.322 I-0.376 J0.604
G1 X38.605 Y6.26
G3 X37.448 Y6.924 I-0.702 J0.117
G2 X32.697 Y4.748 I-6.386 J7.671
G3 X31.741 Y4.255 I0.288 J-1.732
G2 X18.259 Y-1.45 I-13.741 J13.688
G1 X2.21 Y-1.487
X2.165 Y-1.482
X2.122 Y-1.467
X2.083 Y-1.442
G2 X1.694 Y-1.115 I15.987 J19.444
G3 X0.321 Y-0.356 I-2.557 J-3
G2 X-1.436 Y0.316 I4.698 J14.917
G3 X-2.385 Y-0.056 I-0.294 J-0.648
X-1.988 Y-0.994 I0.656 J-0.276
G1 X-0.194 Y-1.693
X-0.12 Y-1.717
X-0.044 Y-1.733
X1.631 Y-1.991
X6.649 Y-2.767
G3 X7.106 Y-1.444 I0.109 J0.703
G2 X2.986 Y1.538 I10.894 J19.387
G3 X1.812 Y2.175 I-1.865 J-2.035
G2 X-1.437 Y3.515 I3.203 J12.383
G3 X-2.43 Y3.223 I-0.359 J-0.614
X-2.082 Y2.249 I0.634 J-0.323
G1 X2.064 Y0.433
X2.113 Y0.409
X6.757 Y-2.064
G3 X7.043 Y-2.146 I0.334 J0.628
G1 X17.67 Y-2.871
G3 X18.429 Y-2.19 I0.048 J0.71
X17.729 Y-1.45 I-0.711 J0.029
G2 X4.253 Y4.261 I0.271 J19.394
G3 X3.289 Y4.764 I-1.277 J-1.272
G2 X-1.443 Y6.985 I1.728 J9.831
G1 X-1.473 Y7.017
X-1.495 Y7.054
X-1.509 Y7.095
X-1.514 Y7.138
X-1.555 Y35.508
X-1.55 Y35.554
X-1.534 Y35.597
X-1.509 Y35.635
X-1.476 Y35.667
X-1.437 Y35.691
G2 X0.321 Y36.356 I6.373 J-14.191
G3 X1.694 Y37.115 I-1.184 J3.76
G2 X2.088 Y37.444 I16.306 J-19.136
G3 X1.246 Y38.589 I-0.45 J0.551
G1 X0.02 Y37.779
X-0.042 Y37.734
X-1.728 Y36.34
G3 X-1.973 Y35.929 I0.453 J-0.548
G1 X-2.501 Y33.248
G3 X-1.446 Y32.495 I0.698 J-0.138
G2 X1.812 Y33.825 I6.386 J-10.995
G3 X2.986 Y34.462 I-0.691 J2.672
G2 X7.107 Y37.448 I15.014 J-16.384
G3 X7.358 Y38.451 I-0.349 J0.62
X6.342 Y38.645 I-0.599 J-0.383
G1 X2.112 Y35.59
X-1.803 Y33.11
G3 X-2.125 Y32.624 I0.381 J-0.601
G1 X-2.607 Y29.67
G3 X-1.445 Y29.013 I0.702 J-0.115
G2 X3.289 Y31.236 I6.462 J-7.608
G3 X4.253 Y31.739 I-0.312 J1.775
G2 X31.741 Y31.745 I13.747 J-13.694
G3 X32.697 Y31.252 I1.244 J1.239
G2 X37.45 Y29.075 I-1.635 J-9.846
G1 X37.48 Y29.043
X37.503 Y29.006
X37.517 Y28.964
X37.522 Y28.921
X37.464 Y11.436
X37.459 Y11.391
X37.443 Y11.347
G2 X36.168 Y9.566 I-6.286 J3.153
X31.28 Y7.437 I-5.092 J5.014
G3 X30.524 Y7.079 I0.03 J-1.041
G2 X5.478 Y7.077 I-12.524 J10.898
G3 X4.722 Y7.439 I-0.797 J-0.694
G2 X-0.116 Y9.594 I0.281 J7.142
X-1.445 Y11.513 I5.036 J4.906
G1 X-1.459 Y11.554
X-1.464 Y11.597
X-1.466 Y24.398
X-1.461 Y24.442
X-1.447 Y24.483
G2 X-0.116 Y26.406 I6.367 J-2.983
X4.722 Y28.561 I5.119 J-4.988
G3 X5.478 Y28.923 I-0.042 J1.056
G2 X30.524 Y28.921 I12.522 J-10.906
G3 X31.28 Y28.563 I0.785 J0.683
G2 X36.168 Y26.434 I-0.204 J-7.143
X37.447 Y24.645 I-5.011 J-4.934
X36.742 Y21.867 I-1.962 J-0.981
G3 X35.417 Y19.325 I1.777 J-2.542
G1 Y14.5
G2 X31.078 Y10.169 I-4.331 J0
X30.479 Y10.187 I0 J9.6
G3 X29.879 Y10.206 I-0.599 J-9.581
X29.196 Y9.856 I0 J-0.843
G2 X6.804 Y9.856 I-11.196 J8.086
G3 X6.121 Y10.206 I-0.684 J-0.494
X5.56 Y10.189 I0 J-8.973
G2 X5 Y10.171 I-0.56 J8.956
X0.661 Y14.5 I0 J4.339
G1 Y21.5
G2 X5 Y25.829 I4.329 J0
X5.56 Y25.811 I0 J-8.973
G3 X6.121 Y25.794 I0.56 J8.956
X6.804 Y26.144 I0 J0.843
G2 X29.196 Y26.144 I11.196 J-8.086
G3 X29.879 Y25.794 I0.684 J0.494
X30.479 Y25.813 I0 J9.6
G2 X31.078 Y25.831 I0.599 J-9.581
X35.417 Y21.5 I0 J-4.339
G1 Y19.325
G2 X34.023 Y17.233 I-2.266 J0
G3 X32.628 Y15.141 I0.872 J-2.092
G1 Y14.5
G2 X31.078 Y12.95 I-1.55 J0
G1 X27.885
G2 X8.115 Y12.95 I-9.885 J5.05
G1 X5
G2 X3.45 Y14.5 I0 J1.55
G1 Y21.5
G2 X5 Y23.05 I1.55 J0
G1 X8.115
G2 X27.885 Y23.05 I9.885 J-5.05
G1 X31.078
G2 X32.628 Y21.5 I0 J-1.55
G1 Y15.141
X32.631 Y15.105
X32.641 Y15.071
X38.051 Y0.752
G2 X37.945 Y0.499 I-0.187 J-0.071
G1 X37.887 Y0.473 Z-0.307 F150
X37.832 Y0.449 Z-0.326
X37.781 Y0.426 Z-0.357
X37.737 Y0.407 Z-0.399
X37.702 Y0.391 Z-0.45
X37.667 Y0.376 Z-0.501
X37.623 Y0.356 Z-0.543
X37.573 Y0.334 Z-0.574
X37.517 Y0.309 Z-0.593
X37.459 Y0.284 Z-0.6
X37.437 Y0.274
G2 X35.642 Y-0.392 I-6.295 J14.226 F300
G3 X34.283 Y-1.135 I1.124 J-3.669
G2 X33.915 Y-1.442 I-16.658 J19.625
G3 X34.751 Y-2.59 I0.45 J-0.551
G1 X35.959 Y-1.809
X36.022 Y-1.763
X37.725 Y-0.376
G3 X37.974 Y0.041 I-0.449 J0.552
G1 X38.486 Y2.701
G3 X37.436 Y3.453 I-0.698 J0.134
G2 X34.162 Y2.149 I-6.298 J11.047
G3 X33 Y1.526 I0.651 J-2.608
G2 X28.89 Y-1.447 I-15 J16.417
G3 X28.638 Y-2.449 I0.348 J-0.62
X29.654 Y-2.644 I0.599 J0.383
G1 X33.875 Y0.398
X37.788 Y2.836
G3 X38.113 Y3.322 I-0.376 J0.604
G1 X38.605 Y6.26
G3 X37.448 Y6.924 I-0.702 J0.117
G2 X32.697 Y4.748 I-6.386 J7.671
G3 X31.741 Y4.255 I0.288 J-1.732
G2 X18.259 Y-1.45 I-13.741 J13.688
G1 X2.21 Y-1.487
X2.165 Y-1.482
X2.122 Y-1.467
X2.083 Y-1.442
G2 X1.694 Y-1.115 I15.987 J19.444
G3 X0.321 Y-0.356 I-2.557 J-3
G2 X-1.436 Y0.316 I4.698 J14.917
G3 X-2.385 Y-0.056 I-0.294 J-0.648
X-1.988 Y-0.994 I0.656 J-0.276
G1 X-0.194 Y-1.693
X-0.12 Y-1.717
X-0.044 Y-1.733
X1.631 Y-1.991
X6.649 Y-2.767
G3 X7.106 Y-1.444 I0.109 J0.703
G2 X2.986 Y1.538 I10.894 J19.387
G3 X1.812 Y2.175 I-1.865 J-2.035
G2 X-1.437 Y3.515 I3.203 J12.383
G3 X-2.43 Y3.223 I-0.359 J-0.614
X-2.082 Y2.249 I0.634 J-0.323
G1 X2.064 Y0.433
X2.113 Y0.409
X6.757 Y-2.064
G3 X7.043 Y-2.146 I0.334 J0.628
G1 X17.67 Y-2.871
G3 X18.429 Y-2.19 I0.048 J0.71
X17.729 Y-1.45 I-0.711 J0.029
G2 X4.253 Y4.261 I0.271 J19.394
G3 X3.289 Y4.764 I-1.277 J-1.272
G2 X-1.443 Y6.985 I1.728 J9.831
G1 X-1.473 Y7.017
X-1.495 Y7.054
X-1.509 Y7.095
X-1.514 Y7.138
X-1.555 Y35.508
X-1.55 Y35.554
X-1.534 Y35.597
X-1.509 Y35.635
X-1.476 Y35.667
X-1.437 Y35.691
G2 X0.321 Y36.356 I6.373 J-14.191
G3 X1.694 Y37.115 I-1.184 J3.76
G2 X2.088 Y37.444 I16.306 J-19.136
G3 X1.246 Y38.589 I-0.45 J0.551
G1 X0.02 Y37.779
X-0.042 Y37.734
X-1.728 Y36.34
G3 X-1.973 Y35.929 I0.453 J-0.548
G1 X-2.501 Y33.248
G3 X-1.446 Y32.495 I0.698 J-0.138
G2 X1.812 Y33.825 I6.386 J-10.995
G3 X2.986 Y34.462 I-0.691 J2.672
G2 X7.107 Y37.448 I15.014 J-16.384
G1 X7.155 Y37.467
X7.205 Y37.474
X33.783 Y37.491
X33.828 Y37.486
X33.871 Y37.471
X33.909 Y37.446
G2 X34.283 Y37.135 I-15.909 J-19.467
G3 X35.642 Y36.392 I2.483 J2.925
G2 X37.436 Y35.719 I-4.582 J-14.953
G3 X38.383 Y36.096 I0.29 J0.649
X37.98 Y37.033 I-0.657 J0.272
G1 X36.175 Y37.724
X36.099 Y37.748
X36.02 Y37.764
X34.36 Y37.997
X29.347 Y38.773
G3 X28.89 Y37.45 I-0.109 J-0.703
G2 X33 Y34.474 I-10.89 J-19.372
G3 X34.162 Y33.851 I1.813 J1.985
G2 X37.438 Y32.53 I-3.098 J-12.409
G1 X37.479 Y32.499
X37.511 Y32.457
X37.531 Y32.408
X37.538 Y32.356
X37.464 Y11.436
X37.459 Y11.391
X37.443 Y11.347
G2 X36.168 Y9.566 I-6.286 J3.153
X31.28 Y7.437 I-5.092 J5.014
G3 X30.524 Y7.079 I0.03 J-1.041
G2 X5.478 Y7.077 I-12.524 J10.898
G3 X4.722 Y7.439 I-0.797 J-0.694
G2 X-0.116 Y9.594 I0.281 J7.142
X-1.445 Y11.513 I5.036 J4.906
G1 X-1.459 Y11.554
X-1.464 Y11.597
X-1.515 Y28.86
X-1.511 Y28.903
X-1.497 Y28.944
X-1.475 Y28.981
X-1.445 Y29.013
G2 X3.289 Y31.236 I6.462 J-7.608
G3 X4.253 Y31.739 I-0.312 J1.775
G2 X31.741 Y31.745 I13.747 J-13.694
G3 X32.697 Y31.252 I1.244 J1.239
G2 X37.45 Y29.075 I-1.635 J-9.846
G1 X37.459 Y29.067
X37.512 Y29.023 Z-0.592
X37.562 Y28.981 Z-0.569
X37.608 Y28.944 Z-0.532
X37.645 Y28.912 Z-0.483
X37.674 Y28.889 Z-0.425
X37.691 Y28.874 Z-0.359
X37.697 Y28.869 Z-0.29
Z5
X-1.592 Y24.175
Z1 F150
Z-0.29
X-1.588 Y24.182 Z-0.359
X-1.579 Y24.202 Z-0.425
X-1.563 Y24.236 Z-0.483
X-1.542 Y24.28 Z-0.532
X-1.517 Y24.333 Z-0.569
X-1.489 Y24.393 Z-0.592
X-1.46 Y24.455 Z-0.6
X-1.447 Y24.483
G2 X-0.116 Y26.406 I6.367 J-2.983 F300
X4.722 Y28.561 I5.119 J-4.988
G3 X5.478 Y28.923 I-0.042 J1.056
G2 X30.524 Y28.921 I12.522 J-10.906
G3 X31.28 Y28.563 I0.785 J0.683
G2 X36.168 Y26.434 I-0.204 J-7.143
X37.447 Y24.645 I-5.011 J-4.934
X36.742 Y21.867 I-1.962 J-0.981
G3 X35.417 Y19.325 I1.777 J-2.542
G1 Y14.5
G2 X31.078 Y10.169 I-4.331 J0
X30.479 Y10.187 I0 J9.6
G3 X29.879 Y10.206 I-0.599 J-9.581
X29.196 Y9.856 I0 J-0.843
G2 X6.804 Y9.856 I-11.196 J8.086
G3 X6.121 Y10.206 I-0.684 J-0.494
X5.56 Y10.189 I0 J-8.973
G2 X5 Y10.171 I-0.56 J8.956
X0.661 Y14.5 I0 J4.339
G1 Y21.5
G2 X5 Y25.829 I4.329 J0
X5.56 Y25.811 I0 J-8.973
G3 X6.121 Y25.794 I0.56 J8.956
X6.804 Y26.144 I0 J0.843
G2 X29.196 Y26.144 I11.196 J-8.086
G3 X29.879 Y25.794 I0.684 J0.494
X30.479 Y25.813 I0 J9.6
G2 X31.078 Y25.831 I0.599 J-9.581
X35.417 Y21.5 I0 J-4.339
G1 Y19.325
G2 X34.023 Y17.233 I-2.266 J0
G3 X32.628 Y15.141 I0.872 J-2.092
G1 Y14.5
G2 X31.078 Y12.95 I-1.55 J0
G1 X27.885
G2 X8.115 Y12.95 I-9.885 J5.05
G1 X5
G2 X3.45 Y14.5 I0 J1.55
G1 Y21.5
G2 X5 Y23.05 I1.55 J0
G1 X8.115
G2 X27.885 Y23.05 I9.885 J-5.05
G1 X31.078
G2 X32.628 Y21.5 I0 J-1.55
G1 Y15.141
X32.631 Y15.105
X32.641 Y15.071
X38.051 Y0.752
G2 X37.945 Y0.499 I-0.187 J-0.071
G1 X37.887 Y0.473 Z-0.607 F150
X37.832 Y0.449 Z-0.626
X37.781 Y0.426 Z-0.657
X37.737 Y0.407 Z-0.699
X37.702 Y0.391 Z-0.75
X37.667 Y0.376 Z-0.801
X37.623 Y0.356 Z-0.843
X37.573 Y0.334 Z-0.874
X37.517 Y0.309 Z-0.893
X37.459 Y0.284 Z-0.9
X37.437 Y0.274
G2 X35.642 Y-0.392 I-6.295 J14.226 F300
G3 X34.283 Y-1.135 I1.124 J-3.669
G2 X33.915 Y-1.442 I-16.658 J19.625
G3 X34.751 Y-2.59 I0.45 J-0.551
G1 X35.959 Y-1.809
X36.022 Y-1.763
X37.725 Y-0.376
G3 X37.974 Y0.041 I-0.449 J0.552
G1 X38.486 Y2.701
G3 X37.436 Y3.453 I-0.698 J0.134
G2 X34.162 Y2.149 I-6.298 J11.047
G3 X33 Y1.526 I0.651 J-2.608
G2 X28.89 Y-1.447 I-15 J16.417
G3 X28.638 Y-2.449 I0.348 J-0.62
X29.654 Y-2.644 I0.599 J0.383
G1 X33.875 Y0.398
X37.788 Y2.836
G3 X38.113 Y3.322 I-0.376 J0.604
G1 X38.605 Y6.26
G3 X37.448 Y6.924 I-0.702 J0.117
G2 X32.697 Y4.748 I-6.386 J7.671
G3 X31.741 Y4.255 I0.288 J-1.732
G2 X18.259 Y-1.45 I-13.741 J13.688
G1 X2.21 Y-1.487
X2.165 Y-1.482
X2.122 Y-1.467
X2.083 Y-1.442
G2 X1.694 Y-1.115 I15.987 J19.444
G3 X0.321 Y-0.356 I-2.557 J-3
G2 X-1.436 Y0.316 I4.698 J14.917
G3 X-2.385 Y-0.056 I-0.294 J-0.648
X-1.988 Y-0.994 I0.656 J-0.276
G1 X-0.194 Y-1.693
X-0.12 Y-1.717
X-0.044 Y-1.733
X1.631 Y-1.991
X6.649 Y-2.767
G3 X7.106 Y-1.444 I0.109 J0.703
G2 X2.986 Y1.538 I10.894 J19.387
G3 X1.812 Y2.175 I-1.865 J-2.035
G2 X-1.437 Y3.515 I3.203 J12.383
G3 X-2.43 Y3.223 I-0.359 J-0.614
X-2.082 Y2.249 I0.634 J-0.323
G1 X2.064 Y0.433
X2.113 Y0.409
X6.757 Y-2.064
G3 X7.043 Y-2.146 I0.334 J0.628
G1 X17.67 Y-2.871
G3 X18.429 Y-2.19 I0.048 J0.71
X17.729 Y-1.45 I-0.711 J0.029
G2 X4.253 Y4.261 I0.271 J19.394
G3 X3.289 Y4.764 I-1.277 J-1.272
G2 X-1.443 Y6.985 I1.728 J9.831
G1 X-1.473 Y7.017
X-1.495 Y7.054
X-1.509 Y7.095
X-1.514 Y7.138
X-1.555 Y35.508
X-1.55 Y35.554
X-1.534 Y35.597
X-1.509 Y35.635
X-1.476 Y35.667
X-1.437 Y35.691
G2 X0.321 Y36.356 I6.373 J-14.191
G3 X1.694 Y37.115 I-1.184 J3.76
G2 X2.088 Y37.444 I16.306 J-19.136
G3 X1.246 Y38.589 I-0.45 J0.551
G1 X0.02 Y37.779
X-0.042 Y37.734
X-1.728 Y36.34
G3 X-1.973 Y35.929 I0.453 J-0.548
G1 X-2.501 Y33.248
G3 X-1.446 Y32.495 I0.698 J-0.138
G2 X1.812 Y33.825 I6.386 J-10.995
G3 X2.986 Y34.462 I-0.691 J2.672
G2 X7.107 Y37.448 I15.014 J-16.384
G1 X7.155 Y37.467
X7.205 Y37.474
X33.783 Y37.491
X33.828 Y37.486
X33.871 Y37.471
X33.909 Y37.446
G2 X34.283 Y37.135 I-15.909 J-19.467
G3 X35.642 Y36.392 I2.483 J2.925
G2 X37.436 Y35.719 I-4.582 J-14.953
G3 X38.383 Y36.096 I0.29 J0.649
X37.98 Y37.033 I-0.657 J0.272
G1 X36.175 Y37.724
X36.099 Y37.748
X36.02 Y37.764
X34.36 Y37.997
X29.347 Y38.773
G3 X28.89 Y37.45 I-0.109 J-0.703
G2 X33 Y34.474 I-10.89 J-19.372
G3 X34.162 Y33.851 I1.813 J1.985
G2 X37.438 Y32.53 I-3.098 J-12.409
G1 X37.479 Y32.499
X37.511 Y32.457
X37.531 Y32.408
X37.538 Y32.356
X37.464 Y11.436
X37.459 Y11.391
X37.443 Y11.347
G2 X36.168 Y9.566 I-6.286 J3.153
X31.28 Y7.437 I-5.092 J5.014
G3 X30.524 Y7.079 I0.03 J-1.041
G2 X5.478 Y7.077 I-12.524 J10.898
G3 X4.722 Y7.439 I-0.797 J-0.694
G2 X-0.116 Y9.594 I0.281 J7.142
X-1.445 Y11.513 I5.036 J4.906
G1 X-1.459 Y11.554
X-1.464 Y11.597
X-1.515 Y28.86
X-1.511 Y28.903
X-1.497 Y28.944
X-1.475 Y28.981
X-1.445 Y29.013
G2 X3.289 Y31.236 I6.462 J-7.608
G3 X4.253 Y31.739 I-0.312 J1.775
G2 X31.741 Y31.745 I13.747 J-13.694
G3 X32.697 Y31.252 I1.244 J1.239
G2 X37.45 Y29.075 I-1.635 J-9.846
G1 X37.459 Y29.067
X37.512 Y29.023 Z-0.892
X37.562 Y28.981 Z-0.869
X37.608 Y28.944 Z-0.832
X37.645 Y28.912 Z-0.783
X37.674 Y28.889 Z-0.725
X37.691 Y28.874 Z-0.659
X37.697 Y28.869 Z-0.59
Z5
X-1.592 Y24.175
Z0.7 F150
Z-0.59
X-1.588 Y24.182 Z-0.659
X-1.579 Y24.202 Z-0.725
X-1.563 Y24.236 Z-0.783
X-1.542 Y24.28 Z-0.832
X-1.517 Y24.333 Z-0.869
X-1.489 Y24.393 Z-0.892
X-1.46 Y24.455 Z-0.9
X-1.447 Y24.483
G2 X-0.116 Y26.406 I6.367 J-2.983 F300
X4.722 Y28.561 I5.119 J-4.988
G3 X5.478 Y28.923 I-0.042 J1.056
G2 X30.524 Y28.921 I12.522 J-10.906
G3 X31.28 Y28.563 I0.785 J0.683
G2 X36.168 Y26.434 I-0.204 J-7.143
X37.447 Y24.645 I-5.011 J-4.934
X36.742 Y21.867 I-1.962 J-0.981
G3 X35.417 Y19.325 I1.777 J-2.542
G1 Y14.5
G2 X31.078 Y10.169 I-4.331 J0
X30.479 Y10.187 I0 J9.6
G3 X29.879 Y10.206 I-0.599 J-9.581
X29.196 Y9.856 I0 J-0.843
G2 X6.804 Y9.856 I-11.196 J8.086
G3 X6.121 Y10.206 I-0.684 J-0.494
X5.56 Y10.189 I0 J-8.973
G2 X5 Y10.171 I-0.56 J8.956
X0.661 Y14.5 I0 J4.339
G1 Y21.5
G2 X5 Y25.829 I4.329 J0
X5.56 Y25.811 I0 J-8.973
G3 X6.121 Y25.794 I0.56 J8.956
X6.804 Y26.144 I0 J0.843
G2 X29.196 Y26.144 I11.196 J-8.086
G3 X29.879 Y25.794 I0.684 J0.494
X30.479 Y25.813 I0 J9.6
G2 X31.078 Y25.831 I0.599 J-9.581
X35.417 Y21.5 I0 J-4.339
G1 Y19.325
G2 X34.023 Y17.233 I-2.266 J0
G3 X32.628 Y15.141 I0.872 J-2.092
G1 Y14.5
G2 X31.078 Y12.95 I-1.55 J0
G1 X27.885
G2 X8.115 Y12.95 I-9.885 J5.05
G1 X5
G2 X3.45 Y14.5 I0 J1.55
G1 Y21.5
G2 X5 Y23.05 I1.55 J0
G1 X8.115
G2 X27.885 Y23.05 I9.885 J-5.05
G1 X31.078
G2 X32.628 Y21.5 I0 J-1.55
G1 Y15.141
X32.631 Y15.105
X32.641 Y15.071
X38.051 Y0.752
G2 X37.945 Y0.499 I-0.187 J-0.071
G1 X37.887 Y0.473 Z-0.907 F150
X37.832 Y0.449 Z-0.926
X37.781 Y0.426 Z-0.957
X37.737 Y0.407 Z-0.999
X37.702 Y0.391 Z-1.05
X37.667 Y0.376 Z-1.101
X37.623 Y0.356 Z-1.143
X37.573 Y0.334 Z-1.174
X37.517 Y0.309 Z-1.193
X37.459 Y0.284 Z-1.2
X37.437 Y0.274
G2 X35.642 Y-0.392 I-6.295 J14.226 F300
G3 X34.283 Y-1.135 I1.124 J-3.669
G2 X33.915 Y-1.442 I-16.658 J19.625
G3 X34.751 Y-2.59 I0.45 J-0.551
G1 X35.959 Y-1.809
X36.022 Y-1.763
X37.725 Y-0.376
G3 X37.974 Y0.041 I-0.449 J0.552
G1 X38.486 Y2.701
G3 X37.436 Y3.453 I-0.698 J0.134
G2 X34.162 Y2.149 I-6.298 J11.047
G3 X33 Y1.526 I0.651 J-2.608
G2 X28.89 Y-1.447 I-15 J16.417
G3 X28.638 Y-2.449 I0.348 J-0.62
X29.654 Y-2.644 I0.599 J0.383
G1 X33.875 Y0.398
X37.788 Y2.836
G3 X38.113 Y3.322 I-0.376 J0.604
G1 X38.605 Y6.26
G3 X37.448 Y6.924 I-0.702 J0.117
G2 X32.697 Y4.748 I-6.386 J7.671
G3 X31.741 Y4.255 I0.288 J-1.732
G2 X18.259 Y-1.45 I-13.741 J13.688
G1 X2.21 Y-1.487
X2.165 Y-1.482
X2.122 Y-1.467
X2.083 Y-1.442
G2 X1.694 Y-1.115 I15.987 J19.444
G3 X0.321 Y-0.356 I-2.557 J-3
G2 X-1.436 Y0.316 I4.698 J14.917
G3 X-2.385 Y-0.056 I-0.294 J-0.648
X-1.988 Y-0.994 I0.656 J-0.276
G1 X-0.194 Y-1.693
X-0.12 Y-1.717
X-0.044 Y-1.733
X1.631 Y-1.991
X6.649 Y-2.767
G3 X7.106 Y-1.444 I0.109 J0.703
G2 X2.986 Y1.538 I10.894 J19.387
G3 X1.812 Y2.175 I-1.865 J-2.035
G2 X-1.437 Y3.515 I3.203 J12.383
G3 X-2.43 Y3.223 I-0.359 J-0.614
X-2.082 Y2.249 I0.634 J-0.323
G1 X2.064 Y0.433
X2.113 Y0.409
X6.757 Y-2.064
G3 X7.043 Y-2.146 I0.334 J0.628
G1 X17.67 Y-2.871
G3 X18.429 Y-2.19 I0.048 J0.71
X17.729 Y-1.45 I-0.711 J0.029
G2 X4.253 Y4.261 I0.271 J19.394
G3 X3.289 Y4.764 I-1.277 J-1.272
G2 X-1.443 Y6.985 I1.728 J9.831
G1 X-1.473 Y7.017
X-1.495 Y7.054
X-1.509 Y7.095
X-1.514 Y7.138
X-1.555 Y35.508
X-1.55 Y35.554
X-1.534 Y35.597
X-1.509 Y35.635
X-1.476 Y35.667
X-1.437 Y35.691
G2 X0.321 Y36.356 I6.373 J-14.191
G3 X1.694 Y37.115 I-1.184 J3.76
G2 X2.088 Y37.444 I16.306 J-19.136
G3 X1.246 Y38.589 I-0.45 J0.551
G1 X0.02 Y37.779
X-0.042 Y37.734
X-1.728 Y36.34
G3 X-1.973 Y35.929 I0.453 J-0.548
G1 X-2.501 Y33.248
G3 X-1.446 Y32.495 I0.698 J-0.138
G2 X1.812 Y33.825 I6.386 J-10.995
G3 X2.986 Y34.462 I-0.691 J2.672
G2 X7.107 Y37.448 I15.014 J-16.384
G1 X7.155 Y37.467
X7.205 Y37.474
X33.783 Y37.491
X33.828 Y37.486
X33.871 Y37.471
X33.909 Y37.446
G2 X34.283 Y37.135 I-15.909 J-19.467
G3 X35.642 Y36.392 I2.483 J2.925
G2 X37.436 Y35.719 I-4.582 J-14.953
G3 X38.383 Y36.096 I0.29 J0.649
X37.98 Y37.033 I-0.657 J0.272
G1 X36.175 Y37.724
X36.099 Y37.748
X36.02 Y37.764
X34.36 Y37.997
X29.347 Y38.773
G3 X28.89 Y37.45 I-0.109 J-0.703
G2 X33 Y34.474 I-10.89 J-19.372
G3 X34.162 Y33.851 I1.813 J1.985
G2 X37.438 Y32.53 I-3.098 J-12.409
G1 X37.479 Y32.499
X37.511 Y32.457
X37.531 Y32.408
X37.538 Y32.356
X37.464 Y11.436
X37.459 Y11.391
X37.443 Y11.347
G2 X36.168 Y9.566 I-6.286 J3.153
X31.28 Y7.437 I-5.092 J5.014
G3 X30.524 Y7.079 I0.03 J-1.041
G2 X5.478 Y7.077 I-12.524 J10.898
G3 X4.722 Y7.439 I-0.797 J-0.694
G2 X-0.116 Y9.594 I0.281 J7.142
X-1.445 Y11.513 I5.036 J4.906
G1 X-1.459 Y11.554
X-1.464 Y11.597
X-1.515 Y28.86
X-1.511 Y28.903
X-1.497 Y28.944
X-1.475 Y28.981
X-1.445 Y29.013
G2 X3.289 Y31.236 I6.462 J-7.608
G3 X4.253 Y31.739 I-0.312 J1.775
G2 X31.741 Y31.745 I13.747 J-13.694
G3 X32.697 Y31.252 I1.244 J1.239
G2 X37.45 Y29.075 I-1.635 J-9.846
G1 X37.459 Y29.067
X37.512 Y29.023 Z-1.192
X37.562 Y28.981 Z-1.169
X37.608 Y28.944 Z-1.132
X37.645 Y28.912 Z-1.083
X37.674 Y28.889 Z-1.025
X37.691 Y28.874 Z-0.959
X37.697 Y28.869 Z-0.89
Z5
X-1.592 Y24.175
Z0.4 F150
Z-0.89
X-1.588 Y24.182 Z-0.959
X-1.579 Y24.202 Z-1.025
X-1.563 Y24.236 Z-1.083
X-1.542 Y24.28 Z-1.132
X-1.517 Y24.333 Z-1.169
X-1.489 Y24.393 Z-1.192
X-1.46 Y24.455 Z-1.2
X-1.447 Y24.483
G2 X-0.116 Y26.406 I6.367 J-2.983 F300
X4.722 Y28.561 I5.119 J-4.988
G3 X5.478 Y28.923 I-0.042 J1.056
G2 X30.524 Y28.921 I12.522 J-10.906
G3 X31.28 Y28.563 I0.785 J0.683
G2 X36.168 Y26.434 I-0.204 J-7.143
X37.447 Y24.645 I-5.011 J-4.934
X36.742 Y21.867 I-1.962 J-0.981
G3 X35.417 Y19.325 I1.777 J-2.542
G1 Y14.5
G2 X31.078 Y10.169 I-4.331 J0
X30.479 Y10.187 I0 J9.6
G3 X29.879 Y10.206 I-0.599 J-9.581
X29.196 Y9.856 I0 J-0.843
G2 X6.804 Y9.856 I-11.196 J8.086
G3 X6.121 Y10.206 I-0.684 J-0.494
X5.56 Y10.189 I0 J-8.973
G2 X5 Y10.171 I-0.56 J8.956
X0.661 Y14.5 I0 J4.339
G1 Y21.5
G2 X5 Y25.829 I4.329 J0
X5.56 Y25.811 I0 J-8.973
G3 X6.121 Y25.794 I0.56 J8.956
X6.804 Y26.144 I0 J0.843
G2 X29.196 Y26.144 I11.196 J-8.086
G3 X29.879 Y25.794 I0.684 J0.494
X30.479 Y25.813 I0 J9.6
G2 X31.078 Y25.831 I0.599 J-9.581
X35.417 Y21.5 I0 J-4.339
G1 Y19.325
G2 X34.023 Y17.233 I-2.266 J0
G3 X32.628 Y15.141 I0.872 J-2.092
G1 Y14.5
G2 X31.078 Y12.95 I-1.55 J0
G1 X27.885
G2 X8.115 Y12.95 I-9.885 J5.05
G1 X5
G2 X3.45 Y14.5 I0 J1.55
G1 Y21.5
G2 X5 Y23.05 I1.55 J0
G1 X8.115
G2 X27.885 Y23.05 I9.885 J-5.05
G1 X31.078
G2 X32.628 Y21.5 I0 J-1.55
G1 Y15.141
X32.631 Y15.105
X32.641 Y15.071
X38.051 Y0.752
G2 X37.945 Y0.499 I-0.187 J-0.071
G1 X37.887 Y0.473 Z-1.207 F150
X37.832 Y0.449 Z-1.226
X37.781 Y0.426 Z-1.257
X37.737 Y0.407 Z-1.299
X37.702 Y0.391 Z-1.35
X37.667 Y0.376 Z-1.401
X37.623 Y0.356 Z-1.443
X37.573 Y0.334 Z-1.474
X37.517 Y0.309 Z-1.493
X37.459 Y0.284 Z-1.5
X37.437 Y0.274
G2 X35.642 Y-0.392 I-6.295 J14.226 F300
G3 X34.283 Y-1.135 I1.124 J-3.669
G2 X33.915 Y-1.442 I-16.658 J19.625
G3 X34.751 Y-2.59 I0.45 J-0.551
G1 X35.959 Y-1.809
X36.022 Y-1.763
X37.725 Y-0.376
G3 X37.974 Y0.041 I-0.449 J0.552
G1 X38.486 Y2.701
G3 X37.436 Y3.453 I-0.698 J0.134
G2 X34.162 Y2.149 I-6.298 J11.047
G3 X33 Y1.526 I0.651 J-2.608
G2 X28.89 Y-1.447 I-15 J16.417
G3 X28.638 Y-2.449 I0.348 J-0.62
X29.654 Y-2.644 I0.599 J0.383
G1 X33.875 Y0.398
X37.788 Y2.836
G3 X38.113 Y3.322 I-0.376 J0.604
G1 X38.605 Y6.26
G3 X37.448 Y6.924 I-0.702 J0.117
G2 X32.697 Y4.748 I-6.386 J7.671
G3 X31.741 Y4.255 I0.288 J-1.732
G2 X18.259 Y-1.45 I-13.741 J13.688
G1 X2.21 Y-1.487
X2.165 Y-1.482
X2.122 Y-1.467
X2.083 Y-1.442
G2 X1.694 Y-1.115 I15.987 J19.444
G3 X0.321 Y-0.356 I-2.557 J-3
G2 X-1.436 Y0.316 I4.698 J14.917
G3 X-2.385 Y-0.056 I-0.294 J-0.648
X-1.988 Y-0.994 I0.656 J-0.276
G1 X-0.194 Y-1.693
X-0.12 Y-1.717
X-0.044 Y-1.733
X1.631 Y-1.991
X6.649 Y-2.767
G3 X7.106 Y-1.444 I0.109 J0.703
G2 X2.986 Y1.538 I10.894 J19.387
G3 X1.812 Y2.175 I-1.865 J-2.035
G2 X-1.437 Y3.515 I3.203 J12.383
G3 X-2.43 Y3.223 I-0.359 J-0.614
X-2.082 Y2.249 I0.634 J-0.323
G1 X2.064 Y0.433
X2.113 Y0.409
X6.757 Y-2.064
G3 X7.043 Y-2.146 I0.334 J0.628
G1 X17.67 Y-2.871
G3 X18.429 Y-2.19 I0.048 J0.71
X17.729 Y-1.45 I-0.711 J0.029
G2 X4.253 Y4.261 I0.271 J19.394
G3 X3.289 Y4.764 I-1.277 J-1.272
G2 X-1.443 Y6.985 I1.728 J9.831
G1 X-1.473 Y7.017
X-1.495 Y7.054
X-1.509 Y7.095
X-1.514 Y7.138
X-1.555 Y35.508
X-1.55 Y35.554
X-1.534 Y35.597
X-1.509 Y35.635
X-1.476 Y35.667
X-1.437 Y35.691
G2 X0.321 Y36.356 I6.373 J-14.191
G3 X1.694 Y37.115 I-1.184 J3.76
G2 X2.088 Y37.444 I16.306 J-19.136
G3 X1.246 Y38.589 I-0.45 J0.551
G1 X0.02 Y37.779
X-0.042 Y37.734
X-1.728 Y36.34
G3 X-1.973 Y35.929 I0.453 J-0.548
G1 X-2.501 Y33.248
G3 X-1.446 Y32.495 I0.698 J-0.138
G2 X1.812 Y33.825 I6.386 J-10.995
G3 X2.986 Y34.462 I-0.691 J2.672
G2 X7.107 Y37.448 I15.014 J-16.384
G1 X7.155 Y37.467
X7.205 Y37.474
X33.783 Y37.491
X33.828 Y37.486
X33.871 Y37.471
X33.909 Y37.446
G2 X34.283 Y37.135 I-15.909 J-19.467
G3 X35.642 Y36.392 I2.483 J2.925
G2 X37.436 Y35.719 I-4.582 J-14.953
G3 X38.383 Y36.096 I0.29 J0.649
X37.98 Y37.033 I-0.657 J0.272
G1 X36.175 Y37.724
X36.099 Y37.748
X36.02 Y37.764
X34.36 Y37.997
X29.347 Y38.773
G3 X28.89 Y37.45 I-0.109 J-0.703
G2 X33 Y34.474 I-10.89 J-19.372
G3 X34.162 Y33.851 I1.813 J1.985
G2 X37.438 Y32.53 I-3.098 J-12.409
G1 X37.479 Y32.499
X37.511 Y32.457
X37.531 Y32.408
X37.538 Y32.356
X37.464 Y11.436
X37.459 Y11.391
X37.443 Y11.347
G2 X36.168 Y9.566 I-6.286 J3.153
X31.28 Y7.437 I-5.092 J5.014
G3 X30.524 Y7.079 I0.03 J-1.041
G2 X5.478 Y7.077 I-12.524 J10.898
G3 X4.722 Y7.439 I-0.797 J-0.694
G2 X-0.116 Y9.594 I0.281 J7.142
X-1.445 Y11.513 I5.036 J4.906
G1 X-1.459 Y11.554
X-1.464 Y11.597
X-1.515 Y28.86
X-1.511 Y28.903
X-1.497 Y28.944
X-1.475 Y28.981
X-1.445 Y29.013
G2 X3.289 Y31.236 I6.462 J-7.608
G3 X4.253 Y31.739 I-0.312 J1.775
G2 X31.741 Y31.745 I13.747 J-13.694
G3 X32.697 Y31.252 I1.244 J1.239
G2 X37.45 Y29.075 I-1.635 J-9.846
G1 X37.459 Y29.067
X37.512 Y29.023 Z-1.492
X37.562 Y28.981 Z-1.469
X37.608 Y28.944 Z-1.432
X37.645 Y28.912 Z-1.383
X37.674 Y28.889 Z-1.325
X37.691 Y28.874 Z-1.259
X37.697 Y28.869 Z-1.19
Z5
X-1.592 Y24.175
Z0.1 F150
Z-1.19
X-1.588 Y24.182 Z-1.259
X-1.579 Y24.202 Z-1.325
X-1.563 Y24.236 Z-1.383
X-1.542 Y24.28 Z-1.432
X-1.517 Y24.333 Z-1.469
X-1.489 Y24.393 Z-1.492
X-1.46 Y24.455 Z-1.5
X-1.447 Y24.483
G2 X-0.116 Y26.406 I6.367 J-2.983 F300
X4.722 Y28.561 I5.119 J-4.988
G3 X5.478 Y28.923 I-0.042 J1.056
G2 X30.524 Y28.921 I12.522 J-10.906
G3 X31.28 Y28.563 I0.785 J0.683
G2 X36.168 Y26.434 I-0.204 J-7.143
X37.447 Y24.645 I-5.011 J-4.934
X36.742 Y21.867 I-1.962 J-0.981
G3 X35.417 Y19.325 I1.777 J-2.542
G1 Y14.5
G2 X31.078 Y10.169 I-4.331 J0
X30.479 Y10.187 I0 J9.6
G3 X29.879 Y10.206 I-0.599 J-9.581
X29.196 Y9.856 I0 J-0.843
G2 X6.804 Y9.856 I-11.196 J8.086
G3 X6.121 Y10.206 I-0.684 J-0.494
X5.56 Y10.189 I0 J-8.973
G2 X5 Y10.171 I-0.56 J8.956
X0.661 Y14.5 I0 J4.339
G1 Y21.5
G2 X5 Y25.829 I4.329 J0
X5.56 Y25.811 I0 J-8.973
G3 X6.121 Y25.794 I0.56 J8.956
X6.804 Y26.144 I0 J0.843
G2 X29.196 Y26.144 I11.196 J-8.086
G3 X29.879 Y25.794 I0.684 J0.494
X30.479 Y25.813 I0 J9.6
G2 X31.078 Y25.831 I0.599 J-9.581
X35.417 Y21.5 I0 J-4.339
G1 Y19.325
G2 X34.023 Y17.233 I-2.266 J0
G3 X32.628 Y15.141 I0.872 J-2.092
G1 Y14.5
G2 X31.078 Y12.95 I-1.55 J0
G1 X27.885
G2 X8.115 Y12.95 I-9.885 J5.05
G1 X5
G2 X3.45 Y14.5 I0 J1.55
G1 Y21.5
G2 X5 Y23.05 I1.55 J0
G1 X8.115
G2 X27.885 Y23.05 I9.885 J-5.05
G1 X31.078
G2 X32.628 Y21.5 I0 J-1.55
G1 Y15.141
X32.631 Y15.105
X32.641 Y15.071
X38.051 Y0.752
G2 X37.945 Y0.499 I-0.187 J-0.071
G1 X37.887 Y0.473 Z-1.507 F150
X37.832 Y0.449 Z-1.526
X37.781 Y0.426 Z-1.557
X37.737 Y0.407 Z-1.599
X37.702 Y0.391 Z-1.65
X37.667 Y0.376 Z-1.701
X37.623 Y0.356 Z-1.743
X37.573 Y0.334 Z-1.774
X37.517 Y0.309 Z-1.793
X37.459 Y0.284 Z-1.8
X37.437 Y0.274
G2 X35.642 Y-0.392 I-6.295 J14.226 F300
G3 X34.283 Y-1.135 I1.124 J-3.669
G2 X33.915 Y-1.442 I-16.658 J19.625
G3 X34.751 Y-2.59 I0.45 J-0.551
G1 X35.959 Y-1.809
X36.022 Y-1.763
X37.725 Y-0.376
G3 X37.974 Y0.041 I-0.449 J0.552
G1 X38.486 Y2.701
G3 X37.436 Y3.453 I-0.698 J0.134
G2 X34.162 Y2.149 I-6.298 J11.047
G3 X33 Y1.526 I0.651 J-2.608
G2 X28.89 Y-1.447 I-15 J16.417
G3 X28.638 Y-2.449 I0.348 J-0.62
X29.654 Y-2.644 I0.599 J0.383
G1 X33.875 Y0.398
X37.788 Y2.836
G3 X38.113 Y3.322 I-0.376 J0.604
G1 X38.605 Y6.26
G3 X37.448 Y6.924 I-0.702 J0.117
G2 X32.697 Y4.748 I-6.386 J7.671
G3 X31.741 Y4.255 I0.288 J-1.732
G2 X18.259 Y-1.45 I-13.741 J13.688
G1 X2.21 Y-1.487
X2.165 Y-1.482
X2.122 Y-1.467
X2.083 Y-1.442
G2 X1.694 Y-1.115 I15.987 J19.444
G3 X0.321 Y-0.356 I-2.557 J-3
G2 X-1.436 Y0.316 I4.698 J14.917
G3 X-2.385 Y-0.056 I-0.294 J-0.648
X-1.988 Y-0.994 I0.656 J-0.276
G1 X-0.194 Y-1.693
X-0.12 Y-1.717
X-0.044 Y-1.733
X1.631 Y-1.991
X6.649 Y-2.767
G3 X7.106 Y-1.444 I0.109 J0.703
G2 X2.986 Y1.538 I10.894 J19.387
G3 X1.812 Y2.175 I-1.865 J-2.035
G2 X-1.437 Y3.515 I3.203 J12.383
G3 X-2.43 Y3.223 I-0.359 J-0.614
X-2.082 Y2.249 I0.634 J-0.323
G1 X2.064 Y0.433
X2.113 Y0.409
X6.757 Y-2.064
G3 X7.043 Y-2.146 I0.334 J0.628
G1 X17.67 Y-2.871
G3 X18.429 Y-2.19 I0.048 J0.71
X17.729 Y-1.45 I-0.711 J0.029
G2 X4.253 Y4.261 I0.271 J19.394
G3 X3.289 Y4.764 I-1.277 J-1.272
G2 X-1.443 Y6.985 I1.728 J9.831
G1 X-1.473 Y7.017
X-1.495 Y7.054
X-1.509 Y7.095
X-1.514 Y7.138
X-1.555 Y35.508
X-1.55 Y35.554
X-1.534 Y35.597
X-1.509 Y35.635
X-1.476 Y35.667
X-1.437 Y35.691
G2 X0.321 Y36.356 I6.373 J-14.191
G3 X1.694 Y37.115 I-1.184 J3.76
G2 X2.088 Y37.444 I16.306 J-19.136
G3 X1.246 Y38.589 I-0.45 J0.551
G1 X0.02 Y37.779
X-0.042 Y37.734
X-1.728 Y36.34
G3 X-1.973 Y35.929 I0.453 J-0.548
G1 X-2.501 Y33.248
G3 X-1.446 Y32.495 I0.698 J-0.138
G2 X1.812 Y33.825 I6.386 J-10.995
G3 X2.986 Y34.462 I-0.691 J2.672
G2 X7.107 Y37.448 I15.014 J-16.384
G1 X7.155 Y37.467
X7.205 Y37.474
X33.783 Y37.491
X33.828 Y37.486
X33.871 Y37.471
X33.909 Y37.446
G2 X34.283 Y37.135 I-15.909 J-19.467
G3 X35.642 Y36.392 I2.483 J2.925
G2 X37.436 Y35.719 I-4.582 J-14.953
G3 X38.383 Y36.096 I0.29 J0.649
X37.98 Y37.033 I-0.657 J0.272
G1 X36.175 Y37.724
X36.099 Y37.748
X36.02 Y37.764
X34.36 Y37.997
X29.347 Y38.773
G3 X28.89 Y37.45 I-0.109 J-0.703
G2 X33 Y34.474 I-10.89 J-19.372
G3 X34.162 Y33.851 I1.813 J1.985
G2 X37.438 Y32.53 I-3.098 J-12.409
G1 X37.479 Y32.499
X37.511 Y32.457
X37.531 Y32.408
X37.538 Y32.356
X37.464 Y11.436
X37.459 Y11.391
X37.443 Y11.347
G2 X36.168 Y9.566 I-6.286 J3.153
X31.28 Y7.437 I-5.092 J5.014
G3 X30.524 Y7.079 I0.03 J-1.041
G2 X5.478 Y7.077 I-12.524 J10.898
G3 X4.722 Y7.439 I-0.797 J-0.694
G2 X-0.116 Y9.594 I0.281 J7.142
X-1.445 Y11.513 I5.036 J4.906
G1 X-1.459 Y11.554
X-1.464 Y11.597
X-1.515 Y28.86
X-1.511 Y28.903
X-1.497 Y28.944
X-1.475 Y28.981
X-1.445 Y29.013
G2 X3.289 Y31.236 I6.462 J-7.608
G3 X4.253 Y31.739 I-0.312 J1.775
G2 X31.741 Y31.745 I13.747 J-13.694
G3 X32.697 Y31.252 I1.244 J1.239
G2 X37.45 Y29.075 I-1.635 J-9.846
G1 X37.459 Y29.067
X37.512 Y29.023 Z-1.792
X37.562 Y28.981 Z-1.769
X37.608 Y28.944 Z-1.732
X37.645 Y28.912 Z-1.683
X37.674 Y28.889 Z-1.625
X37.691 Y28.874 Z-1.559
X37.697 Y28.869 Z-1.49
Z5
X-1.592 Y24.175
Z-0.2 F150
Z-1.49
X-1.588 Y24.182 Z-1.559
X-1.579 Y24.202 Z-1.625
X-1.563 Y24.236 Z-1.683
X-1.542 Y24.28 Z-1.732
X-1.517 Y24.333 Z-1.769
X-1.489 Y24.393 Z-1.792
X-1.46 Y24.455 Z-1.8
X-1.447 Y24.483
G2 X-0.116 Y26.406 I6.367 J-2.983 F300
X4.722 Y28.561 I5.119 J-4.988
G3 X5.478 Y28.923 I-0.042 J1.056
G2 X30.524 Y28.921 I12.522 J-10.906
G3 X31.28 Y28.563 I0.785 J0.683
G2 X36.168 Y26.434 I-0.204 J-7.143
X37.447 Y24.645 I-5.011 J-4.934
X36.742 Y21.867 I-1.962 J-0.981
G3 X35.417 Y19.325 I1.777 J-2.542
G1 Y14.5
G2 X31.078 Y10.169 I-4.331 J0
X30.479 Y10.187 I0 J9.6
G3 X29.879 Y10.206 I-0.599 J-9.581
X29.196 Y9.856 I0 J-0.843
G2 X6.804 Y9.856 I-11.196 J8.086
G3 X6.121 Y10.206 I-0.684 J-0.494
X5.56 Y10.189 I0 J-8.973
G2 X5 Y10.171 I-0.56 J8.956
X0.661 Y14.5 I0 J4.339
G1 Y21.5
G2 X5 Y25.829 I4.329 J0
X5.56 Y25.811 I0 J-8.973
G3 X6.121 Y25.794 I0.56 J8.956
X6.804 Y26.144 I0 J0.843
G2 X29.196 Y26.144 I11.196 J-8.086
G3 X29.879 Y25.794 I0.684 J0.494
X30.479 Y25.813 I0 J9.6
G2 X31.078 Y25.831 I0.599 J-9.581
X35.417 Y21.5 I0 J-4.339
G1 Y19.325
G2 X34.023 Y17.233 I-2.266 J0
G3 X32.628 Y15.141 I0.872 J-2.092
G1 Y14.5
G2 X31.078 Y12.95 I-1.55 J0
G1 X27.885
G2 X8.115 Y12.95 I-9.885 J5.05
G1 X5
G2 X3.45 Y14.5 I0 J1.55
G1 Y21.5
G2 X5 Y23.05 I1.55 J0
G1 X8.115
G2 X27.885 Y23.05 I9.885 J-5.05
G1 X31.078
G2 X32.628 Y21.5 I0 J-1.55
G1 Y15.141
X32.631 Y15.105
X32.641 Y15.071
X38.051 Y0.752
G2 X37.945 Y0.499 I-0.187 J-0.071
G1 X37.887 Y0.473 Z-1.807 F150
X37.832 Y0.449 Z-1.826
X37.781 Y0.426 Z-1.857
X37.737 Y0.407 Z-1.899
X37.702 Y0.391 Z-1.95
X37.667 Y0.376 Z-2.001
X37.623 Y0.356 Z-2.043
X37.573 Y0.334 Z-2.074
X37.517 Y0.309 Z-2.093
X37.459 Y0.284 Z-2.1
X37.437 Y0.274
G2 X35.642 Y-0.392 I-6.295 J14.226 F300
G3 X34.283 Y-1.135 I1.124 J-3.669
G2 X33.915 Y-1.442 I-16.658 J19.625
G3 X34.751 Y-2.59 I0.45 J-0.551
G1 X35.959 Y-1.809
X36.022 Y-1.763
X37.725 Y-0.376
G3 X37.974 Y0.041 I-0.449 J0.552
G1 X38.486 Y2.701
G3 X37.436 Y3.453 I-0.698 J0.134
G2 X34.162 Y2.149 I-6.298 J11.047
G3 X33 Y1.526 I0.651 J-2.608
G2 X28.89 Y-1.447 I-15 J16.417
G3 X28.638 Y-2.449 I0.348 J-0.62
X29.654 Y-2.644 I0.599 J0.383
G1 X33.875 Y0.398
X37.788 Y2.836
G3 X38.113 Y3.322 I-0.376 J0.604
G1 X38.605 Y6.26
G3 X37.448 Y6.924 I-0.702 J0.117
G2 X32.697 Y4.748 I-6.386 J7.671
G3 X31.741 Y4.255 I0.288 J-1.732
G2 X18.259 Y-1.45 I-13.741 J13.688
G1 X2.21 Y-1.487
X2.165 Y-1.482
X2.122 Y-1.467
X2.083 Y-1.442
G2 X1.694 Y-1.115 I15.987 J19.444
G3 X0.321 Y-0.356 I-2.557 J-3
G2 X-1.436 Y0.316 I4.698 J14.917
G3 X-2.385 Y-0.056 I-0.294 J-0.648
X-1.988 Y-0.994 I0.656 J-0.276
G1 X-0.194 Y-1.693
X-0.12 Y-1.717
X-0.044 Y-1.733
X1.631 Y-1.991
X6.649 Y-2.767
G3 X7.106 Y-1.444 I0.109 J0.703
G2 X2.986 Y1.538 I10.894 J19.387
G3 X1.812 Y2.175 I-1.865 J-2.035
G2 X-1.437 Y3.515 I3.203 J12.383
G3 X-2.43 Y3.223 I-0.359 J-0.614
X-2.082 Y2.249 I0.634 J-0.323
G1 X2.064 Y0.433
X2.113 Y0.409
X6.757 Y-2.064
G3 X7.043 Y-2.146 I0.334 J0.628
G1 X17.67 Y-2.871
G3 X18.429 Y-2.19 I0.048 J0.71
X17.729 Y-1.45 I-0.711 J0.029
G2 X4.253 Y4.261 I0.271 J19.394
G3 X3.289 Y4.764 I-1.277 J-1.272
G2 X-1.443 Y6.985 I1.728 J9.831
G1 X-1.473 Y7.017
X-1.495 Y7.054
X-1.509 Y7.095
X-1.514 Y7.138
X-1.555 Y35.508
X-1.55 Y35.554
X-1.534 Y35.597
X-1.509 Y35.635
X-1.476 Y35.667
X-1.437 Y35.691
G2 X0.321 Y36.356 I6.373 J-14.191
G3 X1.694 Y37.115 I-1.184 J3.76
G2 X2.088 Y37.444 I16.306 J-19.136
G3 X1.246 Y38.589 I-0.45 J0.551
G1 X0.02 Y37.779
X-0.042 Y37.734
X-1.728 Y36.34
G3 X-1.973 Y35.929 I0.453 J-0.548
G1 X-2.501 Y33.248
G3 X-1.446 Y32.495 I0.698 J-0.138
G2 X1.812 Y33.825 I6.386 J-10.995
G3 X2.986 Y34.462 I-0.691 J2.672
G2 X7.107 Y37.448 I15.014 J-16.384
G1 X7.155 Y37.467
X7.205 Y37.474
X33.783 Y37.491
X33.828 Y37.486
X33.871 Y37.471
X33.909 Y37.446
G2 X34.283 Y37.135 I-15.909 J-19.467
G3 X35.642 Y36.392 I2.483 J2.925
G2 X37.436 Y35.719 I-4.582 J-14.953
G3 X38.383 Y36.096 I0.29 J0.649
X37.98 Y37.033 I-0.657 J0.272
G1 X36.175 Y37.724
X36.099 Y37.748
X36.02 Y37.764
X34.36 Y37.997
X29.347 Y38.773
G3 X28.89 Y37.45 I-0.109 J-0.703
G2 X33 Y34.474 I-10.89 J-19.372
G3 X34.162 Y33.851 I1.813 J1.985
G2 X37.438 Y32.53 I-3.098 J-12.409
G1 X37.479 Y32.499
X37.511 Y32.457
X37.531 Y32.408
X37.538 Y32.356
X37.464 Y11.436
X37.459 Y11.391
X37.443 Y11.347
G2 X36.168 Y9.566 I-6.286 J3.153
X31.28 Y7.437 I-5.092 J5.014
G3 X30.524 Y7.079 I0.03 J-1.041
G2 X5.478 Y7.077 I-12.524 J10.898
G3 X4.722 Y7.439 I-0.797 J-0.694
G2 X-0.116 Y9.594 I0.281 J7.142
X-1.445 Y11.513 I5.036 J4.906
G1 X-1.459 Y11.554
X-1.464 Y11.597
X-1.515 Y28.86
X-1.511 Y28.903
X-1.497 Y28.944
X-1.475 Y28.981
X-1.445 Y29.013
G2 X3.289 Y31.236 I6.462 J-7.608
G3 X4.253 Y31.739 I-0.312 J1.775
G2 X31.741 Y31.745 I13.747 J-13.694
G3 X32.697 Y31.252 I1.244 J1.239
G2 X37.45 Y29.075 I-1.635 J-9.846
G1 X37.459 Y29.067
X37.512 Y29.023 Z-2.092
X37.562 Y28.981 Z-2.069
X37.608 Y28.944 Z-2.032
X37.645 Y28.912 Z-1.983
X37.674 Y28.889 Z-1.925
X37.691 Y28.874 Z-1.859
X37.697 Y28.869 Z-1.79
Z5
X-1.592 Y24.175
Z-0.5 F150
Z-1.79
X-1.588 Y24.182 Z-1.859
X-1.579 Y24.202 Z-1.925
X-1.563 Y24.236 Z-1.983
X-1.542 Y24.28 Z-2.032
X-1.517 Y24.333 Z-2.069
X-1.489 Y24.393 Z-2.092
X-1.46 Y24.455 Z-2.1
X-1.447 Y24.483
G2 X-0.116 Y26.406 I6.367 J-2.983 F300
X4.722 Y28.561 I5.119 J-4.988
G3 X5.478 Y28.923 I-0.042 J1.056
G2 X30.524 Y28.921 I12.522 J-10.906
G3 X31.28 Y28.563 I0.785 J0.683
G2 X36.168 Y26.434 I-0.204 J-7.143
X37.447 Y24.645 I-5.011 J-4.934
X36.742 Y21.867 I-1.962 J-0.981
G3 X35.417 Y19.325 I1.777 J-2.542
G1 Y14.5
G2 X31.078 Y10.169 I-4.331 J0
X30.479 Y10.187 I0 J9.6
G3 X29.879 Y10.206 I-0.599 J-9.581
X29.196 Y9.856 I0 J-0.843
G2 X6.804 Y9.856 I-11.196 J8.086
G3 X6.121 Y10.206 I-0.684 J-0.494
X5.56 Y10.189 I0 J-8.973
G2 X5 Y10.171 I-0.56 J8.956
X0.661 Y14.5 I0 J4.339
G1 Y21.5
G2 X5 Y25.829 I4.329 J0
X5.56 Y25.811 I0 J-8.973
G3 X6.121 Y25.794 I0.56 J8.956
X6.804 Y26.144 I0 J0.843
G2 X29.196 Y26.144 I11.196 J-8.086
G3 X29.879 Y25.794 I0.684 J0.494
X30.479 Y25.813 I0 J9.6
G2 X31.078 Y25.831 I0.599 J-9.581
X35.417 Y21.5 I0 J-4.339
G1 Y19.325
G2 X34.023 Y17.233 I-2.266 J0
G3 X32.628 Y15.141 I0.872 J-2.092
G1 Y14.5
G2 X31.078 Y12.95 I-1.55 J0
G1 X27.885
G2 X8.115 Y12.95 I-9.885 J5.05
G1 X5
G2 X3.45 Y14.5 I0 J1.55
G1 Y21.5
G2 X5 Y23.05 I1.55 J0
G1 X8.115
G2 X27.885 Y23.05 I9.885 J-5.05
G1 X31.078
G2 X32.628 Y21.5 I0 J-1.55
G1 Y15.141
X32.631 Y15.105
X32.641 Y15.071
X38.051 Y0.752
G2 X37.945 Y0.499 I-0.187 J-0.071
G1 X37.887 Y0.473 Z-2.107 F150
X37.832 Y0.449 Z-2.126
X37.781 Y0.426 Z-2.157
X37.737 Y0.407 Z-2.199
X37.702 Y0.391 Z-2.25
X37.667 Y0.376 Z-2.301
X37.623 Y0.356 Z-2.343
X37.573 Y0.334 Z-2.374
X37.517 Y0.309 Z-2.393
X37.459 Y0.284 Z-2.4
X37.437 Y0.274
G2 X35.642 Y-0.392 I-6.295 J14.226 F300
G3 X34.283 Y-1.135 I1.124 J-3.669
G2 X33.915 Y-1.442 I-16.658 J19.625
G3 X34.751 Y-2.59 I0.45 J-0.551
G1 X35.959 Y-1.809
X36.022 Y-1.763
X37.725 Y-0.376
G3 X37.974 Y0.041 I-0.449 J0.552
G1 X38.486 Y2.701
G3 X37.436 Y3.453 I-0.698 J0.134
G2 X34.162 Y2.149 I-6.298 J11.047
G3 X33 Y1.526 I0.651 J-2.608
G2 X28.89 Y-1.447 I-15 J16.417
G3 X28.638 Y-2.449 I0.348 J-0.62
X29.654 Y-2.644 I0.599 J0.383
G1 X33.875 Y0.398
X37.788 Y2.836
G3 X38.113 Y3.322 I-0.376 J0.604
G1 X38.605 Y6.26
G3 X37.448 Y6.924 I-0.702 J0.117
G2 X32.697 Y4.748 I-6.386 J7.671
G3 X31.741 Y4.255 I0.288 J-1.732
G2 X18.259 Y-1.45 I-13.741 J13.688
G1 X2.21 Y-1.487
X2.165 Y-1.482
X2.122 Y-1.467
X2.083 Y-1.442
G2 X1.694 Y-1.115 I15.987 J19.444
G3 X0.321 Y-0.356 I-2.557 J-3
G2 X-1.436 Y0.316 I4.698 J14.917
G3 X-2.385 Y-0.056 I-0.294 J-0.648
X-1.988 Y-0.994 I0.656 J-0.276
G1 X-0.194 Y-1.693
X-0.12 Y-1.717
X-0.044 Y-1.733
X1.631 Y-1.991
X6.649 Y-2.767
G3 X7.106 Y-1.444 I0.109 J0.703
G2 X2.986 Y1.538 I10.894 J19.387
G3 X1.812 Y2.175 I-1.865 J-2.035
G2 X-1.437 Y3.515 I3.203 J12.383
G3 X-2.43 Y3.223 I-0.359 J-0.614
X-2.082 Y2.249 I0.634 J-0.323
G1 X2.064 Y0.433
X2.113 Y0.409
X6.757 Y-2.064
G3 X7.043 Y-2.146 I0.334 J0.628
G1 X17.67 Y-2.871
G3 X18.429 Y-2.19 I0.048 J0.71
X17.729 Y-1.45 I-0.711 J0.029
G2 X4.253 Y4.261 I0.271 J19.394
G3 X3.289 Y4.764 I-1.277 J-1.272
G2 X-1.443 Y6.985 I1.728 J9.831
G1 X-1.473 Y7.017
X-1.495 Y7.054
X-1.509 Y7.095
X-1.514 Y7.138
X-1.555 Y35.508
X-1.55 Y35.554
X-1.534 Y35.597
X-1.509 Y35.635
X-1.476 Y35.667
X-1.437 Y35.691
G2 X0.321 Y36.356 I6.373 J-14.191
G3 X1.694 Y37.115 I-1.184 J3.76
G2 X2.088 Y37.444 I16.306 J-19.136
G3 X1.246 Y38.589 I-0.45 J0.551
G1 X0.02 Y37.779
X-0.042 Y37.734
X-1.728 Y36.34
G3 X-1.973 Y35.929 I0.453 J-0.548
G1 X-2.501 Y33.248
G3 X-1.446 Y32.495 I0.698 J-0.138
G2 X1.812 Y33.825 I6.386 J-10.995
G3 X2.986 Y34.462 I-0.691 J2.672
G2 X7.107 Y37.448 I15.014 J-16.384
G1 X7.155 Y37.467
X7.205 Y37.474
X33.783 Y37.491
X33.828 Y37.486
X33.871 Y37.471
X33.909 Y37.446
G2 X34.283 Y37.135 I-15.909 J-19.467
G3 X35.642 Y36.392 I2.483 J2.925
G2 X37.436 Y35.719 I-4.582 J-14.953
G3 X38.383 Y36.096 I0.29 J0.649
X37.98 Y37.033 I-0.657 J0.272
G1 X36.175 Y37.724
X36.099 Y37.748
X36.02 Y37.764
X34.36 Y37.997
X29.347 Y38.773
G3 X28.89 Y37.45 I-0.109 J-0.703
G2 X33 Y34.474 I-10.89 J-19.372
G3 X34.162 Y33.851 I1.813 J1.985
G2 X37.438 Y32.53 I-3.098 J-12.409
G1 X37.479 Y32.499
X37.511 Y32.457
X37.531 Y32.408
X37.538 Y32.356
X37.464 Y11.436
X37.459 Y11.391
X37.443 Y11.347
G2 X36.168 Y9.566 I-6.286 J3.153
X31.28 Y7.437 I-5.092 J5.014
G3 X30.524 Y7.079 I0.03 J-1.041
G2 X5.478 Y7.077 I-12.524 J10.898
G3 X4.722 Y7.439 I-0.797 J-0.694
G2 X-0.116 Y9.594 I0.281 J7.142
X-1.445 Y11.513 I5.036 J4.906
G1 X-1.459 Y11.554
X-1.464 Y11.597
X-1.515 Y28.86
X-1.511 Y28.903
X-1.497 Y28.944
X-1.475 Y28.981
X-1.445 Y29.013
G2 X3.289 Y31.236 I6.462 J-7.608
G3 X4.253 Y31.739 I-0.312 J1.775
G2 X31.741 Y31.745 I13.747 J-13.694
G3 X32.697 Y31.252 I1.244 J1.239
G2 X37.45 Y29.075 I-1.635 J-9.846
G1 X37.459 Y29.067
X37.512 Y29.023 Z-2.392
X37.562 Y28.981 Z-2.369
X37.608 Y28.944 Z-2.332
X37.645 Y28.912 Z-2.283
X37.674 Y28.889 Z-2.225
X37.691 Y28.874 Z-2.159
X37.697 Y28.869 Z-2.09
Z5
X-1.592 Y24.175
Z-0.8 F150
Z-2.09
X-1.588 Y24.182 Z-2.159
X-1.579 Y24.202 Z-2.225
X-1.563 Y24.236 Z-2.283
X-1.542 Y24.28 Z-2.332
X-1.517 Y24.333 Z-2.369
X-1.489 Y24.393 Z-2.392
X-1.46 Y24.455 Z-2.4
X-1.447 Y24.483
G2 X-0.116 Y26.406 I6.367 J-2.983 F300
X4.722 Y28.561 I5.119 J-4.988
G3 X5.478 Y28.923 I-0.042 J1.056
G2 X30.524 Y28.921 I12.522 J-10.906
G3 X31.28 Y28.563 I0.785 J0.683
G2 X36.168 Y26.434 I-0.204 J-7.143
X37.447 Y24.645 I-5.011 J-4.934
X36.742 Y21.867 I-1.962 J-0.981
G3 X35.417 Y19.325 I1.777 J-2.542
G1 Y14.5
G2 X31.078 Y10.169 I-4.331 J0
X30.479 Y10.187 I0 J9.6
G3 X29.879 Y10.206 I-0.599 J-9.581
X29.196 Y9.856 I0 J-0.843
G2 X6.804 Y9.856 I-11.196 J8.086
G3 X6.121 Y10.206 I-0.684 J-0.494
X5.56 Y10.189 I0 J-8.973
G2 X5 Y10.171 I-0.56 J8.956
X0.661 Y14.5 I0 J4.339
G1 Y21.5
G2 X5 Y25.829 I4.329 J0
X5.56 Y25.811 I0 J-8.973
G3 X6.121 Y25.794 I0.56 J8.956
X6.804 Y26.144 I0 J0.843
G2 X29.196 Y26.144 I11.196 J-8.086
G3 X29.879 Y25.794 I0.684 J0.494
X30.479 Y25.813 I0 J9.6
G2 X31.078 Y25.831 I0.599 J-9.581
X35.417 Y21.5 I0 J-4.339
G1 Y19.325
G2 X34.023 Y17.233 I-2.266 J0
G3 X32.628 Y15.141 I0.872 J-2.092
G1 Y14.5
G2 X31.078 Y12.95 I-1.55 J0
G1 X27.885
G2 X8.115 Y12.95 I-9.885 J5.05
G1 X5
G2 X3.45 Y14.5 I0 J1.55
G1 Y21.5
G2 X5 Y23.05 I1.55 J0
G1 X8.115
G2 X27.885 Y23.05 I9.885 J-5.05
G1 X31.078
G2 X32.628 Y21.5 I0 J-1.55
G1 Y15.141
X32.631 Y15.105
X32.641 Y15.071
X38.051 Y0.752
G2 X37.945 Y0.499 I-0.187 J-0.071
G1 X37.887 Y0.473 Z-2.407 F150
X37.832 Y0.449 Z-2.426
X37.781 Y0.426 Z-2.457
X37.737 Y0.407 Z-2.499
X37.702 Y0.391 Z-2.55
X37.667 Y0.376 Z-2.601
X37.623 Y0.356 Z-2.643
X37.573 Y0.334 Z-2.674
X37.517 Y0.309 Z-2.693
X37.459 Y0.284 Z-2.7
X37.437 Y0.274
G2 X35.642 Y-0.392 I-6.295 J14.226 F300
G3 X34.283 Y-1.135 I1.124 J-3.669
G2 X33.915 Y-1.442 I-16.658 J19.625
G3 X34.751 Y-2.59 I0.45 J-0.551
G1 X35.959 Y-1.809
X36.022 Y-1.763
X37.725 Y-0.376
G3 X37.974 Y0.041 I-0.449 J0.552
G1 X38.486 Y2.701
G3 X37.436 Y3.453 I-0.698 J0.134
G2 X34.162 Y2.149 I-6.298 J11.047
G3 X33 Y1.526 I0.651 J-2.608
G2 X28.89 Y-1.447 I-15 J16.417
G3 X28.638 Y-2.449 I0.348 J-0.62
X29.654 Y-2.644 I0.599 J0.383
G1 X33.875 Y0.398
X37.788 Y2.836
G3 X38.113 Y3.322 I-0.376 J0.604
G1 X38.605 Y6.26
G3 X37.448 Y6.924 I-0.702 J0.117
G2 X32.697 Y4.748 I-6.386 J7.671
G3 X31.741 Y4.255 I0.288 J-1.732
G2 X18.259 Y-1.45 I-13.741 J13.688
G1 X2.21 Y-1.487
X2.165 Y-1.482
X2.122 Y-1.467
X2.083 Y-1.442
G2 X1.694 Y-1.115 I15.987 J19.444
G3 X0.321 Y-0.356 I-2.557 J-3
G2 X-1.436 Y0.316 I4.698 J14.917
G3 X-2.385 Y-0.056 I-0.294 J-0.648
X-1.988 Y-0.994 I0.656 J-0.276
G1 X-0.194 Y-1.693
X-0.12 Y-1.717
X-0.044 Y-1.733
X1.631 Y-1.991
X6.649 Y-2.767
G3 X7.106 Y-1.444 I0.109 J0.703
G2 X2.986 Y1.538 I10.894 J19.387
G3 X1.812 Y2.175 I-1.865 J-2.035
G2 X-1.437 Y3.515 I3.203 J12.383
G3 X-2.43 Y3.223 I-0.359 J-0.614
X-2.082 Y2.249 I0.634 J-0.323
G1 X2.064 Y0.433
X2.113 Y0.409
X6.757 Y-2.064
G3 X7.043 Y-2.146 I0.334 J0.628
G1 X17.67 Y-2.871
G3 X18.429 Y-2.19 I0.048 J0.71
X17.729 Y-1.45 I-0.711 J0.029
G2 X4.253 Y4.261 I0.271 J19.394
G3 X3.289 Y4.764 I-1.277 J-1.272
G2 X-1.443 Y6.985 I1.728 J9.831
G1 X-1.473 Y7.017
X-1.495 Y7.054
X-1.509 Y7.095
X-1.514 Y7.138
X-1.555 Y35.508
X-1.55 Y35.554
X-1.534 Y35.597
X-1.509 Y35.635
X-1.476 Y35.667
X-1.437 Y35.691
G2 X0.321 Y36.356 I6.373 J-14.191
G3 X1.694 Y37.115 I-1.184 J3.76
G2 X2.088 Y37.444 I16.306 J-19.136
G3 X1.246 Y38.589 I-0.45 J0.551
G1 X0.02 Y37.779
X-0.042 Y37.734
X-1.728 Y36.34
G3 X-1.973 Y35.929 I0.453 J-0.548
G1 X-2.501 Y33.248
G3 X-1.446 Y32.495 I0.698 J-0.138
G2 X1.812 Y33.825 I6.386 J-10.995
G3 X2.986 Y34.462 I-0.691 J2.672
G2 X7.107 Y37.448 I15.014 J-16.384
G1 X7.155 Y37.467
X7.205 Y37.474
X33.783 Y37.491
X33.828 Y37.486
X33.871 Y37.471
X33.909 Y37.446
G2 X34.283 Y37.135 I-15.909 J-19.467
G3 X35.642 Y36.392 I2.483 J2.925
G2 X37.436 Y35.719 I-4.582 J-14.953
G3 X38.383 Y36.096 I0.29 J0.649
X37.98 Y37.033 I-0.657 J0.272
G1 X36.175 Y37.724
X36.099 Y37.748
X36.02 Y37.764
X34.36 Y37.997
X29.347 Y38.773
G3 X28.89 Y37.45 I-0.109 J-0.703
G2 X33 Y34.474 I-10.89 J-19.372
G3 X34.162 Y33.851 I1.813 J1.985
G2 X37.438 Y32.53 I-3.098 J-12.409
G1 X37.479 Y32.499
X37.511 Y32.457
X37.531 Y32.408
X37.538 Y32.356
X37.464 Y11.436
X37.459 Y11.391
X37.443 Y11.347
G2 X36.168 Y9.566 I-6.286 J3.153
X31.28 Y7.437 I-5.092 J5.014
G3 X30.524 Y7.079 I0.03 J-1.041
G2 X5.478 Y7.077 I-12.524 J10.898
G3 X4.722 Y7.439 I-0.797 J-0.694
G2 X-0.116 Y9.594 I0.281 J7.142
X-1.445 Y11.513 I5.036 J4.906
G1 X-1.459 Y11.554
X-1.464 Y11.597
X-1.515 Y28.86
X-1.511 Y28.903
X-1.497 Y28.944
X-1.475 Y28.981
X-1.445 Y29.013
G2 X3.289 Y31.236 I6.462 J-7.608
G3 X4.253 Y31.739 I-0.312 J1.775
G2 X31.741 Y31.745 I13.747 J-13.694
G3 X32.697 Y31.252 I1.244 J1.239
G2 X37.45 Y29.075 I-1.635 J-9.846
G1 X37.459 Y29.067
X37.512 Y29.023 Z-2.692
X37.562 Y28.981 Z-2.669
X37.608 Y28.944 Z-2.632
X37.645 Y28.912 Z-2.583
X37.674 Y28.889 Z-2.525
X37.691 Y28.874 Z-2.459
X37.697 Y28.869 Z-2.39
Z5
X-1.592 Y24.175
Z-1.1 F150
Z-2.39
X-1.588 Y24.182 Z-2.459
X-1.579 Y24.202 Z-2.525
X-1.563 Y24.236 Z-2.583
X-1.542 Y24.28 Z-2.632
X-1.517 Y24.333 Z-2.669
X-1.489 Y24.393 Z-2.692
X-1.46 Y24.455 Z-2.7
X-1.447 Y24.483
G2 X-0.116 Y26.406 I6.367 J-2.983 F300
X4.722 Y28.561 I5.119 J-4.988
G3 X5.478 Y28.923 I-0.042 J1.056
G2 X30.524 Y28.921 I12.522 J-10.906
G3 X31.28 Y28.563 I0.785 J0.683
G2 X36.168 Y26.434 I-0.204 J-7.143
X37.447 Y24.645 I-5.011 J-4.934
X36.742 Y21.867 I-1.962 J-0.981
G3 X35.417 Y19.325 I1.777 J-2.542
G1 Y14.5
G2 X31.078 Y10.169 I-4.331 J0
X30.479 Y10.187 I0 J9.6
G3 X29.879 Y10.206 I-0.599 J-9.581
X29.196 Y9.856 I0 J-0.843
G2 X6.804 Y9.856 I-11.196 J8.086
G3 X6.121 Y10.206 I-0.684 J-0.494
X5.56 Y10.189 I0 J-8.973
G2 X5 Y10.171 I-0.56 J8.956
X0.661 Y14.5 I0 J4.339
G1 Y21.5
G2 X5 Y25.829 I4.329 J0
X5.56 Y25.811 I0 J-8.973
G3 X6.121 Y25.794 I0.56 J8.956
X6.804 Y26.144 I0 J0.843
G2 X29.196 Y26.144 I11.196 J-8.086
G3 X29.879 Y25.794 I0.684 J0.494
X30.479 Y25.813 I0 J9.6
G2 X31.078 Y25.831 I0.599 J-9.581
X35.417 Y21.5 I0 J-4.339
G1 Y19.325
G2 X34.023 Y17.233 I-2.266 J0
G3 X32.628 Y15.141 I0.872 J-2.092
G1 Y14.5
G2 X31.078 Y12.95 I-1.55 J0
G1 X27.885
G2 X8.115 Y12.95 I-9.885 J5.05
G1 X5
G2 X3.45 Y14.5 I0 J1.55
G1 Y21.5
G2 X5 Y23.05 I1.55 J0
G1 X8.115
G2 X27.885 Y23.05 I9.885 J-5.05
G1 X31.078
G2 X32.628 Y21.5 I0 J-1.55
G1 Y15.141
X32.631 Y15.105
X32.641 Y15.071
X38.051 Y0.752
G2 X37.945 Y0.499 I-0.187 J-0.071
G1 X37.887 Y0.473 Z-2.707 F150
X37.832 Y0.449 Z-2.726
X37.781 Y0.426 Z-2.757
X37.737 Y0.407 Z-2.799
X37.702 Y0.391 Z-2.85
X37.667 Y0.376 Z-2.901
X37.623 Y0.356 Z-2.943
X37.573 Y0.334 Z-2.974
X37.517 Y0.309 Z-2.993
X37.459 Y0.284 Z-3
X37.437 Y0.274
G2 X35.642 Y-0.392 I-6.295 J14.226 F300
G3 X34.283 Y-1.135 I1.124 J-3.669
G2 X33.915 Y-1.442 I-16.658 J19.625
G3 X34.751 Y-2.59 I0.45 J-0.551
G1 X35.959 Y-1.809
X36.022 Y-1.763
X37.725 Y-0.376
G3 X37.974 Y0.041 I-0.449 J0.552
G1 X38.486 Y2.701
G3 X37.436 Y3.453 I-0.698 J0.134
G2 X34.162 Y2.149 I-6.298 J11.047
G3 X33 Y1.526 I0.651 J-2.608
G2 X28.89 Y-1.447 I-15 J16.417
G3 X28.638 Y-2.449 I0.348 J-0.62
X29.654 Y-2.644 I0.599 J0.383
G1 X33.875 Y0.398
X37.788 Y2.836
G3 X38.113 Y3.322 I-0.376 J0.604
G1 X38.605 Y6.26
G3 X37.448 Y6.924 I-0.702 J0.117
G2 X32.697 Y4.748 I-6.386 J7.671
G3 X31.741 Y4.255 I0.288 J-1.732
G2 X18.259 Y-1.45 I-13.741 J13.688
G1 X2.21 Y-1.487
X2.165 Y-1.482
X2.122 Y-1.467
X2.083 Y-1.442
G2 X1.694 Y-1.115 I15.987 J19.444
G3 X0.321 Y-0.356 I-2.557 J-3
G2 X-1.436 Y0.316 I4.698 J14.917
G3 X-2.385 Y-0.056 I-0.294 J-0.648
X-1.988 Y-0.994 I0.656 J-0.276
G1 X-0.194 Y-1.693
X-0.12 Y-1.717
X-0.044 Y-1.733
X1.631 Y-1.991
X6.649 Y-2.767
G3 X7.106 Y-1.444 I0.109 J0.703
G2 X2.986 Y1.538 I10.894 J19.387
G3 X1.812 Y2.175 I-1.865 J-2.035
G2 X-1.437 Y3.515 I3.203 J12.383
G3 X-2.43 Y3.223 I-0.359 J-0.614
X-2.082 Y2.249 I0.634 J-0.323
G1 X2.064 Y0.433
X2.113 Y0.409
X6.757 Y-2.064
G3 X7.043 Y-2.146 I0.334 J0.628
G1 X17.67 Y-2.871
G3 X18.429 Y-2.19 I0.048 J0.71
X17.729 Y-1.45 I-0.711 J0.029
G2 X4.253 Y4.261 I0.271 J19.394
G3 X3.289 Y4.764 I-1.277 J-1.272
G2 X-1.443 Y6.985 I1.728 J9.831
G1 X-1.473 Y7.017
X-1.495 Y7.054
X-1.509 Y7.095
X-1.514 Y7.138
X-1.555 Y35.508
X-1.55 Y35.554
X-1.534 Y35.597
X-1.509 Y35.635
X-1.476 Y35.667
X-1.437 Y35.691
G2 X0.321 Y36.356 I6.373 J-14.191
G3 X1.694 Y37.115 I-1.184 J3.76
G2 X2.088 Y37.444 I16.306 J-19.136
G3 X1.246 Y38.589 I-0.45 J0.551
G1 X0.02 Y37.779
X-0.042 Y37.734
X-1.728 Y36.34
G3 X-1.973 Y35.929 I0.453 J-0.548
G1 X-2.501 Y33.248
G3 X-1.446 Y32.495 I0.698 J-0.138
G2 X1.812 Y33.825 I6.386 J-10.995
G3 X2.986 Y34.462 I-0.691 J2.672
G2 X7.107 Y37.448 I15.014 J-16.384
G1 X7.155 Y37.467
X7.205 Y37.474
X33.783 Y37.491
X33.828 Y37.486
X33.871 Y37.471
X33.909 Y37.446
G2 X34.283 Y37.135 I-15.909 J-19.467
G3 X35.642 Y36.392 I2.483 J2.925
G2 X37.436 Y35.719 I-4.582 J-14.953
G3 X38.383 Y36.096 I0.29 J0.649
X37.98 Y37.033 I-0.657 J0.272
G1 X36.175 Y37.724
X36.099 Y37.748
X36.02 Y37.764
X34.36 Y37.997
X29.347 Y38.773
G3 X28.89 Y37.45 I-0.109 J-0.703
G2 X33 Y34.474 I-10.89 J-19.372
G3 X34.162 Y33.851 I1.813 J1.985
G2 X37.438 Y32.53 I-3.098 J-12.409
G1 X37.479 Y32.499
X37.511 Y32.457
X37.531 Y32.408
X37.538 Y32.356
X37.464 Y11.436
X37.459 Y11.391
X37.443 Y11.347
G2 X36.168 Y9.566 I-6.286 J3.153
X31.28 Y7.437 I-5.092 J5.014
G3 X30.524 Y7.079 I0.03 J-1.041
G2 X5.478 Y7.077 I-12.524 J10.898
G3 X4.722 Y7.439 I-0.797 J-0.694
G2 X-0.116 Y9.594 I0.281 J7.142
X-1.445 Y11.513 I5.036 J4.906
G1 X-1.459 Y11.554
X-1.464 Y11.597
X-1.515 Y28.86
X-1.511 Y28.903
X-1.497 Y28.944
X-1.475 Y28.981
X-1.445 Y29.013
G2 X3.289 Y31.236 I6.462 J-7.608
G3 X4.253 Y31.739 I-0.312 J1.775
G2 X31.741 Y31.745 I13.747 J-13.694
G3 X32.697 Y31.252 I1.244 J1.239
G2 X37.45 Y29.075 I-1.635 J-9.846
G1 X37.459 Y29.067
X37.512 Y29.023 Z-2.992
X37.562 Y28.981 Z-2.969
X37.608 Y28.944 Z-2.932
X37.645 Y28.912 Z-2.883
X37.674 Y28.889 Z-2.825
X37.691 Y28.874 Z-2.759
X37.697 Y28.869 Z-2.69
Z5
X-1.592 Y24.175
Z-1.4 F150
Z-2.69
X-1.588 Y24.182 Z-2.759
X-1.579 Y24.202 Z-2.825
X-1.563 Y24.236 Z-2.883
X-1.542 Y24.28 Z-2.932
X-1.517 Y24.333 Z-2.969
X-1.489 Y24.393 Z-2.992
X-1.46 Y24.455 Z-3
X-1.447 Y24.483
G2 X-0.116 Y26.406 I6.367 J-2.983 F300
X4.722 Y28.561 I5.119 J-4.988
G3 X5.478 Y28.923 I-0.042 J1.056
G2 X30.524 Y28.921 I12.522 J-10.906
G3 X31.28 Y28.563 I0.785 J0.683
G2 X36.168 Y26.434 I-0.204 J-7.143
X37.447 Y24.645 I-5.011 J-4.934
X36.742 Y21.867 I-1.962 J-0.981
G3 X35.417 Y19.325 I1.777 J-2.542
G1 Y14.5
G2 X31.078 Y10.169 I-4.331 J0
X30.479 Y10.187 I0 J9.6
G3 X29.879 Y10.206 I-0.599 J-9.581
X29.196 Y9.856 I0 J-0.843
G2 X6.804 Y9.856 I-11.196 J8.086
G3 X6.121 Y10.206 I-0.684 J-0.494
X5.56 Y10.189 I0 J-8.973
G2 X5 Y10.171 I-0.56 J8.956
X0.661 Y14.5 I0 J4.339
G1 Y21.5
G2 X5 Y25.829 I4.329 J0
X5.56 Y25.811 I0 J-8.973
G3 X6.121 Y25.794 I0.56 J8.956
X6.804 Y26.144 I0 J0.843
G2 X29.196 Y26.144 I11.196 J-8.086
G3 X29.879 Y25.794 I0.684 J0.494
X30.479 Y25.813 I0 J9.6
G2 X31.078 Y25.831 I0.599 J-9.581
X35.417 Y21.5 I0 J-4.339
G1 Y19.325
G2 X34.023 Y17.233 I-2.266 J0
G3 X32.628 Y15.141 I0.872 J-2.092
G1 Y14.5
G2 X31.078 Y12.95 I-1.55 J0
G1 X27.885
G2 X8.115 Y12.95 I-9.885 J5.05
G1 X5
G2 X3.45 Y14.5 I0 J1.55
G1 Y21.5
G2 X5 Y23.05 I1.55 J0
G1 X8.115
G2 X27.885 Y23.05 I9.885 J-5.05
G1 X31.078
G2 X32.628 Y21.5 I0 J-1.55
G1 Y15.141
X32.631 Y15.105
X32.641 Y15.071
X38.051 Y0.752
G2 X37.945 Y0.499 I-0.187 J-0.071
G1 X37.887 Y0.473 Z-3.007 F150
X37.832 Y0.449 Z-3.026
X37.781 Y0.426 Z-3.057
X37.737 Y0.407 Z-3.099
X37.702 Y0.391 Z-3.15
X37.667 Y0.376 Z-3.201
X37.623 Y0.356 Z-3.243
X37.573 Y0.334 Z-3.274
X37.517 Y0.309 Z-3.293
X37.459 Y0.284 Z-3.3
X37.437 Y0.274
G2 X35.642 Y-0.392 I-6.295 J14.226 F300
G3 X34.283 Y-1.135 I1.124 J-3.669
G2 X33.915 Y-1.442 I-16.658 J19.625
G3 X34.751 Y-2.59 I0.45 J-0.551
G1 X35.959 Y-1.809
X36.022 Y-1.763
X37.725 Y-0.376
G3 X37.974 Y0.041 I-0.449 J0.552
G1 X38.486 Y2.701
G3 X37.436 Y3.453 I-0.698 J0.134
G2 X34.162 Y2.149 I-6.298 J11.047
G3 X33 Y1.526 I0.651 J-2.608
G2 X28.89 Y-1.447 I-15 J16.417
G3 X28.638 Y-2.449 I0.348 J-0.62
X29.654 Y-2.644 I0.599 J0.383
G1 X33.875 Y0.398
X37.788 Y2.836
G3 X38.113 Y3.322 I-0.376 J0.604
G1 X38.605 Y6.26
G3 X37.448 Y6.924 I-0.702 J0.117
G2 X32.697 Y4.748 I-6.386 J7.671
G3 X31.741 Y4.255 I0.288 J-1.732
G2 X18.259 Y-1.45 I-13.741 J13.688
G1 X2.21 Y-1.487
X2.165 Y-1.482
X2.122 Y-1.467
X2.083 Y-1.442
G2 X1.694 Y-1.115 I15.987 J19.444
G3 X0.321 Y-0.356 I-2.557 J-3
G2 X-1.436 Y0.316 I4.698 J14.917
G3 X-2.385 Y-0.056 I-0.294 J-0.648
X-1.988 Y-0.994 I0.656 J-0.276
G1 X-0.194 Y-1.693
X-0.12 Y-1.717
X-0.044 Y-1.733
X1.631 Y-1.991
X6.649 Y-2.767
G3 X7.106 Y-1.444 I0.109 J0.703
G2 X2.986 Y1.538 I10.894 J19.387
G3 X1.812 Y2.175 I-1.865 J-2.035
G2 X-1.437 Y3.515 I3.203 J12.383
G3 X-2.43 Y3.223 I-0.359 J-0.614
X-2.082 Y2.249 I0.634 J-0.323
G1 X2.064 Y0.433
X2.113 Y0.409
X6.757 Y-2.064
G3 X7.043 Y-2.146 I0.334 J0.628
G1 X17.67 Y-2.871
G3 X18.429 Y-2.19 I0.048 J0.71
X17.729 Y-1.45 I-0.711 J0.029
G2 X4.253 Y4.261 I0.271 J19.394
G3 X3.289 Y4.764 I-1.277 J-1.272
G2 X-1.443 Y6.985 I1.728 J9.831
G1 X-1.473 Y7.017
X-1.495 Y7.054
X-1.509 Y7.095
X-1.514 Y7.138
X-1.555 Y35.508
X-1.55 Y35.554
X-1.534 Y35.597
X-1.509 Y35.635
X-1.476 Y35.667
X-1.437 Y35.691
G2 X0.321 Y36.356 I6.373 J-14.191
G3 X1.694 Y37.115 I-1.184 J3.76
G2 X2.088 Y37.444 I16.306 J-19.136
G3 X1.246 Y38.589 I-0.45 J0.551
G1 X0.02 Y37.779
X-0.042 Y37.734
X-1.728 Y36.34
G3 X-1.973 Y35.929 I0.453 J-0.548
G1 X-2.501 Y33.248
G3 X-1.446 Y32.495 I0.698 J-0.138
G2 X1.812 Y33.825 I6.386 J-10.995
G3 X2.986 Y34.462 I-0.691 J2.672
G2 X7.107 Y37.448 I15.014 J-16.384
G1 X7.155 Y37.467
X7.205 Y37.474
X33.783 Y37.491
X33.828 Y37.486
X33.871 Y37.471
X33.909 Y37.446
G2 X34.283 Y37.135 I-15.909 J-19.467
G3 X35.642 Y36.392 I2.483 J2.925
G2 X37.436 Y35.719 I-4.582 J-14.953
G3 X38.383 Y36.096 I0.29 J0.649
X37.98 Y37.033 I-0.657 J0.272
G1 X36.175 Y37.724
X36.099 Y37.748
X36.02 Y37.764
X34.36 Y37.997
X29.347 Y38.773
G3 X28.89 Y37.45 I-0.109 J-0.703
G2 X33 Y34.474 I-10.89 J-19.372
G3 X34.162 Y33.851 I1.813 J1.985
G2 X37.438 Y32.53 I-3.098 J-12.409
G1 X37.479 Y32.499
X37.511 Y32.457
X37.531 Y32.408
X37.538 Y32.356
X37.464 Y11.436
X37.459 Y11.391
X37.443 Y11.347
G2 X36.168 Y9.566 I-6.286 J3.153
X31.28 Y7.437 I-5.092 J5.014
G3 X30.524 Y7.079 I0.03 J-1.041
G2 X5.478 Y7.077 I-12.524 J10.898
G3 X4.722 Y7.439 I-0.797 J-0.694
G2 X-0.116 Y9.594 I0.281 J7.142
X-1.445 Y11.513 I5.036 J4.906
G1 X-1.459 Y11.554
X-1.464 Y11.597
X-1.515 Y28.86
X-1.511 Y28.903
X-1.497 Y28.944
X-1.475 Y28.981
X-1.445 Y29.013
G2 X3.289 Y31.236 I6.462 J-7.608
G3 X4.253 Y31.739 I-0.312 J1.775
G2 X31.741 Y31.745 I13.747 J-13.694
G3 X32.697 Y31.252 I1.244 J1.239
G2 X37.45 Y29.075 I-1.635 J-9.846
G1 X37.459 Y29.067
X37.512 Y29.023 Z-3.292
X37.562 Y28.981 Z-3.269
X37.608 Y28.944 Z-3.232
X37.645 Y28.912 Z-3.183
X37.674 Y28.889 Z-3.125
X37.691 Y28.874 Z-3.059
X37.697 Y28.869 Z-2.99
Z5
X-1.592 Y24.175
Z-1.7 F150
Z-2.99
X-1.588 Y24.182 Z-3.059
X-1.579 Y24.202 Z-3.125
X-1.563 Y24.236 Z-3.183
X-1.542 Y24.28 Z-3.232
X-1.517 Y24.333 Z-3.269
X-1.489 Y24.393 Z-3.292
X-1.46 Y24.455 Z-3.3
X-1.447 Y24.483
G2 X-0.116 Y26.406 I6.367 J-2.983 F300
X4.722 Y28.561 I5.119 J-4.988
G3 X5.478 Y28.923 I-0.042 J1.056
G2 X30.524 Y28.921 I12.522 J-10.906
G3 X31.28 Y28.563 I0.785 J0.683
G2 X36.168 Y26.434 I-0.204 J-7.143
X37.447 Y24.645 I-5.011 J-4.934
X36.742 Y21.867 I-1.962 J-0.981
G3 X35.417 Y19.325 I1.777 J-2.542
G1 Y14.5
G2 X31.078 Y10.169 I-4.331 J0
X30.479 Y10.187 I0 J9.6
G3 X29.879 Y10.206 I-0.599 J-9.581
X29.196 Y9.856 I0 J-0.843
G2 X6.804 Y9.856 I-11.196 J8.086
G3 X6.121 Y10.206 I-0.684 J-0.494
X5.56 Y10.189 I0 J-8.973
G2 X5 Y10.171 I-0.56 J8.956
X0.661 Y14.5 I0 J4.339
G1 Y21.5
G2 X5 Y25.829 I4.329 J0
X5.56 Y25.811 I0 J-8.973
G3 X6.121 Y25.794 I0.56 J8.956
X6.804 Y26.144 I0 J0.843
G2 X29.196 Y26.144 I11.196 J-8.086
G3 X29.879 Y25.794 I0.684 J0.494
X30.479 Y25.813 I0 J9.6
G2 X31.078 Y25.831 I0.599 J-9.581
X35.417 Y21.5 I0 J-4.339
G1 Y19.325
G2 X34.023 Y17.233 I-2.266 J0
G3 X32.628 Y15.141 I0.872 J-2.092
G1 Y14.5
G2 X31.078 Y12.95 I-1.55 J0
G1 X27.885
G2 X8.115 Y12.95 I-9.885 J5.05
G1 X5
G2 X3.45 Y14.5 I0 J1.55
G1 Y21.5
G2 X5 Y23.05 I1.55 J0
G1 X8.115
G2 X27.885 Y23.05 I9.885 J-5.05
G1 X31.078
G2 X32.628 Y21.5 I0 J-1.55
G1 Y15.141
X32.631 Y15.105
X32.641 Y15.071
X38.051 Y0.752
G2 X37.945 Y0.499 I-0.187 J-0.071
G1 X37.887 Y0.473 Z-3.307 F150
X37.832 Y0.449 Z-3.326
X37.781 Y0.426 Z-3.357
X37.737 Y0.407 Z-3.399
X37.702 Y0.391 Z-3.45
X37.667 Y0.376 Z-3.501
X37.623 Y0.356 Z-3.543
X37.573 Y0.334 Z-3.574
X37.517 Y0.309 Z-3.593
X37.459 Y0.284 Z-3.6
X37.437 Y0.274
G2 X35.642 Y-0.392 I-6.295 J14.226 F300
G3 X34.283 Y-1.135 I1.124 J-3.669
G2 X33.915 Y-1.442 I-16.658 J19.625
G3 X34.751 Y-2.59 I0.45 J-0.551
G1 X35.959 Y-1.809
X36.022 Y-1.763
X37.725 Y-0.376
G3 X37.974 Y0.041 I-0.449 J0.552
G1 X38.486 Y2.701
G3 X37.436 Y3.453 I-0.698 J0.134
G2 X34.162 Y2.149 I-6.298 J11.047
G3 X33 Y1.526 I0.651 J-2.608
G2 X28.89 Y-1.447 I-15 J16.417
G3 X28.638 Y-2.449 I0.348 J-0.62
X29.654 Y-2.644 I0.599 J0.383
G1 X33.875 Y0.398
X37.788 Y2.836
G3 X38.113 Y3.322 I-0.376 J0.604
G1 X38.605 Y6.26
G3 X37.448 Y6.924 I-0.702 J0.117
G2 X32.697 Y4.748 I-6.386 J7.671
G3 X31.741 Y4.255 I0.288 J-1.732
G2 X18.259 Y-1.45 I-13.741 J13.688
G1 X2.21 Y-1.487
X2.165 Y-1.482
X2.122 Y-1.467
X2.083 Y-1.442
G2 X1.694 Y-1.115 I15.987 J19.444
G3 X0.321 Y-0.356 I-2.557 J-3
G2 X-1.436 Y0.316 I4.698 J14.917
G3 X-2.385 Y-0.056 I-0.294 J-0.648
X-1.988 Y-0.994 I0.656 J-0.276
G1 X-0.194 Y-1.693
X-0.12 Y-1.717
X-0.044 Y-1.733
X1.631 Y-1.991
X6.649 Y-2.767
G3 X7.106 Y-1.444 I0.109 J0.703
G2 X2.986 Y1.538 I10.894 J19.387
G3 X1.812 Y2.175 I-1.865 J-2.035
G2 X-1.437 Y3.515 I3.203 J12.383
G3 X-2.43 Y3.223 I-0.359 J-0.614
X-2.082 Y2.249 I0.634 J-0.323
G1 X2.064 Y0.433
X2.113 Y0.409
X6.757 Y-2.064
G3 X7.043 Y-2.146 I0.334 J0.628
G1 X17.67 Y-2.871
G3 X18.429 Y-2.19 I0.048 J0.71
X17.729 Y-1.45 I-0.711 J0.029
G2 X4.253 Y4.261 I0.271 J19.394
G3 X3.289 Y4.764 I-1.277 J-1.272
G2 X-1.443 Y6.985 I1.728 J9.831
G1 X-1.473 Y7.017
X-1.495 Y7.054
X-1.509 Y7.095
X-1.514 Y7.138
X-1.555 Y35.508
X-1.55 Y35.554
X-1.534 Y35.597
X-1.509 Y35.635
X-1.476 Y35.667
X-1.437 Y35.691
G2 X0.321 Y36.356 I6.373 J-14.191
G3 X1.694 Y37.115 I-1.184 J3.76
G2 X2.088 Y37.444 I16.306 J-19.136
G3 X1.246 Y38.589 I-0.45 J0.551
G1 X0.02 Y37.779
X-0.042 Y37.734
X-1.728 Y36.34
G3 X-1.973 Y35.929 I0.453 J-0.548
G1 X-2.501 Y33.248
G3 X-1.446 Y32.495 I0.698 J-0.138
G2 X1.812 Y33.825 I6.386 J-10.995
G3 X2.986 Y34.462 I-0.691 J2.672
G2 X7.107 Y37.448 I15.014 J-16.384
G1 X7.155 Y37.467
X7.205 Y37.474
X33.783 Y37.491
X33.828 Y37.486
X33.871 Y37.471
X33.909 Y37.446
G2 X34.283 Y37.135 I-15.909 J-19.467
G3 X35.642 Y36.392 I2.483 J2.925
G2 X37.436 Y35.719 I-4.582 J-14.953
G3 X38.383 Y36.096 I0.29 J0.649
X37.98 Y37.033 I-0.657 J0.272
G1 X36.175 Y37.724
X36.099 Y37.748
X36.02 Y37.764
X34.36 Y37.997
X29.347 Y38.773
G3 X28.89 Y37.45 I-0.109 J-0.703
G2 X33 Y34.474 I-10.89 J-19.372
G3 X34.162 Y33.851 I1.813 J1.985
G2 X37.438 Y32.53 I-3.098 J-12.409
G1 X37.479 Y32.499
X37.511 Y32.457
X37.531 Y32.408
X37.538 Y32.356
X37.464 Y11.436
X37.459 Y11.391
X37.443 Y11.347
G2 X36.168 Y9.566 I-6.286 J3.153
X31.28 Y7.437 I-5.092 J5.014
G3 X30.524 Y7.079 I0.03 J-1.041
G2 X5.478 Y7.077 I-12.524 J10.898
G3 X4.722 Y7.439 I-0.797 J-0.694
G2 X-0.116 Y9.594 I0.281 J7.142
X-1.445 Y11.513 I5.036 J4.906
G1 X-1.459 Y11.554
X-1.464 Y11.597
X-1.515 Y28.86
X-1.511 Y28.903
X-1.497 Y28.944
X-1.475 Y28.981
X-1.445 Y29.013
G2 X3.289 Y31.236 I6.462 J-7.608
G3 X4.253 Y31.739 I-0.312 J1.775
G2 X31.741 Y31.745 I13.747 J-13.694
G3 X32.697 Y31.252 I1.244 J1.239
G2 X37.45 Y29.075 I-1.635 J-9.846
G1 X37.459 Y29.067
X37.512 Y29.023 Z-3.592
X37.562 Y28.981 Z-3.569
X37.608 Y28.944 Z-3.532
X37.645 Y28.912 Z-3.483
X37.674 Y28.889 Z-3.425
X37.691 Y28.874 Z-3.359
X37.697 Y28.869 Z-3.29
Z5
X-1.592 Y24.175
Z-2 F150
Z-3.29
X-1.588 Y24.182 Z-3.359
X-1.579 Y24.202 Z-3.425
X-1.563 Y24.236 Z-3.483
X-1.542 Y24.28 Z-3.532
X-1.517 Y24.333 Z-3.569
X-1.489 Y24.393 Z-3.592
X-1.46 Y24.455 Z-3.6
X-1.447 Y24.483
G2 X-0.116 Y26.406 I6.367 J-2.983 F300
X4.722 Y28.561 I5.119 J-4.988
G3 X5.478 Y28.923 I-0.042 J1.056
G2 X30.524 Y28.921 I12.522 J-10.906
G3 X31.28 Y28.563 I0.785 J0.683
G2 X36.168 Y26.434 I-0.204 J-7.143
X37.447 Y24.645 I-5.011 J-4.934
X36.742 Y21.867 I-1.962 J-0.981
G3 X35.417 Y19.325 I1.777 J-2.542
G1 Y14.5
G2 X31.078 Y10.169 I-4.331 J0
X30.479 Y10.187 I0 J9.6
G3 X29.879 Y10.206 I-0.599 J-9.581
X29.196 Y9.856 I0 J-0.843
G2 X6.804 Y9.856 I-11.196 J8.086
G3 X6.121 Y10.206 I-0.684 J-0.494
X5.56 Y10.189 I0 J-8.973
G2 X5 Y10.171 I-0.56 J8.956
X0.661 Y14.5 I0 J4.339
G1 Y21.5
G2 X5 Y25.829 I4.329 J0
X5.56 Y25.811 I0 J-8.973
G3 X6.121 Y25.794 I0.56 J8.956
X6.804 Y26.144 I0 J0.843
G2 X29.196 Y26.144 I11.196 J-8.086
G3 X29.879 Y25.794 I0.684 J0.494
X30.479 Y25.813 I0 J9.6
G2 X31.078 Y25.831 I0.599 J-9.581
X35.417 Y21.5 I0 J-4.339
G1 Y19.325
G2 X34.023 Y17.233 I-2.266 J0
G3 X32.628 Y15.141 I0.872 J-2.092
G1 Y14.5
G2 X31.078 Y12.95 I-1.55 J0
G1 X27.885
G2 X8.115 Y12.95 I-9.885 J5.05
G1 X5
G2 X3.45 Y14.5 I0 J1.55
G1 Y21.5
G2 X5 Y23.05 I1.55 J0
G1 X8.115
G2 X27.885 Y23.05 I9.885 J-5.05
G1 X31.078
G2 X32.628 Y21.5 I0 J-1.55
G1 Y15.141
X32.631 Y15.105
X32.641 Y15.071
X38.051 Y0.752
G2 X37.945 Y0.499 I-0.187 J-0.071
G1 X37.887 Y0.473 Z-3.607 F150
X37.832 Y0.449 Z-3.626
X37.781 Y0.426 Z-3.657
X37.737 Y0.407 Z-3.699
X37.702 Y0.391 Z-3.75
X37.667 Y0.376 Z-3.801
X37.623 Y0.356 Z-3.843
X37.573 Y0.334 Z-3.874
X37.517 Y0.309 Z-3.893
X37.459 Y0.284 Z-3.9
X37.437 Y0.274
G2 X35.642 Y-0.392 I-6.295 J14.226 F300
G3 X34.283 Y-1.135 I1.124 J-3.669
G2 X33.915 Y-1.442 I-16.658 J19.625
G3 X34.751 Y-2.59 I0.45 J-0.551
G1 X35.959 Y-1.809
X36.022 Y-1.763
X37.725 Y-0.376
G3 X37.974 Y0.041 I-0.449 J0.552
G1 X38.486 Y2.701
G3 X37.436 Y3.453 I-0.698 J0.134
G2 X34.162 Y2.149 I-6.298 J11.047
G3 X33 Y1.526 I0.651 J-2.608
G2 X28.89 Y-1.447 I-15 J16.417
G3 X28.638 Y-2.449 I0.348 J-0.62
X29.654 Y-2.644 I0.599 J0.383
G1 X33.875 Y0.398
X37.788 Y2.836
G3 X38.113 Y3.322 I-0.376 J0.604
G1 X38.605 Y6.26
G3 X37.448 Y6.924 I-0.702 J0.117
G2 X32.697 Y4.748 I-6.386 J7.671
G3 X31.741 Y4.255 I0.288 J-1.732
G2 X18.259 Y-1.45 I-13.741 J13.688
G1 X2.21 Y-1.487
X2.165 Y-1.482
X2.122 Y-1.467
X2.083 Y-1.442
G2 X1.694 Y-1.115 I15.987 J19.444
G3 X0.321 Y-0.356 I-2.557 J-3
G2 X-1.436 Y0.316 I4.698 J14.917
G3 X-2.385 Y-0.056 I-0.294 J-0.648
X-1.988 Y-0.994 I0.656 J-0.276
G1 X-0.194 Y-1.693
X-0.12 Y-1.717
X-0.044 Y-1.733
X1.631 Y-1.991
X6.649 Y-2.767
G3 X7.106 Y-1.444 I0.109 J0.703
G2 X2.986 Y1.538 I10.894 J19.387
G3 X1.812 Y2.175 I-1.865 J-2.035
G2 X-1.437 Y3.515 I3.203 J12.383
G3 X-2.43 Y3.223 I-0.359 J-0.614
X-2.082 Y2.249 I0.634 J-0.323
G1 X2.064 Y0.433
X2.113 Y0.409
X6.757 Y-2.064
G3 X7.043 Y-2.146 I0.334 J0.628
G1 X17.67 Y-2.871
G3 X18.429 Y-2.19 I0.048 J0.71
X17.729 Y-1.45 I-0.711 J0.029
G2 X4.253 Y4.261 I0.271 J19.394
G3 X3.289 Y4.764 I-1.277 J-1.272
G2 X-1.443 Y6.985 I1.728 J9.831
G1 X-1.473 Y7.017
X-1.495 Y7.054
X-1.509 Y7.095
X-1.514 Y7.138
X-1.555 Y35.508
X-1.55 Y35.554
X-1.534 Y35.597
X-1.509 Y35.635
X-1.476 Y35.667
X-1.437 Y35.691
G2 X0.321 Y36.356 I6.373 J-14.191
G3 X1.694 Y37.115 I-1.184 J3.76
G2 X2.088 Y37.444 I16.306 J-19.136
G3 X1.246 Y38.589 I-0.45 J0.551
G1 X0.02 Y37.779
X-0.042 Y37.734
X-1.728 Y36.34
G3 X-1.973 Y35.929 I0.453 J-0.548
G1 X-2.501 Y33.248
G3 X-1.446 Y32.495 I0.698 J-0.138
G2 X1.812 Y33.825 I6.386 J-10.995
G3 X2.986 Y34.462 I-0.691 J2.672
G2 X7.107 Y37.448 I15.014 J-16.384
G1 X7.155 Y37.467
X7.205 Y37.474
X33.783 Y37.491
X33.828 Y37.486
X33.871 Y37.471
X33.909 Y37.446
G2 X34.283 Y37.135 I-15.909 J-19.467
G3 X35.642 Y36.392 I2.483 J2.925
G2 X37.436 Y35.719 I-4.582 J-14.953
G3 X38.383 Y36.096 I0.29 J0.649
X37.98 Y37.033 I-0.657 J0.272
G1 X36.175 Y37.724
X36.099 Y37.748
X36.02 Y37.764
X34.36 Y37.997
X29.347 Y38.773
G3 X28.89 Y37.45 I-0.109 J-0.703
G2 X33 Y34.474 I-10.89 J-19.372
G3 X34.162 Y33.851 I1.813 J1.985
G2 X37.438 Y32.53 I-3.098 J-12.409
G1 X37.479 Y32.499
X37.511 Y32.457
X37.531 Y32.408
X37.538 Y32.356
X37.464 Y11.436
X37.459 Y11.391
X37.443 Y11.347
G2 X36.168 Y9.566 I-6.286 J3.153
X31.28 Y7.437 I-5.092 J5.014
G3 X30.524 Y7.079 I0.03 J-1.041
G2 X5.478 Y7.077 I-12.524 J10.898
G3 X4.722 Y7.439 I-0.797 J-0.694
G2 X-0.116 Y9.594 I0.281 J7.142
X-1.445 Y11.513 I5.036 J4.906
G1 X-1.459 Y11.554
X-1.464 Y11.597
X-1.515 Y28.86
X-1.511 Y28.903
X-1.497 Y28.944
X-1.475 Y28.981
X-1.445 Y29.013
G2 X3.289 Y31.236 I6.462 J-7.608
G3 X4.253 Y31.739 I-0.312 J1.775
G2 X31.741 Y31.745 I13.747 J-13.694
G3 X32.697 Y31.252 I1.244 J1.239
G2 X37.45 Y29.075 I-1.635 J-9.846
G1 X37.459 Y29.067
X37.512 Y29.023 Z-3.892
X37.562 Y28.981 Z-3.869
X37.608 Y28.944 Z-3.832
X37.645 Y28.912 Z-3.783
X37.674 Y28.889 Z-3.725
X37.691 Y28.874 Z-3.659
X37.697 Y28.869 Z-3.59
Z5
X-1.592 Y24.175
Z-2.3 F150
Z-3.59
X-1.588 Y24.182 Z-3.659
X-1.579 Y24.202 Z-3.725
X-1.563 Y24.236 Z-3.783
X-1.542 Y24.28 Z-3.832
X-1.517 Y24.333 Z-3.869
X-1.489 Y24.393 Z-3.892
X-1.46 Y24.455 Z-3.9
X-1.447 Y24.483
G2 X-0.116 Y26.406 I6.367 J-2.983 F300
X4.722 Y28.561 I5.119 J-4.988
G3 X5.478 Y28.923 I-0.042 J1.056
G2 X30.524 Y28.921 I12.522 J-10.906
G3 X31.28 Y28.563 I0.785 J0.683
G2 X36.168 Y26.434 I-0.204 J-7.143
X37.447 Y24.645 I-5.011 J-4.934
X36.742 Y21.867 I-1.962 J-0.981
G3 X35.417 Y19.325 I1.777 J-2.542
G1 Y14.5
G2 X31.078 Y10.169 I-4.331 J0
X30.479 Y10.187 I0 J9.6
G3 X29.879 Y10.206 I-0.599 J-9.581
X29.196 Y9.856 I0 J-0.843
G2 X6.804 Y9.856 I-11.196 J8.086
G3 X6.121 Y10.206 I-0.684 J-0.494
X5.56 Y10.189 I0 J-8.973
G2 X5 Y10.171 I-0.56 J8.956
X0.661 Y14.5 I0 J4.339
G1 Y21.5
G2 X5 Y25.829 I4.329 J0
X5.56 Y25.811 I0 J-8.973
G3 X6.121 Y25.794 I0.56 J8.956
X6.804 Y26.144 I0 J0.843
G2 X29.196 Y26.144 I11.196 J-8.086
G3 X29.879 Y25.794 I0.684 J0.494
X30.479 Y25.813 I0 J9.6
G2 X31.078 Y25.831 I0.599 J-9.581
X35.417 Y21.5 I0 J-4.339
G1 Y19.325
G2 X34.023 Y17.233 I-2.266 J0
G3 X32.628 Y15.141 I0.872 J-2.092
G1 Y14.5
G2 X31.078 Y12.95 I-1.55 J0
G1 X27.885
G2 X8.115 Y12.95 I-9.885 J5.05
G1 X5
G2 X3.45 Y14.5 I0 J1.55
G1 Y21.5
G2 X5 Y23.05 I1.55 J0
G1 X8.115
G2 X27.885 Y23.05 I9.885 J-5.05
G1 X31.078
G2 X32.628 Y21.5 I0 J-1.55
G1 Y15.141
X32.631 Y15.105
X32.641 Y15.071
X38.051 Y0.752
G2 X37.945 Y0.499 I-0.187 J-0.071
G1 X37.887 Y0.473 Z-3.907 F150
X37.832 Y0.449 Z-3.926
X37.781 Y0.426 Z-3.957
X37.737 Y0.407 Z-3.999
X37.702 Y0.391 Z-4.05
X37.667 Y0.376 Z-4.101
X37.623 Y0.356 Z-4.143
X37.573 Y0.334 Z-4.174
X37.517 Y0.309 Z-4.193
X37.459 Y0.284 Z-4.2
X37.437 Y0.274
G2 X35.642 Y-0.392 I-6.295 J14.226 F300
G3 X34.283 Y-1.135 I1.124 J-3.669
G2 X33.915 Y-1.442 I-16.658 J19.625
G3 X34.751 Y-2.59 I0.45 J-0.551
G1 X35.959 Y-1.809
X36.022 Y-1.763
X37.725 Y-0.376
G3 X37.974 Y0.041 I-0.449 J0.552
G1 X38.486 Y2.701
G3 X37.436 Y3.453 I-0.698 J0.134
G2 X34.162 Y2.149 I-6.298 J11.047
G3 X33 Y1.526 I0.651 J-2.608
G2 X28.89 Y-1.447 I-15 J16.417
G3 X28.638 Y-2.449 I0.348 J-0.62
X29.654 Y-2.644 I0.599 J0.383
G1 X33.875 Y0.398
X37.788 Y2.836
G3 X38.113 Y3.322 I-0.376 J0.604
G1 X38.605 Y6.26
G3 X37.448 Y6.924 I-0.702 J0.117
G2 X32.697 Y4.748 I-6.386 J7.671
G3 X31.741 Y4.255 I0.288 J-1.732
G2 X18.259 Y-1.45 I-13.741 J13.688
G1 X2.21 Y-1.487
X2.165 Y-1.482
X2.122 Y-1.467
X2.083 Y-1.442
G2 X1.694 Y-1.115 I15.987 J19.444
G3 X0.321 Y-0.356 I-2.557 J-3
G2 X-1.436 Y0.316 I4.698 J14.917
G3 X-2.385 Y-0.056 I-0.294 J-0.648
X-1.988 Y-0.994 I0.656 J-0.276
G1 X-0.194 Y-1.693
X-0.12 Y-1.717
X-0.044 Y-1.733
X1.631 Y-1.991
X6.649 Y-2.767
G3 X7.106 Y-1.444 I0.109 J0.703
G2 X2.986 Y1.538 I10.894 J19.387
G3 X1.812 Y2.175 I-1.865 J-2.035
G2 X-1.437 Y3.515 I3.203 J12.383
G3 X-2.43 Y3.223 I-0.359 J-0.614
X-2.082 Y2.249 I0.634 J-0.323
G1 X2.064 Y0.433
X2.113 Y0.409
X6.757 Y-2.064
G3 X7.043 Y-2.146 I0.334 J0.628
G1 X17.67 Y-2.871
