(metal_coupler_14mm_wdrill)
(Machine)
(  vendor: Autodesk)
(  model: GARAGE CNC)
(  description: GARAGE CNC)
(T1  D=4.7 CR=0 - ZMIN=-14 - flat end mill)
G90 G94
G17
G21
(When using Fusion 360 for Personal Use, the feedrate of)
(rapid moves is reduced to match the feedrate of cutting)
(moves, which can increase machining time. Unrestricted rapid)
(moves are available with a Fusion 360 Subscription.)

(2D Pocket3)
T1
S24000 M3
G54
M8
G0 X15.947 Y16.287
Z10
G1 Z5 F150
Z2.97 F50
X15.97 Y16.268 Z2.802
X16.04 Y16.213 Z2.657
X16.164 Y16.127 Z2.544
X16.322 Y16.033 Z2.5
G3 X18.436 Y19.966 Z2.255 I1.057 J1.966
X16.322 Y16.033 Z2.01 I-1.057 J-1.966
X18.436 Y19.966 Z1.765 I1.057 J1.966
X16.322 Y16.033 Z1.52 I-1.057 J-1.966
X18.436 Y19.966 Z1.275 I1.057 J1.966
X16.322 Y16.033 Z1.03 I-1.057 J-1.966
X18.436 Y19.966 Z0.786 I1.057 J1.966
X16.322 Y16.033 Z0.541 I-1.057 J-1.966
X18.436 Y19.966 Z0.296 I1.057 J1.966
X16.322 Y16.033 Z0.051 I-1.057 J-1.966
X18.436 Y19.966 Z-0.194 I1.057 J1.966
X16.322 Y16.033 Z-0.439 I-1.057 J-1.966
X19.611 Y18.001 Z-0.6 I1.057 J1.966
X16.341 Y17.999 I-1.635 J-0.001
X16.361 Y17.744 I1.664 J0.001 F150
G1 X16.373 Y17.709
X16.397 Y17.681
X16.43 Y17.664
X16.467 Y17.66
X16.503 Y17.669
X16.533 Y17.691
X16.552 Y17.723
X16.559 Y17.759
Y18.241
X16.552 Y18.277
X16.533 Y18.309
X16.503 Y18.331
X16.467 Y18.34
X16.43 Y18.336
X16.397 Y18.319
X16.373 Y18.291
X16.361 Y18.256
G3 X16.341 Y17.999 I1.645 J-0.256
G2 X15.351 Y16.157 I-2.208 J-0.001
G3 X15.34 Y14.065 I0.694 J-1.049
X20.321 Y13.856 I2.66 J3.935
G2 X19.65 Y15.5 I1.679 J1.644
G1 Y20.5
G2 X20.321 Y22.144 I2.35 J0
G3 X15.34 Y14.065 I-2.321 J-4.144
X15.622 Y14.079 I0.132 J0.195
G1 X17.617 Y15.743
X17.652 Y15.767
X17.69 Y15.785
X17.731 Y15.795
G3 X17.027 Y20.204 Z-0.845 I-0.352 J2.205 F50
X17.731 Y15.795 Z-1.09 I0.352 J-2.205
X19.611 Y18.001 Z-1.2 I-0.352 J2.205
X16.341 Y17.999 I-1.635 J-0.001
X16.361 Y17.744 I1.664 J0.001 F150
G1 X16.373 Y17.709
X16.397 Y17.681
X16.43 Y17.664
X16.467 Y17.66
X16.503 Y17.669
X16.533 Y17.691
X16.552 Y17.723
X16.559 Y17.759
Y18.241
X16.552 Y18.277
X16.533 Y18.309
X16.503 Y18.331
X16.467 Y18.34
X16.43 Y18.336
X16.397 Y18.319
X16.373 Y18.291
X16.361 Y18.256
G3 X16.341 Y17.999 I1.645 J-0.256
G2 X15.351 Y16.157 I-2.208 J-0.001
G3 X15.34 Y14.065 I0.694 J-1.049
X20.321 Y13.856 I2.66 J3.935
G2 X19.65 Y15.5 I1.679 J1.644
G1 Y20.5
G2 X20.321 Y22.144 I2.35 J0
G3 X15.34 Y14.065 I-2.321 J-4.144
X15.622 Y14.079 I0.132 J0.195
G1 X17.617 Y15.743
X17.652 Y15.767
X17.69 Y15.785
X17.731 Y15.795
G3 X17.027 Y20.204 Z-1.445 I-0.352 J2.205 F50
X17.731 Y15.795 Z-1.69 I0.352 J-2.205
X19.611 Y18.001 Z-1.8 I-0.352 J2.205
X16.341 Y17.999 I-1.635 J-0.001
X16.361 Y17.744 I1.664 J0.001 F150
G1 X16.373 Y17.709
X16.397 Y17.681
X16.43 Y17.664
X16.467 Y17.66
X16.503 Y17.669
X16.533 Y17.691
X16.552 Y17.723
X16.559 Y17.759
Y18.241
X16.552 Y18.277
X16.533 Y18.309
X16.503 Y18.331
X16.467 Y18.34
X16.43 Y18.336
X16.397 Y18.319
X16.373 Y18.291
X16.361 Y18.256
G3 X16.341 Y17.999 I1.645 J-0.256
G2 X15.351 Y16.157 I-2.208 J-0.001
G3 X15.34 Y14.065 I0.694 J-1.049
X20.321 Y13.856 I2.66 J3.935
G2 X19.65 Y15.5 I1.679 J1.644
G1 Y20.5
G2 X20.321 Y22.144 I2.35 J0
G3 X15.34 Y14.065 I-2.321 J-4.144
X15.622 Y14.079 I0.132 J0.195
G1 X17.617 Y15.743
X17.652 Y15.767
X17.69 Y15.785
X17.731 Y15.795
G3 X17.027 Y20.204 Z-2.045 I-0.352 J2.205 F50
X17.731 Y15.795 Z-2.29 I0.352 J-2.205
X19.611 Y18.001 Z-2.4 I-0.352 J2.205
X16.341 Y17.999 I-1.635 J-0.001
X16.361 Y17.744 I1.664 J0.001 F150
G1 X16.373 Y17.709
X16.397 Y17.681
X16.43 Y17.664
X16.467 Y17.66
X16.503 Y17.669
X16.533 Y17.691
X16.552 Y17.723
X16.559 Y17.759
Y18.241
X16.552 Y18.277
X16.533 Y18.309
X16.503 Y18.331
X16.467 Y18.34
X16.43 Y18.336
X16.397 Y18.319
X16.373 Y18.291
X16.361 Y18.256
G3 X16.341 Y17.999 I1.645 J-0.256
G2 X15.351 Y16.157 I-2.208 J-0.001
G3 X15.34 Y14.065 I0.694 J-1.049
X20.321 Y13.856 I2.66 J3.935
G2 X19.65 Y15.5 I1.679 J1.644
G1 Y20.5
G2 X20.321 Y22.144 I2.35 J0
G3 X15.34 Y14.065 I-2.321 J-4.144
X15.622 Y14.079 I0.132 J0.195
G1 X17.617 Y15.743
X17.652 Y15.767
X17.69 Y15.785
X17.731 Y15.795
G3 X17.027 Y20.204 Z-2.645 I-0.352 J2.205 F50
X17.731 Y15.795 Z-2.89 I0.352 J-2.205
X19.611 Y18.001 Z-3 I-0.352 J2.205
X16.341 Y17.999 I-1.635 J-0.001
X16.361 Y17.744 I1.664 J0.001 F150
G1 X16.373 Y17.709
X16.397 Y17.681
X16.43 Y17.664
X16.467 Y17.66
X16.503 Y17.669
X16.533 Y17.691
X16.552 Y17.723
X16.559 Y17.759
Y18.241
X16.552 Y18.277
X16.533 Y18.309
X16.503 Y18.331
X16.467 Y18.34
X16.43 Y18.336
X16.397 Y18.319
X16.373 Y18.291
X16.361 Y18.256
G3 X16.341 Y17.999 I1.645 J-0.256
G2 X15.351 Y16.157 I-2.208 J-0.001
G3 X15.34 Y14.065 I0.694 J-1.049
X20.321 Y13.856 I2.66 J3.935
G2 X19.65 Y15.5 I1.679 J1.644
G1 Y20.5
G2 X20.321 Y22.144 I2.35 J0
G3 X15.34 Y14.065 I-2.321 J-4.144
X15.622 Y14.079 I0.132 J0.195
G1 X17.617 Y15.743
X17.652 Y15.767
X17.69 Y15.785
X17.731 Y15.795
G3 X17.027 Y20.204 Z-3.245 I-0.352 J2.205 F50
X17.731 Y15.795 Z-3.49 I0.352 J-2.205
X19.611 Y18.001 Z-3.6 I-0.352 J2.205
X16.341 Y17.999 I-1.635 J-0.001
X16.361 Y17.744 I1.664 J0.001 F150
G1 X16.373 Y17.709
X16.397 Y17.681
X16.43 Y17.664
X16.467 Y17.66
X16.503 Y17.669
X16.533 Y17.691
X16.552 Y17.723
X16.559 Y17.759
Y18.241
X16.552 Y18.277
X16.533 Y18.309
X16.503 Y18.331
X16.467 Y18.34
X16.43 Y18.336
X16.397 Y18.319
X16.373 Y18.291
X16.361 Y18.256
G3 X16.341 Y17.999 I1.645 J-0.256
G2 X15.351 Y16.157 I-2.208 J-0.001
G3 X15.34 Y14.065 I0.694 J-1.049
X20.321 Y13.856 I2.66 J3.935
G2 X19.65 Y15.5 I1.679 J1.644
G1 Y20.5
G2 X20.321 Y22.144 I2.35 J0
G3 X15.34 Y14.065 I-2.321 J-4.144
X15.622 Y14.079 I0.132 J0.195
G1 X17.617 Y15.743
X17.652 Y15.767
X17.69 Y15.785
X17.731 Y15.795
G3 X17.027 Y20.204 Z-3.845 I-0.352 J2.205 F50
X17.731 Y15.795 Z-4.09 I0.352 J-2.205
X19.611 Y18.001 Z-4.2 I-0.352 J2.205
X16.341 Y17.999 I-1.635 J-0.001
X16.361 Y17.744 I1.664 J0.001 F150
G1 X16.373 Y17.709
X16.397 Y17.681
X16.43 Y17.664
X16.467 Y17.66
X16.503 Y17.669
X16.533 Y17.691
X16.552 Y17.723
X16.559 Y17.759
Y18.241
X16.552 Y18.277
X16.533 Y18.309
X16.503 Y18.331
X16.467 Y18.34
X16.43 Y18.336
X16.397 Y18.319
X16.373 Y18.291
X16.361 Y18.256
G3 X16.341 Y17.999 I1.645 J-0.256
G2 X15.351 Y16.157 I-2.208 J-0.001
G3 X15.34 Y14.065 I0.694 J-1.049
X20.321 Y13.856 I2.66 J3.935
G2 X19.65 Y15.5 I1.679 J1.644
G1 Y20.5
G2 X20.321 Y22.144 I2.35 J0
G3 X15.34 Y14.065 I-2.321 J-4.144
X15.622 Y14.079 I0.132 J0.195
G1 X17.617 Y15.743
X17.652 Y15.767
X17.69 Y15.785
X17.731 Y15.795
G3 X17.027 Y20.204 Z-4.445 I-0.352 J2.205 F50
X17.731 Y15.795 Z-4.69 I0.352 J-2.205
X19.611 Y18.001 Z-4.8 I-0.352 J2.205
X16.341 Y17.999 I-1.635 J-0.001
X16.361 Y17.744 I1.664 J0.001 F150
G1 X16.373 Y17.709
X16.397 Y17.681
X16.43 Y17.664
X16.467 Y17.66
X16.503 Y17.669
X16.533 Y17.691
X16.552 Y17.723
X16.559 Y17.759
Y18.241
X16.552 Y18.277
X16.533 Y18.309
X16.503 Y18.331
X16.467 Y18.34
X16.43 Y18.336
X16.397 Y18.319
X16.373 Y18.291
X16.361 Y18.256
G3 X16.341 Y17.999 I1.645 J-0.256
G2 X15.351 Y16.157 I-2.208 J-0.001
G3 X15.34 Y14.065 I0.694 J-1.049
X20.321 Y13.856 I2.66 J3.935
G2 X19.65 Y15.5 I1.679 J1.644
G1 Y20.5
G2 X20.321 Y22.144 I2.35 J0
G3 X15.34 Y14.065 I-2.321 J-4.144
X15.622 Y14.079 I0.132 J0.195
G1 X17.617 Y15.743
X17.652 Y15.767
X17.69 Y15.785
X17.731 Y15.795
G3 X17.027 Y20.204 Z-5.045 I-0.352 J2.205 F50
X17.731 Y15.795 Z-5.29 I0.352 J-2.205
X19.611 Y18.001 Z-5.4 I-0.352 J2.205
X16.341 Y17.999 I-1.635 J-0.001
X16.361 Y17.744 I1.664 J0.001 F150
G1 X16.373 Y17.709
X16.397 Y17.681
X16.43 Y17.664
X16.467 Y17.66
X16.503 Y17.669
X16.533 Y17.691
X16.552 Y17.723
X16.559 Y17.759
Y18.241
X16.552 Y18.277
X16.533 Y18.309
X16.503 Y18.331
X16.467 Y18.34
X16.43 Y18.336
X16.397 Y18.319
X16.373 Y18.291
X16.361 Y18.256
G3 X16.341 Y17.999 I1.645 J-0.256
G2 X15.351 Y16.157 I-2.208 J-0.001
G3 X15.34 Y14.065 I0.694 J-1.049
X20.321 Y13.856 I2.66 J3.935
G2 X19.65 Y15.5 I1.679 J1.644
G1 Y20.5
G2 X20.321 Y22.144 I2.35 J0
G3 X15.34 Y14.065 I-2.321 J-4.144
X15.622 Y14.079 I0.132 J0.195
G1 X17.617 Y15.743
X17.652 Y15.767
X17.69 Y15.785
X17.731 Y15.795
G3 X17.027 Y20.204 Z-5.645 I-0.352 J2.205 F50
X17.731 Y15.795 Z-5.89 I0.352 J-2.205
X19.611 Y18.001 Z-6 I-0.352 J2.205
X16.341 Y17.999 I-1.635 J-0.001
X16.361 Y17.744 I1.664 J0.001 F150
G1 X16.373 Y17.709
X16.397 Y17.681
X16.43 Y17.664
X16.467 Y17.66
X16.503 Y17.669
X16.533 Y17.691
X16.552 Y17.723
X16.559 Y17.759
Y18.241
X16.552 Y18.277
X16.533 Y18.309
X16.503 Y18.331
X16.467 Y18.34
X16.43 Y18.336
X16.397 Y18.319
X16.373 Y18.291
X16.361 Y18.256
G3 X16.341 Y17.999 I1.645 J-0.256
G2 X15.351 Y16.157 I-2.208 J-0.001
G3 X15.34 Y14.065 I0.694 J-1.049
X20.321 Y13.856 I2.66 J3.935
G2 X19.65 Y15.5 I1.679 J1.644
G1 Y20.5
G2 X20.321 Y22.144 I2.35 J0
G3 X15.34 Y14.065 I-2.321 J-4.144
X15.622 Y14.079 I0.132 J0.195
G1 X17.617 Y15.743
X17.652 Y15.767
X17.69 Y15.785
X17.731 Y15.795
G3 X17.027 Y20.204 Z-6.245 I-0.352 J2.205 F50
X17.731 Y15.795 Z-6.49 I0.352 J-2.205
X19.611 Y18.001 Z-6.6 I-0.352 J2.205
X16.341 Y17.999 I-1.635 J-0.001
X16.361 Y17.744 I1.664 J0.001 F150
G1 X16.373 Y17.709
X16.397 Y17.681
X16.43 Y17.664
X16.467 Y17.66
X16.503 Y17.669
X16.533 Y17.691
X16.552 Y17.723
X16.559 Y17.759
Y18.241
X16.552 Y18.277
X16.533 Y18.309
X16.503 Y18.331
X16.467 Y18.34
X16.43 Y18.336
X16.397 Y18.319
X16.373 Y18.291
X16.361 Y18.256
G3 X16.341 Y17.999 I1.645 J-0.256
G2 X15.351 Y16.157 I-2.208 J-0.001
G3 X15.34 Y14.065 I0.694 J-1.049
X20.321 Y13.856 I2.66 J3.935
G2 X19.65 Y15.5 I1.679 J1.644
G1 Y20.5
G2 X20.321 Y22.144 I2.35 J0
G3 X15.34 Y14.065 I-2.321 J-4.144
X15.622 Y14.079 I0.132 J0.195
G1 X17.617 Y15.743
X17.652 Y15.767
X17.69 Y15.785
X17.731 Y15.795
G3 X17.027 Y20.204 Z-6.845 I-0.352 J2.205 F50
X17.731 Y15.795 Z-7.09 I0.352 J-2.205
X19.611 Y18.001 Z-7.2 I-0.352 J2.205
X16.341 Y17.999 I-1.635 J-0.001
X16.361 Y17.744 I1.664 J0.001 F150
G1 X16.373 Y17.709
X16.397 Y17.681
X16.43 Y17.664
X16.467 Y17.66
X16.503 Y17.669
X16.533 Y17.691
X16.552 Y17.723
X16.559 Y17.759
Y18.241
X16.552 Y18.277
X16.533 Y18.309
X16.503 Y18.331
X16.467 Y18.34
X16.43 Y18.336
X16.397 Y18.319
X16.373 Y18.291
X16.361 Y18.256
G3 X16.341 Y17.999 I1.645 J-0.256
G2 X15.351 Y16.157 I-2.208 J-0.001
G3 X15.34 Y14.065 I0.694 J-1.049
X20.321 Y13.856 I2.66 J3.935
G2 X19.65 Y15.5 I1.679 J1.644
G1 Y20.5
G2 X20.321 Y22.144 I2.35 J0
G3 X15.34 Y14.065 I-2.321 J-4.144
X15.622 Y14.079 I0.132 J0.195
G1 X17.617 Y15.743
X17.652 Y15.767
X17.69 Y15.785
X17.731 Y15.795
G3 X17.027 Y20.204 Z-7.445 I-0.352 J2.205 F50
X17.731 Y15.795 Z-7.69 I0.352 J-2.205
X19.611 Y18.001 Z-7.8 I-0.352 J2.205
X16.341 Y17.999 I-1.635 J-0.001
X16.361 Y17.744 I1.664 J0.001 F150
G1 X16.373 Y17.709
X16.397 Y17.681
X16.43 Y17.664
X16.467 Y17.66
X16.503 Y17.669
X16.533 Y17.691
X16.552 Y17.723
X16.559 Y17.759
Y18.241
X16.552 Y18.277
X16.533 Y18.309
X16.503 Y18.331
X16.467 Y18.34
X16.43 Y18.336
X16.397 Y18.319
X16.373 Y18.291
X16.361 Y18.256
G3 X16.341 Y17.999 I1.645 J-0.256
G2 X15.351 Y16.157 I-2.208 J-0.001
G3 X15.34 Y14.065 I0.694 J-1.049
X20.321 Y13.856 I2.66 J3.935
G2 X19.65 Y15.5 I1.679 J1.644
G1 Y20.5
G2 X20.321 Y22.144 I2.35 J0
G3 X15.34 Y14.065 I-2.321 J-4.144
X15.622 Y14.079 I0.132 J0.195
G1 X17.617 Y15.743
X17.652 Y15.767
X17.69 Y15.785
X17.731 Y15.795
G3 X17.027 Y20.204 Z-8.045 I-0.352 J2.205 F50
X17.731 Y15.795 Z-8.29 I0.352 J-2.205
X19.611 Y18.001 Z-8.4 I-0.352 J2.205
X16.341 Y17.999 I-1.635 J-0.001
X16.361 Y17.744 I1.664 J0.001 F150
G1 X16.373 Y17.709
X16.397 Y17.681
X16.43 Y17.664
X16.467 Y17.66
X16.503 Y17.669
X16.533 Y17.691
X16.552 Y17.723
X16.559 Y17.759
Y18.241
X16.552 Y18.277
X16.533 Y18.309
X16.503 Y18.331
X16.467 Y18.34
X16.43 Y18.336
X16.397 Y18.319
X16.373 Y18.291
X16.361 Y18.256
G3 X16.341 Y17.999 I1.645 J-0.256
G2 X15.351 Y16.157 I-2.208 J-0.001
G3 X15.34 Y14.065 I0.694 J-1.049
X20.321 Y13.856 I2.66 J3.935
G2 X19.65 Y15.5 I1.679 J1.644
G1 Y20.5
G2 X20.321 Y22.144 I2.35 J0
G3 X15.34 Y14.065 I-2.321 J-4.144
X15.622 Y14.079 I0.132 J0.195
G1 X17.617 Y15.743
X17.652 Y15.767
X17.69 Y15.785
X17.731 Y15.795
G3 X17.027 Y20.204 Z-8.645 I-0.352 J2.205 F50
X17.731 Y15.795 Z-8.89 I0.352 J-2.205
X19.611 Y18.001 Z-9 I-0.352 J2.205
X16.341 Y17.999 I-1.635 J-0.001
X16.361 Y17.744 I1.664 J0.001 F150
G1 X16.373 Y17.709
X16.397 Y17.681
X16.43 Y17.664
X16.467 Y17.66
X16.503 Y17.669
X16.533 Y17.691
X16.552 Y17.723
X16.559 Y17.759
Y18.241
X16.552 Y18.277
X16.533 Y18.309
X16.503 Y18.331
X16.467 Y18.34
X16.43 Y18.336
X16.397 Y18.319
X16.373 Y18.291
X16.361 Y18.256
G3 X16.341 Y17.999 I1.645 J-0.256
G2 X15.351 Y16.157 I-2.208 J-0.001
G3 X15.34 Y14.065 I0.694 J-1.049
X20.321 Y13.856 I2.66 J3.935
G2 X19.65 Y15.5 I1.679 J1.644
G1 Y20.5
G2 X20.321 Y22.144 I2.35 J0
G3 X15.34 Y14.065 I-2.321 J-4.144
X15.622 Y14.079 I0.132 J0.195
G1 X17.617 Y15.743
X17.652 Y15.767
X17.69 Y15.785
X17.731 Y15.795
G3 X17.027 Y20.204 Z-9.245 I-0.352 J2.205 F50
X17.731 Y15.795 Z-9.49 I0.352 J-2.205
X19.611 Y18.001 Z-9.6 I-0.352 J2.205
X16.341 Y17.999 I-1.635 J-0.001
X16.361 Y17.744 I1.664 J0.001 F150
G1 X16.373 Y17.709
X16.397 Y17.681
X16.43 Y17.664
X16.467 Y17.66
X16.503 Y17.669
X16.533 Y17.691
X16.552 Y17.723
X16.559 Y17.759
Y18.241
X16.552 Y18.277
X16.533 Y18.309
X16.503 Y18.331
X16.467 Y18.34
X16.43 Y18.336
X16.397 Y18.319
X16.373 Y18.291
X16.361 Y18.256
G3 X16.341 Y17.999 I1.645 J-0.256
G2 X15.351 Y16.157 I-2.208 J-0.001
G3 X15.34 Y14.065 I0.694 J-1.049
X20.321 Y13.856 I2.66 J3.935
G2 X19.65 Y15.5 I1.679 J1.644
G1 Y20.5
G2 X20.321 Y22.144 I2.35 J0
G3 X15.34 Y14.065 I-2.321 J-4.144
X15.622 Y14.079 I0.132 J0.195
G1 X17.617 Y15.743
X17.652 Y15.767
X17.69 Y15.785
X17.731 Y15.795
G3 X17.027 Y20.204 Z-9.845 I-0.352 J2.205 F50
X17.731 Y15.795 Z-10.09 I0.352 J-2.205
X19.611 Y18.001 Z-10.2 I-0.352 J2.205
X16.341 Y17.999 I-1.635 J-0.001
X16.361 Y17.744 I1.664 J0.001 F150
G1 X16.373 Y17.709
X16.397 Y17.681
X16.43 Y17.664
X16.467 Y17.66
X16.503 Y17.669
X16.533 Y17.691
X16.552 Y17.723
X16.559 Y17.759
Y18.241
X16.552 Y18.277
X16.533 Y18.309
X16.503 Y18.331
X16.467 Y18.34
X16.43 Y18.336
X16.397 Y18.319
X16.373 Y18.291
X16.361 Y18.256
G3 X16.341 Y17.999 I1.645 J-0.256
G2 X15.351 Y16.157 I-2.208 J-0.001
G3 X15.34 Y14.065 I0.694 J-1.049
X20.321 Y13.856 I2.66 J3.935
G2 X19.65 Y15.5 I1.679 J1.644
G1 Y20.5
G2 X20.321 Y22.144 I2.35 J0
G3 X15.34 Y14.065 I-2.321 J-4.144
X15.622 Y14.079 I0.132 J0.195
G1 X17.617 Y15.743
X17.652 Y15.767
X17.69 Y15.785
X17.731 Y15.795
G3 X17.027 Y20.204 Z-10.445 I-0.352 J2.205 F50
X17.731 Y15.795 Z-10.69 I0.352 J-2.205
X19.611 Y18.001 Z-10.8 I-0.352 J2.205
X16.341 Y17.999 I-1.635 J-0.001
X16.361 Y17.744 I1.664 J0.001 F150
G1 X16.373 Y17.709
X16.397 Y17.681
X16.43 Y17.664
X16.467 Y17.66
X16.503 Y17.669
X16.533 Y17.691
X16.552 Y17.723
X16.559 Y17.759
Y18.241
X16.552 Y18.277
X16.533 Y18.309
X16.503 Y18.331
X16.467 Y18.34
X16.43 Y18.336
X16.397 Y18.319
X16.373 Y18.291
X16.361 Y18.256
G3 X16.341 Y17.999 I1.645 J-0.256
G2 X15.351 Y16.157 I-2.208 J-0.001
G3 X15.34 Y14.065 I0.694 J-1.049
X20.321 Y13.856 I2.66 J3.935
G2 X19.65 Y15.5 I1.679 J1.644
G1 Y20.5
G2 X20.321 Y22.144 I2.35 J0
G3 X15.34 Y14.065 I-2.321 J-4.144
X15.622 Y14.079 I0.132 J0.195
G1 X17.617 Y15.743
X17.652 Y15.767
X17.69 Y15.785
X17.731 Y15.795
G3 X17.027 Y20.204 Z-11.045 I-0.352 J2.205 F50
X17.731 Y15.795 Z-11.29 I0.352 J-2.205
X19.611 Y18.001 Z-11.4 I-0.352 J2.205
X16.341 Y17.999 I-1.635 J-0.001
X16.361 Y17.744 I1.664 J0.001 F150
G1 X16.373 Y17.709
X16.397 Y17.681
X16.43 Y17.664
X16.467 Y17.66
X16.503 Y17.669
X16.533 Y17.691
X16.552 Y17.723
X16.559 Y17.759
Y18.241
X16.552 Y18.277
X16.533 Y18.309
X16.503 Y18.331
X16.467 Y18.34
X16.43 Y18.336
X16.397 Y18.319
X16.373 Y18.291
X16.361 Y18.256
G3 X16.341 Y17.999 I1.645 J-0.256
G2 X15.351 Y16.157 I-2.208 J-0.001
G3 X15.34 Y14.065 I0.694 J-1.049
X20.321 Y13.856 I2.66 J3.935
G2 X19.65 Y15.5 I1.679 J1.644
G1 Y20.5
G2 X20.321 Y22.144 I2.35 J0
G3 X15.34 Y14.065 I-2.321 J-4.144
X15.622 Y14.079 I0.132 J0.195
G1 X17.617 Y15.743
X17.652 Y15.767
X17.69 Y15.785
X17.731 Y15.795
G3 X17.027 Y20.204 Z-11.645 I-0.352 J2.205 F50
X17.731 Y15.795 Z-11.89 I0.352 J-2.205
X19.611 Y18.001 Z-12 I-0.352 J2.205
X16.341 Y17.999 I-1.635 J-0.001
X16.361 Y17.744 I1.664 J0.001 F150
G1 X16.373 Y17.709
X16.397 Y17.681
X16.43 Y17.664
X16.467 Y17.66
X16.503 Y17.669
X16.533 Y17.691
X16.552 Y17.723
X16.559 Y17.759
Y18.241
X16.552 Y18.277
X16.533 Y18.309
X16.503 Y18.331
X16.467 Y18.34
X16.43 Y18.336
X16.397 Y18.319
X16.373 Y18.291
X16.361 Y18.256
G3 X16.341 Y17.999 I1.645 J-0.256
G2 X15.351 Y16.157 I-2.208 J-0.001
G3 X15.34 Y14.065 I0.694 J-1.049
X20.321 Y13.856 I2.66 J3.935
G2 X19.65 Y15.5 I1.679 J1.644
G1 Y20.5
G2 X20.321 Y22.144 I2.35 J0
G3 X15.34 Y14.065 I-2.321 J-4.144
X15.622 Y14.079 I0.132 J0.195
G1 X17.617 Y15.743
X17.652 Y15.767
X17.69 Y15.785
X17.731 Y15.795
G3 X17.027 Y20.204 Z-12.245 I-0.352 J2.205 F50
X17.731 Y15.795 Z-12.49 I0.352 J-2.205
X19.611 Y18.001 Z-12.6 I-0.352 J2.205
X16.341 Y17.999 I-1.635 J-0.001
X16.361 Y17.744 I1.664 J0.001 F150
G1 X16.373 Y17.709
X16.397 Y17.681
X16.43 Y17.664
X16.467 Y17.66
X16.503 Y17.669
X16.533 Y17.691
X16.552 Y17.723
X16.559 Y17.759
Y18.241
X16.552 Y18.277
X16.533 Y18.309
X16.503 Y18.331
X16.467 Y18.34
X16.43 Y18.336
X16.397 Y18.319
X16.373 Y18.291
X16.361 Y18.256
G3 X16.341 Y17.999 I1.645 J-0.256
G2 X15.351 Y16.157 I-2.208 J-0.001
G3 X15.34 Y14.065 I0.694 J-1.049
X20.321 Y13.856 I2.66 J3.935
G2 X19.65 Y15.5 I1.679 J1.644
G1 Y20.5
G2 X20.321 Y22.144 I2.35 J0
G3 X15.34 Y14.065 I-2.321 J-4.144
X15.622 Y14.079 I0.132 J0.195
G1 X17.617 Y15.743
X17.652 Y15.767
X17.69 Y15.785
X17.731 Y15.795
G3 X17.027 Y20.204 Z-12.845 I-0.352 J2.205 F50
X17.731 Y15.795 Z-13.09 I0.352 J-2.205
X19.611 Y18.001 Z-13.2 I-0.352 J2.205
X16.341 Y17.999 I-1.635 J-0.001
X16.361 Y17.744 I1.664 J0.001 F150
G1 X16.373 Y17.709
X16.397 Y17.681
X16.43 Y17.664
X16.467 Y17.66
X16.503 Y17.669
X16.533 Y17.691
X16.552 Y17.723
X16.559 Y17.759
Y18.241
X16.552 Y18.277
X16.533 Y18.309
X16.503 Y18.331
X16.467 Y18.34
X16.43 Y18.336
X16.397 Y18.319
X16.373 Y18.291
X16.361 Y18.256
G3 X16.341 Y17.999 I1.645 J-0.256
G2 X15.351 Y16.157 I-2.208 J-0.001
G3 X15.34 Y14.065 I0.694 J-1.049
X20.321 Y13.856 I2.66 J3.935
G2 X19.65 Y15.5 I1.679 J1.644
G1 Y20.5
G2 X20.321 Y22.144 I2.35 J0
G3 X15.34 Y14.065 I-2.321 J-4.144
X15.622 Y14.079 I0.132 J0.195
G1 X17.617 Y15.743
X17.652 Y15.767
X17.69 Y15.785
X17.731 Y15.795
G3 X17.027 Y20.204 Z-13.445 I-0.352 J2.205 F50
X17.731 Y15.795 Z-13.69 I0.352 J-2.205
X19.611 Y18.001 Z-13.8 I-0.352 J2.205
X16.341 Y17.999 I-1.635 J-0.001
X16.361 Y17.744 I1.664 J0.001 F150
G1 X16.373 Y17.709
X16.397 Y17.681
X16.43 Y17.664
X16.467 Y17.66
X16.503 Y17.669
X16.533 Y17.691
X16.552 Y17.723
X16.559 Y17.759
Y18.241
X16.552 Y18.277
X16.533 Y18.309
X16.503 Y18.331
X16.467 Y18.34
X16.43 Y18.336
X16.397 Y18.319
X16.373 Y18.291
X16.361 Y18.256
G3 X16.341 Y17.999 I1.645 J-0.256
G2 X15.351 Y16.157 I-2.208 J-0.001
G3 X15.34 Y14.065 I0.694 J-1.049
X20.321 Y13.856 I2.66 J3.935
G2 X19.65 Y15.5 I1.679 J1.644
G1 Y20.5
G2 X20.321 Y22.144 I2.35 J0
G3 X15.34 Y14.065 I-2.321 J-4.144
X17.639 Y14.511 Z-13.844 I0.927 J1.371 F50
G1 X19.367 Y17.075 Z-13.896
G3 X16.623 Y18.925 Z-13.983 I-1.372 J0.925
X16.341 Y17.999 Z-14 I1.372 J-0.925
X16.361 Y17.744 I1.664 J0.001 F150
G1 X16.373 Y17.709
X16.397 Y17.681
X16.43 Y17.664
X16.467 Y17.66
X16.503 Y17.669
X16.533 Y17.691
X16.552 Y17.723
X16.559 Y17.759
Y18.241
X16.552 Y18.277
X16.533 Y18.309
X16.503 Y18.331
X16.467 Y18.34
X16.43 Y18.336
X16.397 Y18.319
X16.373 Y18.291
X16.361 Y18.256
G3 X16.341 Y17.999 I1.645 J-0.256
G2 X15.351 Y16.157 I-2.208 J-0.001
G3 X15.34 Y14.065 I0.694 J-1.049
X20.321 Y13.856 I2.66 J3.935
G2 X19.65 Y15.5 I1.679 J1.644
G1 Y20.5
G2 X20.321 Y22.144 I2.35 J0
G3 X15.34 Y14.065 I-2.321 J-4.144
G1 X15.392 Y14.034 Z-13.988
X15.447 Y14.011 Z-13.976
X15.505 Y13.994 Z-13.964
X15.58 Y13.985 Z-13.913
X15.656 Y13.987 Z-13.862
X15.706 Y13.995 Z-13.786
X15.755 Y14.009 Z-13.71
X15.789 Y14.022 Z-13.53
Z10
(When using Fusion 360 for Personal Use, the feedrate of)
(rapid moves is reduced to match the feedrate of cutting)
(moves, which can increase machining time. Unrestricted rapid)
(moves are available with a Fusion 360 Subscription.)

(2D Pocket2)
G0 X30.2 Y39.852
G1 Z10 F150
Z5
Z-0.13 F50
X30.206 Y39.848 Z-0.212
X30.223 Y39.836 Z-0.291
X30.251 Y39.815 Z-0.365
X30.289 Y39.788 Z-0.432
X30.337 Y39.754 Z-0.49
X30.391 Y39.715 Z-0.537
X30.452 Y39.672 Z-0.572
X30.516 Y39.626 Z-0.593
X30.582 Y39.579 Z-0.6
X32.447 Y38.247
G2 X35.682 Y35.49 I-14.446 J-20.225 F150
G3 X37.159 Y34.473 I3.413 J3.378
G2 X38.244 Y33.943 I-6.189 J-14.043
G3 X39.357 Y35.818 I0.517 J0.961
G1 X36.904 Y37.417
X36.83 Y37.461
X36.753 Y37.499
X33.081 Y39.135
G3 X32.754 Y39.224 I-0.444 J-0.997
G1 X21.826 Y40.409
G3 X21.521 Y38.249 I-0.118 J-1.085
G2 X26.004 Y36.922 I-3.49 J-20.032
X30.035 Y34.629 I-7.734 J-18.283
X33.466 Y31.508 I-13.281 J-18.05
G3 X34.49 Y30.832 I1.794 J1.602
G2 X38.246 Y28.662 I-3.529 J-10.446
G1 X38.28 Y28.626
X38.305 Y28.583
X38.321 Y28.536
X38.326 Y28.486
X38.37 Y1.253
X38.364 Y1.203
X38.348 Y1.155
X38.322 Y1.111
X38.287 Y1.074
X38.245 Y1.046
G2 X35.624 Y-0.053 I-7.181 J13.454
G3 X34.272 Y-0.808 I1.171 J-3.685
G2 X32.439 Y-2.247 I-16.69 J19.385
G3 X32.194 Y-3.783 I0.634 J-0.888
X33.734 Y-4.003 I0.878 J0.648
G1 X36.026 Y-2.255
X36.074 Y-2.216
X38.759 Y0.083
G3 X39.12 Y0.699 I-0.71 J0.829
G1 X40.036 Y5.3
G3 X38.245 Y6.332 I-1.07 J0.213
G2 X33.323 Y3.845 I-7.267 J8.268
G3 X32.286 Y3.29 I0.459 J-2.105
G2 X25.739 Y-1.013 I-14.681 J15.204
X21.517 Y-2.248 I-7.682 J18.422
G1 X3.682 Y-2.293
X3.633 Y-2.288
X3.587 Y-2.273
X3.545 Y-2.249
G2 X0.254 Y0.575 I14.513 J20.237
G3 X-1.077 Y1.491 I-3.004 J-2.941
G2 X-2.249 Y2.06 I6.107 J14.078
G3 X-3.362 Y0.185 I-0.518 J-0.961
G1 X-0.911 Y-1.411
X-0.838 Y-1.455
X-0.761 Y-1.492
X2.909 Y-3.136
G3 X3.238 Y-3.225 I0.446 J0.996
G1 X14.254 Y-4.41
G3 X14.556 Y-2.25 I0.117 J1.085
G2 X2.591 Y4.471 I3.501 J20.245
G3 X1.568 Y5.149 I-1.759 J-1.544
G2 X-2.248 Y7.339 I3.47 J10.465
G1 X-2.282 Y7.376
X-2.307 Y7.418
X-2.322 Y7.466
X-2.328 Y7.515
X-2.37 Y34.747
X-2.364 Y34.797
X-2.348 Y34.845
X-2.322 Y34.889
X-2.287 Y34.926
X-2.245 Y34.954
G2 X0.376 Y36.053 I7.181 J-13.454
G3 X1.734 Y36.814 I-1.169 J3.68
G2 X3.557 Y38.249 I16.267 J-18.791
G3 X3.801 Y39.786 I-0.634 J0.888
X2.26 Y40.004 I-0.878 J-0.649
G1 X-0.027 Y38.254
X-0.074 Y38.216
X-2.759 Y35.917
G3 X-3.12 Y35.301 I0.71 J-0.829
G1 X-4.036 Y30.7
G3 X-2.246 Y29.668 I1.07 J-0.213
G2 X2.676 Y32.155 I7.267 J-8.268
G3 X3.718 Y32.714 I-0.459 J2.105
G2 X14.594 Y38.25 I14.389 J-14.819
X18.421 Y36.372 I0.618 J-3.579
G3 X21.789 Y33.759 I4.582 J2.429
G2 X24.362 Y32.904 I-3.758 J-15.611
X28.137 Y30.693 I-6.818 J-15.973
X31.096 Y27.471 I-7.796 J-10.128
G3 X31.831 Y27.007 I0.866 J0.556
G2 X35.946 Y24.843 I-0.842 J-6.597
X37.605 Y20.5 I-4.856 J-4.343
G1 Y14.5
G2 X35.7 Y9.892 I-6.527 J0
X31.11 Y7.941 I-4.701 J4.687
G3 X30.391 Y7.596 I0.016 J-0.956
G2 X18.058 Y1.795 I-12.359 J10.265
X10.649 Y3.584 I0 J16.239
X7.465 Y5.736 I7.122 J13.967
X4.873 Y8.575 I11.144 J12.774
G3 X4.169 Y8.993 I-0.835 J-0.604
G2 X0.054 Y11.157 I0.843 J6.597
X-1.605 Y15.5 I4.856 J4.343
G1 Y21.5
G2 X0.304 Y26.112 I6.527 J0
X4.899 Y28.059 I4.698 J-4.691
G3 X5.639 Y28.409 I-0.015 J0.989
G2 X11.195 Y32.674 I12.589 J-10.648
X18.03 Y34.205 I6.835 J-14.495
X21.789 Y33.759 I0 J-16.057
X24.537 Y30.472 I-0.842 J-3.497
G3 X26.321 Y26.577 I5.898 J0.345
G2 X26.7 Y26.192 I-8.321 J-8.577
X27.624 Y25.083 I-3.222 J-3.625
X28.922 Y22.85 I-9.624 J-7.083
G1 X31
G2 X33.35 Y20.5 I0 J-2.35
G1 Y14.5
G2 X31 Y12.15 I-2.35 J0
G1 X28.42
G2 X27.45 Y10.685 I-10.421 J5.849
X26.709 Y9.817 I-4.034 J2.693
X7.078 Y13.15 I-8.709 J8.183
G1 X5
G2 X2.65 Y15.5 I0 J2.35
G1 Y21.5
G2 X5 Y23.85 I2.35 J0
G1 X7.58
G2 X26.321 Y26.577 I10.42 J-5.85
G3 X26.704 Y26.66 I0.164 J0.169
G1 X31.363 Y38.661
G2 X31.718 Y38.767 I0.219 J-0.085
G1 X31.784 Y38.721 Z-0.607 F50
X31.847 Y38.676 Z-0.627
X31.907 Y38.633 Z-0.661
X31.961 Y38.594 Z-0.706
X32.008 Y38.561 Z-0.763
X32.046 Y38.533 Z-0.828
X32.075 Y38.513 Z-0.9
X32.104 Y38.492 Z-0.972
X32.142 Y38.465 Z-1.037
X32.189 Y38.431 Z-1.094
X32.243 Y38.393 Z-1.139
X32.303 Y38.35 Z-1.173
X32.366 Y38.305 Z-1.193
X32.432 Y38.258 Z-1.2
X32.447 Y38.247
G2 X35.682 Y35.49 I-14.446 J-20.225 F150
G3 X37.159 Y34.473 I3.413 J3.378
G2 X38.244 Y33.943 I-6.189 J-14.043
G3 X39.357 Y35.818 I0.517 J0.961
G1 X36.904 Y37.417
X36.83 Y37.461
X36.753 Y37.499
X33.081 Y39.135
G3 X32.754 Y39.224 I-0.444 J-0.997
G1 X21.826 Y40.409
G3 X21.521 Y38.249 I-0.118 J-1.085
G2 X26.004 Y36.922 I-3.49 J-20.032
X30.035 Y34.629 I-7.734 J-18.283
X33.466 Y31.508 I-13.281 J-18.05
G3 X34.49 Y30.832 I1.794 J1.602
G2 X38.246 Y28.662 I-3.529 J-10.446
G1 X38.28 Y28.626
X38.305 Y28.583
X38.321 Y28.536
X38.326 Y28.486
X38.37 Y1.253
X38.364 Y1.203
X38.348 Y1.155
X38.322 Y1.111
X38.287 Y1.074
X38.245 Y1.046
G2 X35.624 Y-0.053 I-7.181 J13.454
G3 X34.272 Y-0.808 I1.171 J-3.685
G2 X32.439 Y-2.247 I-16.69 J19.385
G3 X32.194 Y-3.783 I0.634 J-0.888
X33.734 Y-4.003 I0.878 J0.648
G1 X36.026 Y-2.255
X36.074 Y-2.216
X38.759 Y0.083
G3 X39.12 Y0.699 I-0.71 J0.829
G1 X40.036 Y5.3
G3 X38.245 Y6.332 I-1.07 J0.213
G2 X33.323 Y3.845 I-7.267 J8.268
G3 X32.286 Y3.29 I0.459 J-2.105
G2 X25.739 Y-1.013 I-14.681 J15.204
X21.517 Y-2.248 I-7.682 J18.422
G1 X3.682 Y-2.293
X3.633 Y-2.288
X3.587 Y-2.273
X3.545 Y-2.249
G2 X0.254 Y0.575 I14.513 J20.237
G3 X-1.077 Y1.491 I-3.004 J-2.941
G2 X-2.249 Y2.06 I6.107 J14.078
G3 X-3.362 Y0.185 I-0.518 J-0.961
G1 X-0.911 Y-1.411
X-0.838 Y-1.455
X-0.761 Y-1.492
X2.909 Y-3.136
G3 X3.238 Y-3.225 I0.446 J0.996
G1 X14.254 Y-4.41
G3 X14.556 Y-2.25 I0.117 J1.085
G2 X2.591 Y4.471 I3.501 J20.245
G3 X1.568 Y5.149 I-1.759 J-1.544
G2 X-2.248 Y7.339 I3.47 J10.465
G1 X-2.282 Y7.376
X-2.307 Y7.418
X-2.322 Y7.466
X-2.328 Y7.515
X-2.37 Y34.747
X-2.364 Y34.797
X-2.348 Y34.845
X-2.322 Y34.889
X-2.287 Y34.926
X-2.245 Y34.954
G2 X0.376 Y36.053 I7.181 J-13.454
G3 X1.734 Y36.814 I-1.169 J3.68
G2 X3.557 Y38.249 I16.267 J-18.791
G3 X3.801 Y39.786 I-0.634 J0.888
X2.26 Y40.004 I-0.878 J-0.649
G1 X-0.027 Y38.254
X-0.074 Y38.216
X-2.759 Y35.917
G3 X-3.12 Y35.301 I0.71 J-0.829
G1 X-4.036 Y30.7
G3 X-2.246 Y29.668 I1.07 J-0.213
G2 X2.676 Y32.155 I7.267 J-8.268
G3 X3.718 Y32.714 I-0.459 J2.105
G2 X14.594 Y38.25 I14.389 J-14.819
X18.421 Y36.372 I0.618 J-3.579
G3 X21.789 Y33.759 I4.582 J2.429
G2 X24.362 Y32.904 I-3.758 J-15.611
X28.137 Y30.693 I-6.818 J-15.973
X31.096 Y27.471 I-7.796 J-10.128
G3 X31.831 Y27.007 I0.866 J0.556
G2 X35.946 Y24.843 I-0.842 J-6.597
X37.605 Y20.5 I-4.856 J-4.343
G1 Y14.5
G2 X35.7 Y9.892 I-6.527 J0
X31.11 Y7.941 I-4.701 J4.687
G3 X30.391 Y7.596 I0.016 J-0.956
G2 X18.058 Y1.795 I-12.359 J10.265
X10.649 Y3.584 I0 J16.239
X7.465 Y5.736 I7.122 J13.967
X4.873 Y8.575 I11.144 J12.774
G3 X4.169 Y8.993 I-0.835 J-0.604
G2 X0.054 Y11.157 I0.843 J6.597
X-1.605 Y15.5 I4.856 J4.343
G1 Y21.5
G2 X0.304 Y26.112 I6.527 J0
X4.899 Y28.059 I4.698 J-4.691
G3 X5.639 Y28.409 I-0.015 J0.989
G2 X11.195 Y32.674 I12.589 J-10.648
X18.03 Y34.205 I6.835 J-14.495
X21.789 Y33.759 I0 J-16.057
X24.537 Y30.472 I-0.842 J-3.497
G3 X26.321 Y26.577 I5.898 J0.345
G2 X26.7 Y26.192 I-8.321 J-8.577
X27.624 Y25.083 I-3.222 J-3.625
X28.922 Y22.85 I-9.624 J-7.083
G1 X31
G2 X33.35 Y20.5 I0 J-2.35
G1 Y14.5
G2 X31 Y12.15 I-2.35 J0
G1 X28.42
G2 X27.45 Y10.685 I-10.421 J5.849
X26.709 Y9.817 I-4.034 J2.693
X7.078 Y13.15 I-8.709 J8.183
G1 X5
G2 X2.65 Y15.5 I0 J2.35
G1 Y21.5
G2 X5 Y23.85 I2.35 J0
G1 X7.58
G2 X26.321 Y26.577 I10.42 J-5.85
G3 X26.704 Y26.66 I0.164 J0.169
G1 X31.363 Y38.661
G2 X31.718 Y38.767 I0.219 J-0.085
G1 X31.784 Y38.721 Z-1.207 F50
X31.847 Y38.676 Z-1.227
X31.907 Y38.633 Z-1.261
X31.961 Y38.594 Z-1.306
X32.008 Y38.561 Z-1.363
X32.046 Y38.533 Z-1.428
X32.075 Y38.513 Z-1.5
X32.104 Y38.492 Z-1.572
X32.142 Y38.465 Z-1.637
X32.189 Y38.431 Z-1.694
X32.243 Y38.393 Z-1.739
X32.303 Y38.35 Z-1.773
X32.366 Y38.305 Z-1.793
X32.432 Y38.258 Z-1.8
X32.447 Y38.247
G2 X35.682 Y35.49 I-14.446 J-20.225 F150
G3 X37.159 Y34.473 I3.413 J3.378
G2 X38.244 Y33.943 I-6.189 J-14.043
G3 X39.357 Y35.818 I0.517 J0.961
G1 X36.904 Y37.417
X36.83 Y37.461
X36.753 Y37.499
X33.081 Y39.135
G3 X32.754 Y39.224 I-0.444 J-0.997
G1 X21.826 Y40.409
G3 X21.521 Y38.249 I-0.118 J-1.085
G2 X26.004 Y36.922 I-3.49 J-20.032
X30.035 Y34.629 I-7.734 J-18.283
X33.466 Y31.508 I-13.281 J-18.05
G3 X34.49 Y30.832 I1.794 J1.602
G2 X38.246 Y28.662 I-3.529 J-10.446
G1 X38.28 Y28.626
X38.305 Y28.583
X38.321 Y28.536
X38.326 Y28.486
X38.37 Y1.253
X38.364 Y1.203
X38.348 Y1.155
X38.322 Y1.111
X38.287 Y1.074
X38.245 Y1.046
G2 X35.624 Y-0.053 I-7.181 J13.454
G3 X34.272 Y-0.808 I1.171 J-3.685
G2 X32.439 Y-2.247 I-16.69 J19.385
G3 X32.194 Y-3.783 I0.634 J-0.888
X33.734 Y-4.003 I0.878 J0.648
G1 X36.026 Y-2.255
X36.074 Y-2.216
X38.759 Y0.083
G3 X39.12 Y0.699 I-0.71 J0.829
G1 X40.036 Y5.3
G3 X38.245 Y6.332 I-1.07 J0.213
G2 X33.323 Y3.845 I-7.267 J8.268
G3 X32.286 Y3.29 I0.459 J-2.105
G2 X25.739 Y-1.013 I-14.681 J15.204
X21.517 Y-2.248 I-7.682 J18.422
G1 X3.682 Y-2.293
X3.633 Y-2.288
X3.587 Y-2.273
X3.545 Y-2.249
G2 X0.254 Y0.575 I14.513 J20.237
G3 X-1.077 Y1.491 I-3.004 J-2.941
G2 X-2.249 Y2.06 I6.107 J14.078
G3 X-3.362 Y0.185 I-0.518 J-0.961
G1 X-0.911 Y-1.411
X-0.838 Y-1.455
X-0.761 Y-1.492
X2.909 Y-3.136
G3 X3.238 Y-3.225 I0.446 J0.996
G1 X14.254 Y-4.41
G3 X14.556 Y-2.25 I0.117 J1.085
G2 X2.591 Y4.471 I3.501 J20.245
G3 X1.568 Y5.149 I-1.759 J-1.544
G2 X-2.248 Y7.339 I3.47 J10.465
G1 X-2.282 Y7.376
X-2.307 Y7.418
X-2.322 Y7.466
X-2.328 Y7.515
X-2.37 Y34.747
X-2.364 Y34.797
X-2.348 Y34.845
X-2.322 Y34.889
X-2.287 Y34.926
X-2.245 Y34.954
G2 X0.376 Y36.053 I7.181 J-13.454
G3 X1.734 Y36.814 I-1.169 J3.68
G2 X3.557 Y38.249 I16.267 J-18.791
G3 X3.801 Y39.786 I-0.634 J0.888
X2.26 Y40.004 I-0.878 J-0.649
G1 X-0.027 Y38.254
X-0.074 Y38.216
X-2.759 Y35.917
G3 X-3.12 Y35.301 I0.71 J-0.829
G1 X-4.036 Y30.7
G3 X-2.246 Y29.668 I1.07 J-0.213
G2 X2.676 Y32.155 I7.267 J-8.268
G3 X3.718 Y32.714 I-0.459 J2.105
G2 X14.594 Y38.25 I14.389 J-14.819
X18.421 Y36.372 I0.618 J-3.579
G3 X21.789 Y33.759 I4.582 J2.429
G2 X24.362 Y32.904 I-3.758 J-15.611
X28.137 Y30.693 I-6.818 J-15.973
X31.096 Y27.471 I-7.796 J-10.128
G3 X31.831 Y27.007 I0.866 J0.556
G2 X35.946 Y24.843 I-0.842 J-6.597
X37.605 Y20.5 I-4.856 J-4.343
G1 Y14.5
G2 X35.7 Y9.892 I-6.527 J0
X31.11 Y7.941 I-4.701 J4.687
G3 X30.391 Y7.596 I0.016 J-0.956
G2 X18.058 Y1.795 I-12.359 J10.265
X10.649 Y3.584 I0 J16.239
X7.465 Y5.736 I7.122 J13.967
X4.873 Y8.575 I11.144 J12.774
G3 X4.169 Y8.993 I-0.835 J-0.604
G2 X0.054 Y11.157 I0.843 J6.597
X-1.605 Y15.5 I4.856 J4.343
G1 Y21.5
G2 X0.304 Y26.112 I6.527 J0
X4.899 Y28.059 I4.698 J-4.691
G3 X5.639 Y28.409 I-0.015 J0.989
G2 X11.195 Y32.674 I12.589 J-10.648
X18.03 Y34.205 I6.835 J-14.495
X21.789 Y33.759 I0 J-16.057
X24.537 Y30.472 I-0.842 J-3.497
G3 X26.321 Y26.577 I5.898 J0.345
G2 X26.7 Y26.192 I-8.321 J-8.577
X27.624 Y25.083 I-3.222 J-3.625
X28.922 Y22.85 I-9.624 J-7.083
G1 X31
G2 X33.35 Y20.5 I0 J-2.35
G1 Y14.5
G2 X31 Y12.15 I-2.35 J0
G1 X28.42
G2 X27.45 Y10.685 I-10.421 J5.849
X26.709 Y9.817 I-4.034 J2.693
X7.078 Y13.15 I-8.709 J8.183
G1 X5
G2 X2.65 Y15.5 I0 J2.35
G1 Y21.5
G2 X5 Y23.85 I2.35 J0
G1 X7.58
G2 X26.321 Y26.577 I10.42 J-5.85
G3 X26.704 Y26.66 I0.164 J0.169
G1 X31.363 Y38.661
G2 X31.718 Y38.767 I0.219 J-0.085
G1 X31.784 Y38.721 Z-1.807 F50
X31.847 Y38.676 Z-1.827
X31.907 Y38.633 Z-1.861
X31.961 Y38.594 Z-1.906
X32.008 Y38.561 Z-1.963
X32.046 Y38.533 Z-2.028
X32.075 Y38.513 Z-2.1
X32.104 Y38.492 Z-2.172
X32.142 Y38.465 Z-2.237
X32.189 Y38.431 Z-2.294
X32.243 Y38.393 Z-2.339
X32.303 Y38.35 Z-2.373
X32.366 Y38.305 Z-2.393
X32.432 Y38.258 Z-2.4
X32.447 Y38.247
G2 X35.682 Y35.49 I-14.446 J-20.225 F150
G3 X37.159 Y34.473 I3.413 J3.378
G2 X38.244 Y33.943 I-6.189 J-14.043
G3 X39.357 Y35.818 I0.517 J0.961
G1 X36.904 Y37.417
X36.83 Y37.461
X36.753 Y37.499
X33.081 Y39.135
G3 X32.754 Y39.224 I-0.444 J-0.997
G1 X21.826 Y40.409
G3 X21.521 Y38.249 I-0.118 J-1.085
G2 X26.004 Y36.922 I-3.49 J-20.032
X30.035 Y34.629 I-7.734 J-18.283
X33.466 Y31.508 I-13.281 J-18.05
G3 X34.49 Y30.832 I1.794 J1.602
G2 X38.246 Y28.662 I-3.529 J-10.446
G1 X38.28 Y28.626
X38.305 Y28.583
X38.321 Y28.536
X38.326 Y28.486
X38.37 Y1.253
X38.364 Y1.203
X38.348 Y1.155
X38.322 Y1.111
X38.287 Y1.074
X38.245 Y1.046
G2 X35.624 Y-0.053 I-7.181 J13.454
G3 X34.272 Y-0.808 I1.171 J-3.685
G2 X32.439 Y-2.247 I-16.69 J19.385
G3 X32.194 Y-3.783 I0.634 J-0.888
X33.734 Y-4.003 I0.878 J0.648
G1 X36.026 Y-2.255
X36.074 Y-2.216
X38.759 Y0.083
G3 X39.12 Y0.699 I-0.71 J0.829
G1 X40.036 Y5.3
G3 X38.245 Y6.332 I-1.07 J0.213
G2 X33.323 Y3.845 I-7.267 J8.268
G3 X32.286 Y3.29 I0.459 J-2.105
G2 X25.739 Y-1.013 I-14.681 J15.204
X21.517 Y-2.248 I-7.682 J18.422
G1 X3.682 Y-2.293
X3.633 Y-2.288
X3.587 Y-2.273
X3.545 Y-2.249
G2 X0.254 Y0.575 I14.513 J20.237
G3 X-1.077 Y1.491 I-3.004 J-2.941
G2 X-2.249 Y2.06 I6.107 J14.078
G3 X-3.362 Y0.185 I-0.518 J-0.961
G1 X-0.911 Y-1.411
X-0.838 Y-1.455
X-0.761 Y-1.492
X2.909 Y-3.136
G3 X3.238 Y-3.225 I0.446 J0.996
G1 X14.254 Y-4.41
G3 X14.556 Y-2.25 I0.117 J1.085
G2 X2.591 Y4.471 I3.501 J20.245
G3 X1.568 Y5.149 I-1.759 J-1.544
G2 X-2.248 Y7.339 I3.47 J10.465
G1 X-2.282 Y7.376
X-2.307 Y7.418
X-2.322 Y7.466
X-2.328 Y7.515
X-2.37 Y34.747
X-2.364 Y34.797
X-2.348 Y34.845
X-2.322 Y34.889
X-2.287 Y34.926
X-2.245 Y34.954
G2 X0.376 Y36.053 I7.181 J-13.454
G3 X1.734 Y36.814 I-1.169 J3.68
G2 X3.557 Y38.249 I16.267 J-18.791
G3 X3.801 Y39.786 I-0.634 J0.888
X2.26 Y40.004 I-0.878 J-0.649
G1 X-0.027 Y38.254
X-0.074 Y38.216
X-2.759 Y35.917
G3 X-3.12 Y35.301 I0.71 J-0.829
G1 X-4.036 Y30.7
G3 X-2.246 Y29.668 I1.07 J-0.213
G2 X2.676 Y32.155 I7.267 J-8.268
G3 X3.718 Y32.714 I-0.459 J2.105
G2 X14.594 Y38.25 I14.389 J-14.819
X18.421 Y36.372 I0.618 J-3.579
G3 X21.789 Y33.759 I4.582 J2.429
G2 X24.362 Y32.904 I-3.758 J-15.611
X28.137 Y30.693 I-6.818 J-15.973
X31.096 Y27.471 I-7.796 J-10.128
G3 X31.831 Y27.007 I0.866 J0.556
G2 X35.946 Y24.843 I-0.842 J-6.597
X37.605 Y20.5 I-4.856 J-4.343
G1 Y14.5
G2 X35.7 Y9.892 I-6.527 J0
X31.11 Y7.941 I-4.701 J4.687
G3 X30.391 Y7.596 I0.016 J-0.956
G2 X18.058 Y1.795 I-12.359 J10.265
X10.649 Y3.584 I0 J16.239
X7.465 Y5.736 I7.122 J13.967
X4.873 Y8.575 I11.144 J12.774
G3 X4.169 Y8.993 I-0.835 J-0.604
G2 X0.054 Y11.157 I0.843 J6.597
X-1.605 Y15.5 I4.856 J4.343
G1 Y21.5
G2 X0.304 Y26.112 I6.527 J0
X4.899 Y28.059 I4.698 J-4.691
G3 X5.639 Y28.409 I-0.015 J0.989
G2 X11.195 Y32.674 I12.589 J-10.648
X18.03 Y34.205 I6.835 J-14.495
X21.789 Y33.759 I0 J-16.057
X24.537 Y30.472 I-0.842 J-3.497
G3 X26.321 Y26.577 I5.898 J0.345
G2 X26.7 Y26.192 I-8.321 J-8.577
X27.624 Y25.083 I-3.222 J-3.625
X28.922 Y22.85 I-9.624 J-7.083
G1 X31
G2 X33.35 Y20.5 I0 J-2.35
G1 Y14.5
G2 X31 Y12.15 I-2.35 J0
G1 X28.42
G2 X27.45 Y10.685 I-10.421 J5.849
X26.709 Y9.817 I-4.034 J2.693
X7.078 Y13.15 I-8.709 J8.183
G1 X5
G2 X2.65 Y15.5 I0 J2.35
G1 Y21.5
G2 X5 Y23.85 I2.35 J0
G1 X7.58
G2 X26.321 Y26.577 I10.42 J-5.85
G3 X26.704 Y26.66 I0.164 J0.169
G1 X31.363 Y38.661
G2 X31.718 Y38.767 I0.219 J-0.085
G1 X31.784 Y38.721 Z-2.407 F50
X31.847 Y38.676 Z-2.427
X31.907 Y38.633 Z-2.461
X31.961 Y38.594 Z-2.506
X32.008 Y38.561 Z-2.563
X32.046 Y38.533 Z-2.628
X32.075 Y38.513 Z-2.7
X32.104 Y38.492 Z-2.772
X32.142 Y38.465 Z-2.837
X32.189 Y38.431 Z-2.894
X32.243 Y38.393 Z-2.939
X32.303 Y38.35 Z-2.973
X32.366 Y38.305 Z-2.993
X32.432 Y38.258 Z-3
X32.447 Y38.247
G2 X35.682 Y35.49 I-14.446 J-20.225 F150
G3 X37.159 Y34.473 I3.413 J3.378
G2 X38.244 Y33.943 I-6.189 J-14.043
G3 X39.357 Y35.818 I0.517 J0.961
G1 X36.904 Y37.417
X36.83 Y37.461
X36.753 Y37.499
X33.081 Y39.135
G3 X32.754 Y39.224 I-0.444 J-0.997
G1 X21.826 Y40.409
G3 X21.521 Y38.249 I-0.118 J-1.085
G2 X26.004 Y36.922 I-3.49 J-20.032
X30.035 Y34.629 I-7.734 J-18.283
X33.466 Y31.508 I-13.281 J-18.05
G3 X34.49 Y30.832 I1.794 J1.602
G2 X38.246 Y28.662 I-3.529 J-10.446
G1 X38.28 Y28.626
X38.305 Y28.583
X38.321 Y28.536
X38.326 Y28.486
X38.37 Y1.253
X38.364 Y1.203
X38.348 Y1.155
X38.322 Y1.111
X38.287 Y1.074
X38.245 Y1.046
G2 X35.624 Y-0.053 I-7.181 J13.454
G3 X34.272 Y-0.808 I1.171 J-3.685
G2 X32.439 Y-2.247 I-16.69 J19.385
G3 X32.194 Y-3.783 I0.634 J-0.888
X33.734 Y-4.003 I0.878 J0.648
G1 X36.026 Y-2.255
X36.074 Y-2.216
X38.759 Y0.083
G3 X39.12 Y0.699 I-0.71 J0.829
G1 X40.036 Y5.3
G3 X38.245 Y6.332 I-1.07 J0.213
G2 X33.323 Y3.845 I-7.267 J8.268
G3 X32.286 Y3.29 I0.459 J-2.105
G2 X25.739 Y-1.013 I-14.681 J15.204
X21.517 Y-2.248 I-7.682 J18.422
G1 X3.682 Y-2.293
X3.633 Y-2.288
X3.587 Y-2.273
X3.545 Y-2.249
G2 X0.254 Y0.575 I14.513 J20.237
G3 X-1.077 Y1.491 I-3.004 J-2.941
G2 X-2.249 Y2.06 I6.107 J14.078
G3 X-3.362 Y0.185 I-0.518 J-0.961
G1 X-0.911 Y-1.411
X-0.838 Y-1.455
X-0.761 Y-1.492
X2.909 Y-3.136
G3 X3.238 Y-3.225 I0.446 J0.996
G1 X14.254 Y-4.41
G3 X14.556 Y-2.25 I0.117 J1.085
G2 X2.591 Y4.471 I3.501 J20.245
G3 X1.568 Y5.149 I-1.759 J-1.544
G2 X-2.248 Y7.339 I3.47 J10.465
G1 X-2.282 Y7.376
X-2.307 Y7.418
X-2.322 Y7.466
X-2.328 Y7.515
X-2.37 Y34.747
X-2.364 Y34.797
X-2.348 Y34.845
X-2.322 Y34.889
X-2.287 Y34.926
X-2.245 Y34.954
G2 X0.376 Y36.053 I7.181 J-13.454
G3 X1.734 Y36.814 I-1.169 J3.68
G2 X3.557 Y38.249 I16.267 J-18.791
G3 X3.801 Y39.786 I-0.634 J0.888
X2.26 Y40.004 I-0.878 J-0.649
G1 X-0.027 Y38.254
X-0.074 Y38.216
X-2.759 Y35.917
G3 X-3.12 Y35.301 I0.71 J-0.829
G1 X-4.036 Y30.7
G3 X-2.246 Y29.668 I1.07 J-0.213
G2 X2.676 Y32.155 I7.267 J-8.268
G3 X3.718 Y32.714 I-0.459 J2.105
G2 X14.594 Y38.25 I14.389 J-14.819
X18.421 Y36.372 I0.618 J-3.579
G3 X21.789 Y33.759 I4.582 J2.429
G2 X24.362 Y32.904 I-3.758 J-15.611
X28.137 Y30.693 I-6.818 J-15.973
X31.096 Y27.471 I-7.796 J-10.128
G3 X31.831 Y27.007 I0.866 J0.556
G2 X35.946 Y24.843 I-0.842 J-6.597
X37.605 Y20.5 I-4.856 J-4.343
G1 Y14.5
G2 X35.7 Y9.892 I-6.527 J0
X31.11 Y7.941 I-4.701 J4.687
G3 X30.391 Y7.596 I0.016 J-0.956
G2 X18.058 Y1.795 I-12.359 J10.265
X10.649 Y3.584 I0 J16.239
X7.465 Y5.736 I7.122 J13.967
X4.873 Y8.575 I11.144 J12.774
G3 X4.169 Y8.993 I-0.835 J-0.604
G2 X0.054 Y11.157 I0.843 J6.597
X-1.605 Y15.5 I4.856 J4.343
G1 Y21.5
G2 X0.304 Y26.112 I6.527 J0
X4.899 Y28.059 I4.698 J-4.691
G3 X5.639 Y28.409 I-0.015 J0.989
G2 X11.195 Y32.674 I12.589 J-10.648
X18.03 Y34.205 I6.835 J-14.495
X21.789 Y33.759 I0 J-16.057
X24.537 Y30.472 I-0.842 J-3.497
G3 X26.321 Y26.577 I5.898 J0.345
G2 X26.7 Y26.192 I-8.321 J-8.577
X27.624 Y25.083 I-3.222 J-3.625
X28.922 Y22.85 I-9.624 J-7.083
G1 X31
G2 X33.35 Y20.5 I0 J-2.35
G1 Y14.5
G2 X31 Y12.15 I-2.35 J0
G1 X28.42
G2 X27.45 Y10.685 I-10.421 J5.849
X26.709 Y9.817 I-4.034 J2.693
X7.078 Y13.15 I-8.709 J8.183
G1 X5
G2 X2.65 Y15.5 I0 J2.35
G1 Y21.5
G2 X5 Y23.85 I2.35 J0
G1 X7.58
G2 X26.321 Y26.577 I10.42 J-5.85
G3 X26.704 Y26.66 I0.164 J0.169
G1 X31.363 Y38.661
G2 X31.718 Y38.767 I0.219 J-0.085
G1 X31.784 Y38.721 Z-3.007 F50
X31.847 Y38.676 Z-3.027
X31.907 Y38.633 Z-3.061
X31.961 Y38.594 Z-3.106
X32.008 Y38.561 Z-3.163
X32.046 Y38.533 Z-3.228
X32.075 Y38.513 Z-3.3
X32.104 Y38.492 Z-3.372
X32.142 Y38.465 Z-3.437
X32.189 Y38.431 Z-3.494
X32.243 Y38.393 Z-3.539
X32.303 Y38.35 Z-3.573
X32.366 Y38.305 Z-3.593
X32.432 Y38.258 Z-3.6
X32.447 Y38.247
G2 X35.682 Y35.49 I-14.446 J-20.225 F150
G3 X37.159 Y34.473 I3.413 J3.378
G2 X38.244 Y33.943 I-6.189 J-14.043
G3 X39.357 Y35.818 I0.517 J0.961
G1 X36.904 Y37.417
X36.83 Y37.461
X36.753 Y37.499
X33.081 Y39.135
G3 X32.754 Y39.224 I-0.444 J-0.997
G1 X21.826 Y40.409
G3 X21.521 Y38.249 I-0.118 J-1.085
G2 X26.004 Y36.922 I-3.49 J-20.032
X30.035 Y34.629 I-7.734 J-18.283
X33.466 Y31.508 I-13.281 J-18.05
G3 X34.49 Y30.832 I1.794 J1.602
G2 X38.246 Y28.662 I-3.529 J-10.446
G1 X38.28 Y28.626
X38.305 Y28.583
X38.321 Y28.536
X38.326 Y28.486
X38.37 Y1.253
X38.364 Y1.203
X38.348 Y1.155
X38.322 Y1.111
X38.287 Y1.074
X38.245 Y1.046
G2 X35.624 Y-0.053 I-7.181 J13.454
G3 X34.272 Y-0.808 I1.171 J-3.685
G2 X32.439 Y-2.247 I-16.69 J19.385
G3 X32.194 Y-3.783 I0.634 J-0.888
X33.734 Y-4.003 I0.878 J0.648
G1 X36.026 Y-2.255
X36.074 Y-2.216
X38.759 Y0.083
G3 X39.12 Y0.699 I-0.71 J0.829
G1 X40.036 Y5.3
G3 X38.245 Y6.332 I-1.07 J0.213
G2 X33.323 Y3.845 I-7.267 J8.268
G3 X32.286 Y3.29 I0.459 J-2.105
G2 X25.739 Y-1.013 I-14.681 J15.204
X21.517 Y-2.248 I-7.682 J18.422
G1 X3.682 Y-2.293
X3.633 Y-2.288
X3.587 Y-2.273
X3.545 Y-2.249
G2 X0.254 Y0.575 I14.513 J20.237
G3 X-1.077 Y1.491 I-3.004 J-2.941
G2 X-2.249 Y2.06 I6.107 J14.078
G3 X-3.362 Y0.185 I-0.518 J-0.961
G1 X-0.911 Y-1.411
X-0.838 Y-1.455
X-0.761 Y-1.492
X2.909 Y-3.136
G3 X3.238 Y-3.225 I0.446 J0.996
G1 X14.254 Y-4.41
G3 X14.556 Y-2.25 I0.117 J1.085
G2 X2.591 Y4.471 I3.501 J20.245
G3 X1.568 Y5.149 I-1.759 J-1.544
G2 X-2.248 Y7.339 I3.47 J10.465
G1 X-2.282 Y7.376
X-2.307 Y7.418
X-2.322 Y7.466
X-2.328 Y7.515
X-2.37 Y34.747
X-2.364 Y34.797
X-2.348 Y34.845
X-2.322 Y34.889
X-2.287 Y34.926
X-2.245 Y34.954
G2 X0.376 Y36.053 I7.181 J-13.454
G3 X1.734 Y36.814 I-1.169 J3.68
G2 X3.557 Y38.249 I16.267 J-18.791
G3 X3.801 Y39.786 I-0.634 J0.888
X2.26 Y40.004 I-0.878 J-0.649
G1 X-0.027 Y38.254
X-0.074 Y38.216
X-2.759 Y35.917
G3 X-3.12 Y35.301 I0.71 J-0.829
G1 X-4.036 Y30.7
G3 X-2.246 Y29.668 I1.07 J-0.213
G2 X2.676 Y32.155 I7.267 J-8.268
G3 X3.718 Y32.714 I-0.459 J2.105
G2 X14.594 Y38.25 I14.389 J-14.819
X18.421 Y36.372 I0.618 J-3.579
G3 X21.789 Y33.759 I4.582 J2.429
G2 X24.362 Y32.904 I-3.758 J-15.611
X28.137 Y30.693 I-6.818 J-15.973
X31.096 Y27.471 I-7.796 J-10.128
G3 X31.831 Y27.007 I0.866 J0.556
G2 X35.946 Y24.843 I-0.842 J-6.597
X37.605 Y20.5 I-4.856 J-4.343
G1 Y14.5
G2 X35.7 Y9.892 I-6.527 J0
X31.11 Y7.941 I-4.701 J4.687
G3 X30.391 Y7.596 I0.016 J-0.956
G2 X18.058 Y1.795 I-12.359 J10.265
X10.649 Y3.584 I0 J16.239
X7.465 Y5.736 I7.122 J13.967
X4.873 Y8.575 I11.144 J12.774
G3 X4.169 Y8.993 I-0.835 J-0.604
G2 X0.054 Y11.157 I0.843 J6.597
X-1.605 Y15.5 I4.856 J4.343
G1 Y21.5
G2 X0.304 Y26.112 I6.527 J0
X4.899 Y28.059 I4.698 J-4.691
G3 X5.639 Y28.409 I-0.015 J0.989
G2 X11.195 Y32.674 I12.589 J-10.648
X18.03 Y34.205 I6.835 J-14.495
X21.789 Y33.759 I0 J-16.057
X24.537 Y30.472 I-0.842 J-3.497
G3 X26.321 Y26.577 I5.898 J0.345
G2 X26.7 Y26.192 I-8.321 J-8.577
X27.624 Y25.083 I-3.222 J-3.625
X28.922 Y22.85 I-9.624 J-7.083
G1 X31
G2 X33.35 Y20.5 I0 J-2.35
G1 Y14.5
G2 X31 Y12.15 I-2.35 J0
G1 X28.42
G2 X27.45 Y10.685 I-10.421 J5.849
X26.709 Y9.817 I-4.034 J2.693
X7.078 Y13.15 I-8.709 J8.183
G1 X5
G2 X2.65 Y15.5 I0 J2.35
G1 Y21.5
G2 X5 Y23.85 I2.35 J0
G1 X7.58
G2 X26.321 Y26.577 I10.42 J-5.85
G3 X26.704 Y26.66 I0.164 J0.169
G1 X31.363 Y38.661
G2 X31.718 Y38.767 I0.219 J-0.085
G1 X31.784 Y38.721 Z-3.607 F50
X31.847 Y38.676 Z-3.627
X31.907 Y38.633 Z-3.661
X31.961 Y38.594 Z-3.706
X32.008 Y38.561 Z-3.763
X32.046 Y38.533 Z-3.828
X32.075 Y38.513 Z-3.9
X32.104 Y38.492 Z-3.972
X32.142 Y38.465 Z-4.037
X32.189 Y38.431 Z-4.094
X32.243 Y38.393 Z-4.139
X32.303 Y38.35 Z-4.173
X32.366 Y38.305 Z-4.193
X32.432 Y38.258 Z-4.2
X32.447 Y38.247
G2 X35.682 Y35.49 I-14.446 J-20.225 F150
G3 X37.159 Y34.473 I3.413 J3.378
G2 X38.244 Y33.943 I-6.189 J-14.043
G3 X39.357 Y35.818 I0.517 J0.961
G1 X36.904 Y37.417
X36.83 Y37.461
X36.753 Y37.499
X33.081 Y39.135
G3 X32.754 Y39.224 I-0.444 J-0.997
G1 X21.826 Y40.409
G3 X21.521 Y38.249 I-0.118 J-1.085
G2 X26.004 Y36.922 I-3.49 J-20.032
X30.035 Y34.629 I-7.734 J-18.283
X33.466 Y31.508 I-13.281 J-18.05
G3 X34.49 Y30.832 I1.794 J1.602
G2 X38.246 Y28.662 I-3.529 J-10.446
G1 X38.28 Y28.626
X38.305 Y28.583
X38.321 Y28.536
X38.326 Y28.486
X38.37 Y1.253
X38.364 Y1.203
X38.348 Y1.155
X38.322 Y1.111
X38.287 Y1.074
X38.245 Y1.046
G2 X35.624 Y-0.053 I-7.181 J13.454
G3 X34.272 Y-0.808 I1.171 J-3.685
G2 X32.439 Y-2.247 I-16.69 J19.385
G3 X32.194 Y-3.783 I0.634 J-0.888
X33.734 Y-4.003 I0.878 J0.648
G1 X36.026 Y-2.255
X36.074 Y-2.216
X38.759 Y0.083
G3 X39.12 Y0.699 I-0.71 J0.829
G1 X40.036 Y5.3
G3 X38.245 Y6.332 I-1.07 J0.213
G2 X33.323 Y3.845 I-7.267 J8.268
G3 X32.286 Y3.29 I0.459 J-2.105
G2 X25.739 Y-1.013 I-14.681 J15.204
X21.517 Y-2.248 I-7.682 J18.422
G1 X3.682 Y-2.293
X3.633 Y-2.288
X3.587 Y-2.273
X3.545 Y-2.249
G2 X0.254 Y0.575 I14.513 J20.237
G3 X-1.077 Y1.491 I-3.004 J-2.941
G2 X-2.249 Y2.06 I6.107 J14.078
G3 X-3.362 Y0.185 I-0.518 J-0.961
G1 X-0.911 Y-1.411
X-0.838 Y-1.455
X-0.761 Y-1.492
X2.909 Y-3.136
G3 X3.238 Y-3.225 I0.446 J0.996
G1 X14.254 Y-4.41
G3 X14.556 Y-2.25 I0.117 J1.085
G2 X2.591 Y4.471 I3.501 J20.245
G3 X1.568 Y5.149 I-1.759 J-1.544
G2 X-2.248 Y7.339 I3.47 J10.465
G1 X-2.282 Y7.376
X-2.307 Y7.418
X-2.322 Y7.466
X-2.328 Y7.515
X-2.37 Y34.747
X-2.364 Y34.797
X-2.348 Y34.845
X-2.322 Y34.889
X-2.287 Y34.926
X-2.245 Y34.954
G2 X0.376 Y36.053 I7.181 J-13.454
G3 X1.734 Y36.814 I-1.169 J3.68
G2 X3.557 Y38.249 I16.267 J-18.791
G3 X3.801 Y39.786 I-0.634 J0.888
X2.26 Y40.004 I-0.878 J-0.649
G1 X-0.027 Y38.254
X-0.074 Y38.216
X-2.759 Y35.917
G3 X-3.12 Y35.301 I0.71 J-0.829
G1 X-4.036 Y30.7
G3 X-2.246 Y29.668 I1.07 J-0.213
G2 X2.676 Y32.155 I7.267 J-8.268
G3 X3.718 Y32.714 I-0.459 J2.105
G2 X14.594 Y38.25 I14.389 J-14.819
X18.421 Y36.372 I0.618 J-3.579
G3 X21.789 Y33.759 I4.582 J2.429
G2 X24.362 Y32.904 I-3.758 J-15.611
X28.137 Y30.693 I-6.818 J-15.973
X31.096 Y27.471 I-7.796 J-10.128
G3 X31.831 Y27.007 I0.866 J0.556
G2 X35.946 Y24.843 I-0.842 J-6.597
X37.605 Y20.5 I-4.856 J-4.343
G1 Y14.5
G2 X35.7 Y9.892 I-6.527 J0
X31.11 Y7.941 I-4.701 J4.687
G3 X30.391 Y7.596 I0.016 J-0.956
G2 X18.058 Y1.795 I-12.359 J10.265
X10.649 Y3.584 I0 J16.239
X7.465 Y5.736 I7.122 J13.967
X4.873 Y8.575 I11.144 J12.774
G3 X4.169 Y8.993 I-0.835 J-0.604
G2 X0.054 Y11.157 I0.843 J6.597
X-1.605 Y15.5 I4.856 J4.343
G1 Y21.5
G2 X0.304 Y26.112 I6.527 J0
X4.899 Y28.059 I4.698 J-4.691
G3 X5.639 Y28.409 I-0.015 J0.989
G2 X11.195 Y32.674 I12.589 J-10.648
X18.03 Y34.205 I6.835 J-14.495
X21.789 Y33.759 I0 J-16.057
X24.537 Y30.472 I-0.842 J-3.497
G3 X26.321 Y26.577 I5.898 J0.345
G2 X26.7 Y26.192 I-8.321 J-8.577
X27.624 Y25.083 I-3.222 J-3.625
X28.922 Y22.85 I-9.624 J-7.083
G1 X31
G2 X33.35 Y20.5 I0 J-2.35
G1 Y14.5
G2 X31 Y12.15 I-2.35 J0
G1 X28.42
G2 X27.45 Y10.685 I-10.421 J5.849
X26.709 Y9.817 I-4.034 J2.693
X7.078 Y13.15 I-8.709 J8.183
G1 X5
G2 X2.65 Y15.5 I0 J2.35
G1 Y21.5
G2 X5 Y23.85 I2.35 J0
G1 X7.58
G2 X26.321 Y26.577 I10.42 J-5.85
G3 X26.704 Y26.66 I0.164 J0.169
G1 X31.363 Y38.661
G2 X31.718 Y38.767 I0.219 J-0.085
G1 X31.784 Y38.721 Z-4.207 F50
X31.847 Y38.676 Z-4.227
X31.907 Y38.633 Z-4.261
X31.961 Y38.594 Z-4.306
X32.008 Y38.561 Z-4.363
X32.046 Y38.533 Z-4.428
X32.075 Y38.513 Z-4.5
X32.104 Y38.492 Z-4.572
X32.142 Y38.465 Z-4.637
X32.189 Y38.431 Z-4.694
X32.243 Y38.393 Z-4.739
X32.303 Y38.35 Z-4.773
X32.366 Y38.305 Z-4.793
X32.432 Y38.258 Z-4.8
X32.447 Y38.247
G2 X35.682 Y35.49 I-14.446 J-20.225 F150
G3 X37.159 Y34.473 I3.413 J3.378
G2 X38.244 Y33.943 I-6.189 J-14.043
G3 X39.357 Y35.818 I0.517 J0.961
G1 X36.904 Y37.417
X36.83 Y37.461
X36.753 Y37.499
X33.081 Y39.135
G3 X32.754 Y39.224 I-0.444 J-0.997
G1 X21.826 Y40.409
G3 X21.521 Y38.249 I-0.118 J-1.085
G2 X26.004 Y36.922 I-3.49 J-20.032
X30.035 Y34.629 I-7.734 J-18.283
X33.466 Y31.508 I-13.281 J-18.05
G3 X34.49 Y30.832 I1.794 J1.602
G2 X38.246 Y28.662 I-3.529 J-10.446
G1 X38.28 Y28.626
X38.305 Y28.583
X38.321 Y28.536
X38.326 Y28.486
X38.37 Y1.253
X38.364 Y1.203
X38.348 Y1.155
X38.322 Y1.111
X38.287 Y1.074
X38.245 Y1.046
G2 X35.624 Y-0.053 I-7.181 J13.454
G3 X34.272 Y-0.808 I1.171 J-3.685
G2 X32.439 Y-2.247 I-16.69 J19.385
G3 X32.194 Y-3.783 I0.634 J-0.888
X33.734 Y-4.003 I0.878 J0.648
G1 X36.026 Y-2.255
X36.074 Y-2.216
X38.759 Y0.083
G3 X39.12 Y0.699 I-0.71 J0.829
G1 X40.036 Y5.3
G3 X38.245 Y6.332 I-1.07 J0.213
G2 X33.323 Y3.845 I-7.267 J8.268
G3 X32.286 Y3.29 I0.459 J-2.105
G2 X25.739 Y-1.013 I-14.681 J15.204
X21.517 Y-2.248 I-7.682 J18.422
G1 X3.682 Y-2.293
X3.633 Y-2.288
X3.587 Y-2.273
X3.545 Y-2.249
G2 X0.254 Y0.575 I14.513 J20.237
G3 X-1.077 Y1.491 I-3.004 J-2.941
G2 X-2.249 Y2.06 I6.107 J14.078
G3 X-3.362 Y0.185 I-0.518 J-0.961
G1 X-0.911 Y-1.411
X-0.838 Y-1.455
X-0.761 Y-1.492
X2.909 Y-3.136
G3 X3.238 Y-3.225 I0.446 J0.996
G1 X14.254 Y-4.41
G3 X14.556 Y-2.25 I0.117 J1.085
G2 X2.591 Y4.471 I3.501 J20.245
G3 X1.568 Y5.149 I-1.759 J-1.544
G2 X-2.248 Y7.339 I3.47 J10.465
G1 X-2.282 Y7.376
X-2.307 Y7.418
X-2.322 Y7.466
X-2.328 Y7.515
X-2.37 Y34.747
X-2.364 Y34.797
X-2.348 Y34.845
X-2.322 Y34.889
X-2.287 Y34.926
X-2.245 Y34.954
G2 X0.376 Y36.053 I7.181 J-13.454
G3 X1.734 Y36.814 I-1.169 J3.68
G2 X3.557 Y38.249 I16.267 J-18.791
G3 X3.801 Y39.786 I-0.634 J0.888
X2.26 Y40.004 I-0.878 J-0.649
G1 X-0.027 Y38.254
X-0.074 Y38.216
X-2.759 Y35.917
G3 X-3.12 Y35.301 I0.71 J-0.829
G1 X-4.036 Y30.7
G3 X-2.246 Y29.668 I1.07 J-0.213
G2 X2.676 Y32.155 I7.267 J-8.268
G3 X3.718 Y32.714 I-0.459 J2.105
G2 X14.594 Y38.25 I14.389 J-14.819
X18.421 Y36.372 I0.618 J-3.579
G3 X21.789 Y33.759 I4.582 J2.429
G2 X24.362 Y32.904 I-3.758 J-15.611
X28.137 Y30.693 I-6.818 J-15.973
X31.096 Y27.471 I-7.796 J-10.128
G3 X31.831 Y27.007 I0.866 J0.556
G2 X35.946 Y24.843 I-0.842 J-6.597
X37.605 Y20.5 I-4.856 J-4.343
G1 Y14.5
G2 X35.7 Y9.892 I-6.527 J0
X31.11 Y7.941 I-4.701 J4.687
G3 X30.391 Y7.596 I0.016 J-0.956
G2 X18.058 Y1.795 I-12.359 J10.265
X10.649 Y3.584 I0 J16.239
X7.465 Y5.736 I7.122 J13.967
X4.873 Y8.575 I11.144 J12.774
G3 X4.169 Y8.993 I-0.835 J-0.604
G2 X0.054 Y11.157 I0.843 J6.597
X-1.605 Y15.5 I4.856 J4.343
G1 Y21.5
G2 X0.304 Y26.112 I6.527 J0
X4.899 Y28.059 I4.698 J-4.691
G3 X5.639 Y28.409 I-0.015 J0.989
G2 X11.195 Y32.674 I12.589 J-10.648
X18.03 Y34.205 I6.835 J-14.495
X21.789 Y33.759 I0 J-16.057
X24.537 Y30.472 I-0.842 J-3.497
G3 X26.321 Y26.577 I5.898 J0.345
G2 X26.7 Y26.192 I-8.321 J-8.577
X27.624 Y25.083 I-3.222 J-3.625
X28.922 Y22.85 I-9.624 J-7.083
G1 X31
G2 X33.35 Y20.5 I0 J-2.35
G1 Y14.5
G2 X31 Y12.15 I-2.35 J0
G1 X28.42
G2 X27.45 Y10.685 I-10.421 J5.849
X26.709 Y9.817 I-4.034 J2.693
X7.078 Y13.15 I-8.709 J8.183
G1 X5
G2 X2.65 Y15.5 I0 J2.35
G1 Y21.5
G2 X5 Y23.85 I2.35 J0
G1 X7.58
G2 X26.321 Y26.577 I10.42 J-5.85
G3 X26.704 Y26.66 I0.164 J0.169
G1 X31.363 Y38.661
G2 X31.718 Y38.767 I0.219 J-0.085
G1 X31.784 Y38.721 Z-4.807 F50
X31.847 Y38.676 Z-4.827
X31.907 Y38.633 Z-4.861
X31.961 Y38.594 Z-4.906
X32.008 Y38.561 Z-4.963
X32.046 Y38.533 Z-5.028
X32.075 Y38.513 Z-5.1
X32.104 Y38.492 Z-5.172
X32.142 Y38.465 Z-5.237
X32.189 Y38.431 Z-5.294
X32.243 Y38.393 Z-5.339
X32.303 Y38.35 Z-5.373
X32.366 Y38.305 Z-5.393
X32.432 Y38.258 Z-5.4
X32.447 Y38.247
G2 X35.682 Y35.49 I-14.446 J-20.225 F150
G3 X37.159 Y34.473 I3.413 J3.378
G2 X38.244 Y33.943 I-6.189 J-14.043
G3 X39.357 Y35.818 I0.517 J0.961
G1 X36.904 Y37.417
X36.83 Y37.461
X36.753 Y37.499
X33.081 Y39.135
G3 X32.754 Y39.224 I-0.444 J-0.997
G1 X21.826 Y40.409
G3 X21.521 Y38.249 I-0.118 J-1.085
G2 X26.004 Y36.922 I-3.49 J-20.032
X30.035 Y34.629 I-7.734 J-18.283
X33.466 Y31.508 I-13.281 J-18.05
G3 X34.49 Y30.832 I1.794 J1.602
G2 X38.246 Y28.662 I-3.529 J-10.446
G1 X38.28 Y28.626
X38.305 Y28.583
X38.321 Y28.536
X38.326 Y28.486
X38.37 Y1.253
X38.364 Y1.203
X38.348 Y1.155
X38.322 Y1.111
X38.287 Y1.074
X38.245 Y1.046
G2 X35.624 Y-0.053 I-7.181 J13.454
G3 X34.272 Y-0.808 I1.171 J-3.685
G2 X32.439 Y-2.247 I-16.69 J19.385
G3 X32.194 Y-3.783 I0.634 J-0.888
X33.734 Y-4.003 I0.878 J0.648
G1 X36.026 Y-2.255
X36.074 Y-2.216
X38.759 Y0.083
G3 X39.12 Y0.699 I-0.71 J0.829
G1 X40.036 Y5.3
G3 X38.245 Y6.332 I-1.07 J0.213
G2 X33.323 Y3.845 I-7.267 J8.268
G3 X32.286 Y3.29 I0.459 J-2.105
G2 X25.739 Y-1.013 I-14.681 J15.204
X21.517 Y-2.248 I-7.682 J18.422
G1 X3.682 Y-2.293
X3.633 Y-2.288
X3.587 Y-2.273
X3.545 Y-2.249
G2 X0.254 Y0.575 I14.513 J20.237
G3 X-1.077 Y1.491 I-3.004 J-2.941
G2 X-2.249 Y2.06 I6.107 J14.078
G3 X-3.362 Y0.185 I-0.518 J-0.961
G1 X-0.911 Y-1.411
X-0.838 Y-1.455
X-0.761 Y-1.492
X2.909 Y-3.136
G3 X3.238 Y-3.225 I0.446 J0.996
G1 X14.254 Y-4.41
G3 X14.556 Y-2.25 I0.117 J1.085
G2 X2.591 Y4.471 I3.501 J20.245
G3 X1.568 Y5.149 I-1.759 J-1.544
G2 X-2.248 Y7.339 I3.47 J10.465
G1 X-2.282 Y7.376
X-2.307 Y7.418
X-2.322 Y7.466
X-2.328 Y7.515
X-2.37 Y34.747
X-2.364 Y34.797
X-2.348 Y34.845
X-2.322 Y34.889
X-2.287 Y34.926
X-2.245 Y34.954
G2 X0.376 Y36.053 I7.181 J-13.454
G3 X1.734 Y36.814 I-1.169 J3.68
G2 X3.557 Y38.249 I16.267 J-18.791
G3 X3.801 Y39.786 I-0.634 J0.888
X2.26 Y40.004 I-0.878 J-0.649
G1 X-0.027 Y38.254
X-0.074 Y38.216
X-2.759 Y35.917
G3 X-3.12 Y35.301 I0.71 J-0.829
G1 X-4.036 Y30.7
G3 X-2.246 Y29.668 I1.07 J-0.213
G2 X2.676 Y32.155 I7.267 J-8.268
G3 X3.718 Y32.714 I-0.459 J2.105
G2 X14.594 Y38.25 I14.389 J-14.819
X18.421 Y36.372 I0.618 J-3.579
G3 X21.789 Y33.759 I4.582 J2.429
G2 X24.362 Y32.904 I-3.758 J-15.611
X28.137 Y30.693 I-6.818 J-15.973
X31.096 Y27.471 I-7.796 J-10.128
G3 X31.831 Y27.007 I0.866 J0.556
G2 X35.946 Y24.843 I-0.842 J-6.597
X37.605 Y20.5 I-4.856 J-4.343
G1 Y14.5
G2 X35.7 Y9.892 I-6.527 J0
X31.11 Y7.941 I-4.701 J4.687
G3 X30.391 Y7.596 I0.016 J-0.956
G2 X18.058 Y1.795 I-12.359 J10.265
X10.649 Y3.584 I0 J16.239
X7.465 Y5.736 I7.122 J13.967
X4.873 Y8.575 I11.144 J12.774
G3 X4.169 Y8.993 I-0.835 J-0.604
G2 X0.054 Y11.157 I0.843 J6.597
X-1.605 Y15.5 I4.856 J4.343
G1 Y21.5
G2 X0.304 Y26.112 I6.527 J0
X4.899 Y28.059 I4.698 J-4.691
G3 X5.639 Y28.409 I-0.015 J0.989
G2 X11.195 Y32.674 I12.589 J-10.648
X18.03 Y34.205 I6.835 J-14.495
X21.789 Y33.759 I0 J-16.057
X24.537 Y30.472 I-0.842 J-3.497
G3 X26.321 Y26.577 I5.898 J0.345
G2 X26.7 Y26.192 I-8.321 J-8.577
X27.624 Y25.083 I-3.222 J-3.625
X28.922 Y22.85 I-9.624 J-7.083
G1 X31
G2 X33.35 Y20.5 I0 J-2.35
G1 Y14.5
G2 X31 Y12.15 I-2.35 J0
G1 X28.42
G2 X27.45 Y10.685 I-10.421 J5.849
X26.709 Y9.817 I-4.034 J2.693
X7.078 Y13.15 I-8.709 J8.183
G1 X5
G2 X2.65 Y15.5 I0 J2.35
G1 Y21.5
G2 X5 Y23.85 I2.35 J0
G1 X7.58
G2 X26.321 Y26.577 I10.42 J-5.85
G3 X26.704 Y26.66 I0.164 J0.169
G1 X31.363 Y38.661
G2 X31.718 Y38.767 I0.219 J-0.085
G1 X31.784 Y38.721 Z-5.407 F50
X31.847 Y38.676 Z-5.427
X31.907 Y38.633 Z-5.461
X31.961 Y38.594 Z-5.506
X32.008 Y38.561 Z-5.563
X32.046 Y38.533 Z-5.628
X32.075 Y38.513 Z-5.7
X32.104 Y38.492 Z-5.772
X32.142 Y38.465 Z-5.837
X32.189 Y38.431 Z-5.894
X32.243 Y38.393 Z-5.939
X32.303 Y38.35 Z-5.973
X32.366 Y38.305 Z-5.993
X32.432 Y38.258 Z-6
X32.447 Y38.247
G2 X35.682 Y35.49 I-14.446 J-20.225 F150
G3 X37.159 Y34.473 I3.413 J3.378
G2 X38.244 Y33.943 I-6.189 J-14.043
G3 X39.357 Y35.818 I0.517 J0.961
G1 X36.904 Y37.417
X36.83 Y37.461
X36.753 Y37.499
X33.081 Y39.135
G3 X32.754 Y39.224 I-0.444 J-0.997
G1 X21.826 Y40.409
G3 X21.521 Y38.249 I-0.118 J-1.085
G2 X26.004 Y36.922 I-3.49 J-20.032
X30.035 Y34.629 I-7.734 J-18.283
X33.466 Y31.508 I-13.281 J-18.05
G3 X34.49 Y30.832 I1.794 J1.602
G2 X38.246 Y28.662 I-3.529 J-10.446
G1 X38.28 Y28.626
X38.305 Y28.583
X38.321 Y28.536
X38.326 Y28.486
X38.37 Y1.253
X38.364 Y1.203
X38.348 Y1.155
X38.322 Y1.111
X38.287 Y1.074
X38.245 Y1.046
G2 X35.624 Y-0.053 I-7.181 J13.454
G3 X34.272 Y-0.808 I1.171 J-3.685
G2 X32.439 Y-2.247 I-16.69 J19.385
G3 X32.194 Y-3.783 I0.634 J-0.888
X33.734 Y-4.003 I0.878 J0.648
G1 X36.026 Y-2.255
X36.074 Y-2.216
X38.759 Y0.083
G3 X39.12 Y0.699 I-0.71 J0.829
G1 X40.036 Y5.3
G3 X38.245 Y6.332 I-1.07 J0.213
G2 X33.323 Y3.845 I-7.267 J8.268
G3 X32.286 Y3.29 I0.459 J-2.105
G2 X25.739 Y-1.013 I-14.681 J15.204
X21.517 Y-2.248 I-7.682 J18.422
G1 X3.682 Y-2.293
X3.633 Y-2.288
X3.587 Y-2.273
X3.545 Y-2.249
G2 X0.254 Y0.575 I14.513 J20.237
G3 X-1.077 Y1.491 I-3.004 J-2.941
G2 X-2.249 Y2.06 I6.107 J14.078
G3 X-3.362 Y0.185 I-0.518 J-0.961
G1 X-0.911 Y-1.411
X-0.838 Y-1.455
X-0.761 Y-1.492
X2.909 Y-3.136
G3 X3.238 Y-3.225 I0.446 J0.996
G1 X14.254 Y-4.41
G3 X14.556 Y-2.25 I0.117 J1.085
G2 X2.591 Y4.471 I3.501 J20.245
G3 X1.568 Y5.149 I-1.759 J-1.544
G2 X-2.248 Y7.339 I3.47 J10.465
G1 X-2.282 Y7.376
X-2.307 Y7.418
X-2.322 Y7.466
X-2.328 Y7.515
X-2.37 Y34.747
X-2.364 Y34.797
X-2.348 Y34.845
X-2.322 Y34.889
X-2.287 Y34.926
X-2.245 Y34.954
G2 X0.376 Y36.053 I7.181 J-13.454
G3 X1.734 Y36.814 I-1.169 J3.68
G2 X3.557 Y38.249 I16.267 J-18.791
G3 X3.801 Y39.786 I-0.634 J0.888
X2.26 Y40.004 I-0.878 J-0.649
G1 X-0.027 Y38.254
X-0.074 Y38.216
X-2.759 Y35.917
G3 X-3.12 Y35.301 I0.71 J-0.829
G1 X-4.036 Y30.7
G3 X-2.246 Y29.668 I1.07 J-0.213
G2 X2.676 Y32.155 I7.267 J-8.268
G3 X3.718 Y32.714 I-0.459 J2.105
G2 X14.594 Y38.25 I14.389 J-14.819
X18.421 Y36.372 I0.618 J-3.579
G3 X21.789 Y33.759 I4.582 J2.429
G2 X24.362 Y32.904 I-3.758 J-15.611
X28.137 Y30.693 I-6.818 J-15.973
X31.096 Y27.471 I-7.796 J-10.128
G3 X31.831 Y27.007 I0.866 J0.556
G2 X35.946 Y24.843 I-0.842 J-6.597
X37.605 Y20.5 I-4.856 J-4.343
G1 Y14.5
G2 X35.7 Y9.892 I-6.527 J0
X31.11 Y7.941 I-4.701 J4.687
G3 X30.391 Y7.596 I0.016 J-0.956
G2 X18.058 Y1.795 I-12.359 J10.265
X10.649 Y3.584 I0 J16.239
X7.465 Y5.736 I7.122 J13.967
X4.873 Y8.575 I11.144 J12.774
G3 X4.169 Y8.993 I-0.835 J-0.604
G2 X0.054 Y11.157 I0.843 J6.597
X-1.605 Y15.5 I4.856 J4.343
G1 Y21.5
G2 X0.304 Y26.112 I6.527 J0
X4.899 Y28.059 I4.698 J-4.691
G3 X5.639 Y28.409 I-0.015 J0.989
G2 X11.195 Y32.674 I12.589 J-10.648
X18.03 Y34.205 I6.835 J-14.495
X21.789 Y33.759 I0 J-16.057
X24.537 Y30.472 I-0.842 J-3.497
G3 X26.321 Y26.577 I5.898 J0.345
G2 X26.7 Y26.192 I-8.321 J-8.577
X27.624 Y25.083 I-3.222 J-3.625
X28.922 Y22.85 I-9.624 J-7.083
G1 X31
G2 X33.35 Y20.5 I0 J-2.35
G1 Y14.5
G2 X31 Y12.15 I-2.35 J0
G1 X28.42
G2 X27.45 Y10.685 I-10.421 J5.849
X26.709 Y9.817 I-4.034 J2.693
X7.078 Y13.15 I-8.709 J8.183
G1 X5
G2 X2.65 Y15.5 I0 J2.35
G1 Y21.5
G2 X5 Y23.85 I2.35 J0
G1 X7.58
G2 X26.321 Y26.577 I10.42 J-5.85
G3 X26.704 Y26.66 I0.164 J0.169
G1 X31.363 Y38.661
G2 X31.718 Y38.767 I0.219 J-0.085
G1 X31.784 Y38.721 Z-6.007 F50
X31.847 Y38.676 Z-6.027
X31.907 Y38.633 Z-6.061
X31.961 Y38.594 Z-6.106
X32.008 Y38.561 Z-6.163
X32.046 Y38.533 Z-6.228
X32.075 Y38.513 Z-6.3
X32.104 Y38.492 Z-6.372
X32.142 Y38.465 Z-6.437
X32.189 Y38.431 Z-6.494
X32.243 Y38.393 Z-6.539
X32.303 Y38.35 Z-6.573
X32.366 Y38.305 Z-6.593
X32.432 Y38.258 Z-6.6
X32.447 Y38.247
G2 X35.682 Y35.49 I-14.446 J-20.225 F150
G3 X37.159 Y34.473 I3.413 J3.378
G2 X38.244 Y33.943 I-6.189 J-14.043
G3 X39.357 Y35.818 I0.517 J0.961
G1 X36.904 Y37.417
X36.83 Y37.461
X36.753 Y37.499
X33.081 Y39.135
G3 X32.754 Y39.224 I-0.444 J-0.997
G1 X21.826 Y40.409
G3 X21.521 Y38.249 I-0.118 J-1.085
G2 X26.004 Y36.922 I-3.49 J-20.032
X30.035 Y34.629 I-7.734 J-18.283
X33.466 Y31.508 I-13.281 J-18.05
G3 X34.49 Y30.832 I1.794 J1.602
G2 X38.246 Y28.662 I-3.529 J-10.446
G1 X38.28 Y28.626
X38.305 Y28.583
X38.321 Y28.536
X38.326 Y28.486
X38.37 Y1.253
X38.364 Y1.203
X38.348 Y1.155
X38.322 Y1.111
X38.287 Y1.074
X38.245 Y1.046
G2 X35.624 Y-0.053 I-7.181 J13.454
G3 X34.272 Y-0.808 I1.171 J-3.685
G2 X32.439 Y-2.247 I-16.69 J19.385
G3 X32.194 Y-3.783 I0.634 J-0.888
X33.734 Y-4.003 I0.878 J0.648
G1 X36.026 Y-2.255
X36.074 Y-2.216
X38.759 Y0.083
G3 X39.12 Y0.699 I-0.71 J0.829
G1 X40.036 Y5.3
G3 X38.245 Y6.332 I-1.07 J0.213
G2 X33.323 Y3.845 I-7.267 J8.268
G3 X32.286 Y3.29 I0.459 J-2.105
G2 X25.739 Y-1.013 I-14.681 J15.204
X21.517 Y-2.248 I-7.682 J18.422
G1 X3.682 Y-2.293
X3.633 Y-2.288
X3.587 Y-2.273
X3.545 Y-2.249
G2 X0.254 Y0.575 I14.513 J20.237
G3 X-1.077 Y1.491 I-3.004 J-2.941
G2 X-2.249 Y2.06 I6.107 J14.078
G3 X-3.362 Y0.185 I-0.518 J-0.961
G1 X-0.911 Y-1.411
X-0.838 Y-1.455
X-0.761 Y-1.492
X2.909 Y-3.136
G3 X3.238 Y-3.225 I0.446 J0.996
G1 X14.254 Y-4.41
G3 X14.556 Y-2.25 I0.117 J1.085
G2 X2.591 Y4.471 I3.501 J20.245
G3 X1.568 Y5.149 I-1.759 J-1.544
G2 X-2.248 Y7.339 I3.47 J10.465
G1 X-2.282 Y7.376
X-2.307 Y7.418
X-2.322 Y7.466
X-2.328 Y7.515
X-2.37 Y34.747
X-2.364 Y34.797
X-2.348 Y34.845
X-2.322 Y34.889
X-2.287 Y34.926
X-2.245 Y34.954
G2 X0.376 Y36.053 I7.181 J-13.454
G3 X1.734 Y36.814 I-1.169 J3.68
G2 X3.557 Y38.249 I16.267 J-18.791
G3 X3.801 Y39.786 I-0.634 J0.888
X2.26 Y40.004 I-0.878 J-0.649
G1 X-0.027 Y38.254
X-0.074 Y38.216
X-2.759 Y35.917
G3 X-3.12 Y35.301 I0.71 J-0.829
G1 X-4.036 Y30.7
G3 X-2.246 Y29.668 I1.07 J-0.213
G2 X2.676 Y32.155 I7.267 J-8.268
G3 X3.718 Y32.714 I-0.459 J2.105
G2 X14.594 Y38.25 I14.389 J-14.819
X18.421 Y36.372 I0.618 J-3.579
G3 X21.789 Y33.759 I4.582 J2.429
G2 X24.362 Y32.904 I-3.758 J-15.611
X28.137 Y30.693 I-6.818 J-15.973
X31.096 Y27.471 I-7.796 J-10.128
G3 X31.831 Y27.007 I0.866 J0.556
G2 X35.946 Y24.843 I-0.842 J-6.597
X37.605 Y20.5 I-4.856 J-4.343
G1 Y14.5
G2 X35.7 Y9.892 I-6.527 J0
X31.11 Y7.941 I-4.701 J4.687
G3 X30.391 Y7.596 I0.016 J-0.956
G2 X18.058 Y1.795 I-12.359 J10.265
X10.649 Y3.584 I0 J16.239
X7.465 Y5.736 I7.122 J13.967
X4.873 Y8.575 I11.144 J12.774
G3 X4.169 Y8.993 I-0.835 J-0.604
G2 X0.054 Y11.157 I0.843 J6.597
X-1.605 Y15.5 I4.856 J4.343
G1 Y21.5
G2 X0.304 Y26.112 I6.527 J0
X4.899 Y28.059 I4.698 J-4.691
G3 X5.639 Y28.409 I-0.015 J0.989
G2 X11.195 Y32.674 I12.589 J-10.648
X18.03 Y34.205 I6.835 J-14.495
X21.789 Y33.759 I0 J-16.057
X24.537 Y30.472 I-0.842 J-3.497
G3 X26.321 Y26.577 I5.898 J0.345
G2 X26.7 Y26.192 I-8.321 J-8.577
X27.624 Y25.083 I-3.222 J-3.625
X28.922 Y22.85 I-9.624 J-7.083
G1 X31
G2 X33.35 Y20.5 I0 J-2.35
G1 Y14.5
G2 X31 Y12.15 I-2.35 J0
G1 X28.42
G2 X27.45 Y10.685 I-10.421 J5.849
X26.709 Y9.817 I-4.034 J2.693
X7.078 Y13.15 I-8.709 J8.183
G1 X5
G2 X2.65 Y15.5 I0 J2.35
G1 Y21.5
G2 X5 Y23.85 I2.35 J0
G1 X7.58
G2 X26.321 Y26.577 I10.42 J-5.85
G3 X26.704 Y26.66 I0.164 J0.169
G1 X31.363 Y38.661
G2 X31.718 Y38.767 I0.219 J-0.085
G1 X31.784 Y38.721 Z-6.607 F50
X31.847 Y38.676 Z-6.627
X31.907 Y38.633 Z-6.661
X31.961 Y38.594 Z-6.706
X32.008 Y38.561 Z-6.763
X32.046 Y38.533 Z-6.828
X32.075 Y38.513 Z-6.9
X32.104 Y38.492 Z-6.972
X32.142 Y38.465 Z-7.037
X32.189 Y38.431 Z-7.094
X32.243 Y38.393 Z-7.139
X32.303 Y38.35 Z-7.173
X32.366 Y38.305 Z-7.193
X32.432 Y38.258 Z-7.2
X32.447 Y38.247
G2 X35.682 Y35.49 I-14.446 J-20.225 F150
G3 X37.159 Y34.473 I3.413 J3.378
G2 X38.244 Y33.943 I-6.189 J-14.043
G3 X39.357 Y35.818 I0.517 J0.961
G1 X36.904 Y37.417
X36.83 Y37.461
X36.753 Y37.499
X33.081 Y39.135
G3 X32.754 Y39.224 I-0.444 J-0.997
G1 X21.826 Y40.409
G3 X21.521 Y38.249 I-0.118 J-1.085
G2 X26.004 Y36.922 I-3.49 J-20.032
X30.035 Y34.629 I-7.734 J-18.283
X33.466 Y31.508 I-13.281 J-18.05
G3 X34.49 Y30.832 I1.794 J1.602
G2 X38.246 Y28.662 I-3.529 J-10.446
G1 X38.28 Y28.626
X38.305 Y28.583
X38.321 Y28.536
X38.326 Y28.486
X38.37 Y1.253
X38.364 Y1.203
X38.348 Y1.155
X38.322 Y1.111
X38.287 Y1.074
X38.245 Y1.046
G2 X35.624 Y-0.053 I-7.181 J13.454
G3 X34.272 Y-0.808 I1.171 J-3.685
G2 X32.439 Y-2.247 I-16.69 J19.385
G3 X32.194 Y-3.783 I0.634 J-0.888
X33.734 Y-4.003 I0.878 J0.648
G1 X36.026 Y-2.255
X36.074 Y-2.216
X38.759 Y0.083
G3 X39.12 Y0.699 I-0.71 J0.829
G1 X40.036 Y5.3
G3 X38.245 Y6.332 I-1.07 J0.213
G2 X33.323 Y3.845 I-7.267 J8.268
G3 X32.286 Y3.29 I0.459 J-2.105
G2 X25.739 Y-1.013 I-14.681 J15.204
X21.517 Y-2.248 I-7.682 J18.422
G1 X3.682 Y-2.293
X3.633 Y-2.288
X3.587 Y-2.273
X3.545 Y-2.249
G2 X0.254 Y0.575 I14.513 J20.237
G3 X-1.077 Y1.491 I-3.004 J-2.941
G2 X-2.249 Y2.06 I6.107 J14.078
G3 X-3.362 Y0.185 I-0.518 J-0.961
G1 X-0.911 Y-1.411
X-0.838 Y-1.455
X-0.761 Y-1.492
X2.909 Y-3.136
G3 X3.238 Y-3.225 I0.446 J0.996
G1 X14.254 Y-4.41
G3 X14.556 Y-2.25 I0.117 J1.085
G2 X2.591 Y4.471 I3.501 J20.245
G3 X1.568 Y5.149 I-1.759 J-1.544
G2 X-2.248 Y7.339 I3.47 J10.465
G1 X-2.282 Y7.376
X-2.307 Y7.418
X-2.322 Y7.466
X-2.328 Y7.515
X-2.37 Y34.747
X-2.364 Y34.797
X-2.348 Y34.845
X-2.322 Y34.889
X-2.287 Y34.926
X-2.245 Y34.954
G2 X0.376 Y36.053 I7.181 J-13.454
G3 X1.734 Y36.814 I-1.169 J3.68
G2 X3.557 Y38.249 I16.267 J-18.791
G3 X3.801 Y39.786 I-0.634 J0.888
X2.26 Y40.004 I-0.878 J-0.649
G1 X-0.027 Y38.254
X-0.074 Y38.216
X-2.759 Y35.917
G3 X-3.12 Y35.301 I0.71 J-0.829
G1 X-4.036 Y30.7
G3 X-2.246 Y29.668 I1.07 J-0.213
G2 X2.676 Y32.155 I7.267 J-8.268
G3 X3.718 Y32.714 I-0.459 J2.105
G2 X14.594 Y38.25 I14.389 J-14.819
X18.421 Y36.372 I0.618 J-3.579
G3 X21.789 Y33.759 I4.582 J2.429
G2 X24.362 Y32.904 I-3.758 J-15.611
X28.137 Y30.693 I-6.818 J-15.973
X31.096 Y27.471 I-7.796 J-10.128
G3 X31.831 Y27.007 I0.866 J0.556
G2 X35.946 Y24.843 I-0.842 J-6.597
X37.605 Y20.5 I-4.856 J-4.343
G1 Y14.5
G2 X35.7 Y9.892 I-6.527 J0
X31.11 Y7.941 I-4.701 J4.687
G3 X30.391 Y7.596 I0.016 J-0.956
G2 X18.058 Y1.795 I-12.359 J10.265
X10.649 Y3.584 I0 J16.239
X7.465 Y5.736 I7.122 J13.967
X4.873 Y8.575 I11.144 J12.774
G3 X4.169 Y8.993 I-0.835 J-0.604
G2 X0.054 Y11.157 I0.843 J6.597
X-1.605 Y15.5 I4.856 J4.343
G1 Y21.5
G2 X0.304 Y26.112 I6.527 J0
X4.899 Y28.059 I4.698 J-4.691
G3 X5.639 Y28.409 I-0.015 J0.989
G2 X11.195 Y32.674 I12.589 J-10.648
X18.03 Y34.205 I6.835 J-14.495
X21.789 Y33.759 I0 J-16.057
X24.537 Y30.472 I-0.842 J-3.497
G3 X26.321 Y26.577 I5.898 J0.345
G2 X26.7 Y26.192 I-8.321 J-8.577
X27.624 Y25.083 I-3.222 J-3.625
X28.922 Y22.85 I-9.624 J-7.083
G1 X31
G2 X33.35 Y20.5 I0 J-2.35
G1 Y14.5
G2 X31 Y12.15 I-2.35 J0
G1 X28.42
G2 X27.45 Y10.685 I-10.421 J5.849
X26.709 Y9.817 I-4.034 J2.693
X7.078 Y13.15 I-8.709 J8.183
G1 X5
G2 X2.65 Y15.5 I0 J2.35
G1 Y21.5
G2 X5 Y23.85 I2.35 J0
G1 X7.58
G2 X26.321 Y26.577 I10.42 J-5.85
G3 X26.704 Y26.66 I0.164 J0.169
G1 X31.363 Y38.661
G2 X31.718 Y38.767 I0.219 J-0.085
G1 X31.784 Y38.721 Z-7.207 F50
X31.847 Y38.676 Z-7.227
X31.907 Y38.633 Z-7.261
X31.961 Y38.594 Z-7.306
X32.008 Y38.561 Z-7.363
X32.046 Y38.533 Z-7.428
X32.075 Y38.513 Z-7.5
X32.104 Y38.492 Z-7.572
X32.142 Y38.465 Z-7.637
X32.189 Y38.431 Z-7.694
X32.243 Y38.393 Z-7.739
X32.303 Y38.35 Z-7.773
X32.366 Y38.305 Z-7.793
X32.432 Y38.258 Z-7.8
X32.447 Y38.247
G2 X35.682 Y35.49 I-14.446 J-20.225 F150
G3 X37.159 Y34.473 I3.413 J3.378
G2 X38.244 Y33.943 I-6.189 J-14.043
G3 X39.357 Y35.818 I0.517 J0.961
G1 X36.904 Y37.417
X36.83 Y37.461
X36.753 Y37.499
X33.081 Y39.135
G3 X32.754 Y39.224 I-0.444 J-0.997
G1 X21.826 Y40.409
G3 X21.521 Y38.249 I-0.118 J-1.085
G2 X26.004 Y36.922 I-3.49 J-20.032
X30.035 Y34.629 I-7.734 J-18.283
X33.466 Y31.508 I-13.281 J-18.05
G3 X34.49 Y30.832 I1.794 J1.602
G2 X38.246 Y28.662 I-3.529 J-10.446
G1 X38.28 Y28.626
X38.305 Y28.583
X38.321 Y28.536
X38.326 Y28.486
X38.37 Y1.253
X38.364 Y1.203
X38.348 Y1.155
X38.322 Y1.111
X38.287 Y1.074
X38.245 Y1.046
G2 X35.624 Y-0.053 I-7.181 J13.454
G3 X34.272 Y-0.808 I1.171 J-3.685
G2 X32.439 Y-2.247 I-16.69 J19.385
G3 X32.194 Y-3.783 I0.634 J-0.888
X33.734 Y-4.003 I0.878 J0.648
G1 X36.026 Y-2.255
X36.074 Y-2.216
X38.759 Y0.083
G3 X39.12 Y0.699 I-0.71 J0.829
G1 X40.036 Y5.3
G3 X38.245 Y6.332 I-1.07 J0.213
G2 X33.323 Y3.845 I-7.267 J8.268
G3 X32.286 Y3.29 I0.459 J-2.105
G2 X25.739 Y-1.013 I-14.681 J15.204
X21.517 Y-2.248 I-7.682 J18.422
G1 X3.682 Y-2.293
X3.633 Y-2.288
X3.587 Y-2.273
X3.545 Y-2.249
G2 X0.254 Y0.575 I14.513 J20.237
G3 X-1.077 Y1.491 I-3.004 J-2.941
G2 X-2.249 Y2.06 I6.107 J14.078
G3 X-3.362 Y0.185 I-0.518 J-0.961
G1 X-0.911 Y-1.411
X-0.838 Y-1.455
X-0.761 Y-1.492
X2.909 Y-3.136
G3 X3.238 Y-3.225 I0.446 J0.996
G1 X14.254 Y-4.41
G3 X14.556 Y-2.25 I0.117 J1.085
G2 X2.591 Y4.471 I3.501 J20.245
G3 X1.568 Y5.149 I-1.759 J-1.544
G2 X-2.248 Y7.339 I3.47 J10.465
G1 X-2.282 Y7.376
X-2.307 Y7.418
X-2.322 Y7.466
X-2.328 Y7.515
X-2.37 Y34.747
X-2.364 Y34.797
X-2.348 Y34.845
X-2.322 Y34.889
X-2.287 Y34.926
X-2.245 Y34.954
G2 X0.376 Y36.053 I7.181 J-13.454
G3 X1.734 Y36.814 I-1.169 J3.68
G2 X3.557 Y38.249 I16.267 J-18.791
G3 X3.801 Y39.786 I-0.634 J0.888
X2.26 Y40.004 I-0.878 J-0.649
G1 X-0.027 Y38.254
X-0.074 Y38.216
X-2.759 Y35.917
G3 X-3.12 Y35.301 I0.71 J-0.829
G1 X-4.036 Y30.7
G3 X-2.246 Y29.668 I1.07 J-0.213
G2 X2.676 Y32.155 I7.267 J-8.268
G3 X3.718 Y32.714 I-0.459 J2.105
G2 X14.594 Y38.25 I14.389 J-14.819
X18.421 Y36.372 I0.618 J-3.579
G3 X21.789 Y33.759 I4.582 J2.429
G2 X24.362 Y32.904 I-3.758 J-15.611
X28.137 Y30.693 I-6.818 J-15.973
X31.096 Y27.471 I-7.796 J-10.128
G3 X31.831 Y27.007 I0.866 J0.556
G2 X35.946 Y24.843 I-0.842 J-6.597
X37.605 Y20.5 I-4.856 J-4.343
G1 Y14.5
G2 X35.7 Y9.892 I-6.527 J0
X31.11 Y7.941 I-4.701 J4.687
G3 X30.391 Y7.596 I0.016 J-0.956
G2 X18.058 Y1.795 I-12.359 J10.265
X10.649 Y3.584 I0 J16.239
X7.465 Y5.736 I7.122 J13.967
X4.873 Y8.575 I11.144 J12.774
G3 X4.169 Y8.993 I-0.835 J-0.604
G2 X0.054 Y11.157 I0.843 J6.597
X-1.605 Y15.5 I4.856 J4.343
G1 Y21.5
G2 X0.304 Y26.112 I6.527 J0
X4.899 Y28.059 I4.698 J-4.691
G3 X5.639 Y28.409 I-0.015 J0.989
G2 X11.195 Y32.674 I12.589 J-10.648
X18.03 Y34.205 I6.835 J-14.495
X21.789 Y33.759 I0 J-16.057
X24.537 Y30.472 I-0.842 J-3.497
G3 X26.321 Y26.577 I5.898 J0.345
G2 X26.7 Y26.192 I-8.321 J-8.577
X27.624 Y25.083 I-3.222 J-3.625
X28.922 Y22.85 I-9.624 J-7.083
G1 X31
G2 X33.35 Y20.5 I0 J-2.35
G1 Y14.5
G2 X31 Y12.15 I-2.35 J0
G1 X28.42
G2 X27.45 Y10.685 I-10.421 J5.849
X26.709 Y9.817 I-4.034 J2.693
X7.078 Y13.15 I-8.709 J8.183
G1 X5
G2 X2.65 Y15.5 I0 J2.35
G1 Y21.5
G2 X5 Y23.85 I2.35 J0
G1 X7.58
G2 X26.321 Y26.577 I10.42 J-5.85
G3 X26.704 Y26.66 I0.164 J0.169
G1 X31.363 Y38.661
G2 X31.718 Y38.767 I0.219 J-0.085
G1 X31.784 Y38.721 Z-7.807 F50
X31.847 Y38.676 Z-7.827
X31.907 Y38.633 Z-7.861
X31.961 Y38.594 Z-7.906
X32.008 Y38.561 Z-7.963
X32.046 Y38.533 Z-8.028
X32.075 Y38.513 Z-8.1
X32.104 Y38.492 Z-8.172
X32.142 Y38.465 Z-8.237
X32.189 Y38.431 Z-8.294
X32.243 Y38.393 Z-8.339
X32.303 Y38.35 Z-8.373
X32.366 Y38.305 Z-8.393
X32.432 Y38.258 Z-8.4
X32.447 Y38.247
G2 X35.682 Y35.49 I-14.446 J-20.225 F150
G3 X37.159 Y34.473 I3.413 J3.378
G2 X38.244 Y33.943 I-6.189 J-14.043
G3 X39.357 Y35.818 I0.517 J0.961
G1 X36.904 Y37.417
X36.83 Y37.461
X36.753 Y37.499
X33.081 Y39.135
G3 X32.754 Y39.224 I-0.444 J-0.997
G1 X21.826 Y40.409
G3 X21.521 Y38.249 I-0.118 J-1.085
G2 X26.004 Y36.922 I-3.49 J-20.032
X30.035 Y34.629 I-7.734 J-18.283
X33.466 Y31.508 I-13.281 J-18.05
G3 X34.49 Y30.832 I1.794 J1.602
G2 X38.246 Y28.662 I-3.529 J-10.446
G1 X38.28 Y28.626
X38.305 Y28.583
X38.321 Y28.536
X38.326 Y28.486
X38.37 Y1.253
X38.364 Y1.203
X38.348 Y1.155
X38.322 Y1.111
X38.287 Y1.074
X38.245 Y1.046
G2 X35.624 Y-0.053 I-7.181 J13.454
G3 X34.272 Y-0.808 I1.171 J-3.685
G2 X32.439 Y-2.247 I-16.69 J19.385
G3 X32.194 Y-3.783 I0.634 J-0.888
X33.734 Y-4.003 I0.878 J0.648
G1 X36.026 Y-2.255
X36.074 Y-2.216
X38.759 Y0.083
G3 X39.12 Y0.699 I-0.71 J0.829
G1 X40.036 Y5.3
G3 X38.245 Y6.332 I-1.07 J0.213
G2 X33.323 Y3.845 I-7.267 J8.268
G3 X32.286 Y3.29 I0.459 J-2.105
G2 X25.739 Y-1.013 I-14.681 J15.204
X21.517 Y-2.248 I-7.682 J18.422
G1 X3.682 Y-2.293
X3.633 Y-2.288
X3.587 Y-2.273
X3.545 Y-2.249
G2 X0.254 Y0.575 I14.513 J20.237
G3 X-1.077 Y1.491 I-3.004 J-2.941
G2 X-2.249 Y2.06 I6.107 J14.078
G3 X-3.362 Y0.185 I-0.518 J-0.961
G1 X-0.911 Y-1.411
X-0.838 Y-1.455
X-0.761 Y-1.492
X2.909 Y-3.136
G3 X3.238 Y-3.225 I0.446 J0.996
G1 X14.254 Y-4.41
G3 X14.556 Y-2.25 I0.117 J1.085
G2 X2.591 Y4.471 I3.501 J20.245
G3 X1.568 Y5.149 I-1.759 J-1.544
G2 X-2.248 Y7.339 I3.47 J10.465
G1 X-2.282 Y7.376
X-2.307 Y7.418
X-2.322 Y7.466
X-2.328 Y7.515
X-2.37 Y34.747
X-2.364 Y34.797
X-2.348 Y34.845
X-2.322 Y34.889
X-2.287 Y34.926
X-2.245 Y34.954
G2 X0.376 Y36.053 I7.181 J-13.454
G3 X1.734 Y36.814 I-1.169 J3.68
G2 X3.557 Y38.249 I16.267 J-18.791
G3 X3.801 Y39.786 I-0.634 J0.888
X2.26 Y40.004 I-0.878 J-0.649
G1 X-0.027 Y38.254
X-0.074 Y38.216
X-2.759 Y35.917
G3 X-3.12 Y35.301 I0.71 J-0.829
G1 X-4.036 Y30.7
G3 X-2.246 Y29.668 I1.07 J-0.213
G2 X2.676 Y32.155 I7.267 J-8.268
G3 X3.718 Y32.714 I-0.459 J2.105
G2 X14.594 Y38.25 I14.389 J-14.819
X18.421 Y36.372 I0.618 J-3.579
G3 X21.789 Y33.759 I4.582 J2.429
G2 X24.362 Y32.904 I-3.758 J-15.611
X28.137 Y30.693 I-6.818 J-15.973
X31.096 Y27.471 I-7.796 J-10.128
G3 X31.831 Y27.007 I0.866 J0.556
G2 X35.946 Y24.843 I-0.842 J-6.597
X37.605 Y20.5 I-4.856 J-4.343
G1 Y14.5
G2 X35.7 Y9.892 I-6.527 J0
X31.11 Y7.941 I-4.701 J4.687
G3 X30.391 Y7.596 I0.016 J-0.956
G2 X18.058 Y1.795 I-12.359 J10.265
X10.649 Y3.584 I0 J16.239
X7.465 Y5.736 I7.122 J13.967
X4.873 Y8.575 I11.144 J12.774
G3 X4.169 Y8.993 I-0.835 J-0.604
G2 X0.054 Y11.157 I0.843 J6.597
X-1.605 Y15.5 I4.856 J4.343
G1 Y21.5
G2 X0.304 Y26.112 I6.527 J0
X4.899 Y28.059 I4.698 J-4.691
G3 X5.639 Y28.409 I-0.015 J0.989
G2 X11.195 Y32.674 I12.589 J-10.648
X18.03 Y34.205 I6.835 J-14.495
X21.789 Y33.759 I0 J-16.057
X24.537 Y30.472 I-0.842 J-3.497
G3 X26.321 Y26.577 I5.898 J0.345
G2 X26.7 Y26.192 I-8.321 J-8.577
X27.624 Y25.083 I-3.222 J-3.625
X28.922 Y22.85 I-9.624 J-7.083
G1 X31
G2 X33.35 Y20.5 I0 J-2.35
G1 Y14.5
G2 X31 Y12.15 I-2.35 J0
G1 X28.42
G2 X27.45 Y10.685 I-10.421 J5.849
X26.709 Y9.817 I-4.034 J2.693
X7.078 Y13.15 I-8.709 J8.183
G1 X5
G2 X2.65 Y15.5 I0 J2.35
G1 Y21.5
G2 X5 Y23.85 I2.35 J0
G1 X7.58
G2 X26.321 Y26.577 I10.42 J-5.85
G3 X26.704 Y26.66 I0.164 J0.169
G1 X31.363 Y38.661
G2 X31.718 Y38.767 I0.219 J-0.085
G1 X31.784 Y38.721 Z-8.407 F50
X31.847 Y38.676 Z-8.427
X31.907 Y38.633 Z-8.461
X31.961 Y38.594 Z-8.506
X32.008 Y38.561 Z-8.563
X32.046 Y38.533 Z-8.628
X32.075 Y38.513 Z-8.7
X32.104 Y38.492 Z-8.772
X32.142 Y38.465 Z-8.837
X32.189 Y38.431 Z-8.894
X32.243 Y38.393 Z-8.939
X32.303 Y38.35 Z-8.973
X32.366 Y38.305 Z-8.993
X32.432 Y38.258 Z-9
X32.447 Y38.247
G2 X35.682 Y35.49 I-14.446 J-20.225 F150
G3 X37.159 Y34.473 I3.413 J3.378
G2 X38.244 Y33.943 I-6.189 J-14.043
G3 X39.357 Y35.818 I0.517 J0.961
G1 X36.904 Y37.417
X36.83 Y37.461
X36.753 Y37.499
X33.081 Y39.135
G3 X32.754 Y39.224 I-0.444 J-0.997
G1 X21.826 Y40.409
G3 X21.521 Y38.249 I-0.118 J-1.085
G2 X26.004 Y36.922 I-3.49 J-20.032
X30.035 Y34.629 I-7.734 J-18.283
X33.466 Y31.508 I-13.281 J-18.05
G3 X34.49 Y30.832 I1.794 J1.602
G2 X38.246 Y28.662 I-3.529 J-10.446
G1 X38.28 Y28.626
X38.305 Y28.583
X38.321 Y28.536
X38.326 Y28.486
X38.37 Y1.253
X38.364 Y1.203
X38.348 Y1.155
X38.322 Y1.111
X38.287 Y1.074
X38.245 Y1.046
G2 X35.624 Y-0.053 I-7.181 J13.454
G3 X34.272 Y-0.808 I1.171 J-3.685
G2 X32.439 Y-2.247 I-16.69 J19.385
G3 X32.194 Y-3.783 I0.634 J-0.888
X33.734 Y-4.003 I0.878 J0.648
G1 X36.026 Y-2.255
X36.074 Y-2.216
X38.759 Y0.083
G3 X39.12 Y0.699 I-0.71 J0.829
G1 X40.036 Y5.3
G3 X38.245 Y6.332 I-1.07 J0.213
G2 X33.323 Y3.845 I-7.267 J8.268
G3 X32.286 Y3.29 I0.459 J-2.105
G2 X25.739 Y-1.013 I-14.681 J15.204
X21.517 Y-2.248 I-7.682 J18.422
G1 X3.682 Y-2.293
X3.633 Y-2.288
X3.587 Y-2.273
X3.545 Y-2.249
G2 X0.254 Y0.575 I14.513 J20.237
G3 X-1.077 Y1.491 I-3.004 J-2.941
G2 X-2.249 Y2.06 I6.107 J14.078
G3 X-3.362 Y0.185 I-0.518 J-0.961
G1 X-0.911 Y-1.411
X-0.838 Y-1.455
X-0.761 Y-1.492
X2.909 Y-3.136
G3 X3.238 Y-3.225 I0.446 J0.996
G1 X14.254 Y-4.41
G3 X14.556 Y-2.25 I0.117 J1.085
G2 X2.591 Y4.471 I3.501 J20.245
G3 X1.568 Y5.149 I-1.759 J-1.544
G2 X-2.248 Y7.339 I3.47 J10.465
G1 X-2.282 Y7.376
X-2.307 Y7.418
X-2.322 Y7.466
X-2.328 Y7.515
X-2.37 Y34.747
X-2.364 Y34.797
X-2.348 Y34.845
X-2.322 Y34.889
X-2.287 Y34.926
X-2.245 Y34.954
G2 X0.376 Y36.053 I7.181 J-13.454
G3 X1.734 Y36.814 I-1.169 J3.68
G2 X3.557 Y38.249 I16.267 J-18.791
G3 X3.801 Y39.786 I-0.634 J0.888
X2.26 Y40.004 I-0.878 J-0.649
G1 X-0.027 Y38.254
X-0.074 Y38.216
X-2.759 Y35.917
G3 X-3.12 Y35.301 I0.71 J-0.829
G1 X-4.036 Y30.7
G3 X-2.246 Y29.668 I1.07 J-0.213
G2 X2.676 Y32.155 I7.267 J-8.268
G3 X3.718 Y32.714 I-0.459 J2.105
G2 X14.594 Y38.25 I14.389 J-14.819
X18.421 Y36.372 I0.618 J-3.579
G3 X21.789 Y33.759 I4.582 J2.429
G2 X24.362 Y32.904 I-3.758 J-15.611
X28.137 Y30.693 I-6.818 J-15.973
X31.096 Y27.471 I-7.796 J-10.128
G3 X31.831 Y27.007 I0.866 J0.556
G2 X35.946 Y24.843 I-0.842 J-6.597
X37.605 Y20.5 I-4.856 J-4.343
G1 Y14.5
G2 X35.7 Y9.892 I-6.527 J0
X31.11 Y7.941 I-4.701 J4.687
G3 X30.391 Y7.596 I0.016 J-0.956
G2 X18.058 Y1.795 I-12.359 J10.265
X10.649 Y3.584 I0 J16.239
X7.465 Y5.736 I7.122 J13.967
X4.873 Y8.575 I11.144 J12.774
G3 X4.169 Y8.993 I-0.835 J-0.604
G2 X0.054 Y11.157 I0.843 J6.597
X-1.605 Y15.5 I4.856 J4.343
G1 Y21.5
G2 X0.304 Y26.112 I6.527 J0
X4.899 Y28.059 I4.698 J-4.691
G3 X5.639 Y28.409 I-0.015 J0.989
G2 X11.195 Y32.674 I12.589 J-10.648
X18.03 Y34.205 I6.835 J-14.495
X21.789 Y33.759 I0 J-16.057
X24.537 Y30.472 I-0.842 J-3.497
G3 X26.321 Y26.577 I5.898 J0.345
G2 X26.7 Y26.192 I-8.321 J-8.577
X27.624 Y25.083 I-3.222 J-3.625
X28.922 Y22.85 I-9.624 J-7.083
G1 X31
G2 X33.35 Y20.5 I0 J-2.35
G1 Y14.5
G2 X31 Y12.15 I-2.35 J0
G1 X28.42
G2 X27.45 Y10.685 I-10.421 J5.849
X26.709 Y9.817 I-4.034 J2.693
X7.078 Y13.15 I-8.709 J8.183
G1 X5
G2 X2.65 Y15.5 I0 J2.35
G1 Y21.5
G2 X5 Y23.85 I2.35 J0
G1 X7.58
G2 X26.321 Y26.577 I10.42 J-5.85
G3 X26.704 Y26.66 I0.164 J0.169
G1 X31.363 Y38.661
G2 X31.718 Y38.767 I0.219 J-0.085
G1 X31.784 Y38.721 Z-9.007 F50
X31.847 Y38.676 Z-9.027
X31.907 Y38.633 Z-9.061
X31.961 Y38.594 Z-9.106
X32.008 Y38.561 Z-9.163
X32.046 Y38.533 Z-9.228
X32.075 Y38.513 Z-9.3
X32.104 Y38.492 Z-9.372
X32.142 Y38.465 Z-9.437
X32.189 Y38.431 Z-9.494
X32.243 Y38.393 Z-9.539
X32.303 Y38.35 Z-9.573
X32.366 Y38.305 Z-9.593
X32.432 Y38.258 Z-9.6
X32.447 Y38.247
G2 X35.682 Y35.49 I-14.446 J-20.225 F150
G3 X37.159 Y34.473 I3.413 J3.378
G2 X38.244 Y33.943 I-6.189 J-14.043
G3 X39.357 Y35.818 I0.517 J0.961
G1 X36.904 Y37.417
X36.83 Y37.461
X36.753 Y37.499
X33.081 Y39.135
G3 X32.754 Y39.224 I-0.444 J-0.997
G1 X21.826 Y40.409
G3 X21.521 Y38.249 I-0.118 J-1.085
G2 X26.004 Y36.922 I-3.49 J-20.032
X30.035 Y34.629 I-7.734 J-18.283
X33.466 Y31.508 I-13.281 J-18.05
G3 X34.49 Y30.832 I1.794 J1.602
G2 X38.246 Y28.662 I-3.529 J-10.446
G1 X38.28 Y28.626
X38.305 Y28.583
X38.321 Y28.536
X38.326 Y28.486
X38.37 Y1.253
X38.364 Y1.203
X38.348 Y1.155
X38.322 Y1.111
X38.287 Y1.074
X38.245 Y1.046
G2 X35.624 Y-0.053 I-7.181 J13.454
G3 X34.272 Y-0.808 I1.171 J-3.685
G2 X32.439 Y-2.247 I-16.69 J19.385
G3 X32.194 Y-3.783 I0.634 J-0.888
X33.734 Y-4.003 I0.878 J0.648
G1 X36.026 Y-2.255
X36.074 Y-2.216
X38.759 Y0.083
G3 X39.12 Y0.699 I-0.71 J0.829
G1 X40.036 Y5.3
G3 X38.245 Y6.332 I-1.07 J0.213
G2 X33.323 Y3.845 I-7.267 J8.268
G3 X32.286 Y3.29 I0.459 J-2.105
G2 X25.739 Y-1.013 I-14.681 J15.204
X21.517 Y-2.248 I-7.682 J18.422
G1 X3.682 Y-2.293
X3.633 Y-2.288
X3.587 Y-2.273
X3.545 Y-2.249
G2 X0.254 Y0.575 I14.513 J20.237
G3 X-1.077 Y1.491 I-3.004 J-2.941
G2 X-2.249 Y2.06 I6.107 J14.078
G3 X-3.362 Y0.185 I-0.518 J-0.961
G1 X-0.911 Y-1.411
X-0.838 Y-1.455
X-0.761 Y-1.492
X2.909 Y-3.136
G3 X3.238 Y-3.225 I0.446 J0.996
G1 X14.254 Y-4.41
G3 X14.556 Y-2.25 I0.117 J1.085
G2 X2.591 Y4.471 I3.501 J20.245
G3 X1.568 Y5.149 I-1.759 J-1.544
G2 X-2.248 Y7.339 I3.47 J10.465
G1 X-2.282 Y7.376
X-2.307 Y7.418
X-2.322 Y7.466
X-2.328 Y7.515
X-2.37 Y34.747
X-2.364 Y34.797
X-2.348 Y34.845
X-2.322 Y34.889
X-2.287 Y34.926
X-2.245 Y34.954
G2 X0.376 Y36.053 I7.181 J-13.454
G3 X1.734 Y36.814 I-1.169 J3.68
G2 X3.557 Y38.249 I16.267 J-18.791
G3 X3.801 Y39.786 I-0.634 J0.888
X2.26 Y40.004 I-0.878 J-0.649
G1 X-0.027 Y38.254
X-0.074 Y38.216
X-2.759 Y35.917
G3 X-3.12 Y35.301 I0.71 J-0.829
G1 X-4.036 Y30.7
G3 X-2.246 Y29.668 I1.07 J-0.213
G2 X2.676 Y32.155 I7.267 J-8.268
G3 X3.718 Y32.714 I-0.459 J2.105
G2 X14.594 Y38.25 I14.389 J-14.819
X18.421 Y36.372 I0.618 J-3.579
G3 X21.789 Y33.759 I4.582 J2.429
G2 X24.362 Y32.904 I-3.758 J-15.611
X28.137 Y30.693 I-6.818 J-15.973
X31.096 Y27.471 I-7.796 J-10.128
G3 X31.831 Y27.007 I0.866 J0.556
G2 X35.946 Y24.843 I-0.842 J-6.597
X37.605 Y20.5 I-4.856 J-4.343
G1 Y14.5
G2 X35.7 Y9.892 I-6.527 J0
X31.11 Y7.941 I-4.701 J4.687
G3 X30.391 Y7.596 I0.016 J-0.956
G2 X18.058 Y1.795 I-12.359 J10.265
X10.649 Y3.584 I0 J16.239
X7.465 Y5.736 I7.122 J13.967
X4.873 Y8.575 I11.144 J12.774
G3 X4.169 Y8.993 I-0.835 J-0.604
G2 X0.054 Y11.157 I0.843 J6.597
X-1.605 Y15.5 I4.856 J4.343
G1 Y21.5
G2 X0.304 Y26.112 I6.527 J0
X4.899 Y28.059 I4.698 J-4.691
G3 X5.639 Y28.409 I-0.015 J0.989
G2 X11.195 Y32.674 I12.589 J-10.648
X18.03 Y34.205 I6.835 J-14.495
X21.789 Y33.759 I0 J-16.057
X24.537 Y30.472 I-0.842 J-3.497
G3 X26.321 Y26.577 I5.898 J0.345
G2 X26.7 Y26.192 I-8.321 J-8.577
X27.624 Y25.083 I-3.222 J-3.625
X28.922 Y22.85 I-9.624 J-7.083
G1 X31
G2 X33.35 Y20.5 I0 J-2.35
G1 Y14.5
G2 X31 Y12.15 I-2.35 J0
G1 X28.42
G2 X27.45 Y10.685 I-10.421 J5.849
X26.709 Y9.817 I-4.034 J2.693
X7.078 Y13.15 I-8.709 J8.183
G1 X5
G2 X2.65 Y15.5 I0 J2.35
G1 Y21.5
G2 X5 Y23.85 I2.35 J0
G1 X7.58
G2 X26.321 Y26.577 I10.42 J-5.85
G3 X26.703 Y26.658 I0.164 J0.169
G1 X31.451 Y38.601
G2 X31.806 Y38.705 I0.218 J-0.087
G1 X31.866 Y38.662 Z-9.606 F50
X31.926 Y38.619 Z-9.624
X31.982 Y38.579 Z-9.653
X32.034 Y38.542 Z-9.693
X32.08 Y38.509 Z-9.742
X32.119 Y38.482 Z-9.8
X32.158 Y38.454 Z-9.858
X32.203 Y38.421 Z-9.907
X32.255 Y38.384 Z-9.947
X32.311 Y38.344 Z-9.976
X32.371 Y38.302 Z-9.994
X32.432 Y38.258 Z-10
X32.447 Y38.247
G2 X35.682 Y35.49 I-14.446 J-20.225 F150
G3 X37.159 Y34.473 I3.413 J3.378
G2 X38.244 Y33.943 I-6.189 J-14.043
G3 X39.357 Y35.818 I0.517 J0.961
G1 X36.904 Y37.417
X36.83 Y37.461
X36.753 Y37.499
X33.081 Y39.135
G3 X32.754 Y39.224 I-0.444 J-0.997
G1 X21.826 Y40.409
G3 X21.521 Y38.249 I-0.118 J-1.085
G2 X26.004 Y36.922 I-3.49 J-20.032
X30.035 Y34.629 I-7.734 J-18.283
X33.466 Y31.508 I-13.281 J-18.05
G3 X34.49 Y30.832 I1.794 J1.602
G2 X38.246 Y28.662 I-3.529 J-10.446
G1 X38.28 Y28.626
X38.305 Y28.583
X38.321 Y28.536
X38.326 Y28.486
X38.37 Y1.253
X38.364 Y1.203
X38.348 Y1.155
X38.322 Y1.111
X38.287 Y1.074
X38.245 Y1.046
G2 X35.624 Y-0.053 I-7.181 J13.454
G3 X34.272 Y-0.808 I1.171 J-3.685
G2 X32.439 Y-2.247 I-16.69 J19.385
G3 X32.194 Y-3.783 I0.634 J-0.888
X33.734 Y-4.003 I0.878 J0.648
G1 X36.026 Y-2.255
X36.074 Y-2.216
X38.759 Y0.083
G3 X39.12 Y0.699 I-0.71 J0.829
G1 X40.036 Y5.3
G3 X38.245 Y6.332 I-1.07 J0.213
G2 X33.323 Y3.845 I-7.267 J8.268
G3 X32.286 Y3.29 I0.459 J-2.105
G2 X25.739 Y-1.013 I-14.681 J15.204
X21.517 Y-2.248 I-7.682 J18.422
G1 X3.682 Y-2.293
X3.633 Y-2.288
X3.587 Y-2.273
X3.545 Y-2.249
G2 X0.254 Y0.575 I14.513 J20.237
G3 X-1.077 Y1.491 I-3.004 J-2.941
G2 X-2.249 Y2.06 I6.107 J14.078
G3 X-3.362 Y0.185 I-0.518 J-0.961
G1 X-0.911 Y-1.411
X-0.838 Y-1.455
X-0.761 Y-1.492
X2.909 Y-3.136
G3 X3.238 Y-3.225 I0.446 J0.996
G1 X14.254 Y-4.41
G3 X14.556 Y-2.25 I0.117 J1.085
G2 X2.591 Y4.471 I3.501 J20.245
G3 X1.568 Y5.149 I-1.759 J-1.544
G2 X-2.248 Y7.339 I3.47 J10.465
G1 X-2.282 Y7.376
X-2.307 Y7.418
X-2.322 Y7.466
X-2.328 Y7.515
X-2.37 Y34.747
X-2.364 Y34.797
X-2.348 Y34.845
X-2.322 Y34.889
X-2.287 Y34.926
X-2.245 Y34.954
G2 X0.376 Y36.053 I7.181 J-13.454
G3 X1.734 Y36.814 I-1.169 J3.68
G2 X3.557 Y38.249 I16.267 J-18.791
G3 X3.801 Y39.786 I-0.634 J0.888
X2.26 Y40.004 I-0.878 J-0.649
G1 X-0.027 Y38.254
X-0.074 Y38.216
X-2.759 Y35.917
G3 X-3.12 Y35.301 I0.71 J-0.829
G1 X-4.036 Y30.7
G3 X-2.246 Y29.668 I1.07 J-0.213
G2 X2.676 Y32.155 I7.267 J-8.268
G3 X3.718 Y32.714 I-0.459 J2.105
G2 X14.594 Y38.25 I14.389 J-14.819
X18.421 Y36.372 I0.618 J-3.579
G3 X21.789 Y33.759 I4.582 J2.429
G2 X24.362 Y32.904 I-3.758 J-15.611
X28.137 Y30.693 I-6.818 J-15.973
X31.096 Y27.471 I-7.796 J-10.128
G3 X31.831 Y27.007 I0.866 J0.556
G2 X35.946 Y24.843 I-0.842 J-6.597
X37.605 Y20.5 I-4.856 J-4.343
G1 Y14.5
G2 X35.7 Y9.892 I-6.527 J0
X31.11 Y7.941 I-4.701 J4.687
G3 X30.391 Y7.596 I0.016 J-0.956
G2 X18.058 Y1.795 I-12.359 J10.265
X10.649 Y3.584 I0 J16.239
X7.465 Y5.736 I7.122 J13.967
X4.873 Y8.575 I11.144 J12.774
G3 X4.169 Y8.993 I-0.835 J-0.604
G2 X0.054 Y11.157 I0.843 J6.597
X-1.605 Y15.5 I4.856 J4.343
G1 Y21.5
G2 X0.304 Y26.112 I6.527 J0
X4.899 Y28.059 I4.698 J-4.691
G3 X5.639 Y28.409 I-0.015 J0.989
G2 X11.195 Y32.674 I12.589 J-10.648
X18.03 Y34.205 I6.835 J-14.495
X21.789 Y33.759 I0 J-16.057
X24.537 Y30.472 I-0.842 J-3.497
G3 X26.321 Y26.577 I5.898 J0.345
G2 X26.7 Y26.192 I-8.321 J-8.577
X27.624 Y25.083 I-3.222 J-3.625
X28.922 Y22.85 I-9.624 J-7.083
G1 X31
G2 X33.35 Y20.5 I0 J-2.35
G1 Y14.5
G2 X31 Y12.15 I-2.35 J0
G1 X28.42
G2 X27.45 Y10.685 I-10.421 J5.849
X26.709 Y9.817 I-4.034 J2.693
X7.078 Y13.15 I-8.709 J8.183
G1 X5
G2 X2.65 Y15.5 I0 J2.35
G1 Y21.5
G2 X5 Y23.85 I2.35 J0
G1 X7.58
G2 X26.321 Y26.577 I10.42 J-5.85
G1 X26.367 Y26.538 Z-9.988
X26.417 Y26.505 Z-9.976
X26.471 Y26.479 Z-9.964
X26.544 Y26.456 Z-9.913
X26.619 Y26.445 Z-9.862
X26.67 Y26.444 Z-9.786
X26.721 Y26.449 Z-9.71
X26.756 Y26.456 Z-9.53
Z10

(Drill2)
G0 X23.416 Y13.378
Z10
Z5
G1 Z0 F25
Z-1
X23.423 Y13.41 F24000
X23.444 Y13.436
X23.474 Y13.451
X23.507
X23.537 Y13.436
X23.558 Y13.41
X23.566 Y13.378
G2 X23.266 Y13.378 I-0.15 J0
X23.566 Y13.378 I0.15 J0
G1 X23.416
Z-2 F25
X23.423 Y13.41 F24000
X23.444 Y13.436
X23.474 Y13.451
X23.507
X23.537 Y13.436
X23.558 Y13.41
X23.566 Y13.378
G2 X23.266 Y13.378 I-0.15 J0
X23.566 Y13.378 I0.15 J0
G1 X23.416
Z-3 F25
X23.423 Y13.41 F24000
X23.444 Y13.436
X23.474 Y13.451
X23.507
X23.537 Y13.436
X23.558 Y13.41
X23.566 Y13.378
G2 X23.266 Y13.378 I-0.15 J0
X23.566 Y13.378 I0.15 J0
G1 X23.416
Z-4 F25
X23.423 Y13.41 F24000
X23.444 Y13.436
X23.474 Y13.451
X23.507
X23.537 Y13.436
X23.558 Y13.41
X23.566 Y13.378
G2 X23.266 Y13.378 I-0.15 J0
X23.566 Y13.378 I0.15 J0
G1 X23.416
Z-5 F25
X23.423 Y13.41 F24000
X23.444 Y13.436
X23.474 Y13.451
X23.507
X23.537 Y13.436
X23.558 Y13.41
X23.566 Y13.378
G2 X23.266 Y13.378 I-0.15 J0
X23.566 Y13.378 I0.15 J0
G1 X23.416
Z-6 F25
X23.423 Y13.41 F24000
X23.444 Y13.436
X23.474 Y13.451
X23.507
X23.537 Y13.436
X23.558 Y13.41
X23.566 Y13.378
G2 X23.266 Y13.378 I-0.15 J0
X23.566 Y13.378 I0.15 J0
G1 X23.416
Z-7 F25
X23.423 Y13.41 F24000
X23.444 Y13.436
X23.474 Y13.451
X23.507
X23.537 Y13.436
X23.558 Y13.41
X23.566 Y13.378
G2 X23.266 Y13.378 I-0.15 J0
X23.566 Y13.378 I0.15 J0
G1 X23.416
Z-8 F25
X23.423 Y13.41 F24000
X23.444 Y13.436
X23.474 Y13.451
X23.507
X23.537 Y13.436
X23.558 Y13.41
X23.566 Y13.378
G2 X23.266 Y13.378 I-0.15 J0
X23.566 Y13.378 I0.15 J0
G1 X23.416
Z-9 F25
X23.423 Y13.41 F24000
X23.444 Y13.436
X23.474 Y13.451
X23.507
X23.537 Y13.436
X23.558 Y13.41
X23.566 Y13.378
G2 X23.266 Y13.378 I-0.15 J0
X23.566 Y13.378 I0.15 J0
G1 X23.416
Z-10 F25
X23.423 Y13.41 F24000
X23.444 Y13.436
X23.474 Y13.451
X23.507
X23.537 Y13.436
X23.558 Y13.41
X23.566 Y13.378
G2 X23.266 Y13.378 I-0.15 J0
X23.566 Y13.378 I0.15 J0
G1 X23.416
Z-11 F25
X23.423 Y13.41 F24000
X23.444 Y13.436
X23.474 Y13.451
X23.507
X23.537 Y13.436
X23.558 Y13.41
X23.566 Y13.378
G2 X23.266 Y13.378 I-0.15 J0
X23.566 Y13.378 I0.15 J0
G1 X23.416
Z-12 F25
X23.423 Y13.41 F24000
X23.444 Y13.436
X23.474 Y13.451
X23.507
X23.537 Y13.436
X23.558 Y13.41
X23.566 Y13.378
G2 X23.266 Y13.378 I-0.15 J0
X23.566 Y13.378 I0.15 J0
G1 X23.416
Z-13 F25
X23.423 Y13.41 F24000
X23.444 Y13.436
X23.474 Y13.451
X23.507
X23.537 Y13.436
X23.558 Y13.41
X23.566 Y13.378
G2 X23.266 Y13.378 I-0.15 J0
X23.566 Y13.378 I0.15 J0
G1 X23.416
Z-14 F25
X23.423 Y13.41 F24000
X23.444 Y13.436
X23.474 Y13.451
X23.507
X23.537 Y13.436
X23.558 Y13.41
X23.566 Y13.378
G2 X23.266 Y13.378 I-0.15 J0
X23.566 Y13.378 I0.15 J0
G1 X23.416
G0 Z5
X23.478 Y22.567
G1 Z0 F25
Z-1
X23.486 Y22.599 F24000
X23.506 Y22.625
X23.537 Y22.64
X23.57
X23.6 Y22.625
X23.621 Y22.599
X23.628 Y22.567
G2 X23.328 Y22.567 I-0.15 J0
X23.628 Y22.567 I0.15 J0
G1 X23.478
Z-2 F25
X23.486 Y22.599 F24000
X23.506 Y22.625
X23.537 Y22.64
X23.57
X23.6 Y22.625
X23.621 Y22.599
X23.628 Y22.567
G2 X23.328 Y22.567 I-0.15 J0
X23.628 Y22.567 I0.15 J0
G1 X23.478
Z-3 F25
X23.486 Y22.599 F24000
X23.506 Y22.625
X23.537 Y22.64
X23.57
X23.6 Y22.625
X23.621 Y22.599
X23.628 Y22.567
G2 X23.328 Y22.567 I-0.15 J0
X23.628 Y22.567 I0.15 J0
G1 X23.478
Z-4 F25
X23.486 Y22.599 F24000
X23.506 Y22.625
X23.537 Y22.64
X23.57
X23.6 Y22.625
X23.621 Y22.599
X23.628 Y22.567
G2 X23.328 Y22.567 I-0.15 J0
X23.628 Y22.567 I0.15 J0
G1 X23.478
Z-5 F25
X23.486 Y22.599 F24000
X23.506 Y22.625
X23.537 Y22.64
X23.57
X23.6 Y22.625
X23.621 Y22.599
X23.628 Y22.567
G2 X23.328 Y22.567 I-0.15 J0
X23.628 Y22.567 I0.15 J0
G1 X23.478
Z-6 F25
X23.486 Y22.599 F24000
X23.506 Y22.625
X23.537 Y22.64
X23.57
X23.6 Y22.625
X23.621 Y22.599
X23.628 Y22.567
G2 X23.328 Y22.567 I-0.15 J0
X23.628 Y22.567 I0.15 J0
G1 X23.478
Z-7 F25
X23.486 Y22.599 F24000
X23.506 Y22.625
X23.537 Y22.64
X23.57
X23.6 Y22.625
X23.621 Y22.599
X23.628 Y22.567
G2 X23.328 Y22.567 I-0.15 J0
X23.628 Y22.567 I0.15 J0
G1 X23.478
Z-8 F25
X23.486 Y22.599 F24000
X23.506 Y22.625
X23.537 Y22.64
X23.57
X23.6 Y22.625
X23.621 Y22.599
X23.628 Y22.567
G2 X23.328 Y22.567 I-0.15 J0
X23.628 Y22.567 I0.15 J0
G1 X23.478
Z-9 F25
X23.486 Y22.599 F24000
X23.506 Y22.625
X23.537 Y22.64
X23.57
X23.6 Y22.625
X23.621 Y22.599
X23.628 Y22.567
G2 X23.328 Y22.567 I-0.15 J0
X23.628 Y22.567 I0.15 J0
G1 X23.478
Z-10 F25
X23.486 Y22.599 F24000
X23.506 Y22.625
X23.537 Y22.64
X23.57
X23.6 Y22.625
X23.621 Y22.599
X23.628 Y22.567
G2 X23.328 Y22.567 I-0.15 J0
X23.628 Y22.567 I0.15 J0
G1 X23.478
Z-11 F25
X23.486 Y22.599 F24000
X23.506 Y22.625
X23.537 Y22.64
X23.57
X23.6 Y22.625
X23.621 Y22.599
X23.628 Y22.567
G2 X23.328 Y22.567 I-0.15 J0
X23.628 Y22.567 I0.15 J0
G1 X23.478
Z-12 F25
X23.486 Y22.599 F24000
X23.506 Y22.625
X23.537 Y22.64
X23.57
X23.6 Y22.625
X23.621 Y22.599
X23.628 Y22.567
G2 X23.328 Y22.567 I-0.15 J0
X23.628 Y22.567 I0.15 J0
G1 X23.478
Z-13 F25
X23.486 Y22.599 F24000
X23.506 Y22.625
X23.537 Y22.64
X23.57
X23.6 Y22.625
X23.621 Y22.599
X23.628 Y22.567
G2 X23.328 Y22.567 I-0.15 J0
X23.628 Y22.567 I0.15 J0
G1 X23.478
Z-14 F25
X23.486 Y22.599 F24000
X23.506 Y22.625
X23.537 Y22.64
X23.57
X23.6 Y22.625
X23.621 Y22.599
X23.628 Y22.567
G2 X23.328 Y22.567 I-0.15 J0
X23.628 Y22.567 I0.15 J0
G1 X23.478
G0 Z5
Z10

(Drill1)
X26.75 Y26.75
Z10
Z5
Z-5
G1 Z-10 F50
Z-10.5
X26.757 Y26.768 F150
X26.775 Y26.775
X26.793 Y26.768
X26.8 Y26.75
G2 X26.7 Y26.75 I-0.05 J0
X26.8 Y26.75 I0.05 J0
G1 X26.75
Z-11 F50
X26.757 Y26.768 F150
X26.775 Y26.775
X26.793 Y26.768
X26.8 Y26.75
G2 X26.7 Y26.75 I-0.05 J0
X26.8 Y26.75 I0.05 J0
G1 X26.75
G0 Z5
X9.25
Z-5
G1 Z-10 F50
Z-10.5
X9.257 Y26.768 F150
X9.275 Y26.775
X9.293 Y26.768
X9.3 Y26.75
G2 X9.2 Y26.75 I-0.05 J0
X9.3 Y26.75 I0.05 J0
G1 X9.25
Z-11 F50
X9.257 Y26.768 F150
X9.275 Y26.775
X9.293 Y26.768
X9.3 Y26.75
G2 X9.2 Y26.75 I-0.05 J0
X9.3 Y26.75 I0.05 J0
G1 X9.25
G0 Z5
Y9.25
Z-5
G1 Z-10 F50
Z-10.5
X9.257 Y9.268 F150
X9.275 Y9.275
X9.293 Y9.268
X9.3 Y9.25
G2 X9.2 Y9.25 I-0.05 J0
X9.3 Y9.25 I0.05 J0
G1 X9.25
Z-11 F50
X9.257 Y9.268 F150
X9.275 Y9.275
X9.293 Y9.268
X9.3 Y9.25
G2 X9.2 Y9.25 I-0.05 J0
X9.3 Y9.25 I0.05 J0
G1 X9.25
G0 Z5
X26.75
Z-5
G1 Z-10 F50
Z-10.5
X26.757 Y9.268 F150
X26.775 Y9.275
X26.793 Y9.268
X26.8 Y9.25
G2 X26.7 Y9.25 I-0.05 J0
X26.8 Y9.25 I0.05 J0
G1 X26.75
Z-11 F50
X26.757 Y9.268 F150
X26.775 Y9.275
X26.793 Y9.268
X26.8 Y9.25
G2 X26.7 Y9.25 I-0.05 J0
X26.8 Y9.25 I0.05 J0
G1 X26.75
G0 Z5
Z10
(When using Fusion 360 for Personal Use, the feedrate of)
(rapid moves is reduced to match the feedrate of cutting)
(moves, which can increase machining time. Unrestricted rapid)
(moves are available with a Fusion 360 Subscription.)

(2D Contour5)
X18.47 Y-2.76
G1 Z10 F250
Z-3
Z-6.4 F25
Z-8.13
G19 G3 Y-2.29 Z-8.6 J0.47 K0 F250
G1 Y-1.82
G17 G3 X18 Y-1.35 I-0.47 J0
G2 X18 Y37.35 I0 J19.35
X18 Y-1.35 I0 J-19.35
G3 X17.53 Y-1.82 I0 J-0.47
G1 Y-2.29
G19 G2 Y-2.76 Z-8.13 J0 K0.47
G1 Z5
X18.47
Z-3
Z-7 F25
Z-8.73
G3 Y-2.29 Z-9.2 J0.47 K0 F250
G1 Y-1.82
G17 G3 X18 Y-1.35 I-0.47 J0
G2 X18 Y37.35 I0 J19.35
X18 Y-1.35 I0 J-19.35
G3 X17.53 Y-1.82 I0 J-0.47
G1 Y-2.29
G19 G2 Y-2.76 Z-8.73 J0 K0.47
G1 Z5
X18.47
Z-3
Z-7.6 F25
Z-9.33
G3 Y-2.29 Z-9.8 J0.47 K0 F250
G1 Y-1.82
G17 G3 X18 Y-1.35 I-0.47 J0
G2 X18 Y37.35 I0 J19.35
X18 Y-1.35 I0 J-19.35
G3 X17.53 Y-1.82 I0 J-0.47
G1 Y-2.29
G19 G2 Y-2.76 Z-9.33 J0 K0.47
G1 Z5
X18.47
Z-3
Z-8.2 F25
Z-9.93
G3 Y-2.29 Z-10.4 J0.47 K0 F250
G1 Y-1.82
G17 G3 X18 Y-1.35 I-0.47 J0
G2 X18 Y37.35 I0 J19.35
X18 Y-1.35 I0 J-19.35
G3 X17.53 Y-1.82 I0 J-0.47
G1 Y-2.29
G19 G2 Y-2.76 Z-9.93 J0 K0.47
G1 Z5
X18.47
Z-3
Z-8.8 F25
Z-10.53
G3 Y-2.29 Z-11 J0.47 K0 F250
G1 Y-1.82
G17 G3 X18 Y-1.35 I-0.47 J0
G2 X18 Y37.35 I0 J19.35
X18 Y-1.35 I0 J-19.35
G3 X17.53 Y-1.82 I0 J-0.47
G1 Y-2.29
G19 G2 Y-2.76 Z-10.53 J0 K0.47
G1 Z5
X18.47
Z-3
Z-9.4 F25
Z-11.13
G3 Y-2.29 Z-11.6 J0.47 K0 F250
G1 Y-1.82
G17 G3 X18 Y-1.35 I-0.47 J0
G2 X18 Y37.35 I0 J19.35
X18 Y-1.35 I0 J-19.35
G3 X17.53 Y-1.82 I0 J-0.47
G1 Y-2.29
G19 G2 Y-2.76 Z-11.13 J0 K0.47
G1 Z5
X18.47
Z-3
Z-10 F25
Z-11.73
G3 Y-2.29 Z-12.2 J0.47 K0 F250
G1 Y-1.82
G17 G3 X18 Y-1.35 I-0.47 J0
G2 X18 Y37.35 I0 J19.35
X18 Y-1.35 I0 J-19.35
G3 X17.53 Y-1.82 I0 J-0.47
G1 Y-2.29
G19 G2 Y-2.76 Z-11.73 J0 K0.47
G1 Z5
X18.47
Z-3
Z-10.6 F25
Z-12.33
G3 Y-2.29 Z-12.8 J0.47 K0 F250
G1 Y-1.82
G17 G3 X18 Y-1.35 I-0.47 J0
G2 X18 Y37.35 I0 J19.35
X18 Y-1.35 I0 J-19.35
G3 X17.53 Y-1.82 I0 J-0.47
G1 Y-2.29
G19 G2 Y-2.76 Z-12.33 J0 K0.47
G1 Z5
X18.47
Z-3
Z-11.2 F25
Z-12.93
G3 Y-2.29 Z-13.4 J0.47 K0 F250
G1 Y-1.82
G17 G3 X18 Y-1.35 I-0.47 J0
G2 X18 Y37.35 I0 J19.35
X18 Y-1.35 I0 J-19.35
G3 X17.53 Y-1.82 I0 J-0.47
G1 Y-2.29
G19 G2 Y-2.76 Z-12.93 J0 K0.47
G1 Z5
X18.47
Z-3
Z-11.8 F25
Z-13.53
G3 Y-2.29 Z-14 J0.47 K0 F250
G1 Y-1.82
G17 G3 X18 Y-1.35 I-0.47 J0
G2 X18 Y37.35 I0 J19.35
X18 Y-1.35 I0 J-19.35
G3 X17.53 Y-1.82 I0 J-0.47
G1 Y-2.29
G19 G2 Y-2.76 Z-13.53 J0 K0.47
G1 Z10
G17
M9
M5
M30
