(metal_coupler_8mm_wdrill)
(Machine)
(  vendor: Autodesk)
(  model: Generic 3-axis)
(  description: This machine has XY axis on the Table and Z axis on the Head)
(T1  D=4.76 CR=0 - ZMIN=-14 - flat end mill)
G90 G94
G17
G21
(When using Fusion 360 for Personal Use, the feedrate of)
(rapid moves is reduced to match the feedrate of cutting)
(moves, which can increase machining time. Unrestricted rapid)
(moves are available with a Fusion 360 Subscription.)
G28 G91 Z0
G90

(2D Contour1)
T1
S24000 M3
G54
M8
G0 X17.692 Y17.524
Z10
G1 Z5 F150
Z1.6 F50
Z-0.124
G18 G2 X18.168 Z-0.6 I0.476 K0
G1 X18.644
G17 G3 X19.12 Y18 I0 J0.476
G1 Y19.17 F150
G3 X16.88 Y16.83 I-1.12 J-1.17
X19.12 Y16.83 I1.12 J1.17
G1 Y18
G3 X18.644 Y18.476 I-0.476 J0
G1 X18.168
G18 G3 X17.692 Z-0.124 I0 K0.476
G1 Z5
Y17.524
Z1 F50
Z-0.724
G2 X18.168 Z-1.2 I0.476 K0
G1 X18.644
G17 G3 X19.12 Y18 I0 J0.476
G1 Y19.17 F150
G3 X16.88 Y16.83 I-1.12 J-1.17
X19.12 Y16.83 I1.12 J1.17
G1 Y18
G3 X18.644 Y18.476 I-0.476 J0
G1 X18.168
G18 G3 X17.692 Z-0.724 I0 K0.476
G1 Z5
Y17.524
Z0.4 F50
Z-1.324
G2 X18.168 Z-1.8 I0.476 K0
G1 X18.644
G17 G3 X19.12 Y18 I0 J0.476
G1 Y19.17 F150
G3 X16.88 Y16.83 I-1.12 J-1.17
X19.12 Y16.83 I1.12 J1.17
G1 Y18
G3 X18.644 Y18.476 I-0.476 J0
G1 X18.168
G18 G3 X17.692 Z-1.324 I0 K0.476
G1 Z5
Y17.524
Z-0.2 F50
Z-1.924
G2 X18.168 Z-2.4 I0.476 K0
G1 X18.644
G17 G3 X19.12 Y18 I0 J0.476
G1 Y19.17 F150
G3 X16.88 Y16.83 I-1.12 J-1.17
X19.12 Y16.83 I1.12 J1.17
G1 Y18
G3 X18.644 Y18.476 I-0.476 J0
G1 X18.168
G18 G3 X17.692 Z-1.924 I0 K0.476
G1 Z5
Y17.524
Z-0.8 F50
Z-2.524
G2 X18.168 Z-3 I0.476 K0
G1 X18.644
G17 G3 X19.12 Y18 I0 J0.476
G1 Y19.17 F150
G3 X16.88 Y16.83 I-1.12 J-1.17
X19.12 Y16.83 I1.12 J1.17
G1 Y18
G3 X18.644 Y18.476 I-0.476 J0
G1 X18.168
G18 G3 X17.692 Z-2.524 I0 K0.476
G1 Z5
Y17.524
Z-1.4 F50
Z-3.124
G2 X18.168 Z-3.6 I0.476 K0
G1 X18.644
G17 G3 X19.12 Y18 I0 J0.476
G1 Y19.17 F150
G3 X16.88 Y16.83 I-1.12 J-1.17
X19.12 Y16.83 I1.12 J1.17
G1 Y18
G3 X18.644 Y18.476 I-0.476 J0
G1 X18.168
G18 G3 X17.692 Z-3.124 I0 K0.476
G1 Z5
Y17.524
Z-2 F50
Z-3.724
G2 X18.168 Z-4.2 I0.476 K0
G1 X18.644
G17 G3 X19.12 Y18 I0 J0.476
G1 Y19.17 F150
G3 X16.88 Y16.83 I-1.12 J-1.17
X19.12 Y16.83 I1.12 J1.17
G1 Y18
G3 X18.644 Y18.476 I-0.476 J0
G1 X18.168
G18 G3 X17.692 Z-3.724 I0 K0.476
G1 Z5
Y17.524
Z-2.6 F50
Z-4.324
G2 X18.168 Z-4.8 I0.476 K0
G1 X18.644
G17 G3 X19.12 Y18 I0 J0.476
G1 Y19.17 F150
G3 X16.88 Y16.83 I-1.12 J-1.17
X19.12 Y16.83 I1.12 J1.17
G1 Y18
G3 X18.644 Y18.476 I-0.476 J0
G1 X18.168
G18 G3 X17.692 Z-4.324 I0 K0.476
G1 Z5
Y17.524
Z-3.2 F50
Z-4.924
G2 X18.168 Z-5.4 I0.476 K0
G1 X18.644
G17 G3 X19.12 Y18 I0 J0.476
G1 Y19.17 F150
G3 X16.88 Y16.83 I-1.12 J-1.17
X19.12 Y16.83 I1.12 J1.17
G1 Y18
G3 X18.644 Y18.476 I-0.476 J0
G1 X18.168
G18 G3 X17.692 Z-4.924 I0 K0.476
G1 Z5
Y17.524
Z-3.8 F50
Z-5.524
G2 X18.168 Z-6 I0.476 K0
G1 X18.644
G17 G3 X19.12 Y18 I0 J0.476
G1 Y19.17 F150
G3 X16.88 Y16.83 I-1.12 J-1.17
X19.12 Y16.83 I1.12 J1.17
G1 Y18
G3 X18.644 Y18.476 I-0.476 J0
G1 X18.168
G18 G3 X17.692 Z-5.524 I0 K0.476
G1 Z5
Y17.524
Z-4.4 F50
Z-6.124
G2 X18.168 Z-6.6 I0.476 K0
G1 X18.644
G17 G3 X19.12 Y18 I0 J0.476
G1 Y19.17 F150
G3 X16.88 Y16.83 I-1.12 J-1.17
X19.12 Y16.83 I1.12 J1.17
G1 Y18
G3 X18.644 Y18.476 I-0.476 J0
G1 X18.168
G18 G3 X17.692 Z-6.124 I0 K0.476
G1 Z5
Y17.524
Z-5 F50
Z-6.724
G2 X18.168 Z-7.2 I0.476 K0
G1 X18.644
G17 G3 X19.12 Y18 I0 J0.476
G1 Y19.17 F150
G3 X16.88 Y16.83 I-1.12 J-1.17
X19.12 Y16.83 I1.12 J1.17
G1 Y18
G3 X18.644 Y18.476 I-0.476 J0
G1 X18.168
G18 G3 X17.692 Z-6.724 I0 K0.476
G1 Z5
Y17.524
Z-5.6 F50
Z-7.324
G2 X18.168 Z-7.8 I0.476 K0
G1 X18.644
G17 G3 X19.12 Y18 I0 J0.476
G1 Y19.17 F150
G3 X16.88 Y16.83 I-1.12 J-1.17
X19.12 Y16.83 I1.12 J1.17
G1 Y18
G3 X18.644 Y18.476 I-0.476 J0
G1 X18.168
G18 G3 X17.692 Z-7.324 I0 K0.476
G1 Z5
Y17.524
Z-6.2 F50
Z-7.924
G2 X18.168 Z-8.4 I0.476 K0
G1 X18.644
G17 G3 X19.12 Y18 I0 J0.476
G1 Y19.17 F150
G3 X16.88 Y16.83 I-1.12 J-1.17
X19.12 Y16.83 I1.12 J1.17
G1 Y18
G3 X18.644 Y18.476 I-0.476 J0
G1 X18.168
G18 G3 X17.692 Z-7.924 I0 K0.476
G1 Z5
Y17.524
Z-6.8 F50
Z-8.524
G2 X18.168 Z-9 I0.476 K0
G1 X18.644
G17 G3 X19.12 Y18 I0 J0.476
G1 Y19.17 F150
G3 X16.88 Y16.83 I-1.12 J-1.17
X19.12 Y16.83 I1.12 J1.17
G1 Y18
G3 X18.644 Y18.476 I-0.476 J0
G1 X18.168
G18 G3 X17.692 Z-8.524 I0 K0.476
G1 Z5
Y17.524
Z-7.4 F50
Z-9.124
G2 X18.168 Z-9.6 I0.476 K0
G1 X18.644
G17 G3 X19.12 Y18 I0 J0.476
G1 Y19.17 F150
G3 X16.88 Y16.83 I-1.12 J-1.17
X19.12 Y16.83 I1.12 J1.17
G1 Y18
G3 X18.644 Y18.476 I-0.476 J0
G1 X18.168
G18 G3 X17.692 Z-9.124 I0 K0.476
G1 Z5
Y17.524
Z-8 F50
Z-9.724
G2 X18.168 Z-10.2 I0.476 K0
G1 X18.644
G17 G3 X19.12 Y18 I0 J0.476
G1 Y19.17 F150
G3 X16.88 Y16.83 I-1.12 J-1.17
X19.12 Y16.83 I1.12 J1.17
G1 Y18
G3 X18.644 Y18.476 I-0.476 J0
G1 X18.168
G18 G3 X17.692 Z-9.724 I0 K0.476
G1 Z5
Y17.524
Z-8.6 F50
Z-10.324
G2 X18.168 Z-10.8 I0.476 K0
G1 X18.644
G17 G3 X19.12 Y18 I0 J0.476
G1 Y19.17 F150
G3 X16.88 Y16.83 I-1.12 J-1.17
X19.12 Y16.83 I1.12 J1.17
G1 Y18
G3 X18.644 Y18.476 I-0.476 J0
G1 X18.168
G18 G3 X17.692 Z-10.324 I0 K0.476
G1 Z5
Y17.524
Z-9.2 F50
Z-10.924
G2 X18.168 Z-11.4 I0.476 K0
G1 X18.644
G17 G3 X19.12 Y18 I0 J0.476
G1 Y19.17 F150
G3 X16.88 Y16.83 I-1.12 J-1.17
X19.12 Y16.83 I1.12 J1.17
G1 Y18
G3 X18.644 Y18.476 I-0.476 J0
G1 X18.168
G18 G3 X17.692 Z-10.924 I0 K0.476
G1 Z5
Y17.524
Z-9.8 F50
Z-11.524
G2 X18.168 Z-12 I0.476 K0
G1 X18.644
G17 G3 X19.12 Y18 I0 J0.476
G1 Y19.17 F150
G3 X16.88 Y16.83 I-1.12 J-1.17
X19.12 Y16.83 I1.12 J1.17
G1 Y18
G3 X18.644 Y18.476 I-0.476 J0
G1 X18.168
G18 G3 X17.692 Z-11.524 I0 K0.476
G1 Z5
Y17.524
Z-10.4 F50
Z-12.124
G2 X18.168 Z-12.6 I0.476 K0
G1 X18.644
G17 G3 X19.12 Y18 I0 J0.476
G1 Y19.17 F150
G3 X16.88 Y16.83 I-1.12 J-1.17
X19.12 Y16.83 I1.12 J1.17
G1 Y18
G3 X18.644 Y18.476 I-0.476 J0
G1 X18.168
G18 G3 X17.692 Z-12.124 I0 K0.476
G1 Z5
Y17.524
Z-11 F50
Z-12.724
G2 X18.168 Z-13.2 I0.476 K0
G1 X18.644
G17 G3 X19.12 Y18 I0 J0.476
G1 Y19.17 F150
G3 X16.88 Y16.83 I-1.12 J-1.17
X19.12 Y16.83 I1.12 J1.17
G1 Y18
G3 X18.644 Y18.476 I-0.476 J0
G1 X18.168
G18 G3 X17.692 Z-12.724 I0 K0.476
G1 Z5
Y17.524
Z-11.6 F50
Z-13.324
G2 X18.168 Z-13.8 I0.476 K0
G1 X18.644
G17 G3 X19.12 Y18 I0 J0.476
G1 Y19.17 F150
G3 X16.88 Y16.83 I-1.12 J-1.17
X19.12 Y16.83 I1.12 J1.17
G1 Y18
G3 X18.644 Y18.476 I-0.476 J0
G1 X18.168
G18 G3 X17.692 Z-13.324 I0 K0.476
G1 Z5
Y17.524
Z-12.2 F50
Z-13.524
G2 X18.168 Z-14 I0.476 K0
G1 X18.644
G17 G3 X19.12 Y18 I0 J0.476
G1 Y19.17 F150
G3 X16.88 Y16.83 I-1.12 J-1.17
X19.12 Y16.83 I1.12 J1.17
G1 Y18
G3 X18.644 Y18.476 I-0.476 J0
G1 X18.168
G18 G3 X17.692 Z-13.524 I0 K0.476
G1 Z10
G17
(When using Fusion 360 for Personal Use, the feedrate of)
(rapid moves is reduced to match the feedrate of cutting)
(moves, which can increase machining time. Unrestricted rapid)
(moves are available with a Fusion 360 Subscription.)

(2D Pocket2)
G0 X27.365 Y0.642
G1 Z10 F150
Z5
Z1.6 F50
Z-0.124
X27.36 Y0.647 Z-0.207
X27.346 Y0.663 Z-0.287
X27.324 Y0.69 Z-0.362
X27.293 Y0.726 Z-0.43
X27.255 Y0.771 Z-0.489
X27.211 Y0.823 Z-0.536
X27.162 Y0.88 Z-0.571
X27.11 Y0.941 Z-0.593
X27.057 Y1.005 Z-0.6
G3 X24.744 Y1.568 I-1.544 J-1.31
G2 X17.943 Y0.226 I-6.802 J16.572 F150
X5.391 Y5.472 I0 J17.637
X0.226 Y18.057 I12.748 J12.585
X5.472 Y30.609 I17.637 J0
X18.057 Y35.774 I12.585 J-12.748
X30.609 Y30.528 I0 J-17.637
X35.774 Y17.943 I-12.748 J-12.585
X30.528 Y5.391 I-17.637 J0
X24.744 Y1.568 I-12.585 J12.748
X20.455 Y2.635 I-1.418 J3.454
G3 X16.557 Y4.721 I-4.513 J-3.751
G2 X8.518 Y8.599 I1.386 J13.142
X4.648 Y18.057 I9.622 J9.458
X8.599 Y27.482 I13.215 J0
X18.057 Y31.352 I9.458 J-9.622
X31.352 Y18.057 I0 J-13.295
X17.943 Y4.648 I-13.409 J0
X16.557 Y4.721 I0 J13.215
X13.171 Y7.972 I0.401 J3.807
G3 X11.235 Y12.248 I-8.419 J-1.235
G2 X9.12 Y18 I6.765 J5.752
G1 Y18.057
G2 X18 Y26.88 I8.88 J-0.057
X18 Y9.12 I0 J-8.88
X11.235 Y12.248 I0 J8.88
G1 X11.202 Y12.275
X11.161 Y12.287
X11.119 Y12.284
X11.081 Y12.266
X11.052 Y12.235
X10.757 Y11.767
X4.074 Y3.793
X3.967 Y3.517
X3.961 Y3.484
X3.968 Y3.452
X3.986 Y3.423
X4.013 Y3.403
X4.045 Y3.394
X4.078 Y3.398
X4.108 Y3.413
X4.131 Y3.437
X4.173 Y3.506 Z-0.607 F50
X4.215 Y3.572 Z-0.627
X4.254 Y3.635 Z-0.661
X4.289 Y3.692 Z-0.706
X4.32 Y3.741 Z-0.762
X4.345 Y3.782 Z-0.828
X4.364 Y3.813 Z-0.9
X4.384 Y3.843 Z-0.972
X4.409 Y3.884 Z-1.038
X4.44 Y3.934 Z-1.094
X4.475 Y3.99 Z-1.139
X4.514 Y4.053 Z-1.173
X4.556 Y4.12 Z-1.193
X4.598 Y4.188 Z-1.2
G3 X4.432 Y6.525 I-1.691 J1.054
G2 X0.226 Y18.057 I13.708 J11.532 F150
X5.472 Y30.609 I17.637 J0
X18.057 Y35.774 I12.585 J-12.748
X30.609 Y30.528 I0 J-17.637
X35.774 Y17.943 I-12.748 J-12.585
X30.528 Y5.391 I-17.637 J0
X17.943 Y0.226 I-12.585 J12.748
X5.391 Y5.472 I0 J17.637
X4.432 Y6.525 I12.748 J12.585
X4.145 Y10.931 I2.85 J2.398
G3 X4.938 Y15.274 I-4.909 J3.141
G2 X4.648 Y18.057 I13.202 J2.783
X8.599 Y27.482 I13.215 J0
X18.057 Y31.352 I9.458 J-9.622
X31.352 Y18.057 I0 J-13.295
X17.943 Y4.648 I-13.409 J0
X8.518 Y8.599 I0 J13.215
X4.938 Y15.274 I9.622 J9.458
X6.977 Y19.48 I3.734 J0.787
G3 X10.426 Y22.635 I-3.749 J7.56
G2 X18 Y26.88 I7.574 J-4.635
X18 Y9.12 I0 J-8.88
X9.12 Y18 I0 J8.88
G1 Y18.057
G2 X10.426 Y22.635 I8.88 J-0.057
G1 X10.44 Y22.672
X10.439 Y22.712
X10.424 Y22.749
X10.397 Y22.778
X10.36 Y22.794
X9.857 Y22.92
X0.123 Y26.78
X-0.191 Y26.796
X-0.226 Y26.791
X-0.257 Y26.773
X-0.279 Y26.746
X-0.29 Y26.712
X-0.289 Y26.677
X-0.274 Y26.644
X-0.249 Y26.619
X-0.217 Y26.604
X-0.138 Y26.585 Z-1.207 F50
X-0.062 Y26.567 Z-1.227
X0.009 Y26.55 Z-1.261
X0.074 Y26.534 Z-1.306
X0.131 Y26.52 Z-1.362
X0.178 Y26.509 Z-1.428
X0.213 Y26.5 Z-1.5
X0.248 Y26.492 Z-1.572
X0.295 Y26.481 Z-1.638
X0.351 Y26.467 Z-1.694
X0.417 Y26.451 Z-1.739
X0.488 Y26.434 Z-1.773
X0.564 Y26.415 Z-1.793
X0.643 Y26.396 Z-1.8
G3 X2.843 Y27.303 I0.477 J1.968
G2 X5.472 Y30.609 I15.019 J-9.245 F150
X18.057 Y35.774 I12.585 J-12.748
X30.609 Y30.528 I0 J-17.637
X35.774 Y17.943 I-12.748 J-12.585
X30.528 Y5.391 I-17.637 J0
X17.943 Y0.226 I-12.585 J12.748
X5.391 Y5.472 I0 J17.637
X0.226 Y18.057 I12.748 J12.585
X2.843 Y27.303 I17.637 J0
X6.944 Y28.957 I3.171 J-1.952
G3 X11.325 Y29.552 I1.46 J5.668
G2 X18.057 Y31.352 I6.733 J-11.692
X31.352 Y18.057 I0 J-13.295
X17.943 Y4.648 I-13.409 J0
X8.518 Y8.599 I0 J13.215
X4.648 Y18.057 I9.622 J9.458
X8.599 Y27.482 I13.215 J0
X11.325 Y29.552 I9.458 J-9.622
X15.946 Y28.926 I1.905 J-3.308
G3 X20.016 Y26.648 I5.976 J5.902
G2 X15.984 Y9.352 I-2.016 J-8.648
X9.12 Y18 I2.016 J8.648
G1 Y18.057
G2 X18 Y26.88 I8.88 J-0.057
X20.016 Y26.648 I0 J-8.88
G1 X20.052 Y26.647
X20.087 Y26.659
X20.115 Y26.683
X20.132 Y26.715
X20.136 Y26.751
X20.1 Y27.228
X20.709 Y37.667
X20.617 Y37.999
X20.6 Y38.034
X20.571 Y38.06
X20.534 Y38.074
X20.495 Y38.073
X20.459 Y38.059
X20.43 Y38.033
X20.412 Y37.998
X20.408 Y37.959
X20.416 Y37.879 Z-1.807 F50
X20.422 Y37.801 Z-1.827
X20.429 Y37.727 Z-1.861
X20.435 Y37.66 Z-1.906
X20.44 Y37.602 Z-1.962
X20.444 Y37.554 Z-2.028
X20.447 Y37.518 Z-2.1
X20.45 Y37.482 Z-2.172
X20.455 Y37.435 Z-2.238
X20.46 Y37.376 Z-2.294
X20.466 Y37.31 Z-2.339
X20.472 Y37.236 Z-2.373
X20.479 Y37.158 Z-2.393
X20.486 Y37.078 Z-2.4
G3 X22.012 Y35.325 I1.969 J0.174
G2 X30.609 Y30.528 I-3.955 J-17.188 F150
X35.774 Y17.943 I-12.748 J-12.585
X30.528 Y5.391 I-17.637 J0
X17.943 Y0.226 I-12.585 J12.748
X5.391 Y5.472 I0 J17.637
X0.226 Y18.057 I12.748 J12.585
X5.472 Y30.609 I17.637 J0
X18.057 Y35.774 I12.585 J-12.748
X22.012 Y35.325 I0 J-17.637
X24.892 Y31.976 I-0.835 J-3.631
G3 X26.859 Y28.021 I5.852 J0.444
G2 X31.352 Y18.057 I-8.801 J-9.964
X17.943 Y4.648 I-13.409 J0
X8.518 Y8.599 I0 J13.215
X4.648 Y18.057 I9.622 J9.458
X8.599 Y27.482 I13.215 J0
X18.057 Y31.352 I9.458 J-9.622
X26.859 Y28.021 I0 J-13.295
X27.742 Y23.397 I-2.546 J-2.883
G3 X26.846 Y18.774 I7.63 J-3.876
G2 X18.388 Y9.128 I-8.846 J-0.774
X9.12 Y18 I-0.388 J8.872
G1 Y18.057
G2 X18 Y26.88 I8.88 J-0.057
X26.846 Y18.774 I0 J-8.88
G3 X27.085 Y18.557 I0.237 J0.021
G1 X35.206 Y18.627
X35.263
X35.319 Y18.64
X35.37 Y18.667
X35.413 Y18.705
X37.988 Y21.597
G3 X37.716 Y21.974 I-0.178 J0.158
G1 X37.642 Y21.942 Z-2.407 F50
X37.57 Y21.911 Z-2.427
X37.502 Y21.882 Z-2.461
X37.441 Y21.855 Z-2.506
X37.387 Y21.832 Z-2.562
X37.343 Y21.813 Z-2.628
X37.31 Y21.799 Z-2.7
X37.277 Y21.785 Z-2.772
X37.233 Y21.766 Z-2.838
X37.179 Y21.743 Z-2.894
X37.118 Y21.716 Z-2.939
X37.05 Y21.687 Z-2.973
X36.978 Y21.656 Z-2.993
X36.904 Y21.624 Z-3
G3 X35.698 Y19.594 I0.794 J-1.845
G2 X35.774 Y17.943 I-17.837 J-1.651 F150
X30.528 Y5.391 I-17.637 J0
X17.943 Y0.226 I-12.585 J12.748
X5.391 Y5.472 I0 J17.637
X0.226 Y18.057 I12.748 J12.585
X5.472 Y30.609 I17.637 J0
X18.057 Y35.774 I12.585 J-12.748
X30.609 Y30.528 I0 J-17.637
X35.698 Y19.594 I-12.748 J-12.585
X33.404 Y15.814 I-3.697 J-0.342
G3 X30.245 Y12.721 I2.215 J-5.424
G2 X17.943 Y4.648 I-12.302 J5.336
X8.518 Y8.599 I0 J13.215
X4.648 Y18.057 I9.622 J9.458
X8.599 Y27.482 I13.215 J0
X18.057 Y31.352 I9.458 J-9.622
X31.352 Y18.057 I0 J-13.295
X30.245 Y12.721 I-13.409 J0
X26.173 Y10.471 I-3.496 J1.517
G3 X21.56 Y9.865 I-1.261 J-8.263
G2 X9.12 Y18 I-3.56 J8.135
G1 Y18.057
G2 X18 Y26.88 I8.88 J-0.057
X21.56 Y9.865 I0 J-8.88
G3 X21.43 Y9.573 I0.095 J-0.218
G1 X23.904 Y2.017
X23.92 Y1.963
X23.947 Y1.914
X23.986 Y1.874
X24.033 Y1.843
X27.588 Y0.081
G3 X27.883 Y0.438 I0.106 J0.213
G1 X27.835 Y0.503 Z-3.007 F50
X27.787 Y0.565 Z-3.027
X27.743 Y0.624 Z-3.061
X27.702 Y0.677 Z-3.106
X27.667 Y0.724 Z-3.162
X27.638 Y0.762 Z-3.228
X27.616 Y0.791 Z-3.3
X27.594 Y0.82 Z-3.372
X27.566 Y0.858 Z-3.438
X27.53 Y0.905 Z-3.494
X27.49 Y0.958 Z-3.539
X27.445 Y1.017 Z-3.573
X27.398 Y1.079 Z-3.593
X27.349 Y1.144 Z-3.6
G3 X25.119 Y1.726 I-1.485 J-1.124
G2 X17.943 Y0.226 I-7.176 J16.414 F150
X5.391 Y5.472 I0 J17.637
X0.226 Y18.057 I12.748 J12.585
X5.472 Y30.609 I17.637 J0
X18.057 Y35.774 I12.585 J-12.748
X30.609 Y30.528 I0 J-17.637
X35.774 Y17.943 I-12.748 J-12.585
X30.528 Y5.391 I-17.637 J0
X25.119 Y1.726 I-12.585 J12.748
X20.805 Y2.697 I-1.496 J3.422
G3 X16.86 Y4.692 I-4.426 J-3.851
G2 X8.518 Y8.599 I1.082 J13.171
X4.648 Y18.057 I9.622 J9.458
X8.599 Y27.482 I13.215 J0
X18.057 Y31.352 I9.458 J-9.622
X31.352 Y18.057 I0 J-13.295
X17.943 Y4.648 I-13.409 J0
X16.86 Y4.692 I0 J13.215
X13.401 Y7.865 I0.313 J3.814
G3 X11.368 Y12.095 I-8.387 J-1.427
G2 X9.12 Y18 I6.632 J5.905
G1 Y18.057
G2 X18 Y26.88 I8.88 J-0.057
X18 Y9.12 I0 J-8.88
X11.368 Y12.095 I0 J8.88
G1 X11.34 Y12.118
X11.307 Y12.131
X11.272 Y12.133
X11.237 Y12.124
X11.207 Y12.105
X11.184 Y12.078
X10.896 Y11.598
X4.395 Y3.507
X4.292 Y3.223
X4.287 Y3.189
X4.294 Y3.155
X4.313 Y3.127
X4.341 Y3.107
X4.374 Y3.098
X4.408 Y3.102
X4.439 Y3.118
X4.461 Y3.144
X4.502 Y3.214 Z-3.607 F50
X4.542 Y3.281 Z-3.627
X4.58 Y3.345 Z-3.661
X4.614 Y3.402 Z-3.706
X4.644 Y3.452 Z-3.762
X4.668 Y3.494 Z-3.828
X4.687 Y3.525 Z-3.9
X4.705 Y3.556 Z-3.972
X4.73 Y3.597 Z-4.038
X4.759 Y3.647 Z-4.094
X4.794 Y3.705 Z-4.139
X4.831 Y3.769 Z-4.173
X4.871 Y3.836 Z-4.193
X4.912 Y3.905 Z-4.2
G3 X4.695 Y6.219 I-1.701 J1.008
G2 X0.226 Y18.057 I13.445 J11.838 F150
X5.472 Y30.609 I17.637 J0
X18.057 Y35.774 I12.585 J-12.748
X30.609 Y30.528 I0 J-17.637
X35.774 Y17.943 I-12.748 J-12.585
X30.528 Y5.391 I-17.637 J0
X17.943 Y0.226 I-12.585 J12.748
X5.391 Y5.472 I0 J17.637
X4.695 Y6.219 I12.748 J12.585
X4.309 Y10.618 I2.796 J2.462
G3 X5.004 Y14.978 I-4.978 J3.03
G2 X4.648 Y18.057 I13.136 J3.08
X8.599 Y27.482 I13.215 J0
X18.057 Y31.352 I9.458 J-9.622
X31.352 Y18.057 I0 J-13.295
X17.943 Y4.648 I-13.409 J0
X8.518 Y8.599 I0 J13.215
X5.004 Y14.978 I9.622 J9.458
X6.947 Y19.228 I3.715 J0.871
G3 X10.321 Y22.46 I-3.918 J7.468
G2 X18 Y26.88 I7.679 J-4.46
X18 Y9.12 I0 J-8.88
X9.12 Y18 I0 J8.88
G1 Y18.057
G2 X10.321 Y22.46 I8.88 J-0.057
G1 X10.334 Y22.497
X10.333 Y22.537
X10.317 Y22.573
X10.289 Y22.6
X10.253 Y22.616
X9.751 Y22.729
X-0.058 Y26.371
X-0.373 Y26.38
X-0.408 Y26.374
X-0.439 Y26.356
X-0.461 Y26.328
X-0.471 Y26.293
X-0.468 Y26.258
X-0.453 Y26.226
X-0.427 Y26.201
X-0.395 Y26.187
X-0.316 Y26.17 Z-4.207 F50
X-0.239 Y26.153 Z-4.227
X-0.167 Y26.138 Z-4.261
X-0.102 Y26.123 Z-4.306
X-0.045 Y26.111 Z-4.362
X0.002 Y26.101 Z-4.428
X0.038 Y26.093 Z-4.5
X0.073 Y26.085 Z-4.572
X0.12 Y26.075 Z-4.638
X0.177 Y26.063 Z-4.694
X0.242 Y26.049 Z-4.739
X0.314 Y26.033 Z-4.773
X0.391 Y26.016 Z-4.793
X0.47 Y25.999 Z-4.8
G3 X2.632 Y26.949 I0.427 J1.963
G2 X5.472 Y30.609 I15.231 J-8.892 F150
X18.057 Y35.774 I12.585 J-12.748
X30.609 Y30.528 I0 J-17.637
X35.774 Y17.943 I-12.748 J-12.585
X30.528 Y5.391 I-17.637 J0
X17.943 Y0.226 I-12.585 J12.748
X5.391 Y5.472 I0 J17.637
X0.226 Y18.057 I12.748 J12.585
X2.632 Y26.949 I17.637 J0
X6.692 Y28.698 I3.216 J-1.877
G3 X11.059 Y29.395 I1.329 J5.703
G2 X18.057 Y31.352 I6.998 J-11.535
X31.352 Y18.057 I0 J-13.295
X17.943 Y4.648 I-13.409 J0
X8.518 Y8.599 I0 J13.215
X4.648 Y18.057 I9.622 J9.458
X8.599 Y27.482 I13.215 J0
X11.059 Y29.395 I9.458 J-9.622
X15.694 Y28.876 I1.981 J-3.265
G3 X19.815 Y26.693 I5.837 J6.038
G2 X16.185 Y9.307 I-1.815 J-8.693
X9.12 Y18 I1.815 J8.693
G1 Y18.057
G2 X18 Y26.88 I8.88 J-0.057
X19.815 Y26.693 I0 J-8.88
G1 X19.851 Y26.692
X19.885 Y26.705
X19.912 Y26.729
X19.929 Y26.762
X19.932 Y26.798
X19.884 Y27.273
X20.227 Y37.749
X20.125 Y38.082
X20.107 Y38.116
X20.077 Y38.142
X20.039 Y38.155
X20 Y38.154
X19.964 Y38.139
X19.935 Y38.111
X19.918 Y38.076
X19.915 Y38.036
X19.924 Y37.956 Z-4.807 F50
X19.933 Y37.878 Z-4.827
X19.941 Y37.805 Z-4.861
X19.949 Y37.738 Z-4.906
X19.955 Y37.68 Z-4.962
X19.961 Y37.633 Z-5.028
X19.965 Y37.597 Z-5.1
X19.969 Y37.561 Z-5.172
X19.974 Y37.513 Z-5.238
X19.981 Y37.455 Z-5.294
X19.988 Y37.389 Z-5.339
X19.996 Y37.315 Z-5.373
X20.005 Y37.237 Z-5.393
X20.014 Y37.157 Z-5.4
G3 X21.606 Y35.413 I1.996 J0.224
G2 X30.609 Y30.528 I-3.549 J-17.276 F150
X35.774 Y17.943 I-12.748 J-12.585
X30.528 Y5.391 I-17.637 J0
X17.943 Y0.226 I-12.585 J12.748
X5.391 Y5.472 I0 J17.637
X0.226 Y18.057 I12.748 J12.585
X5.472 Y30.609 I17.637 J0
X18.057 Y35.774 I12.585 J-12.748
X21.606 Y35.413 I0 J-17.637
X24.564 Y32.133 I-0.75 J-3.65
G3 X26.623 Y28.225 I5.842 J0.582
G2 X31.352 Y18.057 I-8.566 J-10.167
X17.943 Y4.648 I-13.409 J0
X8.518 Y8.599 I0 J13.215
X4.648 Y18.057 I9.622 J9.458
X8.599 Y27.482 I13.215 J0
X18.057 Y31.352 I9.458 J-9.622
X26.623 Y28.225 I0 J-13.295
X27.614 Y23.622 I-2.478 J-2.941
G3 X26.826 Y18.979 I7.719 J-3.698
G2 X18.49 Y9.134 I-8.826 J-0.979
X9.12 Y18 I-0.49 J8.866
G1 Y18.057
G2 X18 Y26.88 I8.88 J-0.057
X26.826 Y18.979 I0 J-8.88
G3 X27.07 Y18.768 I0.237 J0.026
G1 X35.179 Y19.017
X35.237 Y19.018
X35.292 Y19.033
X35.343 Y19.06
X35.385 Y19.099
X37.89 Y22.039
G3 X37.61 Y22.41 I-0.181 J0.154
G1 X37.537 Y22.376 Z-5.407 F50
X37.465 Y22.344 Z-5.427
X37.398 Y22.313 Z-5.461
X37.337 Y22.285 Z-5.506
X37.284 Y22.261 Z-5.562
X37.241 Y22.241 Z-5.628
X37.208 Y22.226 Z-5.7
X37.175 Y22.211 Z-5.772
X37.131 Y22.191 Z-5.838
X37.078 Y22.166 Z-5.894
X37.017 Y22.139 Z-5.939
X36.95 Y22.108 Z-5.973
X36.879 Y22.075 Z-5.993
X36.806 Y22.042 Z-6
G3 X35.655 Y20.001 I0.83 J-1.812
G2 X35.774 Y17.943 I-17.795 J-2.058 F150
X30.528 Y5.391 I-17.637 J0
X17.943 Y0.226 I-12.585 J12.748
X5.391 Y5.472 I0 J17.637
X0.226 Y18.057 I12.748 J12.585
X5.472 Y30.609 I17.637 J0
X18.057 Y35.774 I12.585 J-12.748
X30.609 Y30.528 I0 J-17.637
X35.655 Y20.001 I-12.748 J-12.585
X33.451 Y16.172 I-3.687 J-0.426
G3 X30.365 Y13.009 I2.338 J-5.367
G2 X17.943 Y4.648 I-12.423 J5.049
X8.518 Y8.599 I0 J13.215
X4.648 Y18.057 I9.622 J9.458
X8.599 Y27.482 I13.215 J0
X18.057 Y31.352 I9.458 J-9.622
X31.352 Y18.057 I0 J-13.295
X30.365 Y13.009 I-13.409 J0
X26.347 Y10.663 I-3.531 J1.435
G3 X21.749 Y9.95 I-1.068 J-8.292
G2 X9.12 Y18 I-3.749 J8.05
G1 Y18.057
G2 X18 Y26.88 I8.88 J-0.057
X21.749 Y9.95 I0 J-8.88
G3 X21.672 Y9.576 I0.1 J-0.216
G1 X22.467 Y8.686
X27.867 Y0.735
X28.143 Y0.523
X28.176 Y0.506
X28.213 Y0.502
X28.249 Y0.512
X28.279 Y0.534
X28.3 Y0.565
X28.309 Y0.601
X28.304 Y0.638
X28.286 Y0.671
X28.236 Y0.734 Z-6.007 F50
X28.187 Y0.795 Z-6.027
X28.142 Y0.853 Z-6.061
X28.1 Y0.905 Z-6.106
X28.064 Y0.951 Z-6.162
X28.034 Y0.989 Z-6.228
X28.011 Y1.017 Z-6.3
X27.989 Y1.046 Z-6.372
X27.959 Y1.083 Z-6.438
X27.923 Y1.129 Z-6.494
X27.881 Y1.181 Z-6.539
X27.835 Y1.239 Z-6.573
X27.787 Y1.3 Z-6.593
X27.736 Y1.364 Z-6.6
G3 X25.493 Y1.895 I-1.459 J-1.157
G2 X17.943 Y0.226 I-7.55 J16.245 F150
X5.391 Y5.472 I0 J17.637
X0.226 Y18.057 I12.748 J12.585
X5.472 Y30.609 I17.637 J0
X18.057 Y35.774 I12.585 J-12.748
X30.609 Y30.528 I0 J-17.637
X35.774 Y17.943 I-12.748 J-12.585
X30.528 Y5.391 I-17.637 J0
X25.493 Y1.895 I-12.585 J12.748
X21.158 Y2.766 I-1.574 J3.387
G3 X17.167 Y4.671 I-4.335 J-3.95
G2 X8.518 Y8.599 I0.775 J13.192
X4.648 Y18.057 I9.622 J9.458
X8.599 Y27.482 I13.215 J0
X18.057 Y31.352 I9.458 J-9.622
X31.352 Y18.057 I0 J-13.295
X17.943 Y4.648 I-13.409 J0
X17.167 Y4.671 I0 J13.215
X13.636 Y7.762 I0.224 J3.819
G3 X11.506 Y11.943 I-8.349 J-1.619
G2 X9.12 Y18 I6.494 J6.057
G1 Y18.057
G2 X18 Y26.88 I8.88 J-0.057
X18 Y9.12 I0 J-8.88
X11.506 Y11.943 I0 J8.88
G1 X11.478 Y11.965
X11.444 Y11.978
X11.408 Y11.979
X11.373 Y11.97
X11.343 Y11.95
X11.321 Y11.921
X11.041 Y11.43
X4.732 Y3.181
X4.635 Y2.893
X4.631 Y2.859
X4.639 Y2.826
X4.659 Y2.798
X4.687 Y2.778
X4.72 Y2.771
X4.754 Y2.776
X4.784 Y2.792
X4.806 Y2.819
X4.846 Y2.889 Z-6.607 F50
X4.884 Y2.957 Z-6.627
X4.92 Y3.021 Z-6.661
X4.953 Y3.08 Z-6.706
X4.982 Y3.131 Z-6.762
X5.005 Y3.173 Z-6.828
X5.023 Y3.204 Z-6.9
X5.041 Y3.236 Z-6.972
X5.064 Y3.278 Z-7.038
X5.093 Y3.328 Z-7.094
X5.126 Y3.387 Z-7.139
X5.162 Y3.451 Z-7.173
X5.2 Y3.519 Z-7.193
X5.24 Y3.59 Z-7.2
G3 X4.968 Y5.917 I-1.737 J0.976
G2 X0.226 Y18.057 I13.172 J12.141 F150
X5.472 Y30.609 I17.637 J0
X18.057 Y35.774 I12.585 J-12.748
X30.609 Y30.528 I0 J-17.637
X35.774 Y17.943 I-12.748 J-12.585
X30.528 Y5.391 I-17.637 J0
X17.943 Y0.226 I-12.585 J12.748
X5.391 Y5.472 I0 J17.637
X4.968 Y5.917 I12.748 J12.585
X4.481 Y10.305 I2.739 J2.525
G3 X5.078 Y14.68 I-5.046 J2.916
G2 X4.648 Y18.057 I13.063 J3.378
X8.599 Y27.482 I13.215 J0
X18.057 Y31.352 I9.458 J-9.622
X31.352 Y18.057 I0 J-13.295
X17.943 Y4.648 I-13.409 J0
X8.518 Y8.599 I0 J13.215
X5.078 Y14.68 I9.622 J9.458
X6.922 Y18.972 I3.694 J0.955
G3 X10.22 Y22.281 I-4.087 J7.372
G2 X18 Y26.88 I7.78 J-4.281
X18 Y9.12 I0 J-8.88
X9.12 Y18 I0 J8.88
G1 Y18.057
G2 X10.22 Y22.281 I8.88 J-0.057
G1 X10.232 Y22.318
X10.229 Y22.357
X10.213 Y22.392
X10.185 Y22.419
X10.149 Y22.434
X9.648 Y22.535
X-0.214 Y25.962
X-0.53 Y25.964
X-0.566 Y25.957
X-0.596 Y25.938
X-0.617 Y25.909
X-0.627 Y25.875
X-0.624 Y25.839
X-0.608 Y25.807
X-0.581 Y25.783
X-0.548 Y25.77
X-0.469 Y25.754 Z-7.207 F50
X-0.392 Y25.74 Z-7.227
X-0.319 Y25.726 Z-7.261
X-0.253 Y25.713 Z-7.306
X-0.196 Y25.702 Z-7.362
X-0.149 Y25.693 Z-7.428
X-0.114 Y25.686 Z-7.5
X-0.078 Y25.679 Z-7.572
X-0.031 Y25.67 Z-7.638
X0.026 Y25.659 Z-7.694
X0.092 Y25.646 Z-7.739
X0.165 Y25.632 Z-7.773
X0.241 Y25.617 Z-7.793
X0.321 Y25.602 Z-7.8
G3 X2.426 Y26.587 I0.375 J1.941
G2 X5.472 Y30.609 I15.437 J-8.53 F150
X18.057 Y35.774 I12.585 J-12.748
X30.609 Y30.528 I0 J-17.637
X35.774 Y17.943 I-12.748 J-12.585
X30.528 Y5.391 I-17.637 J0
X17.943 Y0.226 I-12.585 J12.748
X5.391 Y5.472 I0 J17.637
X0.226 Y18.057 I12.748 J12.585
X2.426 Y26.587 I17.637 J0
X6.445 Y28.432 I3.259 J-1.801
G3 X10.794 Y29.23 I1.195 J5.736
G2 X18.057 Y31.352 I7.263 J-11.37
X31.352 Y18.057 I0 J-13.295
X17.943 Y4.648 I-13.409 J0
X8.518 Y8.599 I0 J13.215
X4.648 Y18.057 I9.622 J9.458
X8.599 Y27.482 I13.215 J0
X10.794 Y29.23 I9.458 J-9.622
X15.44 Y28.819 I2.056 J-3.219
G3 X19.611 Y26.733 I5.694 J6.173
G2 X16.389 Y9.267 I-1.611 J-8.733
X9.12 Y18 I1.611 J8.733
G1 Y18.057
G2 X18 Y26.88 I8.88 J-0.057
X19.611 Y26.733 I0 J-8.88
G1 X19.647
X19.681 Y26.746
X19.707 Y26.771
X19.723 Y26.804
X19.725 Y26.84
X19.671 Y27.312
X19.949 Y37.777
X19.843 Y38.129
X19.824 Y38.163
X19.794 Y38.189
X19.757 Y38.203
X19.718
X19.681 Y38.189
X19.651 Y38.163
X19.633 Y38.128
X19.628 Y38.089
X19.633 Y38.008 Z-7.807 F50
X19.637 Y37.93 Z-7.827
X19.641 Y37.856 Z-7.861
X19.645 Y37.789 Z-7.906
X19.648 Y37.731 Z-7.962
X19.651 Y37.683 Z-8.028
X19.653 Y37.647 Z-8.1
X19.655 Y37.611 Z-8.172
X19.658 Y37.563 Z-8.238
X19.661 Y37.505 Z-8.294
X19.665 Y37.438 Z-8.339
X19.669 Y37.364 Z-8.373
X19.674 Y37.286 Z-8.393
X19.678 Y37.206 Z-8.4
G3 X21.194 Y35.493 I1.844 J0.105
G2 X30.609 Y30.528 I-3.136 J-17.356 F150
X35.774 Y17.943 I-12.748 J-12.585
X30.528 Y5.391 I-17.637 J0
X17.943 Y0.226 I-12.585 J12.748
X5.391 Y5.472 I0 J17.637
X0.226 Y18.057 I12.748 J12.585
X5.472 Y30.609 I17.637 J0
X18.057 Y35.774 I12.585 J-12.748
X21.194 Y35.493 I0 J-17.637
X24.229 Y32.283 I-0.663 J-3.667
G3 X26.381 Y28.424 I5.828 J0.72
G2 X31.352 Y18.057 I-8.323 J-10.367
X17.943 Y4.648 I-13.409 J0
X8.518 Y8.599 I0 J13.215
X4.648 Y18.057 I9.622 J9.458
X8.599 Y27.482 I13.215 J0
X18.057 Y31.352 I9.458 J-9.622
X26.381 Y28.424 I0 J-13.295
X27.479 Y23.845 I-2.408 J-2.999
G3 X26.8 Y19.186 I7.804 J-3.516
G2 X18.594 Y9.14 I-8.8 J-1.186
X9.12 Y18 I-0.594 J8.86
G1 Y18.057
G2 X18 Y26.88 I8.88 J-0.057
X26.8 Y19.186 I0 J-8.88
G3 X27.049 Y18.98 I0.236 J0.032
G1 X35.15 Y19.417
X35.208 Y19.419
X35.263 Y19.435
X35.312 Y19.464
X35.354 Y19.504
X37.79 Y22.5
G3 X37.502 Y22.864 I-0.185 J0.15
G1 X37.429 Y22.829 Z-8.407 F50
X37.359 Y22.795 Z-8.427
X37.292 Y22.762 Z-8.461
X37.232 Y22.733 Z-8.506
X37.18 Y22.708 Z-8.562
X37.136 Y22.687 Z-8.628
X37.104 Y22.671 Z-8.7
X37.071 Y22.655 Z-8.772
X37.028 Y22.634 Z-8.838
X36.976 Y22.608 Z-8.894
X36.915 Y22.579 Z-8.939
X36.849 Y22.547 Z-8.973
X36.779 Y22.513 Z-8.993
X36.706 Y22.477 Z-9
G3 X35.603 Y20.41 I0.871 J-1.792
G2 X35.774 Y17.943 I-17.743 J-2.468 F150
X30.528 Y5.391 I-17.637 J0
X17.943 Y0.226 I-12.585 J12.748
X5.391 Y5.472 I0 J17.637
X0.226 Y18.057 I12.748 J12.585
X5.472 Y30.609 I17.637 J0
X18.057 Y35.774 I12.585 J-12.748
X30.609 Y30.528 I0 J-17.637
X35.603 Y20.41 I-12.748 J-12.585
X33.489 Y16.534 I-3.674 J-0.511
G3 X30.48 Y13.301 I2.46 J-5.307
G2 X17.943 Y4.648 I-12.538 J4.756
X8.518 Y8.599 I0 J13.215
X4.648 Y18.057 I9.622 J9.458
X8.599 Y27.482 I13.215 J0
X18.057 Y31.352 I9.458 J-9.622
X31.352 Y18.057 I0 J-13.295
X30.48 Y13.301 I-13.409 J0
X26.518 Y10.862 I-3.565 J1.352
G3 X21.937 Y10.041 I-0.873 J-8.317
G2 X9.12 Y18 I-3.937 J7.959
G1 Y18.057
G2 X18 Y26.88 I8.88 J-0.057
X21.937 Y10.041 I0 J-8.88
G3 X21.887 Y9.748 I0.081 J-0.165
G1 X22.51 Y9.105
X28.476 Y1.066
X28.715 Y0.9
X28.75 Y0.886
X28.787 Y0.888
X28.821 Y0.904
X28.845 Y0.933
X28.855 Y0.969
X28.849 Y1.006
X28.829 Y1.037
X28.773 Y1.095 Z-9.007 F50
X28.719 Y1.151 Z-9.027
X28.667 Y1.204 Z-9.061
X28.62 Y1.252 Z-9.106
X28.58 Y1.294 Z-9.162
X28.546 Y1.328 Z-9.228
X28.521 Y1.354 Z-9.3
X28.496 Y1.38 Z-9.372
X28.462 Y1.414 Z-9.438
X28.421 Y1.456 Z-9.494
X28.375 Y1.504 Z-9.539
X28.323 Y1.557 Z-9.573
X28.269 Y1.613 Z-9.593
X28.212 Y1.671 Z-9.6
G3 X25.867 Y2.074 I-1.45 J-1.413
G2 X17.943 Y0.226 I-7.924 J16.066 F150
X5.391 Y5.472 I0 J17.637
X0.226 Y18.057 I12.748 J12.585
X5.472 Y30.609 I17.637 J0
X18.057 Y35.774 I12.585 J-12.748
X30.609 Y30.528 I0 J-17.637
X35.774 Y17.943 I-12.748 J-12.585
X30.528 Y5.391 I-17.637 J0
X25.867 Y2.074 I-12.585 J12.748
X21.512 Y2.845 I-1.652 J3.35
G3 X17.478 Y4.656 I-4.241 J-4.047
G2 X8.518 Y8.599 I0.465 J13.207
X4.648 Y18.057 I9.622 J9.458
X8.599 Y27.482 I13.215 J0
X18.057 Y31.352 I9.458 J-9.622
X31.352 Y18.057 I0 J-13.295
X17.943 Y4.648 I-13.409 J0
X17.478 Y4.656 I0 J13.215
X13.876 Y7.663 I0.135 J3.822
G3 X11.649 Y11.793 I-8.307 J-1.812
G2 X9.12 Y18 I6.351 J6.207
G1 Y18.057
G2 X18 Y26.88 I8.88 J-0.057
X18 Y9.12 I0 J-8.88
X11.649 Y11.793 I0 J8.88
G1 X11.62 Y11.815
X11.585 Y11.827
X11.549
X11.514 Y11.817
X11.484 Y11.796
X11.462 Y11.767
X11.19 Y11.263
X5.131 Y2.955
X5.04 Y2.665
X5.036 Y2.63
X5.045 Y2.597
X5.066 Y2.57
X5.095 Y2.551
X5.129 Y2.544
X5.162 Y2.55
X5.192 Y2.567
X5.214 Y2.594
X5.249 Y2.66 Z-9.606 F50
X5.283 Y2.725 Z-9.624
X5.316 Y2.787 Z-9.653
X5.346 Y2.843 Z-9.693
X5.373 Y2.894 Z-9.742
X5.396 Y2.936 Z-9.8
X5.419 Y2.979 Z-9.858
X5.445 Y3.03 Z-9.907
X5.475 Y3.086 Z-9.947
X5.508 Y3.148 Z-9.976
X5.543 Y3.212 Z-9.994
X5.578 Y3.279 Z-10
G3 X5.25 Y5.617 I-1.773 J0.944
G2 X0.226 Y18.057 I12.89 J12.44 F150
X5.472 Y30.609 I17.637 J0
X18.057 Y35.774 I12.585 J-12.748
X30.609 Y30.528 I0 J-17.637
X35.774 Y17.943 I-12.748 J-12.585
X30.528 Y5.391 I-17.637 J0
X17.943 Y0.226 I-12.585 J12.748
X5.391 Y5.472 I0 J17.637
G1 X5.25 Y5.617
G2 X4.663 Y9.993 I2.68 J2.587
G3 X5.159 Y14.38 I-5.111 J2.799
G2 X4.648 Y18.057 I12.981 J3.677
X8.599 Y27.482 I13.215 J0
X18.057 Y31.352 I9.458 J-9.622
X31.352 Y18.057 I0 J-13.295
X17.943 Y4.648 I-13.409 J0
X8.518 Y8.599 I0 J13.215
X5.159 Y14.38 I9.622 J9.458
X6.902 Y18.713 I3.671 J1.04
G3 X10.122 Y22.097 I-4.256 J7.271
G2 X18 Y26.88 I7.878 J-4.097
X18 Y9.12 I0 J-8.88
X9.12 Y18 I0 J8.88
G1 Y18.057
G2 X10.122 Y22.097 I8.88 J-0.057
G1 X10.146 Y22.153 Z-9.988
X10.163 Y22.211 Z-9.976
X10.173 Y22.271 Z-9.964
X10.174 Y22.348 Z-9.912
X10.163 Y22.424 Z-9.861
X10.149 Y22.474 Z-9.783
X10.129 Y22.521 Z-9.706
X10.112 Y22.553 Z-9.524
Z10

(Drill1)
G0 X26.75 Y26.75
Z10
Z5
Z-5
G1 Z-14 F25
G0 Z5
X9.25
Z-5
G1 Z-14 F25
G0 Z5
Y9.25
Z-5
G1 Z-14 F25
G0 Z5
X26.75
Z-5
G1 Z-14 F25
G0 Z5
Z10
(When using Fusion 360 for Personal Use, the feedrate of)
(rapid moves is reduced to match the feedrate of cutting)
(moves, which can increase machining time. Unrestricted rapid)
(moves are available with a Fusion 360 Subscription.)

(2D Contour5)
X18.476 Y-2.808
G1 Z10 F150
Z5
Z1.6 F25
Z-0.124
G19 G3 Y-2.332 Z-0.6 J0.476 K0 F150
G1 Y-1.856
G17 G3 X18 Y-1.38 I-0.476 J0
G2 X18 Y37.38 I0 J19.38
X18 Y-1.38 I0 J-19.38
G3 X17.524 Y-1.856 I0 J-0.476
G1 Y-2.332
G19 G2 Y-2.808 Z-0.124 J0 K0.476
G1 Z5
X18.476
Z1 F25
Z-0.724
G3 Y-2.332 Z-1.2 J0.476 K0 F150
G1 Y-1.856
G17 G3 X18 Y-1.38 I-0.476 J0
G2 X18 Y37.38 I0 J19.38
X18 Y-1.38 I0 J-19.38
G3 X17.524 Y-1.856 I0 J-0.476
G1 Y-2.332
G19 G2 Y-2.808 Z-0.724 J0 K0.476
G1 Z5
X18.476
Z0.4 F25
Z-1.324
G3 Y-2.332 Z-1.8 J0.476 K0 F150
G1 Y-1.856
G17 G3 X18 Y-1.38 I-0.476 J0
G2 X18 Y37.38 I0 J19.38
X18 Y-1.38 I0 J-19.38
G3 X17.524 Y-1.856 I0 J-0.476
G1 Y-2.332
G19 G2 Y-2.808 Z-1.324 J0 K0.476
G1 Z5
X18.476
Z-0.2 F25
Z-1.924
G3 Y-2.332 Z-2.4 J0.476 K0 F150
G1 Y-1.856
G17 G3 X18 Y-1.38 I-0.476 J0
G2 X18 Y37.38 I0 J19.38
X18 Y-1.38 I0 J-19.38
G3 X17.524 Y-1.856 I0 J-0.476
G1 Y-2.332
G19 G2 Y-2.808 Z-1.924 J0 K0.476
G1 Z5
X18.476
Z-0.8 F25
Z-2.524
G3 Y-2.332 Z-3 J0.476 K0 F150
G1 Y-1.856
G17 G3 X18 Y-1.38 I-0.476 J0
G2 X18 Y37.38 I0 J19.38
X18 Y-1.38 I0 J-19.38
G3 X17.524 Y-1.856 I0 J-0.476
G1 Y-2.332
G19 G2 Y-2.808 Z-2.524 J0 K0.476
G1 Z5
X18.476
Z-1.4 F25
Z-3.124
G3 Y-2.332 Z-3.6 J0.476 K0 F150
G1 Y-1.856
G17 G3 X18 Y-1.38 I-0.476 J0
G2 X18 Y37.38 I0 J19.38
X18 Y-1.38 I0 J-19.38
G3 X17.524 Y-1.856 I0 J-0.476
G1 Y-2.332
G19 G2 Y-2.808 Z-3.124 J0 K0.476
G1 Z5
X18.476
Z-2 F25
Z-3.724
G3 Y-2.332 Z-4.2 J0.476 K0 F150
G1 Y-1.856
G17 G3 X18 Y-1.38 I-0.476 J0
G2 X18 Y37.38 I0 J19.38
X18 Y-1.38 I0 J-19.38
G3 X17.524 Y-1.856 I0 J-0.476
G1 Y-2.332
G19 G2 Y-2.808 Z-3.724 J0 K0.476
G1 Z5
X18.476
Z-2.6 F25
Z-4.324
G3 Y-2.332 Z-4.8 J0.476 K0 F150
G1 Y-1.856
G17 G3 X18 Y-1.38 I-0.476 J0
G2 X18 Y37.38 I0 J19.38
X18 Y-1.38 I0 J-19.38
G3 X17.524 Y-1.856 I0 J-0.476
G1 Y-2.332
G19 G2 Y-2.808 Z-4.324 J0 K0.476
G1 Z5
X18.476
Z-3.2 F25
Z-4.924
G3 Y-2.332 Z-5.4 J0.476 K0 F150
G1 Y-1.856
G17 G3 X18 Y-1.38 I-0.476 J0
G2 X18 Y37.38 I0 J19.38
X18 Y-1.38 I0 J-19.38
G3 X17.524 Y-1.856 I0 J-0.476
G1 Y-2.332
G19 G2 Y-2.808 Z-4.924 J0 K0.476
G1 Z5
X18.476
Z-3.8 F25
Z-5.524
G3 Y-2.332 Z-6 J0.476 K0 F150
G1 Y-1.856
G17 G3 X18 Y-1.38 I-0.476 J0
G2 X18 Y37.38 I0 J19.38
X18 Y-1.38 I0 J-19.38
G3 X17.524 Y-1.856 I0 J-0.476
G1 Y-2.332
G19 G2 Y-2.808 Z-5.524 J0 K0.476
G1 Z5
X18.476
Z-4.4 F25
Z-6.124
G3 Y-2.332 Z-6.6 J0.476 K0 F150
G1 Y-1.856
G17 G3 X18 Y-1.38 I-0.476 J0
G2 X18 Y37.38 I0 J19.38
X18 Y-1.38 I0 J-19.38
G3 X17.524 Y-1.856 I0 J-0.476
G1 Y-2.332
G19 G2 Y-2.808 Z-6.124 J0 K0.476
G1 Z5
X18.476
Z-5 F25
Z-6.724
G3 Y-2.332 Z-7.2 J0.476 K0 F150
G1 Y-1.856
G17 G3 X18 Y-1.38 I-0.476 J0
G2 X18 Y37.38 I0 J19.38
X18 Y-1.38 I0 J-19.38
G3 X17.524 Y-1.856 I0 J-0.476
G1 Y-2.332
G19 G2 Y-2.808 Z-6.724 J0 K0.476
G1 Z5
X18.476
Z-5.6 F25
Z-7.324
G3 Y-2.332 Z-7.8 J0.476 K0 F150
G1 Y-1.856
G17 G3 X18 Y-1.38 I-0.476 J0
G2 X18 Y37.38 I0 J19.38
X18 Y-1.38 I0 J-19.38
G3 X17.524 Y-1.856 I0 J-0.476
G1 Y-2.332
G19 G2 Y-2.808 Z-7.324 J0 K0.476
G1 Z5
X18.476
Z-6.2 F25
Z-7.924
G3 Y-2.332 Z-8.4 J0.476 K0 F150
G1 Y-1.856
G17 G3 X18 Y-1.38 I-0.476 J0
G2 X18 Y37.38 I0 J19.38
X18 Y-1.38 I0 J-19.38
G3 X17.524 Y-1.856 I0 J-0.476
G1 Y-2.332
G19 G2 Y-2.808 Z-7.924 J0 K0.476
G1 Z5
X18.476
Z-6.8 F25
Z-8.524
G3 Y-2.332 Z-9 J0.476 K0 F150
G1 Y-1.856
G17 G3 X18 Y-1.38 I-0.476 J0
G2 X18 Y37.38 I0 J19.38
X18 Y-1.38 I0 J-19.38
G3 X17.524 Y-1.856 I0 J-0.476
G1 Y-2.332
G19 G2 Y-2.808 Z-8.524 J0 K0.476
G1 Z5
X18.476
Z-7.4 F25
Z-9.124
G3 Y-2.332 Z-9.6 J0.476 K0 F150
G1 Y-1.856
G17 G3 X18 Y-1.38 I-0.476 J0
G2 X18 Y37.38 I0 J19.38
X18 Y-1.38 I0 J-19.38
G3 X17.524 Y-1.856 I0 J-0.476
G1 Y-2.332
G19 G2 Y-2.808 Z-9.124 J0 K0.476
G1 Z5
X18.476
Z-8 F25
Z-9.724
G3 Y-2.332 Z-10.2 J0.476 K0 F150
G1 Y-1.856
G17 G3 X18 Y-1.38 I-0.476 J0
G2 X18 Y37.38 I0 J19.38
X18 Y-1.38 I0 J-19.38
G3 X17.524 Y-1.856 I0 J-0.476
G1 Y-2.332
G19 G2 Y-2.808 Z-9.724 J0 K0.476
G1 Z5
X18.476
Z-8.6 F25
Z-10.324
G3 Y-2.332 Z-10.8 J0.476 K0 F150
G1 Y-1.856
G17 G3 X18 Y-1.38 I-0.476 J0
G2 X18 Y37.38 I0 J19.38
X18 Y-1.38 I0 J-19.38
G3 X17.524 Y-1.856 I0 J-0.476
G1 Y-2.332
G19 G2 Y-2.808 Z-10.324 J0 K0.476
G1 Z5
X18.476
Z-9.2 F25
Z-10.924
G3 Y-2.332 Z-11.4 J0.476 K0 F150
G1 Y-1.856
G17 G3 X18 Y-1.38 I-0.476 J0
G2 X18 Y37.38 I0 J19.38
X18 Y-1.38 I0 J-19.38
G3 X17.524 Y-1.856 I0 J-0.476
G1 Y-2.332
G19 G2 Y-2.808 Z-10.924 J0 K0.476
G1 Z5
X18.476
Z-9.8 F25
Z-11.524
G3 Y-2.332 Z-12 J0.476 K0 F150
G1 Y-1.856
G17 G3 X18 Y-1.38 I-0.476 J0
G2 X18 Y37.38 I0 J19.38
X18 Y-1.38 I0 J-19.38
G3 X17.524 Y-1.856 I0 J-0.476
G1 Y-2.332
G19 G2 Y-2.808 Z-11.524 J0 K0.476
G1 Z5
X18.476
Z-10.4 F25
Z-12.124
G3 Y-2.332 Z-12.6 J0.476 K0 F150
G1 Y-1.856
G17 G3 X18 Y-1.38 I-0.476 J0
G2 X18 Y37.38 I0 J19.38
X18 Y-1.38 I0 J-19.38
G3 X17.524 Y-1.856 I0 J-0.476
G1 Y-2.332
G19 G2 Y-2.808 Z-12.124 J0 K0.476
G1 Z5
X18.476
Z-11 F25
Z-12.724
G3 Y-2.332 Z-13.2 J0.476 K0 F150
G1 Y-1.856
G17 G3 X18 Y-1.38 I-0.476 J0
G2 X18 Y37.38 I0 J19.38
X18 Y-1.38 I0 J-19.38
G3 X17.524 Y-1.856 I0 J-0.476
G1 Y-2.332
G19 G2 Y-2.808 Z-12.724 J0 K0.476
G1 Z5
X18.476
Z-11.6 F25
Z-13.324
G3 Y-2.332 Z-13.8 J0.476 K0 F150
G1 Y-1.856
G17 G3 X18 Y-1.38 I-0.476 J0
G2 X18 Y37.38 I0 J19.38
X18 Y-1.38 I0 J-19.38
G3 X17.524 Y-1.856 I0 J-0.476
G1 Y-2.332
G19 G2 Y-2.808 Z-13.324 J0 K0.476
G1 Z5
X18.476
Z-12.2 F25
Z-13.524
G3 Y-2.332 Z-14 J0.476 K0 F150
G1 Y-1.856
G17 G3 X18 Y-1.38 I-0.476 J0
G2 X18 Y37.38 I0 J19.38
X18 Y-1.38 I0 J-19.38
G3 X17.524 Y-1.856 I0 J-0.476
G1 Y-2.332
G19 G2 Y-2.808 Z-13.524 J0 K0.476
G1 Z10
G17
M9
G28 G91 Z0
G90
G28 G91 X0 Y0
G90
M5
M30
