(metal_coupler_14mm_drill)
(Machine)
(  vendor: Autodesk)
(  model: GARAGE CNC)
(  description: GARAGE CNC)
(T1  D=4.76 CR=0 - ZMIN=-11 - flat end mill)
G90 G94
G17
G21
G28 G91 Z0
G90

(Drill1)
T1
S24000 M3
G54
M8
G0 X26.75 Y26.75
Z10
Z5
Z-4
G1 Z-9 F50
Z-9.5
X26.755 Y26.759 F150
X26.765
X26.77 Y26.75
G2 X26.73 Y26.75 I-0.02 J0
X26.77 Y26.75 I0.02 J0
G1 X26.75
Z-10 F50
X26.755 Y26.759 F150
X26.765
X26.77 Y26.75
G2 X26.73 Y26.75 I-0.02 J0
X26.77 Y26.75 I0.02 J0
G1 X26.75
Z-10.5 F50
X26.755 Y26.759 F150
X26.765
X26.77 Y26.75
G2 X26.73 Y26.75 I-0.02 J0
X26.77 Y26.75 I0.02 J0
G1 X26.75
Z-11 F50
X26.755 Y26.759 F150
X26.765
X26.77 Y26.75
G2 X26.73 Y26.75 I-0.02 J0
X26.77 Y26.75 I0.02 J0
G1 X26.75
G0 Z5
X9.25
Z-4
G1 Z-9 F50
Z-9.5
X9.255 Y26.759 F150
X9.265
X9.27 Y26.75
G2 X9.23 Y26.75 I-0.02 J0
X9.27 Y26.75 I0.02 J0
G1 X9.25
Z-10 F50
X9.255 Y26.759 F150
X9.265
X9.27 Y26.75
G2 X9.23 Y26.75 I-0.02 J0
X9.27 Y26.75 I0.02 J0
G1 X9.25
Z-10.5 F50
X9.255 Y26.759 F150
X9.265
X9.27 Y26.75
G2 X9.23 Y26.75 I-0.02 J0
X9.27 Y26.75 I0.02 J0
G1 X9.25
Z-11 F50
X9.255 Y26.759 F150
X9.265
X9.27 Y26.75
G2 X9.23 Y26.75 I-0.02 J0
X9.27 Y26.75 I0.02 J0
G1 X9.25
G0 Z5
Y9.25
Z-4
G1 Z-9 F50
Z-9.5
X9.255 Y9.259 F150
X9.265
X9.27 Y9.25
G2 X9.23 Y9.25 I-0.02 J0
X9.27 Y9.25 I0.02 J0
G1 X9.25
Z-10 F50
X9.255 Y9.259 F150
X9.265
X9.27 Y9.25
G2 X9.23 Y9.25 I-0.02 J0
X9.27 Y9.25 I0.02 J0
G1 X9.25
Z-10.5 F50
X9.255 Y9.259 F150
X9.265
X9.27 Y9.25
G2 X9.23 Y9.25 I-0.02 J0
X9.27 Y9.25 I0.02 J0
G1 X9.25
Z-11 F50
X9.255 Y9.259 F150
X9.265
X9.27 Y9.25
G2 X9.23 Y9.25 I-0.02 J0
X9.27 Y9.25 I0.02 J0
G1 X9.25
G0 Z5
X26.75
Z-4
G1 Z-9 F50
Z-9.5
X26.755 Y9.259 F150
X26.765
X26.77 Y9.25
G2 X26.73 Y9.25 I-0.02 J0
X26.77 Y9.25 I0.02 J0
G1 X26.75
Z-10 F50
X26.755 Y9.259 F150
X26.765
X26.77 Y9.25
G2 X26.73 Y9.25 I-0.02 J0
X26.77 Y9.25 I0.02 J0
G1 X26.75
Z-10.5 F50
X26.755 Y9.259 F150
X26.765
X26.77 Y9.25
G2 X26.73 Y9.25 I-0.02 J0
X26.77 Y9.25 I0.02 J0
G1 X26.75
Z-11 F50
X26.755 Y9.259 F150
X26.765
X26.77 Y9.25
G2 X26.73 Y9.25 I-0.02 J0
X26.77 Y9.25 I0.02 J0
G1 X26.75
G0 Z5
Z10
M9
G28 G91 Z0
G90
G28 G91 X0 Y0
G90
M5
M30
