(metal_coupler_8mm)
(Machine)
(  vendor: Autodesk)
(  model: Generic 3-axis)
(  description: This machine has XY axis on the Table and Z axis on the Head)
(T1  D=4.76 CR=0 - ZMIN=-14 - flat end mill)
G90 G94
G17
G21
(When using Fusion 360 for Personal Use, the feedrate of)
(rapid moves is reduced to match the feedrate of cutting)
(moves, which can increase machining time. Unrestricted rapid)
(moves are available with a Fusion 360 Subscription.)
G28 G91 Z0
G90

(2D Contour1)
T1
S24000 M3
G54
M8
G0 X17.692 Y17.524
Z10
G1 Z5 F150
Z1.6 F50
Z-0.124
G18 G2 X18.168 Z-0.6 I0.476 K0
G1 X18.644
G17 G3 X19.12 Y18 I0 J0.476
G1 Y19.17 F150
G3 X16.88 Y16.83 I-1.12 J-1.17
X19.12 Y16.83 I1.12 J1.17
G1 Y18
G3 X18.644 Y18.476 I-0.476 J0
G1 X18.168
G18 G3 X17.692 Z-0.124 I0 K0.476
G1 Z5
Y17.524
Z1 F50
Z-0.724
G2 X18.168 Z-1.2 I0.476 K0
G1 X18.644
G17 G3 X19.12 Y18 I0 J0.476
G1 Y19.17 F150
G3 X16.88 Y16.83 I-1.12 J-1.17
X19.12 Y16.83 I1.12 J1.17
G1 Y18
G3 X18.644 Y18.476 I-0.476 J0
G1 X18.168
G18 G3 X17.692 Z-0.724 I0 K0.476
G1 Z5
Y17.524
Z0.4 F50
Z-1.324
G2 X18.168 Z-1.8 I0.476 K0
G1 X18.644
G17 G3 X19.12 Y18 I0 J0.476
G1 Y19.17 F150
G3 X16.88 Y16.83 I-1.12 J-1.17
X19.12 Y16.83 I1.12 J1.17
G1 Y18
G3 X18.644 Y18.476 I-0.476 J0
G1 X18.168
G18 G3 X17.692 Z-1.324 I0 K0.476
G1 Z5
Y17.524
Z-0.2 F50
Z-1.924
G2 X18.168 Z-2.4 I0.476 K0
G1 X18.644
G17 G3 X19.12 Y18 I0 J0.476
G1 Y19.17 F150
G3 X16.88 Y16.83 I-1.12 J-1.17
X19.12 Y16.83 I1.12 J1.17
G1 Y18
G3 X18.644 Y18.476 I-0.476 J0
G1 X18.168
G18 G3 X17.692 Z-1.924 I0 K0.476
G1 Z5
Y17.524
Z-0.8 F50
Z-2.524
G2 X18.168 Z-3 I0.476 K0
G1 X18.644
G17 G3 X19.12 Y18 I0 J0.476
G1 Y19.17 F150
G3 X16.88 Y16.83 I-1.12 J-1.17
X19.12 Y16.83 I1.12 J1.17
G1 Y18
G3 X18.644 Y18.476 I-0.476 J0
G1 X18.168
G18 G3 X17.692 Z-2.524 I0 K0.476
G1 Z5
Y17.524
Z-1.4 F50
Z-3.124
G2 X18.168 Z-3.6 I0.476 K0
G1 X18.644
G17 G3 X19.12 Y18 I0 J0.476
G1 Y19.17 F150
G3 X16.88 Y16.83 I-1.12 J-1.17
X19.12 Y16.83 I1.12 J1.17
G1 Y18
G3 X18.644 Y18.476 I-0.476 J0
G1 X18.168
G18 G3 X17.692 Z-3.124 I0 K0.476
G1 Z5
Y17.524
Z-2 F50
Z-3.724
G2 X18.168 Z-4.2 I0.476 K0
G1 X18.644
G17 G3 X19.12 Y18 I0 J0.476
G1 Y19.17 F150
G3 X16.88 Y16.83 I-1.12 J-1.17
X19.12 Y16.83 I1.12 J1.17
G1 Y18
G3 X18.644 Y18.476 I-0.476 J0
G1 X18.168
G18 G3 X17.692 Z-3.724 I0 K0.476
G1 Z5
Y17.524
Z-2.6 F50
Z-4.324
G2 X18.168 Z-4.8 I0.476 K0
G1 X18.644
G17 G3 X19.12 Y18 I0 J0.476
G1 Y19.17 F150
G3 X16.88 Y16.83 I-1.12 J-1.17
X19.12 Y16.83 I1.12 J1.17
G1 Y18
G3 X18.644 Y18.476 I-0.476 J0
G1 X18.168
G18 G3 X17.692 Z-4.324 I0 K0.476
G1 Z5
Y17.524
Z-3.2 F50
Z-4.924
G2 X18.168 Z-5.4 I0.476 K0
G1 X18.644
G17 G3 X19.12 Y18 I0 J0.476
G1 Y19.17 F150
G3 X16.88 Y16.83 I-1.12 J-1.17
X19.12 Y16.83 I1.12 J1.17
G1 Y18
G3 X18.644 Y18.476 I-0.476 J0
G1 X18.168
G18 G3 X17.692 Z-4.924 I0 K0.476
G1 Z5
Y17.524
Z-3.8 F50
Z-5.524
G2 X18.168 Z-6 I0.476 K0
G1 X18.644
G17 G3 X19.12 Y18 I0 J0.476
G1 Y19.17 F150
G3 X16.88 Y16.83 I-1.12 J-1.17
X19.12 Y16.83 I1.12 J1.17
G1 Y18
G3 X18.644 Y18.476 I-0.476 J0
G1 X18.168
G18 G3 X17.692 Z-5.524 I0 K0.476
G1 Z5
Y17.524
Z-4.4 F50
Z-6.124
G2 X18.168 Z-6.6 I0.476 K0
G1 X18.644
G17 G3 X19.12 Y18 I0 J0.476
G1 Y19.17 F150
G3 X16.88 Y16.83 I-1.12 J-1.17
X19.12 Y16.83 I1.12 J1.17
G1 Y18
G3 X18.644 Y18.476 I-0.476 J0
G1 X18.168
G18 G3 X17.692 Z-6.124 I0 K0.476
G1 Z5
Y17.524
Z-5 F50
Z-6.724
G2 X18.168 Z-7.2 I0.476 K0
G1 X18.644
G17 G3 X19.12 Y18 I0 J0.476
G1 Y19.17 F150
G3 X16.88 Y16.83 I-1.12 J-1.17
X19.12 Y16.83 I1.12 J1.17
G1 Y18
G3 X18.644 Y18.476 I-0.476 J0
G1 X18.168
G18 G3 X17.692 Z-6.724 I0 K0.476
G1 Z5
Y17.524
Z-5.6 F50
Z-7.324
G2 X18.168 Z-7.8 I0.476 K0
G1 X18.644
G17 G3 X19.12 Y18 I0 J0.476
G1 Y19.17 F150
G3 X16.88 Y16.83 I-1.12 J-1.17
X19.12 Y16.83 I1.12 J1.17
G1 Y18
G3 X18.644 Y18.476 I-0.476 J0
G1 X18.168
G18 G3 X17.692 Z-7.324 I0 K0.476
G1 Z5
Y17.524
Z-6.2 F50
Z-7.924
G2 X18.168 Z-8.4 I0.476 K0
G1 X18.644
G17 G3 X19.12 Y18 I0 J0.476
G1 Y19.17 F150
G3 X16.88 Y16.83 I-1.12 J-1.17
X19.12 Y16.83 I1.12 J1.17
G1 Y18
G3 X18.644 Y18.476 I-0.476 J0
G1 X18.168
G18 G3 X17.692 Z-7.924 I0 K0.476
G1 Z5
Y17.524
Z-6.8 F50
Z-8.524
G2 X18.168 Z-9 I0.476 K0
G1 X18.644
G17 G3 X19.12 Y18 I0 J0.476
G1 Y19.17 F150
G3 X16.88 Y16.83 I-1.12 J-1.17
X19.12 Y16.83 I1.12 J1.17
G1 Y18
G3 X18.644 Y18.476 I-0.476 J0
G1 X18.168
G18 G3 X17.692 Z-8.524 I0 K0.476
G1 Z5
Y17.524
Z-7.4 F50
Z-9.124
G2 X18.168 Z-9.6 I0.476 K0
G1 X18.644
G17 G3 X19.12 Y18 I0 J0.476
G1 Y19.17 F150
G3 X16.88 Y16.83 I-1.12 J-1.17
X19.12 Y16.83 I1.12 J1.17
G1 Y18
G3 X18.644 Y18.476 I-0.476 J0
G1 X18.168
G18 G3 X17.692 Z-9.124 I0 K0.476
G1 Z5
Y17.524
Z-8 F50
Z-9.724
G2 X18.168 Z-10.2 I0.476 K0
G1 X18.644
G17 G3 X19.12 Y18 I0 J0.476
G1 Y19.17 F150
G3 X16.88 Y16.83 I-1.12 J-1.17
X19.12 Y16.83 I1.12 J1.17
G1 Y18
G3 X18.644 Y18.476 I-0.476 J0
G1 X18.168
G18 G3 X17.692 Z-9.724 I0 K0.476
G1 Z5
Y17.524
Z-8.6 F50
Z-10.324
G2 X18.168 Z-10.8 I0.476 K0
G1 X18.644
G17 G3 X19.12 Y18 I0 J0.476
G1 Y19.17 F150
G3 X16.88 Y16.83 I-1.12 J-1.17
X19.12 Y16.83 I1.12 J1.17
G1 Y18
G3 X18.644 Y18.476 I-0.476 J0
G1 X18.168
G18 G3 X17.692 Z-10.324 I0 K0.476
G1 Z5
Y17.524
Z-9.2 F50
Z-10.924
G2 X18.168 Z-11.4 I0.476 K0
G1 X18.644
G17 G3 X19.12 Y18 I0 J0.476
G1 Y19.17 F150
G3 X16.88 Y16.83 I-1.12 J-1.17
X19.12 Y16.83 I1.12 J1.17
G1 Y18
G3 X18.644 Y18.476 I-0.476 J0
G1 X18.168
G18 G3 X17.692 Z-10.924 I0 K0.476
G1 Z5
Y17.524
Z-9.8 F50
Z-11.524
G2 X18.168 Z-12 I0.476 K0
G1 X18.644
G17 G3 X19.12 Y18 I0 J0.476
G1 Y19.17 F150
G3 X16.88 Y16.83 I-1.12 J-1.17
X19.12 Y16.83 I1.12 J1.17
G1 Y18
G3 X18.644 Y18.476 I-0.476 J0
G1 X18.168
G18 G3 X17.692 Z-11.524 I0 K0.476
G1 Z5
Y17.524
Z-10.4 F50
Z-12.124
G2 X18.168 Z-12.6 I0.476 K0
G1 X18.644
G17 G3 X19.12 Y18 I0 J0.476
G1 Y19.17 F150
G3 X16.88 Y16.83 I-1.12 J-1.17
X19.12 Y16.83 I1.12 J1.17
G1 Y18
G3 X18.644 Y18.476 I-0.476 J0
G1 X18.168
G18 G3 X17.692 Z-12.124 I0 K0.476
G1 Z5
Y17.524
Z-11 F50
Z-12.724
G2 X18.168 Z-13.2 I0.476 K0
G1 X18.644
G17 G3 X19.12 Y18 I0 J0.476
G1 Y19.17 F150
G3 X16.88 Y16.83 I-1.12 J-1.17
X19.12 Y16.83 I1.12 J1.17
G1 Y18
G3 X18.644 Y18.476 I-0.476 J0
G1 X18.168
G18 G3 X17.692 Z-12.724 I0 K0.476
G1 Z5
Y17.524
Z-11.6 F50
Z-13.324
G2 X18.168 Z-13.8 I0.476 K0
G1 X18.644
G17 G3 X19.12 Y18 I0 J0.476
G1 Y19.17 F150
G3 X16.88 Y16.83 I-1.12 J-1.17
X19.12 Y16.83 I1.12 J1.17
G1 Y18
G3 X18.644 Y18.476 I-0.476 J0
G1 X18.168
G18 G3 X17.692 Z-13.324 I0 K0.476
G1 Z5
Y17.524
Z-12.2 F50
Z-13.524
G2 X18.168 Z-14 I0.476 K0
G1 X18.644
G17 G3 X19.12 Y18 I0 J0.476
G1 Y19.17 F150
G3 X16.88 Y16.83 I-1.12 J-1.17
X19.12 Y16.83 I1.12 J1.17
G1 Y18
G3 X18.644 Y18.476 I-0.476 J0
G1 X18.168
G18 G3 X17.692 Z-13.524 I0 K0.476
G1 Z10
G17
(When using Fusion 360 for Personal Use, the feedrate of)
(rapid moves is reduced to match the feedrate of cutting)
(moves, which can increase machining time. Unrestricted rapid)
(moves are available with a Fusion 360 Subscription.)

(2D Pocket2)
G0 X29.875 Y33.485
G1 Z10 F150
Z5
Z1.6 F50
Z-0.124
X29.877 Y33.478 Z-0.207
X29.886 Y33.458 Z-0.287
X29.899 Y33.426 Z-0.362
X29.917 Y33.382 Z-0.43
X29.94 Y33.328 Z-0.489
X29.966 Y33.265 Z-0.536
X29.995 Y33.195 Z-0.571
X30.025 Y33.121 Z-0.593
X30.057 Y33.045 Z-0.6
G3 X31.246 Y31.268 I5.061 J2.101
G2 X36.774 Y18 I-13.308 J-13.33 F150
X18 Y-0.774 I-18.774 J0
X17.939 Y36.774 I0 J18.774
X31.246 Y31.268 I0 J-18.835
X31.919 Y26.957 I-2.611 J-2.616
G3 X31.593 Y22.606 I4.959 J-2.56
G2 X32.352 Y17.939 I-13.593 J-4.606
X18 Y3.648 I-14.291 J0
X3.648 Y17.939 I0 J14.352
X18 Y32.352 I14.413 J0
X31.593 Y22.606 I0 J-14.352
X30.12 Y18.228 I-3.608 J-1.223
G3 X27.273 Y14.591 I4.219 J-6.235
G2 X18 Y8.12 I-9.273 J3.409
X18 Y27.88 I0 J9.88
X27.88 Y18 I0 J-9.88
G1 Y17.939
G2 X27.273 Y14.591 I-9.88 J0.061
G3 X27.44 Y14.278 I0.223 J-0.082
G1 X36.313 Y12.097
G3 X36.557 Y12.202 I0.044 J0.234
G1 X37.625 Y13.857
G3 X37.238 Y14.134 I-0.2 J0.129
G1 X37.188 Y14.07 Z-0.607 F50
X37.14 Y14.009 Z-0.627
X37.094 Y13.951 Z-0.661
X37.053 Y13.898 Z-0.706
X37.017 Y13.852 Z-0.762
X36.987 Y13.814 Z-0.828
X36.964 Y13.786 Z-0.9
X36.942 Y13.758 Z-0.972
X36.912 Y13.72 Z-1.038
X36.876 Y13.674 Z-1.094
X36.835 Y13.621 Z-1.139
X36.789 Y13.563 Z-1.173
X36.741 Y13.502 Z-1.193
X36.691 Y13.438 Z-1.2
G3 X35.621 Y11.523 I5.512 J-4.335
G2 X18 Y-0.774 I-17.621 J6.477 F150
X17.939 Y36.774 I0 J18.774
X36.774 Y18 I0 J-18.835
X35.621 Y11.523 I-18.774 J0
X31.986 Y9.099 I-3.478 J1.278
G3 X27.894 Y7.568 I-0.239 J-5.595
G2 X18 Y3.648 I-9.833 J10.371
X3.648 Y17.939 I0 J14.352
X18 Y32.352 I14.413 J0
X32.352 Y17.939 I0 J-14.352
X27.894 Y7.568 I-14.291 J0
X23.273 Y7.071 I-2.636 J2.781
G3 X18.752 Y8.149 I-3.941 J-6.511
G2 X18 Y8.12 I-0.752 J9.851
X18 Y27.88 I0 J9.88
X27.88 Y18 I0 J-9.88
G1 Y17.939
G2 X18.752 Y8.149 I-9.88 J0.061
G3 X18.537 Y7.867 I0.018 J-0.237
G1 X20.257 Y-1.117
G3 X20.454 Y-1.295 I0.231 J0.058
G1 X22.423 Y-1.575
G3 X22.513 Y-1.108 I0.034 J0.236
G1 X22.435 Y-1.089 Z-1.207 F50
X22.358 Y-1.071 Z-1.227
X22.287 Y-1.053 Z-1.261
X22.222 Y-1.038 Z-1.306
X22.165 Y-1.024 Z-1.362
X22.118 Y-1.013 Z-1.428
X22.083 Y-1.004 Z-1.5
X22.048 Y-0.995 Z-1.572
X22.001 Y-0.984 Z-1.638
X21.945 Y-0.97 Z-1.694
X21.879 Y-0.955 Z-1.739
X21.808 Y-0.937 Z-1.773
X21.732 Y-0.919 Z-1.793
X21.653 Y-0.9 Z-1.8
G3 X19.429 Y-0.72 I-1.681 J-6.931
G2 X18 Y-0.774 I-1.429 J18.72 F150
X17.939 Y36.774 I0 J18.774
X36.774 Y18 I0 J-18.835
X19.429 Y-0.72 I-18.774 J0
X15.702 Y1.595 I-0.283 J3.703
G3 X12.604 Y4.701 I-5.211 J-2.1
G2 X3.648 Y17.939 I5.396 J13.299
X18 Y32.352 I14.413 J0
X32.352 Y17.939 I0 J-14.352
X18 Y3.648 I-14.291 J0
X12.604 Y4.701 I0 J14.352
X10.253 Y8.677 I1.432 J3.53
G3 X9.36 Y13.208 I-7.476 J0.881
G2 X26.64 Y22.792 I8.64 J4.792
X27.88 Y18 I-8.64 J-4.792
G1 Y17.939
G2 X18 Y8.12 I-9.88 J0.061
X9.36 Y13.208 I0 J9.88
G3 X9.013 Y13.286 I-0.208 J-0.115
G1 X1.567 Y7.957
G3 X1.488 Y7.704 I0.15 J-0.185
G1 X2.066 Y5.781
G3 X2.527 Y5.895 I0.228 J0.068
G1 X2.512 Y5.974 Z-1.807 F50
X2.497 Y6.051 Z-1.827
X2.483 Y6.123 Z-1.861
X2.47 Y6.189 Z-1.906
X2.459 Y6.246 Z-1.962
X2.45 Y6.293 Z-2.028
X2.443 Y6.329 Z-2.1
X2.436 Y6.364 Z-2.172
X2.427 Y6.411 Z-2.238
X2.416 Y6.469 Z-2.294
X2.403 Y6.535 Z-2.339
X2.389 Y6.607 Z-2.373
X2.374 Y6.684 Z-2.393
X2.358 Y6.763 Z-2.4
G3 X1.582 Y8.894 I-7.117 J-1.385
G2 X17.939 Y36.774 I16.418 J9.106 F150
X36.774 Y18 I0 J-18.835
X18 Y-0.774 I-18.774 J0
X1.582 Y8.894 I0 J18.774
X2.13 Y13.251 I3.252 J1.803
G3 X3.662 Y17.366 I-4.093 J3.866
G2 X3.648 Y17.939 I14.338 J0.635
X18 Y32.352 I14.413 J0
X32.352 Y17.939 I0 J-14.352
X18 Y3.648 I-14.291 J0
X3.662 Y17.366 I0 J14.352
X6.297 Y21.159 I3.806 J0.168
G3 X10.044 Y23.859 I-2.314 J7.163
G2 X27.88 Y18 I7.956 J-5.859
G1 Y17.939
G2 X18 Y8.12 I-9.88 J0.061
X10.044 Y23.859 I0 J9.88
G3 X9.972 Y24.206 I-0.192 J0.141
G1 X2.067 Y28.779
G3 X1.804 Y28.747 I-0.108 J-0.212
G1 X0.321 Y27.462
G3 X0.616 Y27.089 I0.156 J-0.18
G1 X0.681 Y27.136 Z-2.407 F50
X0.745 Y27.182 Z-2.427
X0.805 Y27.225 Z-2.461
X0.859 Y27.264 Z-2.506
X0.907 Y27.298 Z-2.562
X0.946 Y27.326 Z-2.628
X0.975 Y27.347 Z-2.7
X1.005 Y27.368 Z-2.772
X1.044 Y27.396 Z-2.838
X1.091 Y27.43 Z-2.894
X1.145 Y27.469 Z-2.939
X1.205 Y27.512 Z-2.973
X1.269 Y27.557 Z-2.993
X1.335 Y27.604 Z-3
G3 X2.883 Y29.133 I-4.051 J5.652
G2 X17.939 Y36.774 I15.117 J-11.133 F150
X36.774 Y18 I0 J-18.835
X18 Y-0.774 I-18.774 J0
X2.883 Y29.133 I0 J18.774
X7.097 Y30.455 I3.01 J-2.217
G3 X11.503 Y30.774 I1.826 J5.366
G2 X18 Y32.352 I6.559 J-12.835
X32.352 Y17.939 I0 J-14.352
X18 Y3.648 I-14.291 J0
X3.648 Y17.939 I0 J14.352
X11.503 Y30.774 I14.413 J0
X16.028 Y29.952 I1.724 J-3.374
G3 X20.021 Y27.671 I5.522 J5.033
G2 X27.88 Y18 I-2.021 J-9.671
G1 Y17.939
G2 X18 Y8.12 I-9.88 J0.061
X8.172 Y19.016 I0 J9.88
X20.021 Y27.671 I9.828 J-1.016
G3 X20.307 Y27.882 I0.049 J0.233
G1 X21.149 Y37.004
G3 X21.009 Y37.229 I-0.238 J0.008
G1 X19.163 Y38.059
G3 X18.946 Y37.636 I-0.098 J-0.217
G1 X19.016 Y37.596 Z-3.007 F50
X19.084 Y37.557 Z-3.027
X19.148 Y37.52 Z-3.061
X19.206 Y37.486 Z-3.106
X19.256 Y37.457 Z-3.162
X19.298 Y37.433 Z-3.228
X19.329 Y37.415 Z-3.3
X19.36 Y37.396 Z-3.372
X19.402 Y37.372 Z-3.438
X19.452 Y37.343 Z-3.494
X19.51 Y37.31 Z-3.539
X19.574 Y37.273 Z-3.573
X19.642 Y37.233 Z-3.593
X19.712 Y37.193 Z-3.6
G3 X21.88 Y36.357 I3.723 J6.428
G2 X36.774 Y18 I-3.942 J-18.418 F150
X18 Y-0.774 I-18.774 J0
X17.939 Y36.774 I0 J18.774
X21.88 Y36.357 I0 J-18.835
X24.796 Y33.098 I-0.776 J-3.628
G3 X26.896 Y29.263 I5.569 J0.557
G2 X32.352 Y17.939 I-8.896 J-11.263
X18 Y3.648 I-14.291 J0
X3.648 Y17.939 I0 J14.352
X18 Y32.352 I14.413 J0
X26.896 Y29.263 I0 J-14.352
X28.043 Y24.789 I-2.361 J-2.989
G3 X27.635 Y20.188 I6.932 J-2.933
G2 X27.88 Y18 I-9.635 J-2.188
G1 Y17.939
G2 X18 Y8.12 I-9.88 J0.061
X18 Y27.88 I0 J9.88
X27.635 Y20.188 I0 J-9.88
G3 X27.947 Y20.017 I0.232 J0.053
G1 X36.563 Y23.083
G3 X36.708 Y23.305 I-0.093 J0.219
G1 X36.677 Y25.323
G3 X36.202 Y25.34 I-0.238 J-0.004
G1 X36.195 Y25.259 Z-3.607 F50
X36.188 Y25.181 Z-3.627
X36.182 Y25.108 Z-3.661
X36.176 Y25.041 Z-3.706
X36.171 Y24.983 Z-3.762
X36.167 Y24.935 Z-3.828
X36.164 Y24.899 Z-3.9
X36.161 Y24.863 Z-3.972
X36.157 Y24.815 Z-4.038
X36.152 Y24.757 Z-4.094
X36.146 Y24.69 Z-4.139
X36.14 Y24.617 Z-4.173
X36.133 Y24.539 Z-4.193
X36.126 Y24.458 Z-4.2
G3 X36.287 Y22.196 I7.224 J-0.624
G2 X36.774 Y18 I-18.348 J-4.257 F150
X18 Y-0.774 I-18.774 J0
X17.939 Y36.774 I0 J18.774
X36.287 Y22.196 I0 J-18.835
X34.564 Y18.168 I-3.61 J-0.838
G3 X31.966 Y14.641 I2.851 J-4.819
G2 X18 Y3.648 I-13.905 J3.297
X3.648 Y17.939 I0 J14.352
X18 Y32.352 I14.413 J0
X32.352 Y17.939 I0 J-14.352
X31.966 Y14.641 I-14.291 J0
X28.371 Y11.706 I-3.715 J0.881
G3 X23.999 Y10.15 I0.239 J-7.59
G2 X18 Y8.12 I-5.999 J7.85
X18 Y27.88 I0 J9.88
X27.88 Y18 I0 J-9.88
G1 Y17.939
G2 X23.999 Y10.15 I-9.88 J0.061
G3 X23.972 Y9.796 I0.145 J-0.189
G1 X30.291 Y3.197
G3 X30.553 Y3.154 I0.163 J0.174
G1 X32.343 Y3.979
G3 X32.164 Y4.42 I-0.1 J0.216
G1 X32.088 Y4.393 Z-4.207 F50
X32.014 Y4.367 Z-4.227
X31.945 Y4.343 Z-4.261
X31.881 Y4.32 Z-4.306
X31.826 Y4.301 Z-4.362
X31.781 Y4.285 Z-4.428
X31.747 Y4.273 Z-4.5
X31.713 Y4.261 Z-4.572
X31.667 Y4.245 Z-4.638
X31.612 Y4.226 Z-4.694
X31.549 Y4.203 Z-4.739
X31.48 Y4.179 Z-4.773
X31.406 Y4.153 Z-4.793
X31.33 Y4.126 Z-4.8
G3 X29.399 Y3.083 I2.328 J-6.615
G2 X18 Y-0.774 I-11.399 J14.917 F150
X17.939 Y36.774 I0 J18.774
X36.774 Y18 I0 J-18.835
X29.399 Y3.083 I-18.774 J0
X25.033 Y2.993 I-2.245 J2.937
G3 X20.763 Y3.906 I-3.213 J-4.584
G2 X18 Y3.648 I-2.701 J14.033
X3.648 Y17.939 I0 J14.352
X18 Y32.352 I14.413 J0
X32.352 Y17.939 I0 J-14.352
X20.763 Y3.906 I-14.291 J0
X16.619 Y5.955 I-0.722 J3.752
G3 X13.39 Y9.262 I-6.747 J-3.359
G2 X22.61 Y26.738 I4.61 J8.738
X27.88 Y18 I-4.61 J-8.738
G1 Y17.939
G2 X18 Y8.12 I-9.88 J0.061
X13.39 Y9.262 I0 J9.88
G3 X13.056 Y9.137 I-0.111 J-0.21
G1 X9.762 Y0.571
G3 X9.837 Y0.317 I0.227 J-0.072
G1 X11.408 Y-0.992
G3 X11.731 Y-0.643 I0.152 J0.183
G1 X11.675 Y-0.585 Z-4.807 F50
X11.621 Y-0.529 Z-4.827
X11.569 Y-0.476 Z-4.861
X11.523 Y-0.428 Z-4.906
X11.482 Y-0.386 Z-4.962
X11.448 Y-0.352 Z-5.028
X11.423 Y-0.326 Z-5.1
X11.398 Y-0.3 Z-5.172
X11.364 Y-0.265 Z-5.238
X11.324 Y-0.224 Z-5.294
X11.277 Y-0.175 Z-5.339
X11.226 Y-0.123 Z-5.373
X11.171 Y-0.066 Z-5.393
X11.115 Y-0.009 Z-5.4
G3 X9.239 Y1.395 I-5.37 J-5.219
G2 X17.939 Y36.774 I8.761 J16.605 F150
X36.774 Y18 I0 J-18.835
X18 Y-0.774 I-18.774 J0
X9.239 Y1.395 I0 J18.774
X7.315 Y5.342 I1.735 J3.289
G3 X6.345 Y9.624 I-5.542 J0.996
G2 X3.648 Y17.939 I11.655 J8.376
X18 Y32.352 I14.413 J0
X32.352 Y17.939 I0 J-14.352
X18 Y3.648 I-14.291 J0
X6.345 Y9.624 I0 J14.352
X6.475 Y14.241 I3.093 J2.223
G3 X8.135 Y18.551 I-5.856 J4.73
G2 X27.88 Y18 I9.865 J-0.551
G1 Y17.939
G2 X18 Y8.12 I-9.88 J0.061
X8.135 Y18.551 I0 J9.88
G3 X7.885 Y18.802 I-0.238 J0.013
G1 X-1.238 Y18.296
G3 X-1.441 Y18.125 I0.026 J-0.237
G1 X-1.979 Y16.229
G3 X-1.528 Y16.078 I0.229 J-0.065
G1 X-1.499 Y16.153 Z-5.407 F50
X-1.471 Y16.226 Z-5.427
X-1.444 Y16.295 Z-5.461
X-1.42 Y16.357 Z-5.506
X-1.399 Y16.412 Z-5.562
X-1.381 Y16.457 Z-5.628
X-1.368 Y16.49 Z-5.7
X-1.355 Y16.524 Z-5.772
X-1.338 Y16.569 Z-5.838
X-1.317 Y16.623 Z-5.894
X-1.293 Y16.686 Z-5.939
X-1.266 Y16.754 Z-5.973
X-1.238 Y16.827 Z-5.993
X-1.208 Y16.903 Z-6
G3 X-0.745 Y19.047 I-6.538 J2.536
G2 X17.939 Y36.774 I18.745 J-1.047 F150
X36.774 Y18 I0 J-18.835
X18 Y-0.774 I-18.774 J0
X-0.745 Y19.047 I0 J18.774
X2.052 Y22.444 I3.713 J-0.207
G3 X5.556 Y25.105 I-1.389 J5.465
G2 X18 Y32.352 I12.506 J-7.167
X32.352 Y17.939 I0 J-14.352
X18 Y3.648 I-14.291 J0
X3.648 Y17.939 I0 J14.352
X5.556 Y25.105 I14.413 J0
X9.782 Y26.894 I3.289 J-1.885
G3 X14.361 Y27.186 I1.839 J7.21
G2 X27.88 Y18 I3.639 J-9.186
G1 Y17.939
G2 X18 Y8.12 I-9.88 J0.061
X14.361 Y27.186 I0 J9.88
G3 X14.484 Y27.519 I-0.088 J0.221
G1 X10.168 Y35.59
G3 X9.927 Y35.701 I-0.203 J-0.124
G1 X7.954 Y35.38
G3 X8.008 Y34.908 I0.038 J-0.235
G1 X8.088 Y34.913 Z-6.007 F50
X8.166 Y34.918 Z-6.027
X8.24 Y34.922 Z-6.061
X8.307 Y34.927 Z-6.106
X8.365 Y34.93 Z-6.162
X8.413 Y34.933 Z-6.228
X8.449 Y34.936 Z-6.3
X8.485 Y34.938 Z-6.372
X8.533 Y34.941 Z-6.438
X8.591 Y34.945 Z-6.494
X8.658 Y34.949 Z-6.539
X8.732 Y34.953 Z-6.573
X8.81 Y34.958 Z-6.593
X8.89 Y34.963 Z-6.6
G3 X11.086 Y35.455 I-0.453 J7.177
G2 X17.939 Y36.774 I6.914 J-17.455 F150
X36.774 Y18 I0 J-18.835
X18 Y-0.774 I-18.774 J0
X11.086 Y35.455 I0 J18.774
X15.352 Y34.352 I1.377 J-3.476
G3 X19.25 Y32.297 I4.393 J3.609
G2 X32.352 Y17.939 I-1.25 J-14.298
X18 Y3.648 I-14.291 J0
X3.648 Y17.939 I0 J14.352
X18 Y32.352 I14.413 J0
X19.25 Y32.297 I0 J-14.352
X22.665 Y29.188 I-0.332 J-3.795
G3 X24.85 Y25.119 I7.404 J1.355
G2 X27.88 Y18 I-6.85 J-7.119
G1 Y17.939
G2 X18 Y8.12 I-9.88 J0.061
X18 Y27.88 I0 J9.88
X24.85 Y25.119 I0 J-9.88
G3 X25.205 Y25.147 I0.165 J0.172
G1 X30.726 Y32.448
G3 X30.724 Y32.713 I-0.198 J0.131
G1 X29.578 Y34.404
G3 X29.171 Y34.158 I-0.197 J-0.134
G1 X29.209 Y34.087 Z-6.607 F50
X29.246 Y34.018 Z-6.627
X29.28 Y33.953 Z-6.661
X29.312 Y33.894 Z-6.706
X29.34 Y33.842 Z-6.762
X29.362 Y33.8 Z-6.828
X29.379 Y33.768 Z-6.9
X29.396 Y33.736 Z-6.972
X29.419 Y33.694 Z-7.038
X29.446 Y33.642 Z-7.094
X29.478 Y33.583 Z-7.139
X29.513 Y33.518 Z-7.173
X29.549 Y33.449 Z-7.193
X29.587 Y33.378 Z-7.2
G3 X31 Y31.509 I6.606 J3.526
G2 X36.774 Y18 I-13.062 J-13.571 F150
X18 Y-0.774 I-18.774 J0
X17.939 Y36.774 I0 J18.774
X31 Y31.509 I0 J-18.835
X31.752 Y27.211 I-2.563 J-2.663
G3 X31.506 Y22.855 I5.005 J-2.468
G2 X32.352 Y17.939 I-13.506 J-4.855
X18 Y3.648 I-14.291 J0
X3.648 Y17.939 I0 J14.352
X18 Y32.352 I14.413 J0
X31.506 Y22.855 I0 J-14.352
X30.114 Y18.451 I-3.585 J-1.289
G3 X27.335 Y14.762 I4.333 J-6.156
G2 X18 Y8.12 I-9.335 J3.238
X18 Y27.88 I0 J9.88
X27.88 Y18 I0 J-9.88
G1 Y17.939
G2 X27.335 Y14.762 I-9.88 J0.061
G3 X27.507 Y14.452 I0.225 J-0.078
G1 X36.411 Y12.428
G3 X36.654 Y12.537 I0.04 J0.235
G1 X37.689 Y14.202
G3 X37.297 Y14.472 I-0.202 J0.126
G1 X37.248 Y14.407 Z-7.207 F50
X37.201 Y14.345 Z-7.227
X37.156 Y14.286 Z-7.261
X37.116 Y14.233 Z-7.306
X37.081 Y14.186 Z-7.362
X37.052 Y14.148 Z-7.428
X37.03 Y14.119 Z-7.5
X37.008 Y14.09 Z-7.572
X36.979 Y14.052 Z-7.638
X36.944 Y14.006 Z-7.694
X36.904 Y13.952 Z-7.739
X36.859 Y13.893 Z-7.773
X36.812 Y13.831 Z-7.793
X36.763 Y13.767 Z-7.8
G3 X35.737 Y11.848 I5.544 J-4.197
G2 X18 Y-0.774 I-17.737 J6.152 F150
X17.939 Y36.774 I0 J18.774
X36.774 Y18 I0 J-18.835
X35.737 Y11.848 I-18.774 J0
X32.147 Y9.358 I-3.501 J1.214
G3 X28.083 Y7.751 I-0.135 J-5.6
G2 X18 Y3.648 I-10.022 J10.188
X3.648 Y17.939 I0 J14.352
X18 Y32.352 I14.413 J0
X32.352 Y17.939 I0 J-14.352
X28.083 Y7.751 I-14.291 J0
X23.472 Y7.169 I-2.687 J2.732
G3 X18.932 Y8.164 I-3.822 J-6.583
G2 X18 Y8.12 I-0.932 J9.836
X18 Y27.88 I0 J9.88
X27.88 Y18 I0 J-9.88
G1 Y17.939
G2 X18.932 Y8.164 I-9.88 J0.061
G3 X18.722 Y7.877 I0.022 J-0.237
G1 X20.651 Y-1.09
G3 X20.853 Y-1.262 I0.229 J0.064
G1 X22.874 Y-1.497
G3 X22.954 Y-1.028 I0.027 J0.236
G1 X22.875 Y-1.011 Z-7.807 F50
X22.799 Y-0.994 Z-7.827
X22.727 Y-0.978 Z-7.861
X22.661 Y-0.963 Z-7.906
X22.604 Y-0.95 Z-7.962
X22.558 Y-0.94 Z-8.028
X22.522 Y-0.932 Z-8.1
X22.487 Y-0.924 Z-8.172
X22.44 Y-0.914 Z-8.238
X22.383 Y-0.901 Z-8.294
X22.318 Y-0.886 Z-8.339
X22.246 Y-0.87 Z-8.373
X22.169 Y-0.853 Z-8.393
X22.091 Y-0.836 Z-8.4
G3 X19.771 Y-0.69 I-1.619 J-7.25
G2 X18 Y-0.774 I-1.771 J18.69 F150
X17.939 Y36.774 I0 J18.774
X36.774 Y18 I0 J-18.835
X19.771 Y-0.69 I-18.774 J0
X16.003 Y1.556 I-0.35 J3.696
G3 X12.849 Y4.604 I-5.17 J-2.193
G2 X3.648 Y17.939 I5.151 J13.396
X18 Y32.352 I14.413 J0
X32.352 Y17.939 I0 J-14.352
X18 Y3.648 I-14.291 J0
X12.849 Y4.604 I0 J14.352
X10.425 Y8.536 I1.367 J3.556
G3 X9.449 Y13.05 I-7.491 J0.743
G2 X26.551 Y22.95 I8.551 J4.95
X27.88 Y18 I-8.551 J-4.95
G1 Y17.939
G2 X18 Y8.12 I-9.88 J0.061
X9.449 Y13.05 I0 J9.88
G3 X9.102 Y13.122 I-0.206 J-0.119
G1 X1.752 Y7.686
G3 X1.677 Y7.431 I0.152 J-0.183
G1 X2.273 Y5.543
G3 X2.732 Y5.665 I0.227 J0.072
G1 X2.715 Y5.743 Z-8.407 F50
X2.699 Y5.82 Z-8.427
X2.684 Y5.892 Z-8.461
X2.67 Y5.958 Z-8.506
X2.657 Y6.015 Z-8.562
X2.647 Y6.062 Z-8.628
X2.64 Y6.097 Z-8.7
X2.632 Y6.132 Z-8.772
X2.622 Y6.179 Z-8.838
X2.61 Y6.236 Z-8.894
X2.596 Y6.302 Z-8.939
X2.581 Y6.374 Z-8.973
X2.564 Y6.451 Z-8.993
X2.547 Y6.53 Z-9
G3 X1.752 Y8.594 I-6.916 J-1.478
G2 X17.939 Y36.774 I16.248 J9.406 F150
X36.774 Y18 I0 J-18.835
X18 Y-0.774 I-18.774 J0
X1.752 Y8.594 I0 J18.774
X2.22 Y12.96 I3.218 J1.863
G3 X3.676 Y17.102 I-4.164 J3.79
G2 X3.648 Y17.939 I14.324 J0.898
X18 Y32.352 I14.413 J0
X32.352 Y17.939 I0 J-14.352
X18 Y3.648 I-14.291 J0
X3.676 Y17.102 I0 J14.352
X6.241 Y20.944 I3.802 J0.238
G3 X9.938 Y23.711 I-2.445 J7.12
G2 X27.88 Y18 I8.062 J-5.711
G1 Y17.939
G2 X18 Y8.12 I-9.88 J0.061
X9.938 Y23.711 I0 J9.88
G3 X9.859 Y24.057 I-0.194 J0.138
G1 X1.864 Y28.479
G3 X1.601 Y28.442 I-0.104 J-0.214
G1 X0.137 Y27.122
G3 X0.439 Y26.755 I0.159 J-0.177
G1 X0.503 Y26.803 Z-9.007 F50
X0.566 Y26.85 Z-9.027
X0.625 Y26.894 Z-9.061
X0.679 Y26.934 Z-9.106
X0.726 Y26.969 Z-9.162
X0.764 Y26.997 Z-9.228
X0.793 Y27.019 Z-9.3
X0.822 Y27.041 Z-9.372
X0.861 Y27.069 Z-9.438
X0.908 Y27.104 Z-9.494
X0.961 Y27.144 Z-9.539
X1.02 Y27.188 Z-9.573
X1.083 Y27.235 Z-9.593
X1.148 Y27.283 Z-9.6
G3 X2.681 Y28.853 I-4.189 J5.624
G2 X17.939 Y36.774 I15.319 J-10.853 F150
X36.774 Y18 I0 J-18.835
X18 Y-0.774 I-18.774 J0
X2.681 Y28.853 I0 J18.774
X6.87 Y30.252 I3.05 J-2.161
G3 X11.269 Y30.651 I1.728 J5.399
G2 X18 Y32.352 I6.792 J-12.713
X32.352 Y17.939 I0 J-14.352
X18 Y3.648 I-14.291 J0
X3.648 Y17.939 I0 J14.352
X11.269 Y30.651 I14.413 J0
X15.808 Y29.913 I1.786 J-3.342
G3 X19.842 Y27.707 I5.427 J5.132
G2 X27.88 Y18 I-1.842 J-9.707
G1 Y17.939
G2 X18 Y8.12 I-9.88 J0.061
X8.163 Y18.925 I0 J9.88
X19.842 Y27.707 I9.837 J-0.925
G3 X20.124 Y27.922 I0.044 J0.234
G1 X20.821 Y37.022
G3 X20.678 Y37.246 I-0.238 J0.005
G1 X18.855 Y38.038
G3 X18.644 Y37.611 I-0.095 J-0.218
G1 X18.71 Y37.575 Z-9.606 F50
X18.774 Y37.539 Z-9.624
X18.835 Y37.505 Z-9.653
X18.891 Y37.474 Z-9.693
X18.941 Y37.447 Z-9.742
X18.983 Y37.423 Z-9.8
X19.026 Y37.4 Z-9.858
X19.076 Y37.372 Z-9.907
X19.132 Y37.341 Z-9.947
X19.193 Y37.307 Z-9.976
X19.257 Y37.271 Z-9.994
X19.323 Y37.235 Z-10
G3 X21.541 Y36.426 I3.662 J6.6
G2 X36.774 Y18 I-3.603 J-18.488 F150
X18 Y-0.774 I-18.774 J0
X17.939 Y36.774 I0 J18.774
X21.541 Y36.426 I0 J-18.835
X24.517 Y33.221 I-0.71 J-3.642
G3 X26.687 Y29.424 I5.559 J0.659
G2 X32.352 Y17.939 I-8.687 J-11.424
X18 Y3.648 I-14.291 J0
X3.648 Y17.939 I0 J14.352
X18 Y32.352 I14.413 J0
X26.687 Y29.424 I0 J-14.352
X27.916 Y24.972 I-2.306 J-3.032
G3 X27.593 Y20.365 I6.985 J-2.806
G2 X27.88 Y18 I-9.593 J-2.365
G1 Y17.939
G2 X18 Y8.12 I-9.88 J0.061
X18 Y27.88 I0 J9.88
X27.593 Y20.365 I0 J-9.88
G1 X27.611 Y20.307 Z-9.988
X27.637 Y20.252 Z-9.976
X27.669 Y20.201 Z-9.964
X27.719 Y20.142 Z-9.912
X27.778 Y20.092 Z-9.861
X27.821 Y20.064 Z-9.783
X27.867 Y20.041 Z-9.706
X27.901 Y20.028 Z-9.524
Z10
(When using Fusion 360 for Personal Use, the feedrate of)
(rapid moves is reduced to match the feedrate of cutting)
(moves, which can increase machining time. Unrestricted rapid)
(moves are available with a Fusion 360 Subscription.)

(2D Contour5)
G0 X18.476 Y-2.808
G1 Z10 F150
Z5
Z1.6 F25
Z-0.124
G19 G3 Y-2.332 Z-0.6 J0.476 K0 F150
G1 Y-1.856
G17 G3 X18 Y-1.38 I-0.476 J0
G2 X18 Y37.38 I0 J19.38
X18 Y-1.38 I0 J-19.38
G3 X17.524 Y-1.856 I0 J-0.476
G1 Y-2.332
G19 G2 Y-2.808 Z-0.124 J0 K0.476
G1 Z5
X18.476
Z1 F25
Z-0.724
G3 Y-2.332 Z-1.2 J0.476 K0 F150
G1 Y-1.856
G17 G3 X18 Y-1.38 I-0.476 J0
G2 X18 Y37.38 I0 J19.38
X18 Y-1.38 I0 J-19.38
G3 X17.524 Y-1.856 I0 J-0.476
G1 Y-2.332
G19 G2 Y-2.808 Z-0.724 J0 K0.476
G1 Z5
X18.476
Z0.4 F25
Z-1.324
G3 Y-2.332 Z-1.8 J0.476 K0 F150
G1 Y-1.856
G17 G3 X18 Y-1.38 I-0.476 J0
G2 X18 Y37.38 I0 J19.38
X18 Y-1.38 I0 J-19.38
G3 X17.524 Y-1.856 I0 J-0.476
G1 Y-2.332
G19 G2 Y-2.808 Z-1.324 J0 K0.476
G1 Z5
X18.476
Z-0.2 F25
Z-1.924
G3 Y-2.332 Z-2.4 J0.476 K0 F150
G1 Y-1.856
G17 G3 X18 Y-1.38 I-0.476 J0
G2 X18 Y37.38 I0 J19.38
X18 Y-1.38 I0 J-19.38
G3 X17.524 Y-1.856 I0 J-0.476
G1 Y-2.332
G19 G2 Y-2.808 Z-1.924 J0 K0.476
G1 Z5
X18.476
Z-0.8 F25
Z-2.524
G3 Y-2.332 Z-3 J0.476 K0 F150
G1 Y-1.856
G17 G3 X18 Y-1.38 I-0.476 J0
G2 X18 Y37.38 I0 J19.38
X18 Y-1.38 I0 J-19.38
G3 X17.524 Y-1.856 I0 J-0.476
G1 Y-2.332
G19 G2 Y-2.808 Z-2.524 J0 K0.476
G1 Z5
X18.476
Z-1.4 F25
Z-3.124
G3 Y-2.332 Z-3.6 J0.476 K0 F150
G1 Y-1.856
G17 G3 X18 Y-1.38 I-0.476 J0
G2 X18 Y37.38 I0 J19.38
X18 Y-1.38 I0 J-19.38
G3 X17.524 Y-1.856 I0 J-0.476
G1 Y-2.332
G19 G2 Y-2.808 Z-3.124 J0 K0.476
G1 Z5
X18.476
Z-2 F25
Z-3.724
G3 Y-2.332 Z-4.2 J0.476 K0 F150
G1 Y-1.856
G17 G3 X18 Y-1.38 I-0.476 J0
G2 X18 Y37.38 I0 J19.38
X18 Y-1.38 I0 J-19.38
G3 X17.524 Y-1.856 I0 J-0.476
G1 Y-2.332
G19 G2 Y-2.808 Z-3.724 J0 K0.476
G1 Z5
X18.476
Z-2.6 F25
Z-4.324
G3 Y-2.332 Z-4.8 J0.476 K0 F150
G1 Y-1.856
G17 G3 X18 Y-1.38 I-0.476 J0
G2 X18 Y37.38 I0 J19.38
X18 Y-1.38 I0 J-19.38
G3 X17.524 Y-1.856 I0 J-0.476
G1 Y-2.332
G19 G2 Y-2.808 Z-4.324 J0 K0.476
G1 Z5
X18.476
Z-3.2 F25
Z-4.924
G3 Y-2.332 Z-5.4 J0.476 K0 F150
G1 Y-1.856
G17 G3 X18 Y-1.38 I-0.476 J0
G2 X18 Y37.38 I0 J19.38
X18 Y-1.38 I0 J-19.38
G3 X17.524 Y-1.856 I0 J-0.476
G1 Y-2.332
G19 G2 Y-2.808 Z-4.924 J0 K0.476
G1 Z5
X18.476
Z-3.8 F25
Z-5.524
G3 Y-2.332 Z-6 J0.476 K0 F150
G1 Y-1.856
G17 G3 X18 Y-1.38 I-0.476 J0
G2 X18 Y37.38 I0 J19.38
X18 Y-1.38 I0 J-19.38
G3 X17.524 Y-1.856 I0 J-0.476
G1 Y-2.332
G19 G2 Y-2.808 Z-5.524 J0 K0.476
G1 Z5
X18.476
Z-4.4 F25
Z-6.124
G3 Y-2.332 Z-6.6 J0.476 K0 F150
G1 Y-1.856
G17 G3 X18 Y-1.38 I-0.476 J0
G2 X18 Y37.38 I0 J19.38
X18 Y-1.38 I0 J-19.38
G3 X17.524 Y-1.856 I0 J-0.476
G1 Y-2.332
G19 G2 Y-2.808 Z-6.124 J0 K0.476
G1 Z5
X18.476
Z-5 F25
Z-6.724
G3 Y-2.332 Z-7.2 J0.476 K0 F150
G1 Y-1.856
G17 G3 X18 Y-1.38 I-0.476 J0
G2 X18 Y37.38 I0 J19.38
X18 Y-1.38 I0 J-19.38
G3 X17.524 Y-1.856 I0 J-0.476
G1 Y-2.332
G19 G2 Y-2.808 Z-6.724 J0 K0.476
G1 Z5
X18.476
Z-5.6 F25
Z-7.324
G3 Y-2.332 Z-7.8 J0.476 K0 F150
G1 Y-1.856
G17 G3 X18 Y-1.38 I-0.476 J0
G2 X18 Y37.38 I0 J19.38
X18 Y-1.38 I0 J-19.38
G3 X17.524 Y-1.856 I0 J-0.476
G1 Y-2.332
G19 G2 Y-2.808 Z-7.324 J0 K0.476
G1 Z5
X18.476
Z-6.2 F25
Z-7.924
G3 Y-2.332 Z-8.4 J0.476 K0 F150
G1 Y-1.856
G17 G3 X18 Y-1.38 I-0.476 J0
G2 X18 Y37.38 I0 J19.38
X18 Y-1.38 I0 J-19.38
G3 X17.524 Y-1.856 I0 J-0.476
G1 Y-2.332
G19 G2 Y-2.808 Z-7.924 J0 K0.476
G1 Z5
X18.476
Z-6.8 F25
Z-8.524
G3 Y-2.332 Z-9 J0.476 K0 F150
G1 Y-1.856
G17 G3 X18 Y-1.38 I-0.476 J0
G2 X18 Y37.38 I0 J19.38
X18 Y-1.38 I0 J-19.38
G3 X17.524 Y-1.856 I0 J-0.476
G1 Y-2.332
G19 G2 Y-2.808 Z-8.524 J0 K0.476
G1 Z5
X18.476
Z-7.4 F25
Z-9.124
G3 Y-2.332 Z-9.6 J0.476 K0 F150
G1 Y-1.856
G17 G3 X18 Y-1.38 I-0.476 J0
G2 X18 Y37.38 I0 J19.38
X18 Y-1.38 I0 J-19.38
G3 X17.524 Y-1.856 I0 J-0.476
G1 Y-2.332
G19 G2 Y-2.808 Z-9.124 J0 K0.476
G1 Z5
X18.476
Z-8 F25
Z-9.724
G3 Y-2.332 Z-10.2 J0.476 K0 F150
G1 Y-1.856
G17 G3 X18 Y-1.38 I-0.476 J0
G2 X18 Y37.38 I0 J19.38
X18 Y-1.38 I0 J-19.38
G3 X17.524 Y-1.856 I0 J-0.476
G1 Y-2.332
G19 G2 Y-2.808 Z-9.724 J0 K0.476
G1 Z5
X18.476
Z-8.6 F25
Z-10.324
G3 Y-2.332 Z-10.8 J0.476 K0 F150
G1 Y-1.856
G17 G3 X18 Y-1.38 I-0.476 J0
G2 X18 Y37.38 I0 J19.38
X18 Y-1.38 I0 J-19.38
G3 X17.524 Y-1.856 I0 J-0.476
G1 Y-2.332
G19 G2 Y-2.808 Z-10.324 J0 K0.476
G1 Z5
X18.476
Z-9.2 F25
Z-10.924
G3 Y-2.332 Z-11.4 J0.476 K0 F150
G1 Y-1.856
G17 G3 X18 Y-1.38 I-0.476 J0
G2 X18 Y37.38 I0 J19.38
X18 Y-1.38 I0 J-19.38
G3 X17.524 Y-1.856 I0 J-0.476
G1 Y-2.332
G19 G2 Y-2.808 Z-10.924 J0 K0.476
G1 Z5
X18.476
Z-9.8 F25
Z-11.524
G3 Y-2.332 Z-12 J0.476 K0 F150
G1 Y-1.856
G17 G3 X18 Y-1.38 I-0.476 J0
G2 X18 Y37.38 I0 J19.38
X18 Y-1.38 I0 J-19.38
G3 X17.524 Y-1.856 I0 J-0.476
G1 Y-2.332
G19 G2 Y-2.808 Z-11.524 J0 K0.476
G1 Z5
X18.476
Z-10.4 F25
Z-12.124
G3 Y-2.332 Z-12.6 J0.476 K0 F150
G1 Y-1.856
G17 G3 X18 Y-1.38 I-0.476 J0
G2 X18 Y37.38 I0 J19.38
X18 Y-1.38 I0 J-19.38
G3 X17.524 Y-1.856 I0 J-0.476
G1 Y-2.332
G19 G2 Y-2.808 Z-12.124 J0 K0.476
G1 Z5
X18.476
Z-11 F25
Z-12.724
G3 Y-2.332 Z-13.2 J0.476 K0 F150
G1 Y-1.856
G17 G3 X18 Y-1.38 I-0.476 J0
G2 X18 Y37.38 I0 J19.38
X18 Y-1.38 I0 J-19.38
G3 X17.524 Y-1.856 I0 J-0.476
G1 Y-2.332
G19 G2 Y-2.808 Z-12.724 J0 K0.476
G1 Z5
X18.476
Z-11.6 F25
Z-13.324
G3 Y-2.332 Z-13.8 J0.476 K0 F150
G1 Y-1.856
G17 G3 X18 Y-1.38 I-0.476 J0
G2 X18 Y37.38 I0 J19.38
X18 Y-1.38 I0 J-19.38
G3 X17.524 Y-1.856 I0 J-0.476
G1 Y-2.332
G19 G2 Y-2.808 Z-13.324 J0 K0.476
G1 Z5
X18.476
Z-12.2 F25
Z-13.524
G3 Y-2.332 Z-14 J0.476 K0 F150
G1 Y-1.856
G17 G3 X18 Y-1.38 I-0.476 J0
G2 X18 Y37.38 I0 J19.38
X18 Y-1.38 I0 J-19.38
G3 X17.524 Y-1.856 I0 J-0.476
G1 Y-2.332
G19 G2 Y-2.808 Z-13.524 J0 K0.476
G1 Z10
G17
M9
G28 G91 Z0
G90
G28 G91 X0 Y0
G90
M5
M30
