(metal_coupler_8mm)
(Machine)
(  vendor: Autodesk)
(  model: Generic 3-axis)
(  description: This machine has XY axis on the Table and Z axis on the Head)
(T3  D=3.1 CR=0 - ZMIN=-14 - flat end mill)
G90 G94
G17
G21
(When using Fusion 360 for Personal Use, the feedrate of)
(rapid moves is reduced to match the feedrate of cutting)
(moves, which can increase machining time. Unrestricted rapid)
(moves are available with a Fusion 360 Subscription.)

(2D Contour1)
T3
S24000 M3
G54
M8
G0 X19.02 Y17.69
Z10
G1 Z5 F300
Z1.5 F150
Z-0.19
G18 G2 X19.33 Z-0.5 I0.31 K0
G1 X19.64
G17 G3 X19.95 Y18 I0 J0.31
G1 Y19.643 F300
G3 X16.05 Y16.357 I-1.95 J-1.643
X19.95 Y16.357 I1.95 J1.643
G1 Y18
G3 X19.64 Y18.31 I-0.31 J0
G1 X19.33
G18 G3 X19.02 Z-0.19 I0 K0.31
G1 Z5
Y17.69
Z1 F150
Z-0.69
G2 X19.33 Z-1 I0.31 K0
G1 X19.64
G17 G3 X19.95 Y18 I0 J0.31
G1 Y19.643 F300
G3 X16.05 Y16.357 I-1.95 J-1.643
X19.95 Y16.357 I1.95 J1.643
G1 Y18
G3 X19.64 Y18.31 I-0.31 J0
G1 X19.33
G18 G3 X19.02 Z-0.69 I0 K0.31
G1 Z5
Y17.69
Z0.5 F150
Z-1.19
G2 X19.33 Z-1.5 I0.31 K0
G1 X19.64
G17 G3 X19.95 Y18 I0 J0.31
G1 Y19.643 F300
G3 X16.05 Y16.357 I-1.95 J-1.643
X19.95 Y16.357 I1.95 J1.643
G1 Y18
G3 X19.64 Y18.31 I-0.31 J0
G1 X19.33
G18 G3 X19.02 Z-1.19 I0 K0.31
G1 Z5
Y17.69
Z0 F150
Z-1.69
G2 X19.33 Z-2 I0.31 K0
G1 X19.64
G17 G3 X19.95 Y18 I0 J0.31
G1 Y19.643 F300
G3 X16.05 Y16.357 I-1.95 J-1.643
X19.95 Y16.357 I1.95 J1.643
G1 Y18
G3 X19.64 Y18.31 I-0.31 J0
G1 X19.33
G18 G3 X19.02 Z-1.69 I0 K0.31
G1 Z5
Y17.69
Z-0.5 F150
Z-2.19
G2 X19.33 Z-2.5 I0.31 K0
G1 X19.64
G17 G3 X19.95 Y18 I0 J0.31
G1 Y19.643 F300
G3 X16.05 Y16.357 I-1.95 J-1.643
X19.95 Y16.357 I1.95 J1.643
G1 Y18
G3 X19.64 Y18.31 I-0.31 J0
G1 X19.33
G18 G3 X19.02 Z-2.19 I0 K0.31
G1 Z5
Y17.69
Z-1 F150
Z-2.69
G2 X19.33 Z-3 I0.31 K0
G1 X19.64
G17 G3 X19.95 Y18 I0 J0.31
G1 Y19.643 F300
G3 X16.05 Y16.357 I-1.95 J-1.643
X19.95 Y16.357 I1.95 J1.643
G1 Y18
G3 X19.64 Y18.31 I-0.31 J0
G1 X19.33
G18 G3 X19.02 Z-2.69 I0 K0.31
G1 Z5
Y17.69
Z-1.5 F150
Z-3.19
G2 X19.33 Z-3.5 I0.31 K0
G1 X19.64
G17 G3 X19.95 Y18 I0 J0.31
G1 Y19.643 F300
G3 X16.05 Y16.357 I-1.95 J-1.643
X19.95 Y16.357 I1.95 J1.643
G1 Y18
G3 X19.64 Y18.31 I-0.31 J0
G1 X19.33
G18 G3 X19.02 Z-3.19 I0 K0.31
G1 Z5
Y17.69
Z-2 F150
Z-3.69
G2 X19.33 Z-4 I0.31 K0
G1 X19.64
G17 G3 X19.95 Y18 I0 J0.31
G1 Y19.643 F300
G3 X16.05 Y16.357 I-1.95 J-1.643
X19.95 Y16.357 I1.95 J1.643
G1 Y18
G3 X19.64 Y18.31 I-0.31 J0
G1 X19.33
G18 G3 X19.02 Z-3.69 I0 K0.31
G1 Z5
Y17.69
Z-2.5 F150
Z-4.19
G2 X19.33 Z-4.5 I0.31 K0
G1 X19.64
G17 G3 X19.95 Y18 I0 J0.31
G1 Y19.643 F300
G3 X16.05 Y16.357 I-1.95 J-1.643
X19.95 Y16.357 I1.95 J1.643
G1 Y18
G3 X19.64 Y18.31 I-0.31 J0
G1 X19.33
G18 G3 X19.02 Z-4.19 I0 K0.31
G1 Z5
Y17.69
Z-3 F150
Z-4.69
G2 X19.33 Z-5 I0.31 K0
G1 X19.64
G17 G3 X19.95 Y18 I0 J0.31
G1 Y19.643 F300
G3 X16.05 Y16.357 I-1.95 J-1.643
X19.95 Y16.357 I1.95 J1.643
G1 Y18
G3 X19.64 Y18.31 I-0.31 J0
G1 X19.33
G18 G3 X19.02 Z-4.69 I0 K0.31
G1 Z5
Y17.69
Z-3.5 F150
Z-5.19
G2 X19.33 Z-5.5 I0.31 K0
G1 X19.64
G17 G3 X19.95 Y18 I0 J0.31
G1 Y19.643 F300
G3 X16.05 Y16.357 I-1.95 J-1.643
X19.95 Y16.357 I1.95 J1.643
G1 Y18
G3 X19.64 Y18.31 I-0.31 J0
G1 X19.33
G18 G3 X19.02 Z-5.19 I0 K0.31
G1 Z5
Y17.69
Z-4 F150
Z-5.69
G2 X19.33 Z-6 I0.31 K0
G1 X19.64
G17 G3 X19.95 Y18 I0 J0.31
G1 Y19.643 F300
G3 X16.05 Y16.357 I-1.95 J-1.643
X19.95 Y16.357 I1.95 J1.643
G1 Y18
G3 X19.64 Y18.31 I-0.31 J0
G1 X19.33
G18 G3 X19.02 Z-5.69 I0 K0.31
G1 Z5
Y17.69
Z-4.5 F150
Z-6.19
G2 X19.33 Z-6.5 I0.31 K0
G1 X19.64
G17 G3 X19.95 Y18 I0 J0.31
G1 Y19.643 F300
G3 X16.05 Y16.357 I-1.95 J-1.643
X19.95 Y16.357 I1.95 J1.643
G1 Y18
G3 X19.64 Y18.31 I-0.31 J0
G1 X19.33
G18 G3 X19.02 Z-6.19 I0 K0.31
G1 Z5
Y17.69
Z-5 F150
Z-6.69
G2 X19.33 Z-7 I0.31 K0
G1 X19.64
G17 G3 X19.95 Y18 I0 J0.31
G1 Y19.643 F300
G3 X16.05 Y16.357 I-1.95 J-1.643
X19.95 Y16.357 I1.95 J1.643
G1 Y18
G3 X19.64 Y18.31 I-0.31 J0
G1 X19.33
G18 G3 X19.02 Z-6.69 I0 K0.31
G1 Z5
Y17.69
Z-5.5 F150
Z-7.19
G2 X19.33 Z-7.5 I0.31 K0
G1 X19.64
G17 G3 X19.95 Y18 I0 J0.31
G1 Y19.643 F300
G3 X16.05 Y16.357 I-1.95 J-1.643
X19.95 Y16.357 I1.95 J1.643
G1 Y18
G3 X19.64 Y18.31 I-0.31 J0
G1 X19.33
G18 G3 X19.02 Z-7.19 I0 K0.31
G1 Z5
Y17.69
Z-6 F150
Z-7.69
G2 X19.33 Z-8 I0.31 K0
G1 X19.64
G17 G3 X19.95 Y18 I0 J0.31
G1 Y19.643 F300
G3 X16.05 Y16.357 I-1.95 J-1.643
X19.95 Y16.357 I1.95 J1.643
G1 Y18
G3 X19.64 Y18.31 I-0.31 J0
G1 X19.33
G18 G3 X19.02 Z-7.69 I0 K0.31
G1 Z5
Y17.69
Z-6.5 F150
Z-8.19
G2 X19.33 Z-8.5 I0.31 K0
G1 X19.64
G17 G3 X19.95 Y18 I0 J0.31
G1 Y19.643 F300
G3 X16.05 Y16.357 I-1.95 J-1.643
X19.95 Y16.357 I1.95 J1.643
G1 Y18
G3 X19.64 Y18.31 I-0.31 J0
G1 X19.33
G18 G3 X19.02 Z-8.19 I0 K0.31
G1 Z5
Y17.69
Z-7 F150
Z-8.69
G2 X19.33 Z-9 I0.31 K0
G1 X19.64
G17 G3 X19.95 Y18 I0 J0.31
G1 Y19.643 F300
G3 X16.05 Y16.357 I-1.95 J-1.643
X19.95 Y16.357 I1.95 J1.643
G1 Y18
G3 X19.64 Y18.31 I-0.31 J0
G1 X19.33
G18 G3 X19.02 Z-8.69 I0 K0.31
G1 Z5
Y17.69
Z-7.5 F150
Z-9.19
G2 X19.33 Z-9.5 I0.31 K0
G1 X19.64
G17 G3 X19.95 Y18 I0 J0.31
G1 Y19.643 F300
G3 X16.05 Y16.357 I-1.95 J-1.643
X19.95 Y16.357 I1.95 J1.643
G1 Y18
G3 X19.64 Y18.31 I-0.31 J0
G1 X19.33
G18 G3 X19.02 Z-9.19 I0 K0.31
G1 Z5
Y17.69
Z-8 F150
Z-9.69
G2 X19.33 Z-10 I0.31 K0
G1 X19.64
G17 G3 X19.95 Y18 I0 J0.31
G1 Y19.643 F300
G3 X16.05 Y16.357 I-1.95 J-1.643
X19.95 Y16.357 I1.95 J1.643
G1 Y18
G3 X19.64 Y18.31 I-0.31 J0
G1 X19.33
G18 G3 X19.02 Z-9.69 I0 K0.31
G1 Z5
Y17.69
Z-8.5 F150
Z-10.19
G2 X19.33 Z-10.5 I0.31 K0
G1 X19.64
G17 G3 X19.95 Y18 I0 J0.31
G1 Y19.643 F300
G3 X16.05 Y16.357 I-1.95 J-1.643
X19.95 Y16.357 I1.95 J1.643
G1 Y18
G3 X19.64 Y18.31 I-0.31 J0
G1 X19.33
G18 G3 X19.02 Z-10.19 I0 K0.31
G1 Z5
Y17.69
Z-9 F150
Z-10.69
G2 X19.33 Z-11 I0.31 K0
G1 X19.64
G17 G3 X19.95 Y18 I0 J0.31
G1 Y19.643 F300
G3 X16.05 Y16.357 I-1.95 J-1.643
X19.95 Y16.357 I1.95 J1.643
G1 Y18
G3 X19.64 Y18.31 I-0.31 J0
G1 X19.33
G18 G3 X19.02 Z-10.69 I0 K0.31
G1 Z5
Y17.69
Z-9.5 F150
Z-11.19
G2 X19.33 Z-11.5 I0.31 K0
G1 X19.64
G17 G3 X19.95 Y18 I0 J0.31
G1 Y19.643 F300
G3 X16.05 Y16.357 I-1.95 J-1.643
X19.95 Y16.357 I1.95 J1.643
G1 Y18
G3 X19.64 Y18.31 I-0.31 J0
G1 X19.33
G18 G3 X19.02 Z-11.19 I0 K0.31
G1 Z5
Y17.69
Z-10 F150
Z-11.69
G2 X19.33 Z-12 I0.31 K0
G1 X19.64
G17 G3 X19.95 Y18 I0 J0.31
G1 Y19.643 F300
G3 X16.05 Y16.357 I-1.95 J-1.643
X19.95 Y16.357 I1.95 J1.643
G1 Y18
G3 X19.64 Y18.31 I-0.31 J0
G1 X19.33
G18 G3 X19.02 Z-11.69 I0 K0.31
G1 Z5
Y17.69
Z-10.5 F150
Z-12.19
G2 X19.33 Z-12.5 I0.31 K0
G1 X19.64
G17 G3 X19.95 Y18 I0 J0.31
G1 Y19.643 F300
G3 X16.05 Y16.357 I-1.95 J-1.643
X19.95 Y16.357 I1.95 J1.643
G1 Y18
G3 X19.64 Y18.31 I-0.31 J0
G1 X19.33
G18 G3 X19.02 Z-12.19 I0 K0.31
G1 Z5
Y17.69
Z-11 F150
Z-12.69
G2 X19.33 Z-13 I0.31 K0
G1 X19.64
G17 G3 X19.95 Y18 I0 J0.31
G1 Y19.643 F300
G3 X16.05 Y16.357 I-1.95 J-1.643
X19.95 Y16.357 I1.95 J1.643
G1 Y18
G3 X19.64 Y18.31 I-0.31 J0
G1 X19.33
G18 G3 X19.02 Z-12.69 I0 K0.31
G1 Z5
Y17.69
Z-11.5 F150
Z-13.19
G2 X19.33 Z-13.5 I0.31 K0
G1 X19.64
G17 G3 X19.95 Y18 I0 J0.31
G1 Y19.643 F300
G3 X16.05 Y16.357 I-1.95 J-1.643
X19.95 Y16.357 I1.95 J1.643
G1 Y18
G3 X19.64 Y18.31 I-0.31 J0
G1 X19.33
G18 G3 X19.02 Z-13.19 I0 K0.31
G1 Z5
Y17.69
Z-12 F150
Z-13.69
G2 X19.33 Z-14 I0.31 K0
G1 X19.64
G17 G3 X19.95 Y18 I0 J0.31
G1 Y19.643 F300
G3 X16.05 Y16.357 I-1.95 J-1.643
X19.95 Y16.357 I1.95 J1.643
G1 Y18
G3 X19.64 Y18.31 I-0.31 J0
G1 X19.33
G18 G3 X19.02 Z-13.69 I0 K0.31
G1 Z10
G17
(When using Fusion 360 for Personal Use, the feedrate of)
(rapid moves is reduced to match the feedrate of cutting)
(moves, which can increase machining time. Unrestricted rapid)
(moves are available with a Fusion 360 Subscription.)

(2D Pocket2)
G0 X1.965 Y-2.887
G1 Z10 F300
Z5
Z-0.19 F150
X1.959 Y-2.882 Z-0.259
X1.942 Y-2.866 Z-0.325
X1.915 Y-2.842 Z-0.383
X1.879 Y-2.809 Z-0.432
X1.835 Y-2.769 Z-0.469
X1.787 Y-2.725 Z-0.492
X1.735 Y-2.679 Z-0.5
X0.376 Y-1.446
G2 X-1.44 Y0.369 I17.687 J19.508 F300
G3 X-2.529 Y-0.545 I-0.527 J-0.478
G1 X-1.932 Y-1.317
G3 X-1.56 Y-1.567 I0.563 J0.435
G1 X-0.102 Y-1.973
X-0.029 Y-1.989
X4.417 Y-2.732
G3 X4.931 Y-1.441 I0.117 J0.702
G2 X-1.443 Y4.935 I13.069 J19.441
G3 X-2.456 Y5.11 I-0.59 J-0.397
X-2.586 Y4.091 I0.422 J-0.572
G1 X0.241 Y0.594
X0.297 Y0.533
X0.36 Y0.479
X0.429 Y0.432
X4.534 Y-2.031
G3 X4.82 Y-2.128 I0.366 J0.61
G1 X10.95 Y-2.825
G3 X11.263 Y-1.446 I0.08 J0.707
G2 X-1.448 Y11.268 I6.737 J19.446
G1 X-1.456 Y11.3
X-1.459 Y11.333
X-1.492 Y35.573
X-1.486 Y35.622
X-1.468 Y35.668
X-1.44 Y35.708
G2 X0.303 Y37.449 I19.377 J-17.646
G3 X-0.603 Y38.544 I-0.479 J0.526
G1 X-1.334 Y37.993
G3 X-1.594 Y37.605 I0.428 J-0.568
G1 X-1.965 Y36.187
X-1.979 Y36.123
X-2.733 Y31.582
G3 X-1.441 Y31.069 I0.702 J-0.116
G2 X4.935 Y37.443 I19.441 J-13.069
G3 X5.11 Y38.456 I-0.397 J0.59
X4.091 Y38.586 I-0.572 J-0.422
G1 X0.594 Y35.759
X0.533 Y35.703
X0.478 Y35.64
X0.432 Y35.571
X-2.031 Y31.466
G3 X-2.128 Y31.18 I0.61 J-0.366
G1 X-2.825 Y25.05
G3 X-1.446 Y24.737 I0.707 J-0.08
G2 X11.268 Y37.448 I19.446 J-6.737
G1 X11.3 Y37.456
X11.333 Y37.459
X35.531 Y37.495
X35.58 Y37.489
X35.626 Y37.471
X35.666 Y37.443
G2 X37.445 Y35.664 I-17.666 J-19.443
G3 X38.536 Y36.574 I0.526 J0.478
G1 X37.962 Y37.326
G3 X37.583 Y37.581 I-0.565 J-0.432
G1 X36.144 Y37.969
X36.075 Y37.984
X31.537 Y38.733
G3 X31.025 Y37.441 I-0.116 J-0.702
G2 X37.446 Y31.017 I-13.087 J-19.503
G3 X38.459 Y30.841 I0.591 J0.396
X38.59 Y31.86 I-0.422 J0.573
G1 X35.742 Y35.385
X35.686 Y35.447
X35.624 Y35.501
X35.555 Y35.548
X31.421 Y38.032
G3 X31.136 Y38.129 I-0.366 J-0.61
G1 X24.988 Y38.828
G3 X24.676 Y37.449 I-0.08 J-0.707
G2 X37.447 Y24.682 I-6.738 J-19.512
G1 X37.455 Y24.65
X37.458 Y24.617
X37.492 Y0.427
X37.486 Y0.378
X37.468 Y0.332
X37.44 Y0.292
G2 X35.697 Y-1.449 I-19.377 J17.646
G3 X36.603 Y-2.544 I0.479 J-0.526
G1 X37.334 Y-1.993
G3 X37.594 Y-1.605 I-0.428 J0.568
G1 X37.965 Y-0.187
X37.979 Y-0.125
X38.741 Y4.386
G3 X37.45 Y4.902 I-0.701 J0.119
G2 X31.099 Y-1.449 I-19.388 J13.036
G3 X30.924 Y-2.462 I0.397 J-0.59
X31.943 Y-2.592 I0.572 J0.423
G1 X35.426 Y0.225
X35.487 Y0.281
X35.542 Y0.344
X35.588 Y0.412
X38.04 Y4.505
G3 X38.137 Y4.79 I-0.61 J0.366
G1 X38.827 Y10.905
G3 X37.448 Y11.218 I-0.707 J0.08
G2 X24.782 Y-1.449 I-19.386 J6.72
X22.167 Y-0.707 I-0.777 J2.241
G3 X19.66 Y0.343 I-2.237 J-1.824
G2 X18 Y0.265 I-1.66 J17.657
X17.938 Y35.735 I0 J17.735
X35.735 Y18 I0 J-17.797
X19.66 Y0.343 I-17.735 J0
X17.294 Y1.702 I-0.221 J2.354
G3 X15.146 Y3.386 I-2.723 J-1.262
G2 X17.938 Y32.89 I2.854 J14.614
X32.89 Y18 I0 J-14.952
X18 Y3.11 I-14.89 J0
X15.146 Y3.386 I0 J14.89
X13.248 Y5.396 I0.455 J2.331
G3 X11.732 Y7.707 I-3.18 J-0.434
G2 X9.496 Y9.452 I6.268 J10.338
X5.955 Y17.938 I8.399 J8.486
X9.47 Y26.486 I12.152 J0
X26.53 Y26.486 I8.53 J-8.443
X30.045 Y17.938 I-8.637 J-8.548
X26.504 Y9.452 I-11.939 J0
X11.732 Y7.707 I-8.504 J8.593
X10.628 Y10.379 I1.265 J2.087
G3 X10.188 Y13.236 I-3.649 J0.901
G2 X25.812 Y22.764 I7.812 J4.764
X27.15 Y18 I-7.812 J-4.764
G1 Y17.938
G2 X18 Y8.85 I-9.15 J0.062
X10.188 Y13.236 I0 J9.15
G3 X9.844 Y13.232 I-0.171 J-0.104
G1 X1.143 Y-1.815
G2 X0.835 Y-1.863 I-0.173 J0.1
G1 X0.79 Y-1.822 Z-0.506 F150
X0.747 Y-1.783 Z-0.524
X0.707 Y-1.747 Z-0.552
X0.673 Y-1.715 Z-0.591
X0.644 Y-1.689 Z-0.638
X0.623 Y-1.67 Z-0.692
X0.61 Y-1.658 Z-0.75
X0.597 Y-1.647 Z-0.808
X0.576 Y-1.627 Z-0.862
X0.547 Y-1.601 Z-0.909
X0.512 Y-1.57 Z-0.948
X0.472 Y-1.534 Z-0.976
X0.429 Y-1.495 Z-0.994
X0.384 Y-1.454 Z-1
X0.376 Y-1.446
G2 X-1.44 Y0.369 I17.687 J19.508 F300
G3 X-2.529 Y-0.545 I-0.527 J-0.478
G1 X-1.932 Y-1.317
G3 X-1.56 Y-1.567 I0.563 J0.435
G1 X-0.102 Y-1.973
X-0.029 Y-1.989
X4.417 Y-2.732
G3 X4.931 Y-1.441 I0.117 J0.702
G2 X-1.443 Y4.935 I13.069 J19.441
G3 X-2.456 Y5.11 I-0.59 J-0.397
X-2.586 Y4.091 I0.422 J-0.572
G1 X0.241 Y0.594
X0.297 Y0.533
X0.36 Y0.479
X0.429 Y0.432
X4.534 Y-2.031
G3 X4.82 Y-2.128 I0.366 J0.61
G1 X10.95 Y-2.825
G3 X11.263 Y-1.446 I0.08 J0.707
G2 X-1.448 Y11.268 I6.737 J19.446
G1 X-1.456 Y11.3
X-1.459 Y11.333
X-1.492 Y35.573
X-1.486 Y35.622
X-1.468 Y35.668
X-1.44 Y35.708
G2 X0.303 Y37.449 I19.377 J-17.646
G3 X-0.603 Y38.544 I-0.479 J0.526
G1 X-1.334 Y37.993
G3 X-1.594 Y37.605 I0.428 J-0.568
G1 X-1.965 Y36.187
X-1.979 Y36.123
X-2.733 Y31.582
G3 X-1.441 Y31.069 I0.702 J-0.116
G2 X4.935 Y37.443 I19.441 J-13.069
G3 X5.11 Y38.456 I-0.397 J0.59
X4.091 Y38.586 I-0.572 J-0.422
G1 X0.594 Y35.759
X0.533 Y35.703
X0.478 Y35.64
X0.432 Y35.571
X-2.031 Y31.466
G3 X-2.128 Y31.18 I0.61 J-0.366
G1 X-2.825 Y25.05
G3 X-1.446 Y24.737 I0.707 J-0.08
G2 X11.268 Y37.448 I19.446 J-6.737
G1 X11.3 Y37.456
X11.333 Y37.459
X35.531 Y37.495
X35.58 Y37.489
X35.626 Y37.471
X35.666 Y37.443
G2 X37.445 Y35.664 I-17.666 J-19.443
G3 X38.536 Y36.574 I0.526 J0.478
G1 X37.962 Y37.326
G3 X37.583 Y37.581 I-0.565 J-0.432
G1 X36.144 Y37.969
X36.075 Y37.984
X31.537 Y38.733
G3 X31.025 Y37.441 I-0.116 J-0.702
G2 X37.446 Y31.017 I-13.087 J-19.503
G3 X38.459 Y30.841 I0.591 J0.396
X38.59 Y31.86 I-0.422 J0.573
G1 X35.742 Y35.385
X35.686 Y35.447
X35.624 Y35.501
X35.555 Y35.548
X31.421 Y38.032
G3 X31.136 Y38.129 I-0.366 J-0.61
G1 X24.988 Y38.828
G3 X24.676 Y37.449 I-0.08 J-0.707
G2 X37.447 Y24.682 I-6.738 J-19.512
G1 X37.455 Y24.65
X37.458 Y24.617
X37.492 Y0.427
X37.486 Y0.378
X37.468 Y0.332
X37.44 Y0.292
G2 X35.697 Y-1.449 I-19.377 J17.646
G3 X36.603 Y-2.544 I0.479 J-0.526
G1 X37.334 Y-1.993
G3 X37.594 Y-1.605 I-0.428 J0.568
G1 X37.965 Y-0.187
X37.979 Y-0.125
X38.741 Y4.386
G3 X37.45 Y4.902 I-0.701 J0.119
G2 X31.099 Y-1.449 I-19.388 J13.036
G3 X30.924 Y-2.462 I0.397 J-0.59
X31.943 Y-2.592 I0.572 J0.423
G1 X35.426 Y0.225
X35.487 Y0.281
X35.542 Y0.344
X35.588 Y0.412
X38.04 Y4.505
G3 X38.137 Y4.79 I-0.61 J0.366
G1 X38.827 Y10.905
G3 X37.448 Y11.218 I-0.707 J0.08
G2 X24.782 Y-1.449 I-19.386 J6.72
X22.167 Y-0.707 I-0.777 J2.241
G3 X19.66 Y0.343 I-2.237 J-1.824
G2 X18 Y0.265 I-1.66 J17.657
X17.938 Y35.735 I0 J17.735
X35.735 Y18 I0 J-17.797
X19.66 Y0.343 I-17.735 J0
X17.294 Y1.702 I-0.221 J2.354
G3 X15.146 Y3.386 I-2.723 J-1.262
G2 X17.938 Y32.89 I2.854 J14.614
X32.89 Y18 I0 J-14.952
X18 Y3.11 I-14.89 J0
X15.146 Y3.386 I0 J14.89
X13.248 Y5.396 I0.455 J2.331
G3 X11.732 Y7.707 I-3.18 J-0.434
G2 X9.496 Y9.452 I6.268 J10.338
X5.955 Y17.938 I8.399 J8.486
X9.47 Y26.486 I12.152 J0
X26.53 Y26.486 I8.53 J-8.443
X30.045 Y17.938 I-8.637 J-8.548
X26.504 Y9.452 I-11.939 J0
X11.732 Y7.707 I-8.504 J8.593
X10.628 Y10.379 I1.265 J2.087
G3 X10.188 Y13.236 I-3.649 J0.901
G2 X25.812 Y22.764 I7.812 J4.764
X27.15 Y18 I-7.812 J-4.764
G1 Y17.938
G2 X18 Y8.85 I-9.15 J0.062
X10.188 Y13.236 I0 J9.15
G3 X9.844 Y13.232 I-0.171 J-0.104
G1 X1.143 Y-1.815
G2 X0.835 Y-1.863 I-0.173 J0.1
G1 X0.79 Y-1.822 Z-1.006 F150
X0.747 Y-1.783 Z-1.024
X0.707 Y-1.747 Z-1.052
X0.673 Y-1.715 Z-1.091
X0.644 Y-1.689 Z-1.138
X0.623 Y-1.67 Z-1.192
X0.61 Y-1.658 Z-1.25
X0.597 Y-1.647 Z-1.308
X0.576 Y-1.627 Z-1.362
X0.547 Y-1.601 Z-1.409
X0.512 Y-1.57 Z-1.448
X0.472 Y-1.534 Z-1.476
X0.429 Y-1.495 Z-1.494
X0.384 Y-1.454 Z-1.5
X0.376 Y-1.446
G2 X-1.44 Y0.369 I17.687 J19.508 F300
G3 X-2.529 Y-0.545 I-0.527 J-0.478
G1 X-1.932 Y-1.317
G3 X-1.56 Y-1.567 I0.563 J0.435
G1 X-0.102 Y-1.973
X-0.029 Y-1.989
X4.417 Y-2.732
G3 X4.931 Y-1.441 I0.117 J0.702
G2 X-1.443 Y4.935 I13.069 J19.441
G3 X-2.456 Y5.11 I-0.59 J-0.397
X-2.586 Y4.091 I0.422 J-0.572
G1 X0.241 Y0.594
X0.297 Y0.533
X0.36 Y0.479
X0.429 Y0.432
X4.534 Y-2.031
G3 X4.82 Y-2.128 I0.366 J0.61
G1 X10.95 Y-2.825
G3 X11.263 Y-1.446 I0.08 J0.707
G2 X-1.448 Y11.268 I6.737 J19.446
G1 X-1.456 Y11.3
X-1.459 Y11.333
X-1.492 Y35.573
X-1.486 Y35.622
X-1.468 Y35.668
X-1.44 Y35.708
G2 X0.303 Y37.449 I19.377 J-17.646
G3 X-0.603 Y38.544 I-0.479 J0.526
G1 X-1.334 Y37.993
G3 X-1.594 Y37.605 I0.428 J-0.568
G1 X-1.965 Y36.187
X-1.979 Y36.123
X-2.733 Y31.582
G3 X-1.441 Y31.069 I0.702 J-0.116
G2 X4.935 Y37.443 I19.441 J-13.069
G3 X5.11 Y38.456 I-0.397 J0.59
X4.091 Y38.586 I-0.572 J-0.422
G1 X0.594 Y35.759
X0.533 Y35.703
X0.478 Y35.64
X0.432 Y35.571
X-2.031 Y31.466
G3 X-2.128 Y31.18 I0.61 J-0.366
G1 X-2.825 Y25.05
G3 X-1.446 Y24.737 I0.707 J-0.08
G2 X11.268 Y37.448 I19.446 J-6.737
G1 X11.3 Y37.456
X11.333 Y37.459
X35.531 Y37.495
X35.58 Y37.489
X35.626 Y37.471
X35.666 Y37.443
G2 X37.445 Y35.664 I-17.666 J-19.443
G3 X38.536 Y36.574 I0.526 J0.478
G1 X37.962 Y37.326
G3 X37.583 Y37.581 I-0.565 J-0.432
G1 X36.144 Y37.969
X36.075 Y37.984
X31.537 Y38.733
G3 X31.025 Y37.441 I-0.116 J-0.702
G2 X37.446 Y31.017 I-13.087 J-19.503
G3 X38.459 Y30.841 I0.591 J0.396
X38.59 Y31.86 I-0.422 J0.573
G1 X35.742 Y35.385
X35.686 Y35.447
X35.624 Y35.501
X35.555 Y35.548
X31.421 Y38.032
G3 X31.136 Y38.129 I-0.366 J-0.61
G1 X24.988 Y38.828
G3 X24.676 Y37.449 I-0.08 J-0.707
G2 X37.447 Y24.682 I-6.738 J-19.512
G1 X37.455 Y24.65
X37.458 Y24.617
X37.492 Y0.427
X37.486 Y0.378
X37.468 Y0.332
X37.44 Y0.292
G2 X35.697 Y-1.449 I-19.377 J17.646
G3 X36.603 Y-2.544 I0.479 J-0.526
G1 X37.334 Y-1.993
G3 X37.594 Y-1.605 I-0.428 J0.568
G1 X37.965 Y-0.187
X37.979 Y-0.125
X38.741 Y4.386
G3 X37.45 Y4.902 I-0.701 J0.119
G2 X31.099 Y-1.449 I-19.388 J13.036
G3 X30.924 Y-2.462 I0.397 J-0.59
X31.943 Y-2.592 I0.572 J0.423
G1 X35.426 Y0.225
X35.487 Y0.281
X35.542 Y0.344
X35.588 Y0.412
X38.04 Y4.505
G3 X38.137 Y4.79 I-0.61 J0.366
G1 X38.827 Y10.905
G3 X37.448 Y11.218 I-0.707 J0.08
G2 X24.782 Y-1.449 I-19.386 J6.72
X22.167 Y-0.707 I-0.777 J2.241
G3 X19.66 Y0.343 I-2.237 J-1.824
G2 X18 Y0.265 I-1.66 J17.657
X17.938 Y35.735 I0 J17.735
X35.735 Y18 I0 J-17.797
X19.66 Y0.343 I-17.735 J0
X17.294 Y1.702 I-0.221 J2.354
G3 X15.146 Y3.386 I-2.723 J-1.262
G2 X17.938 Y32.89 I2.854 J14.614
X32.89 Y18 I0 J-14.952
X18 Y3.11 I-14.89 J0
X15.146 Y3.386 I0 J14.89
X13.248 Y5.396 I0.455 J2.331
G3 X11.732 Y7.707 I-3.18 J-0.434
G2 X9.496 Y9.452 I6.268 J10.338
X5.955 Y17.938 I8.399 J8.486
X9.47 Y26.486 I12.152 J0
X26.53 Y26.486 I8.53 J-8.443
X30.045 Y17.938 I-8.637 J-8.548
X26.504 Y9.452 I-11.939 J0
X11.732 Y7.707 I-8.504 J8.593
X10.628 Y10.379 I1.265 J2.087
G3 X10.188 Y13.236 I-3.649 J0.901
G2 X25.812 Y22.764 I7.812 J4.764
X27.15 Y18 I-7.812 J-4.764
G1 Y17.938
G2 X18 Y8.85 I-9.15 J0.062
X10.188 Y13.236 I0 J9.15
G3 X9.844 Y13.232 I-0.171 J-0.104
G1 X1.143 Y-1.815
G2 X0.835 Y-1.863 I-0.173 J0.1
G1 X0.79 Y-1.822 Z-1.506 F150
X0.747 Y-1.783 Z-1.524
X0.707 Y-1.747 Z-1.552
X0.673 Y-1.715 Z-1.591
X0.644 Y-1.689 Z-1.638
X0.623 Y-1.67 Z-1.692
X0.61 Y-1.658 Z-1.75
X0.597 Y-1.647 Z-1.808
X0.576 Y-1.627 Z-1.862
X0.547 Y-1.601 Z-1.909
X0.512 Y-1.57 Z-1.948
X0.472 Y-1.534 Z-1.976
X0.429 Y-1.495 Z-1.994
X0.384 Y-1.454 Z-2
X0.376 Y-1.446
G2 X-1.44 Y0.369 I17.687 J19.508 F300
G3 X-2.529 Y-0.545 I-0.527 J-0.478
G1 X-1.932 Y-1.317
G3 X-1.56 Y-1.567 I0.563 J0.435
G1 X-0.102 Y-1.973
X-0.029 Y-1.989
X4.417 Y-2.732
G3 X4.931 Y-1.441 I0.117 J0.702
G2 X-1.443 Y4.935 I13.069 J19.441
G3 X-2.456 Y5.11 I-0.59 J-0.397
X-2.586 Y4.091 I0.422 J-0.572
G1 X0.241 Y0.594
X0.297 Y0.533
X0.36 Y0.479
X0.429 Y0.432
X4.534 Y-2.031
G3 X4.82 Y-2.128 I0.366 J0.61
G1 X10.95 Y-2.825
G3 X11.263 Y-1.446 I0.08 J0.707
G2 X-1.448 Y11.268 I6.737 J19.446
G1 X-1.456 Y11.3
X-1.459 Y11.333
X-1.492 Y35.573
X-1.486 Y35.622
X-1.468 Y35.668
X-1.44 Y35.708
G2 X0.303 Y37.449 I19.377 J-17.646
G3 X-0.603 Y38.544 I-0.479 J0.526
G1 X-1.334 Y37.993
G3 X-1.594 Y37.605 I0.428 J-0.568
G1 X-1.965 Y36.187
X-1.979 Y36.123
X-2.733 Y31.582
G3 X-1.441 Y31.069 I0.702 J-0.116
G2 X4.935 Y37.443 I19.441 J-13.069
G3 X5.11 Y38.456 I-0.397 J0.59
X4.091 Y38.586 I-0.572 J-0.422
G1 X0.594 Y35.759
X0.533 Y35.703
X0.478 Y35.64
X0.432 Y35.571
X-2.031 Y31.466
G3 X-2.128 Y31.18 I0.61 J-0.366
G1 X-2.825 Y25.05
G3 X-1.446 Y24.737 I0.707 J-0.08
G2 X11.268 Y37.448 I19.446 J-6.737
G1 X11.3 Y37.456
X11.333 Y37.459
X35.531 Y37.495
X35.58 Y37.489
X35.626 Y37.471
X35.666 Y37.443
G2 X37.445 Y35.664 I-17.666 J-19.443
G3 X38.536 Y36.574 I0.526 J0.478
G1 X37.962 Y37.326
G3 X37.583 Y37.581 I-0.565 J-0.432
G1 X36.144 Y37.969
X36.075 Y37.984
X31.537 Y38.733
G3 X31.025 Y37.441 I-0.116 J-0.702
G2 X37.446 Y31.017 I-13.087 J-19.503
G3 X38.459 Y30.841 I0.591 J0.396
X38.59 Y31.86 I-0.422 J0.573
G1 X35.742 Y35.385
X35.686 Y35.447
X35.624 Y35.501
X35.555 Y35.548
X31.421 Y38.032
G3 X31.136 Y38.129 I-0.366 J-0.61
G1 X24.988 Y38.828
G3 X24.676 Y37.449 I-0.08 J-0.707
G2 X37.447 Y24.682 I-6.738 J-19.512
G1 X37.455 Y24.65
X37.458 Y24.617
X37.492 Y0.427
X37.486 Y0.378
X37.468 Y0.332
X37.44 Y0.292
G2 X35.697 Y-1.449 I-19.377 J17.646
G3 X36.603 Y-2.544 I0.479 J-0.526
G1 X37.334 Y-1.993
G3 X37.594 Y-1.605 I-0.428 J0.568
G1 X37.965 Y-0.187
X37.979 Y-0.125
X38.741 Y4.386
G3 X37.45 Y4.902 I-0.701 J0.119
G2 X31.099 Y-1.449 I-19.388 J13.036
G3 X30.924 Y-2.462 I0.397 J-0.59
X31.943 Y-2.592 I0.572 J0.423
G1 X35.426 Y0.225
X35.487 Y0.281
X35.542 Y0.344
X35.588 Y0.412
X38.04 Y4.505
G3 X38.137 Y4.79 I-0.61 J0.366
G1 X38.827 Y10.905
G3 X37.448 Y11.218 I-0.707 J0.08
G2 X24.782 Y-1.449 I-19.386 J6.72
X22.167 Y-0.707 I-0.777 J2.241
G3 X19.66 Y0.343 I-2.237 J-1.824
G2 X18 Y0.265 I-1.66 J17.657
X17.938 Y35.735 I0 J17.735
X35.735 Y18 I0 J-17.797
X19.66 Y0.343 I-17.735 J0
X17.294 Y1.702 I-0.221 J2.354
G3 X15.146 Y3.386 I-2.723 J-1.262
G2 X17.938 Y32.89 I2.854 J14.614
X32.89 Y18 I0 J-14.952
X18 Y3.11 I-14.89 J0
X15.146 Y3.386 I0 J14.89
X13.248 Y5.396 I0.455 J2.331
G3 X11.732 Y7.707 I-3.18 J-0.434
G2 X9.496 Y9.452 I6.268 J10.338
X5.955 Y17.938 I8.399 J8.486
X9.47 Y26.486 I12.152 J0
X26.53 Y26.486 I8.53 J-8.443
X30.045 Y17.938 I-8.637 J-8.548
X26.504 Y9.452 I-11.939 J0
X11.732 Y7.707 I-8.504 J8.593
X10.628 Y10.379 I1.265 J2.087
G3 X10.188 Y13.236 I-3.649 J0.901
G2 X25.812 Y22.764 I7.812 J4.764
X27.15 Y18 I-7.812 J-4.764
G1 Y17.938
G2 X18 Y8.85 I-9.15 J0.062
X10.188 Y13.236 I0 J9.15
G3 X9.844 Y13.232 I-0.171 J-0.104
G1 X1.143 Y-1.815
G2 X0.835 Y-1.863 I-0.173 J0.1
G1 X0.79 Y-1.822 Z-2.006 F150
X0.747 Y-1.783 Z-2.024
X0.707 Y-1.747 Z-2.052
X0.673 Y-1.715 Z-2.091
X0.644 Y-1.689 Z-2.138
X0.623 Y-1.67 Z-2.192
X0.61 Y-1.658 Z-2.25
X0.597 Y-1.647 Z-2.308
X0.576 Y-1.627 Z-2.362
X0.547 Y-1.601 Z-2.409
X0.512 Y-1.57 Z-2.448
X0.472 Y-1.534 Z-2.476
X0.429 Y-1.495 Z-2.494
X0.384 Y-1.454 Z-2.5
X0.376 Y-1.446
G2 X-1.44 Y0.369 I17.687 J19.508 F300
G3 X-2.529 Y-0.545 I-0.527 J-0.478
G1 X-1.932 Y-1.317
G3 X-1.56 Y-1.567 I0.563 J0.435
G1 X-0.102 Y-1.973
X-0.029 Y-1.989
X4.417 Y-2.732
G3 X4.931 Y-1.441 I0.117 J0.702
G2 X-1.443 Y4.935 I13.069 J19.441
G3 X-2.456 Y5.11 I-0.59 J-0.397
X-2.586 Y4.091 I0.422 J-0.572
G1 X0.241 Y0.594
X0.297 Y0.533
X0.36 Y0.479
X0.429 Y0.432
X4.534 Y-2.031
G3 X4.82 Y-2.128 I0.366 J0.61
G1 X10.95 Y-2.825
G3 X11.263 Y-1.446 I0.08 J0.707
G2 X-1.448 Y11.268 I6.737 J19.446
G1 X-1.456 Y11.3
X-1.459 Y11.333
X-1.492 Y35.573
X-1.486 Y35.622
X-1.468 Y35.668
X-1.44 Y35.708
G2 X0.303 Y37.449 I19.377 J-17.646
G3 X-0.603 Y38.544 I-0.479 J0.526
G1 X-1.334 Y37.993
G3 X-1.594 Y37.605 I0.428 J-0.568
G1 X-1.965 Y36.187
X-1.979 Y36.123
X-2.733 Y31.582
G3 X-1.441 Y31.069 I0.702 J-0.116
G2 X4.935 Y37.443 I19.441 J-13.069
G3 X5.11 Y38.456 I-0.397 J0.59
X4.091 Y38.586 I-0.572 J-0.422
G1 X0.594 Y35.759
X0.533 Y35.703
X0.478 Y35.64
X0.432 Y35.571
X-2.031 Y31.466
G3 X-2.128 Y31.18 I0.61 J-0.366
G1 X-2.825 Y25.05
G3 X-1.446 Y24.737 I0.707 J-0.08
G2 X11.268 Y37.448 I19.446 J-6.737
G1 X11.3 Y37.456
X11.333 Y37.459
X35.531 Y37.495
X35.58 Y37.489
X35.626 Y37.471
X35.666 Y37.443
G2 X37.445 Y35.664 I-17.666 J-19.443
G3 X38.536 Y36.574 I0.526 J0.478
G1 X37.962 Y37.326
G3 X37.583 Y37.581 I-0.565 J-0.432
G1 X36.144 Y37.969
X36.075 Y37.984
X31.537 Y38.733
G3 X31.025 Y37.441 I-0.116 J-0.702
G2 X37.446 Y31.017 I-13.087 J-19.503
G3 X38.459 Y30.841 I0.591 J0.396
X38.59 Y31.86 I-0.422 J0.573
G1 X35.742 Y35.385
X35.686 Y35.447
X35.624 Y35.501
X35.555 Y35.548
X31.421 Y38.032
G3 X31.136 Y38.129 I-0.366 J-0.61
G1 X24.988 Y38.828
G3 X24.676 Y37.449 I-0.08 J-0.707
G2 X37.447 Y24.682 I-6.738 J-19.512
G1 X37.455 Y24.65
X37.458 Y24.617
X37.492 Y0.427
X37.486 Y0.378
X37.468 Y0.332
X37.44 Y0.292
G2 X35.697 Y-1.449 I-19.377 J17.646
G3 X36.603 Y-2.544 I0.479 J-0.526
G1 X37.334 Y-1.993
G3 X37.594 Y-1.605 I-0.428 J0.568
G1 X37.965 Y-0.187
X37.979 Y-0.125
X38.741 Y4.386
G3 X37.45 Y4.902 I-0.701 J0.119
G2 X31.099 Y-1.449 I-19.388 J13.036
G3 X30.924 Y-2.462 I0.397 J-0.59
X31.943 Y-2.592 I0.572 J0.423
G1 X35.426 Y0.225
X35.487 Y0.281
X35.542 Y0.344
X35.588 Y0.412
X38.04 Y4.505
G3 X38.137 Y4.79 I-0.61 J0.366
G1 X38.827 Y10.905
G3 X37.448 Y11.218 I-0.707 J0.08
G2 X24.782 Y-1.449 I-19.386 J6.72
X22.167 Y-0.707 I-0.777 J2.241
G3 X19.66 Y0.343 I-2.237 J-1.824
G2 X18 Y0.265 I-1.66 J17.657
X17.938 Y35.735 I0 J17.735
X35.735 Y18 I0 J-17.797
X19.66 Y0.343 I-17.735 J0
X17.294 Y1.702 I-0.221 J2.354
G3 X15.146 Y3.386 I-2.723 J-1.262
G2 X17.938 Y32.89 I2.854 J14.614
X32.89 Y18 I0 J-14.952
X18 Y3.11 I-14.89 J0
X15.146 Y3.386 I0 J14.89
X13.248 Y5.396 I0.455 J2.331
G3 X11.732 Y7.707 I-3.18 J-0.434
G2 X9.496 Y9.452 I6.268 J10.338
X5.955 Y17.938 I8.399 J8.486
X9.47 Y26.486 I12.152 J0
X26.53 Y26.486 I8.53 J-8.443
X30.045 Y17.938 I-8.637 J-8.548
X26.504 Y9.452 I-11.939 J0
X11.732 Y7.707 I-8.504 J8.593
X10.628 Y10.379 I1.265 J2.087
G3 X10.188 Y13.236 I-3.649 J0.901
G2 X25.812 Y22.764 I7.812 J4.764
X27.15 Y18 I-7.812 J-4.764
G1 Y17.938
G2 X18 Y8.85 I-9.15 J0.062
X10.188 Y13.236 I0 J9.15
G3 X9.844 Y13.232 I-0.171 J-0.104
G1 X1.143 Y-1.815
G2 X0.835 Y-1.863 I-0.173 J0.1
G1 X0.79 Y-1.822 Z-2.506 F150
X0.747 Y-1.783 Z-2.524
X0.707 Y-1.747 Z-2.552
X0.673 Y-1.715 Z-2.591
X0.644 Y-1.689 Z-2.638
X0.623 Y-1.67 Z-2.692
X0.61 Y-1.658 Z-2.75
X0.597 Y-1.647 Z-2.808
X0.576 Y-1.627 Z-2.862
X0.547 Y-1.601 Z-2.909
X0.512 Y-1.57 Z-2.948
X0.472 Y-1.534 Z-2.976
X0.429 Y-1.495 Z-2.994
X0.384 Y-1.454 Z-3
X0.376 Y-1.446
G2 X-1.44 Y0.369 I17.687 J19.508 F300
G3 X-2.529 Y-0.545 I-0.527 J-0.478
G1 X-1.932 Y-1.317
G3 X-1.56 Y-1.567 I0.563 J0.435
G1 X-0.102 Y-1.973
X-0.029 Y-1.989
X4.417 Y-2.732
G3 X4.931 Y-1.441 I0.117 J0.702
G2 X-1.443 Y4.935 I13.069 J19.441
G3 X-2.456 Y5.11 I-0.59 J-0.397
X-2.586 Y4.091 I0.422 J-0.572
G1 X0.241 Y0.594
X0.297 Y0.533
X0.36 Y0.479
X0.429 Y0.432
X4.534 Y-2.031
G3 X4.82 Y-2.128 I0.366 J0.61
G1 X10.95 Y-2.825
G3 X11.263 Y-1.446 I0.08 J0.707
G2 X-1.448 Y11.268 I6.737 J19.446
G1 X-1.456 Y11.3
X-1.459 Y11.333
X-1.492 Y35.573
X-1.486 Y35.622
X-1.468 Y35.668
X-1.44 Y35.708
G2 X0.303 Y37.449 I19.377 J-17.646
G3 X-0.603 Y38.544 I-0.479 J0.526
G1 X-1.334 Y37.993
G3 X-1.594 Y37.605 I0.428 J-0.568
G1 X-1.965 Y36.187
X-1.979 Y36.123
X-2.733 Y31.582
G3 X-1.441 Y31.069 I0.702 J-0.116
G2 X4.935 Y37.443 I19.441 J-13.069
G3 X5.11 Y38.456 I-0.397 J0.59
X4.091 Y38.586 I-0.572 J-0.422
G1 X0.594 Y35.759
X0.533 Y35.703
X0.478 Y35.64
X0.432 Y35.571
X-2.031 Y31.466
G3 X-2.128 Y31.18 I0.61 J-0.366
G1 X-2.825 Y25.05
G3 X-1.446 Y24.737 I0.707 J-0.08
G2 X11.268 Y37.448 I19.446 J-6.737
G1 X11.3 Y37.456
X11.333 Y37.459
X35.531 Y37.495
X35.58 Y37.489
X35.626 Y37.471
X35.666 Y37.443
G2 X37.445 Y35.664 I-17.666 J-19.443
G3 X38.536 Y36.574 I0.526 J0.478
G1 X37.962 Y37.326
G3 X37.583 Y37.581 I-0.565 J-0.432
G1 X36.144 Y37.969
X36.075 Y37.984
X31.537 Y38.733
G3 X31.025 Y37.441 I-0.116 J-0.702
G2 X37.446 Y31.017 I-13.087 J-19.503
G3 X38.459 Y30.841 I0.591 J0.396
X38.59 Y31.86 I-0.422 J0.573
G1 X35.742 Y35.385
X35.686 Y35.447
X35.624 Y35.501
X35.555 Y35.548
X31.421 Y38.032
G3 X31.136 Y38.129 I-0.366 J-0.61
G1 X24.988 Y38.828
G3 X24.676 Y37.449 I-0.08 J-0.707
G2 X37.447 Y24.682 I-6.738 J-19.512
G1 X37.455 Y24.65
X37.458 Y24.617
X37.492 Y0.427
X37.486 Y0.378
X37.468 Y0.332
X37.44 Y0.292
G2 X35.697 Y-1.449 I-19.377 J17.646
G3 X36.603 Y-2.544 I0.479 J-0.526
G1 X37.334 Y-1.993
G3 X37.594 Y-1.605 I-0.428 J0.568
G1 X37.965 Y-0.187
X37.979 Y-0.125
X38.741 Y4.386
G3 X37.45 Y4.902 I-0.701 J0.119
G2 X31.099 Y-1.449 I-19.388 J13.036
G3 X30.924 Y-2.462 I0.397 J-0.59
X31.943 Y-2.592 I0.572 J0.423
G1 X35.426 Y0.225
X35.487 Y0.281
X35.542 Y0.344
X35.588 Y0.412
X38.04 Y4.505
G3 X38.137 Y4.79 I-0.61 J0.366
G1 X38.827 Y10.905
G3 X37.448 Y11.218 I-0.707 J0.08
G2 X24.782 Y-1.449 I-19.386 J6.72
X22.167 Y-0.707 I-0.777 J2.241
G3 X19.66 Y0.343 I-2.237 J-1.824
G2 X18 Y0.265 I-1.66 J17.657
X17.938 Y35.735 I0 J17.735
X35.735 Y18 I0 J-17.797
X19.66 Y0.343 I-17.735 J0
X17.294 Y1.702 I-0.221 J2.354
G3 X15.146 Y3.386 I-2.723 J-1.262
G2 X17.938 Y32.89 I2.854 J14.614
X32.89 Y18 I0 J-14.952
X18 Y3.11 I-14.89 J0
X15.146 Y3.386 I0 J14.89
X13.248 Y5.396 I0.455 J2.331
G3 X11.732 Y7.707 I-3.18 J-0.434
G2 X9.496 Y9.452 I6.268 J10.338
X5.955 Y17.938 I8.399 J8.486
X9.47 Y26.486 I12.152 J0
X26.53 Y26.486 I8.53 J-8.443
X30.045 Y17.938 I-8.637 J-8.548
X26.504 Y9.452 I-11.939 J0
X11.732 Y7.707 I-8.504 J8.593
X10.628 Y10.379 I1.265 J2.087
G3 X10.188 Y13.236 I-3.649 J0.901
G2 X25.812 Y22.764 I7.812 J4.764
X27.15 Y18 I-7.812 J-4.764
G1 Y17.938
G2 X18 Y8.85 I-9.15 J0.062
X10.188 Y13.236 I0 J9.15
G3 X9.844 Y13.232 I-0.171 J-0.104
G1 X1.143 Y-1.815
G2 X0.835 Y-1.863 I-0.173 J0.1
G1 X0.79 Y-1.822 Z-3.006 F150
X0.747 Y-1.783 Z-3.024
X0.707 Y-1.747 Z-3.052
X0.673 Y-1.715 Z-3.091
X0.644 Y-1.689 Z-3.138
X0.623 Y-1.67 Z-3.192
X0.61 Y-1.658 Z-3.25
X0.597 Y-1.647 Z-3.308
X0.576 Y-1.627 Z-3.362
X0.547 Y-1.601 Z-3.409
X0.512 Y-1.57 Z-3.448
X0.472 Y-1.534 Z-3.476
X0.429 Y-1.495 Z-3.494
X0.384 Y-1.454 Z-3.5
X0.376 Y-1.446
G2 X-1.44 Y0.369 I17.687 J19.508 F300
G3 X-2.529 Y-0.545 I-0.527 J-0.478
G1 X-1.932 Y-1.317
G3 X-1.56 Y-1.567 I0.563 J0.435
G1 X-0.102 Y-1.973
X-0.029 Y-1.989
X4.417 Y-2.732
G3 X4.931 Y-1.441 I0.117 J0.702
G2 X-1.443 Y4.935 I13.069 J19.441
G3 X-2.456 Y5.11 I-0.59 J-0.397
X-2.586 Y4.091 I0.422 J-0.572
G1 X0.241 Y0.594
X0.297 Y0.533
X0.36 Y0.479
X0.429 Y0.432
X4.534 Y-2.031
G3 X4.82 Y-2.128 I0.366 J0.61
G1 X10.95 Y-2.825
G3 X11.263 Y-1.446 I0.08 J0.707
G2 X-1.448 Y11.268 I6.737 J19.446
G1 X-1.456 Y11.3
X-1.459 Y11.333
X-1.492 Y35.573
X-1.486 Y35.622
X-1.468 Y35.668
X-1.44 Y35.708
G2 X0.303 Y37.449 I19.377 J-17.646
G3 X-0.603 Y38.544 I-0.479 J0.526
G1 X-1.334 Y37.993
G3 X-1.594 Y37.605 I0.428 J-0.568
G1 X-1.965 Y36.187
X-1.979 Y36.123
X-2.733 Y31.582
G3 X-1.441 Y31.069 I0.702 J-0.116
G2 X4.935 Y37.443 I19.441 J-13.069
G3 X5.11 Y38.456 I-0.397 J0.59
X4.091 Y38.586 I-0.572 J-0.422
G1 X0.594 Y35.759
X0.533 Y35.703
X0.478 Y35.64
X0.432 Y35.571
X-2.031 Y31.466
G3 X-2.128 Y31.18 I0.61 J-0.366
G1 X-2.825 Y25.05
G3 X-1.446 Y24.737 I0.707 J-0.08
G2 X11.268 Y37.448 I19.446 J-6.737
G1 X11.3 Y37.456
X11.333 Y37.459
X35.531 Y37.495
X35.58 Y37.489
X35.626 Y37.471
X35.666 Y37.443
G2 X37.445 Y35.664 I-17.666 J-19.443
G3 X38.536 Y36.574 I0.526 J0.478
G1 X37.962 Y37.326
G3 X37.583 Y37.581 I-0.565 J-0.432
G1 X36.144 Y37.969
X36.075 Y37.984
X31.537 Y38.733
G3 X31.025 Y37.441 I-0.116 J-0.702
G2 X37.446 Y31.017 I-13.087 J-19.503
G3 X38.459 Y30.841 I0.591 J0.396
X38.59 Y31.86 I-0.422 J0.573
G1 X35.742 Y35.385
X35.686 Y35.447
X35.624 Y35.501
X35.555 Y35.548
X31.421 Y38.032
G3 X31.136 Y38.129 I-0.366 J-0.61
G1 X24.988 Y38.828
G3 X24.676 Y37.449 I-0.08 J-0.707
G2 X37.447 Y24.682 I-6.738 J-19.512
G1 X37.455 Y24.65
X37.458 Y24.617
X37.492 Y0.427
X37.486 Y0.378
X37.468 Y0.332
X37.44 Y0.292
G2 X35.697 Y-1.449 I-19.377 J17.646
G3 X36.603 Y-2.544 I0.479 J-0.526
G1 X37.334 Y-1.993
G3 X37.594 Y-1.605 I-0.428 J0.568
G1 X37.965 Y-0.187
X37.979 Y-0.125
X38.741 Y4.386
G3 X37.45 Y4.902 I-0.701 J0.119
G2 X31.099 Y-1.449 I-19.388 J13.036
G3 X30.924 Y-2.462 I0.397 J-0.59
X31.943 Y-2.592 I0.572 J0.423
G1 X35.426 Y0.225
X35.487 Y0.281
X35.542 Y0.344
X35.588 Y0.412
X38.04 Y4.505
G3 X38.137 Y4.79 I-0.61 J0.366
G1 X38.827 Y10.905
G3 X37.448 Y11.218 I-0.707 J0.08
G2 X24.782 Y-1.449 I-19.386 J6.72
X22.167 Y-0.707 I-0.777 J2.241
G3 X19.66 Y0.343 I-2.237 J-1.824
G2 X18 Y0.265 I-1.66 J17.657
X17.938 Y35.735 I0 J17.735
X35.735 Y18 I0 J-17.797
X19.66 Y0.343 I-17.735 J0
X17.294 Y1.702 I-0.221 J2.354
G3 X15.146 Y3.386 I-2.723 J-1.262
G2 X17.938 Y32.89 I2.854 J14.614
X32.89 Y18 I0 J-14.952
X18 Y3.11 I-14.89 J0
X15.146 Y3.386 I0 J14.89
X13.248 Y5.396 I0.455 J2.331
G3 X11.732 Y7.707 I-3.18 J-0.434
G2 X9.496 Y9.452 I6.268 J10.338
X5.955 Y17.938 I8.399 J8.486
X9.47 Y26.486 I12.152 J0
X26.53 Y26.486 I8.53 J-8.443
X30.045 Y17.938 I-8.637 J-8.548
X26.504 Y9.452 I-11.939 J0
X11.732 Y7.707 I-8.504 J8.593
X10.628 Y10.379 I1.265 J2.087
G3 X10.188 Y13.236 I-3.649 J0.901
G2 X25.812 Y22.764 I7.812 J4.764
X27.15 Y18 I-7.812 J-4.764
G1 Y17.938
G2 X18 Y8.85 I-9.15 J0.062
X10.188 Y13.236 I0 J9.15
G3 X9.844 Y13.232 I-0.171 J-0.104
G1 X1.143 Y-1.815
G2 X0.835 Y-1.863 I-0.173 J0.1
G1 X0.79 Y-1.822 Z-3.506 F150
X0.747 Y-1.783 Z-3.524
X0.707 Y-1.747 Z-3.552
X0.673 Y-1.715 Z-3.591
X0.644 Y-1.689 Z-3.638
X0.623 Y-1.67 Z-3.692
X0.61 Y-1.658 Z-3.75
X0.597 Y-1.647 Z-3.808
X0.576 Y-1.627 Z-3.862
X0.547 Y-1.601 Z-3.909
X0.512 Y-1.57 Z-3.948
X0.472 Y-1.534 Z-3.976
X0.429 Y-1.495 Z-3.994
X0.384 Y-1.454 Z-4
X0.376 Y-1.446
G2 X-1.44 Y0.369 I17.687 J19.508 F300
G3 X-2.529 Y-0.545 I-0.527 J-0.478
G1 X-1.932 Y-1.317
G3 X-1.56 Y-1.567 I0.563 J0.435
G1 X-0.102 Y-1.973
X-0.029 Y-1.989
X4.417 Y-2.732
G3 X4.931 Y-1.441 I0.117 J0.702
G2 X-1.443 Y4.935 I13.069 J19.441
G3 X-2.456 Y5.11 I-0.59 J-0.397
X-2.586 Y4.091 I0.422 J-0.572
G1 X0.241 Y0.594
X0.297 Y0.533
X0.36 Y0.479
X0.429 Y0.432
X4.534 Y-2.031
G3 X4.82 Y-2.128 I0.366 J0.61
G1 X10.95 Y-2.825
G3 X11.263 Y-1.446 I0.08 J0.707
G2 X-1.448 Y11.268 I6.737 J19.446
G1 X-1.456 Y11.3
X-1.459 Y11.333
X-1.492 Y35.573
X-1.486 Y35.622
X-1.468 Y35.668
X-1.44 Y35.708
G2 X0.303 Y37.449 I19.377 J-17.646
G3 X-0.603 Y38.544 I-0.479 J0.526
G1 X-1.334 Y37.993
G3 X-1.594 Y37.605 I0.428 J-0.568
G1 X-1.965 Y36.187
X-1.979 Y36.123
X-2.733 Y31.582
G3 X-1.441 Y31.069 I0.702 J-0.116
G2 X4.935 Y37.443 I19.441 J-13.069
G3 X5.11 Y38.456 I-0.397 J0.59
X4.091 Y38.586 I-0.572 J-0.422
G1 X0.594 Y35.759
X0.533 Y35.703
X0.478 Y35.64
X0.432 Y35.571
X-2.031 Y31.466
G3 X-2.128 Y31.18 I0.61 J-0.366
G1 X-2.825 Y25.05
G3 X-1.446 Y24.737 I0.707 J-0.08
G2 X11.268 Y37.448 I19.446 J-6.737
G1 X11.3 Y37.456
X11.333 Y37.459
X35.531 Y37.495
X35.58 Y37.489
X35.626 Y37.471
X35.666 Y37.443
G2 X37.445 Y35.664 I-17.666 J-19.443
G3 X38.536 Y36.574 I0.526 J0.478
G1 X37.962 Y37.326
G3 X37.583 Y37.581 I-0.565 J-0.432
G1 X36.144 Y37.969
X36.075 Y37.984
X31.537 Y38.733
G3 X31.025 Y37.441 I-0.116 J-0.702
G2 X37.446 Y31.017 I-13.087 J-19.503
G3 X38.459 Y30.841 I0.591 J0.396
X38.59 Y31.86 I-0.422 J0.573
G1 X35.742 Y35.385
X35.686 Y35.447
X35.624 Y35.501
X35.555 Y35.548
X31.421 Y38.032
G3 X31.136 Y38.129 I-0.366 J-0.61
G1 X24.988 Y38.828
G3 X24.676 Y37.449 I-0.08 J-0.707
G2 X37.447 Y24.682 I-6.738 J-19.512
G1 X37.455 Y24.65
X37.458 Y24.617
X37.492 Y0.427
X37.486 Y0.378
X37.468 Y0.332
X37.44 Y0.292
G2 X35.697 Y-1.449 I-19.377 J17.646
G3 X36.603 Y-2.544 I0.479 J-0.526
G1 X37.334 Y-1.993
G3 X37.594 Y-1.605 I-0.428 J0.568
G1 X37.965 Y-0.187
X37.979 Y-0.125
X38.741 Y4.386
G3 X37.45 Y4.902 I-0.701 J0.119
G2 X31.099 Y-1.449 I-19.388 J13.036
G3 X30.924 Y-2.462 I0.397 J-0.59
X31.943 Y-2.592 I0.572 J0.423
G1 X35.426 Y0.225
X35.487 Y0.281
X35.542 Y0.344
X35.588 Y0.412
X38.04 Y4.505
G3 X38.137 Y4.79 I-0.61 J0.366
G1 X38.827 Y10.905
G3 X37.448 Y11.218 I-0.707 J0.08
G2 X24.782 Y-1.449 I-19.386 J6.72
X22.167 Y-0.707 I-0.777 J2.241
G3 X19.66 Y0.343 I-2.237 J-1.824
G2 X18 Y0.265 I-1.66 J17.657
X17.938 Y35.735 I0 J17.735
X35.735 Y18 I0 J-17.797
X19.66 Y0.343 I-17.735 J0
X17.294 Y1.702 I-0.221 J2.354
G3 X15.146 Y3.386 I-2.723 J-1.262
G2 X17.938 Y32.89 I2.854 J14.614
X32.89 Y18 I0 J-14.952
X18 Y3.11 I-14.89 J0
X15.146 Y3.386 I0 J14.89
X13.248 Y5.396 I0.455 J2.331
G3 X11.732 Y7.707 I-3.18 J-0.434
G2 X9.496 Y9.452 I6.268 J10.338
X5.955 Y17.938 I8.399 J8.486
X9.47 Y26.486 I12.152 J0
X26.53 Y26.486 I8.53 J-8.443
X30.045 Y17.938 I-8.637 J-8.548
X26.504 Y9.452 I-11.939 J0
X11.732 Y7.707 I-8.504 J8.593
X10.628 Y10.379 I1.265 J2.087
G3 X10.188 Y13.236 I-3.649 J0.901
G2 X25.812 Y22.764 I7.812 J4.764
X27.15 Y18 I-7.812 J-4.764
G1 Y17.938
G2 X18 Y8.85 I-9.15 J0.062
X10.188 Y13.236 I0 J9.15
G3 X9.844 Y13.232 I-0.171 J-0.104
G1 X1.143 Y-1.815
G2 X0.835 Y-1.863 I-0.173 J0.1
G1 X0.79 Y-1.822 Z-4.006 F150
X0.747 Y-1.783 Z-4.024
X0.707 Y-1.747 Z-4.052
X0.673 Y-1.715 Z-4.091
X0.644 Y-1.689 Z-4.138
X0.623 Y-1.67 Z-4.192
X0.61 Y-1.658 Z-4.25
X0.597 Y-1.647 Z-4.308
X0.576 Y-1.627 Z-4.362
X0.547 Y-1.601 Z-4.409
X0.512 Y-1.57 Z-4.448
X0.472 Y-1.534 Z-4.476
X0.429 Y-1.495 Z-4.494
X0.384 Y-1.454 Z-4.5
X0.376 Y-1.446
G2 X-1.44 Y0.369 I17.687 J19.508 F300
G3 X-2.529 Y-0.545 I-0.527 J-0.478
G1 X-1.932 Y-1.317
G3 X-1.56 Y-1.567 I0.563 J0.435
G1 X-0.102 Y-1.973
X-0.029 Y-1.989
X4.417 Y-2.732
G3 X4.931 Y-1.441 I0.117 J0.702
G2 X-1.443 Y4.935 I13.069 J19.441
G3 X-2.456 Y5.11 I-0.59 J-0.397
X-2.586 Y4.091 I0.422 J-0.572
G1 X0.241 Y0.594
X0.297 Y0.533
X0.36 Y0.479
X0.429 Y0.432
X4.534 Y-2.031
G3 X4.82 Y-2.128 I0.366 J0.61
G1 X10.95 Y-2.825
G3 X11.263 Y-1.446 I0.08 J0.707
G2 X-1.448 Y11.268 I6.737 J19.446
G1 X-1.456 Y11.3
X-1.459 Y11.333
X-1.492 Y35.573
X-1.486 Y35.622
X-1.468 Y35.668
X-1.44 Y35.708
G2 X0.303 Y37.449 I19.377 J-17.646
G3 X-0.603 Y38.544 I-0.479 J0.526
G1 X-1.334 Y37.993
G3 X-1.594 Y37.605 I0.428 J-0.568
G1 X-1.965 Y36.187
X-1.979 Y36.123
X-2.733 Y31.582
G3 X-1.441 Y31.069 I0.702 J-0.116
G2 X4.935 Y37.443 I19.441 J-13.069
G3 X5.11 Y38.456 I-0.397 J0.59
X4.091 Y38.586 I-0.572 J-0.422
G1 X0.594 Y35.759
X0.533 Y35.703
X0.478 Y35.64
X0.432 Y35.571
X-2.031 Y31.466
G3 X-2.128 Y31.18 I0.61 J-0.366
G1 X-2.825 Y25.05
G3 X-1.446 Y24.737 I0.707 J-0.08
G2 X11.268 Y37.448 I19.446 J-6.737
G1 X11.3 Y37.456
X11.333 Y37.459
X35.531 Y37.495
X35.58 Y37.489
X35.626 Y37.471
X35.666 Y37.443
G2 X37.445 Y35.664 I-17.666 J-19.443
G3 X38.536 Y36.574 I0.526 J0.478
G1 X37.962 Y37.326
G3 X37.583 Y37.581 I-0.565 J-0.432
G1 X36.144 Y37.969
X36.075 Y37.984
X31.537 Y38.733
G3 X31.025 Y37.441 I-0.116 J-0.702
G2 X37.446 Y31.017 I-13.087 J-19.503
G3 X38.459 Y30.841 I0.591 J0.396
X38.59 Y31.86 I-0.422 J0.573
G1 X35.742 Y35.385
X35.686 Y35.447
X35.624 Y35.501
X35.555 Y35.548
X31.421 Y38.032
G3 X31.136 Y38.129 I-0.366 J-0.61
G1 X24.988 Y38.828
G3 X24.676 Y37.449 I-0.08 J-0.707
G2 X37.447 Y24.682 I-6.738 J-19.512
G1 X37.455 Y24.65
X37.458 Y24.617
X37.492 Y0.427
X37.486 Y0.378
X37.468 Y0.332
X37.44 Y0.292
G2 X35.697 Y-1.449 I-19.377 J17.646
G3 X36.603 Y-2.544 I0.479 J-0.526
G1 X37.334 Y-1.993
G3 X37.594 Y-1.605 I-0.428 J0.568
G1 X37.965 Y-0.187
X37.979 Y-0.125
X38.741 Y4.386
G3 X37.45 Y4.902 I-0.701 J0.119
G2 X31.099 Y-1.449 I-19.388 J13.036
G3 X30.924 Y-2.462 I0.397 J-0.59
X31.943 Y-2.592 I0.572 J0.423
G1 X35.426 Y0.225
X35.487 Y0.281
X35.542 Y0.344
X35.588 Y0.412
X38.04 Y4.505
G3 X38.137 Y4.79 I-0.61 J0.366
G1 X38.827 Y10.905
G3 X37.448 Y11.218 I-0.707 J0.08
G2 X24.782 Y-1.449 I-19.386 J6.72
X22.167 Y-0.707 I-0.777 J2.241
G3 X19.66 Y0.343 I-2.237 J-1.824
G2 X18 Y0.265 I-1.66 J17.657
X17.938 Y35.735 I0 J17.735
X35.735 Y18 I0 J-17.797
X19.66 Y0.343 I-17.735 J0
X17.294 Y1.702 I-0.221 J2.354
G3 X15.146 Y3.386 I-2.723 J-1.262
G2 X17.938 Y32.89 I2.854 J14.614
X32.89 Y18 I0 J-14.952
X18 Y3.11 I-14.89 J0
X15.146 Y3.386 I0 J14.89
X13.248 Y5.396 I0.455 J2.331
G3 X11.732 Y7.707 I-3.18 J-0.434
G2 X9.496 Y9.452 I6.268 J10.338
X5.955 Y17.938 I8.399 J8.486
X9.47 Y26.486 I12.152 J0
X26.53 Y26.486 I8.53 J-8.443
X30.045 Y17.938 I-8.637 J-8.548
X26.504 Y9.452 I-11.939 J0
X11.732 Y7.707 I-8.504 J8.593
X10.628 Y10.379 I1.265 J2.087
G3 X10.188 Y13.236 I-3.649 J0.901
G2 X25.812 Y22.764 I7.812 J4.764
X27.15 Y18 I-7.812 J-4.764
G1 Y17.938
G2 X18 Y8.85 I-9.15 J0.062
X10.188 Y13.236 I0 J9.15
G3 X9.844 Y13.232 I-0.171 J-0.104
G1 X1.143 Y-1.815
G2 X0.835 Y-1.863 I-0.173 J0.1
G1 X0.79 Y-1.822 Z-4.506 F150
X0.747 Y-1.783 Z-4.524
X0.707 Y-1.747 Z-4.552
X0.673 Y-1.715 Z-4.591
X0.644 Y-1.689 Z-4.638
X0.623 Y-1.67 Z-4.692
X0.61 Y-1.658 Z-4.75
X0.597 Y-1.647 Z-4.808
X0.576 Y-1.627 Z-4.862
X0.547 Y-1.601 Z-4.909
X0.512 Y-1.57 Z-4.948
X0.472 Y-1.534 Z-4.976
X0.429 Y-1.495 Z-4.994
X0.384 Y-1.454 Z-5
X0.376 Y-1.446
G2 X-1.44 Y0.369 I17.687 J19.508 F300
G3 X-2.529 Y-0.545 I-0.527 J-0.478
G1 X-1.932 Y-1.317
G3 X-1.56 Y-1.567 I0.563 J0.435
G1 X-0.102 Y-1.973
X-0.029 Y-1.989
X4.417 Y-2.732
G3 X4.931 Y-1.441 I0.117 J0.702
G2 X-1.443 Y4.935 I13.069 J19.441
G3 X-2.456 Y5.11 I-0.59 J-0.397
X-2.586 Y4.091 I0.422 J-0.572
G1 X0.241 Y0.594
X0.297 Y0.533
X0.36 Y0.479
X0.429 Y0.432
X4.534 Y-2.031
G3 X4.82 Y-2.128 I0.366 J0.61
G1 X10.95 Y-2.825
G3 X11.263 Y-1.446 I0.08 J0.707
G2 X-1.448 Y11.268 I6.737 J19.446
G1 X-1.456 Y11.3
X-1.459 Y11.333
X-1.492 Y35.573
X-1.486 Y35.622
X-1.468 Y35.668
X-1.44 Y35.708
G2 X0.303 Y37.449 I19.377 J-17.646
G3 X-0.603 Y38.544 I-0.479 J0.526
G1 X-1.334 Y37.993
G3 X-1.594 Y37.605 I0.428 J-0.568
G1 X-1.965 Y36.187
X-1.979 Y36.123
X-2.733 Y31.582
G3 X-1.441 Y31.069 I0.702 J-0.116
G2 X4.935 Y37.443 I19.441 J-13.069
G3 X5.11 Y38.456 I-0.397 J0.59
X4.091 Y38.586 I-0.572 J-0.422
G1 X0.594 Y35.759
X0.533 Y35.703
X0.478 Y35.64
X0.432 Y35.571
X-2.031 Y31.466
G3 X-2.128 Y31.18 I0.61 J-0.366
G1 X-2.825 Y25.05
G3 X-1.446 Y24.737 I0.707 J-0.08
G2 X11.268 Y37.448 I19.446 J-6.737
G1 X11.3 Y37.456
X11.333 Y37.459
X35.531 Y37.495
X35.58 Y37.489
X35.626 Y37.471
X35.666 Y37.443
G2 X37.445 Y35.664 I-17.666 J-19.443
G3 X38.536 Y36.574 I0.526 J0.478
G1 X37.962 Y37.326
G3 X37.583 Y37.581 I-0.565 J-0.432
G1 X36.144 Y37.969
X36.075 Y37.984
X31.537 Y38.733
G3 X31.025 Y37.441 I-0.116 J-0.702
G2 X37.446 Y31.017 I-13.087 J-19.503
G3 X38.459 Y30.841 I0.591 J0.396
X38.59 Y31.86 I-0.422 J0.573
G1 X35.742 Y35.385
X35.686 Y35.447
X35.624 Y35.501
X35.555 Y35.548
X31.421 Y38.032
G3 X31.136 Y38.129 I-0.366 J-0.61
G1 X24.988 Y38.828
G3 X24.676 Y37.449 I-0.08 J-0.707
G2 X37.447 Y24.682 I-6.738 J-19.512
G1 X37.455 Y24.65
X37.458 Y24.617
X37.492 Y0.427
X37.486 Y0.378
X37.468 Y0.332
X37.44 Y0.292
G2 X35.697 Y-1.449 I-19.377 J17.646
G3 X36.603 Y-2.544 I0.479 J-0.526
G1 X37.334 Y-1.993
G3 X37.594 Y-1.605 I-0.428 J0.568
G1 X37.965 Y-0.187
X37.979 Y-0.125
X38.741 Y4.386
G3 X37.45 Y4.902 I-0.701 J0.119
G2 X31.099 Y-1.449 I-19.388 J13.036
G3 X30.924 Y-2.462 I0.397 J-0.59
X31.943 Y-2.592 I0.572 J0.423
G1 X35.426 Y0.225
X35.487 Y0.281
X35.542 Y0.344
X35.588 Y0.412
X38.04 Y4.505
G3 X38.137 Y4.79 I-0.61 J0.366
G1 X38.827 Y10.905
G3 X37.448 Y11.218 I-0.707 J0.08
G2 X24.782 Y-1.449 I-19.386 J6.72
X22.167 Y-0.707 I-0.777 J2.241
G3 X19.66 Y0.343 I-2.237 J-1.824
G2 X18 Y0.265 I-1.66 J17.657
X17.938 Y35.735 I0 J17.735
X35.735 Y18 I0 J-17.797
X19.66 Y0.343 I-17.735 J0
X17.294 Y1.702 I-0.221 J2.354
G3 X15.146 Y3.386 I-2.723 J-1.262
G2 X17.938 Y32.89 I2.854 J14.614
X32.89 Y18 I0 J-14.952
X18 Y3.11 I-14.89 J0
X15.146 Y3.386 I0 J14.89
X13.248 Y5.396 I0.455 J2.331
G3 X11.732 Y7.707 I-3.18 J-0.434
G2 X9.496 Y9.452 I6.268 J10.338
X5.955 Y17.938 I8.399 J8.486
X9.47 Y26.486 I12.152 J0
X26.53 Y26.486 I8.53 J-8.443
X30.045 Y17.938 I-8.637 J-8.548
X26.504 Y9.452 I-11.939 J0
X11.732 Y7.707 I-8.504 J8.593
X10.628 Y10.379 I1.265 J2.087
G3 X10.188 Y13.236 I-3.649 J0.901
G2 X25.812 Y22.764 I7.812 J4.764
X27.15 Y18 I-7.812 J-4.764
G1 Y17.938
G2 X18 Y8.85 I-9.15 J0.062
X10.188 Y13.236 I0 J9.15
G3 X9.844 Y13.232 I-0.171 J-0.104
G1 X1.143 Y-1.815
G2 X0.835 Y-1.863 I-0.173 J0.1
G1 X0.79 Y-1.822 Z-5.006 F150
X0.747 Y-1.783 Z-5.024
X0.707 Y-1.747 Z-5.052
X0.673 Y-1.715 Z-5.091
X0.644 Y-1.689 Z-5.138
X0.623 Y-1.67 Z-5.192
X0.61 Y-1.658 Z-5.25
X0.597 Y-1.647 Z-5.308
X0.576 Y-1.627 Z-5.362
X0.547 Y-1.601 Z-5.409
X0.512 Y-1.57 Z-5.448
X0.472 Y-1.534 Z-5.476
X0.429 Y-1.495 Z-5.494
X0.384 Y-1.454 Z-5.5
X0.376 Y-1.446
G2 X-1.44 Y0.369 I17.687 J19.508 F300
G3 X-2.529 Y-0.545 I-0.527 J-0.478
G1 X-1.932 Y-1.317
G3 X-1.56 Y-1.567 I0.563 J0.435
G1 X-0.102 Y-1.973
X-0.029 Y-1.989
X4.417 Y-2.732
G3 X4.931 Y-1.441 I0.117 J0.702
G2 X-1.443 Y4.935 I13.069 J19.441
G3 X-2.456 Y5.11 I-0.59 J-0.397
X-2.586 Y4.091 I0.422 J-0.572
G1 X0.241 Y0.594
X0.297 Y0.533
X0.36 Y0.479
X0.429 Y0.432
X4.534 Y-2.031
G3 X4.82 Y-2.128 I0.366 J0.61
G1 X10.95 Y-2.825
G3 X11.263 Y-1.446 I0.08 J0.707
G2 X-1.448 Y11.268 I6.737 J19.446
G1 X-1.456 Y11.3
X-1.459 Y11.333
X-1.492 Y35.573
X-1.486 Y35.622
X-1.468 Y35.668
X-1.44 Y35.708
G2 X0.303 Y37.449 I19.377 J-17.646
G3 X-0.603 Y38.544 I-0.479 J0.526
G1 X-1.334 Y37.993
G3 X-1.594 Y37.605 I0.428 J-0.568
G1 X-1.965 Y36.187
X-1.979 Y36.123
X-2.733 Y31.582
G3 X-1.441 Y31.069 I0.702 J-0.116
G2 X4.935 Y37.443 I19.441 J-13.069
G3 X5.11 Y38.456 I-0.397 J0.59
X4.091 Y38.586 I-0.572 J-0.422
G1 X0.594 Y35.759
X0.533 Y35.703
X0.478 Y35.64
X0.432 Y35.571
X-2.031 Y31.466
G3 X-2.128 Y31.18 I0.61 J-0.366
G1 X-2.825 Y25.05
G3 X-1.446 Y24.737 I0.707 J-0.08
G2 X11.268 Y37.448 I19.446 J-6.737
G1 X11.3 Y37.456
X11.333 Y37.459
X35.531 Y37.495
X35.58 Y37.489
X35.626 Y37.471
X35.666 Y37.443
G2 X37.445 Y35.664 I-17.666 J-19.443
G3 X38.536 Y36.574 I0.526 J0.478
G1 X37.962 Y37.326
G3 X37.583 Y37.581 I-0.565 J-0.432
G1 X36.144 Y37.969
X36.075 Y37.984
X31.537 Y38.733
G3 X31.025 Y37.441 I-0.116 J-0.702
G2 X37.446 Y31.017 I-13.087 J-19.503
G3 X38.459 Y30.841 I0.591 J0.396
X38.59 Y31.86 I-0.422 J0.573
G1 X35.742 Y35.385
X35.686 Y35.447
X35.624 Y35.501
X35.555 Y35.548
X31.421 Y38.032
G3 X31.136 Y38.129 I-0.366 J-0.61
G1 X24.988 Y38.828
G3 X24.676 Y37.449 I-0.08 J-0.707
G2 X37.447 Y24.682 I-6.738 J-19.512
G1 X37.455 Y24.65
X37.458 Y24.617
X37.492 Y0.427
X37.486 Y0.378
X37.468 Y0.332
X37.44 Y0.292
G2 X35.697 Y-1.449 I-19.377 J17.646
G3 X36.603 Y-2.544 I0.479 J-0.526
G1 X37.334 Y-1.993
G3 X37.594 Y-1.605 I-0.428 J0.568
G1 X37.965 Y-0.187
X37.979 Y-0.125
X38.741 Y4.386
G3 X37.45 Y4.902 I-0.701 J0.119
G2 X31.099 Y-1.449 I-19.388 J13.036
G3 X30.924 Y-2.462 I0.397 J-0.59
X31.943 Y-2.592 I0.572 J0.423
G1 X35.426 Y0.225
X35.487 Y0.281
X35.542 Y0.344
X35.588 Y0.412
X38.04 Y4.505
G3 X38.137 Y4.79 I-0.61 J0.366
G1 X38.827 Y10.905
G3 X37.448 Y11.218 I-0.707 J0.08
G2 X24.782 Y-1.449 I-19.386 J6.72
X22.167 Y-0.707 I-0.777 J2.241
G3 X19.66 Y0.343 I-2.237 J-1.824
G2 X18 Y0.265 I-1.66 J17.657
X17.938 Y35.735 I0 J17.735
X35.735 Y18 I0 J-17.797
X19.66 Y0.343 I-17.735 J0
X17.294 Y1.702 I-0.221 J2.354
G3 X15.146 Y3.386 I-2.723 J-1.262
G2 X17.938 Y32.89 I2.854 J14.614
X32.89 Y18 I0 J-14.952
X18 Y3.11 I-14.89 J0
X15.146 Y3.386 I0 J14.89
X13.248 Y5.396 I0.455 J2.331
G3 X11.732 Y7.707 I-3.18 J-0.434
G2 X9.496 Y9.452 I6.268 J10.338
X5.955 Y17.938 I8.399 J8.486
X9.47 Y26.486 I12.152 J0
X26.53 Y26.486 I8.53 J-8.443
X30.045 Y17.938 I-8.637 J-8.548
X26.504 Y9.452 I-11.939 J0
X11.732 Y7.707 I-8.504 J8.593
X10.628 Y10.379 I1.265 J2.087
G3 X10.188 Y13.236 I-3.649 J0.901
G2 X25.812 Y22.764 I7.812 J4.764
X27.15 Y18 I-7.812 J-4.764
G1 Y17.938
G2 X18 Y8.85 I-9.15 J0.062
X10.188 Y13.236 I0 J9.15
G3 X9.844 Y13.232 I-0.171 J-0.104
G1 X1.143 Y-1.815
G2 X0.835 Y-1.863 I-0.173 J0.1
G1 X0.79 Y-1.822 Z-5.506 F150
X0.747 Y-1.783 Z-5.524
X0.707 Y-1.747 Z-5.552
X0.673 Y-1.715 Z-5.591
X0.644 Y-1.689 Z-5.638
X0.623 Y-1.67 Z-5.692
X0.61 Y-1.658 Z-5.75
X0.597 Y-1.647 Z-5.808
X0.576 Y-1.627 Z-5.862
X0.547 Y-1.601 Z-5.909
X0.512 Y-1.57 Z-5.948
X0.472 Y-1.534 Z-5.976
X0.429 Y-1.495 Z-5.994
X0.384 Y-1.454 Z-6
X0.376 Y-1.446
G2 X-1.44 Y0.369 I17.687 J19.508 F300
G3 X-2.529 Y-0.545 I-0.527 J-0.478
G1 X-1.932 Y-1.317
G3 X-1.56 Y-1.567 I0.563 J0.435
G1 X-0.102 Y-1.973
X-0.029 Y-1.989
X4.417 Y-2.732
G3 X4.931 Y-1.441 I0.117 J0.702
G2 X-1.443 Y4.935 I13.069 J19.441
G3 X-2.456 Y5.11 I-0.59 J-0.397
X-2.586 Y4.091 I0.422 J-0.572
G1 X0.241 Y0.594
X0.297 Y0.533
X0.36 Y0.479
X0.429 Y0.432
X4.534 Y-2.031
G3 X4.82 Y-2.128 I0.366 J0.61
G1 X10.95 Y-2.825
G3 X11.263 Y-1.446 I0.08 J0.707
G2 X-1.448 Y11.268 I6.737 J19.446
G1 X-1.456 Y11.3
X-1.459 Y11.333
X-1.492 Y35.573
X-1.486 Y35.622
X-1.468 Y35.668
X-1.44 Y35.708
G2 X0.303 Y37.449 I19.377 J-17.646
G3 X-0.603 Y38.544 I-0.479 J0.526
G1 X-1.334 Y37.993
G3 X-1.594 Y37.605 I0.428 J-0.568
G1 X-1.965 Y36.187
X-1.979 Y36.123
X-2.733 Y31.582
G3 X-1.441 Y31.069 I0.702 J-0.116
G2 X4.935 Y37.443 I19.441 J-13.069
G3 X5.11 Y38.456 I-0.397 J0.59
X4.091 Y38.586 I-0.572 J-0.422
G1 X0.594 Y35.759
X0.533 Y35.703
X0.478 Y35.64
X0.432 Y35.571
X-2.031 Y31.466
G3 X-2.128 Y31.18 I0.61 J-0.366
G1 X-2.825 Y25.05
G3 X-1.446 Y24.737 I0.707 J-0.08
G2 X11.268 Y37.448 I19.446 J-6.737
G1 X11.3 Y37.456
X11.333 Y37.459
X35.531 Y37.495
X35.58 Y37.489
X35.626 Y37.471
X35.666 Y37.443
G2 X37.445 Y35.664 I-17.666 J-19.443
G3 X38.536 Y36.574 I0.526 J0.478
G1 X37.962 Y37.326
G3 X37.583 Y37.581 I-0.565 J-0.432
G1 X36.144 Y37.969
X36.075 Y37.984
X31.537 Y38.733
G3 X31.025 Y37.441 I-0.116 J-0.702
G2 X37.446 Y31.017 I-13.087 J-19.503
G3 X38.459 Y30.841 I0.591 J0.396
X38.59 Y31.86 I-0.422 J0.573
G1 X35.742 Y35.385
X35.686 Y35.447
X35.624 Y35.501
X35.555 Y35.548
X31.421 Y38.032
G3 X31.136 Y38.129 I-0.366 J-0.61
G1 X24.988 Y38.828
G3 X24.676 Y37.449 I-0.08 J-0.707
G2 X37.447 Y24.682 I-6.738 J-19.512
G1 X37.455 Y24.65
X37.458 Y24.617
X37.492 Y0.427
X37.486 Y0.378
X37.468 Y0.332
X37.44 Y0.292
G2 X35.697 Y-1.449 I-19.377 J17.646
G3 X36.603 Y-2.544 I0.479 J-0.526
G1 X37.334 Y-1.993
G3 X37.594 Y-1.605 I-0.428 J0.568
G1 X37.965 Y-0.187
X37.979 Y-0.125
X38.741 Y4.386
G3 X37.45 Y4.902 I-0.701 J0.119
G2 X31.099 Y-1.449 I-19.388 J13.036
G3 X30.924 Y-2.462 I0.397 J-0.59
X31.943 Y-2.592 I0.572 J0.423
G1 X35.426 Y0.225
X35.487 Y0.281
X35.542 Y0.344
X35.588 Y0.412
X38.04 Y4.505
G3 X38.137 Y4.79 I-0.61 J0.366
G1 X38.827 Y10.905
G3 X37.448 Y11.218 I-0.707 J0.08
G2 X24.782 Y-1.449 I-19.386 J6.72
X22.167 Y-0.707 I-0.777 J2.241
G3 X19.66 Y0.343 I-2.237 J-1.824
G2 X18 Y0.265 I-1.66 J17.657
X17.938 Y35.735 I0 J17.735
X35.735 Y18 I0 J-17.797
X19.66 Y0.343 I-17.735 J0
X17.294 Y1.702 I-0.221 J2.354
G3 X15.146 Y3.386 I-2.723 J-1.262
G2 X17.938 Y32.89 I2.854 J14.614
X32.89 Y18 I0 J-14.952
X18 Y3.11 I-14.89 J0
X15.146 Y3.386 I0 J14.89
X13.248 Y5.396 I0.455 J2.331
G3 X11.732 Y7.707 I-3.18 J-0.434
G2 X9.496 Y9.452 I6.268 J10.338
X5.955 Y17.938 I8.399 J8.486
X9.47 Y26.486 I12.152 J0
X26.53 Y26.486 I8.53 J-8.443
X30.045 Y17.938 I-8.637 J-8.548
X26.504 Y9.452 I-11.939 J0
X11.732 Y7.707 I-8.504 J8.593
X10.628 Y10.379 I1.265 J2.087
G3 X10.188 Y13.236 I-3.649 J0.901
G2 X25.812 Y22.764 I7.812 J4.764
X27.15 Y18 I-7.812 J-4.764
G1 Y17.938
G2 X18 Y8.85 I-9.15 J0.062
X10.188 Y13.236 I0 J9.15
G3 X9.844 Y13.232 I-0.171 J-0.104
G1 X1.143 Y-1.815
G2 X0.835 Y-1.863 I-0.173 J0.1
G1 X0.79 Y-1.822 Z-6.006 F150
X0.747 Y-1.783 Z-6.024
X0.707 Y-1.747 Z-6.052
X0.673 Y-1.715 Z-6.091
X0.644 Y-1.689 Z-6.138
X0.623 Y-1.67 Z-6.192
X0.61 Y-1.658 Z-6.25
X0.597 Y-1.647 Z-6.308
X0.576 Y-1.627 Z-6.362
X0.547 Y-1.601 Z-6.409
X0.512 Y-1.57 Z-6.448
X0.472 Y-1.534 Z-6.476
X0.429 Y-1.495 Z-6.494
X0.384 Y-1.454 Z-6.5
X0.376 Y-1.446
G2 X-1.44 Y0.369 I17.687 J19.508 F300
G3 X-2.529 Y-0.545 I-0.527 J-0.478
G1 X-1.932 Y-1.317
G3 X-1.56 Y-1.567 I0.563 J0.435
G1 X-0.102 Y-1.973
X-0.029 Y-1.989
X4.417 Y-2.732
G3 X4.931 Y-1.441 I0.117 J0.702
G2 X-1.443 Y4.935 I13.069 J19.441
G3 X-2.456 Y5.11 I-0.59 J-0.397
X-2.586 Y4.091 I0.422 J-0.572
G1 X0.241 Y0.594
X0.297 Y0.533
X0.36 Y0.479
X0.429 Y0.432
X4.534 Y-2.031
G3 X4.82 Y-2.128 I0.366 J0.61
G1 X10.95 Y-2.825
G3 X11.263 Y-1.446 I0.08 J0.707
G2 X-1.448 Y11.268 I6.737 J19.446
G1 X-1.456 Y11.3
X-1.459 Y11.333
X-1.492 Y35.573
X-1.486 Y35.622
X-1.468 Y35.668
X-1.44 Y35.708
G2 X0.303 Y37.449 I19.377 J-17.646
G3 X-0.603 Y38.544 I-0.479 J0.526
G1 X-1.334 Y37.993
G3 X-1.594 Y37.605 I0.428 J-0.568
G1 X-1.965 Y36.187
X-1.979 Y36.123
X-2.733 Y31.582
G3 X-1.441 Y31.069 I0.702 J-0.116
G2 X4.935 Y37.443 I19.441 J-13.069
G3 X5.11 Y38.456 I-0.397 J0.59
X4.091 Y38.586 I-0.572 J-0.422
G1 X0.594 Y35.759
X0.533 Y35.703
X0.478 Y35.64
X0.432 Y35.571
X-2.031 Y31.466
G3 X-2.128 Y31.18 I0.61 J-0.366
G1 X-2.825 Y25.05
G3 X-1.446 Y24.737 I0.707 J-0.08
G2 X11.268 Y37.448 I19.446 J-6.737
G1 X11.3 Y37.456
X11.333 Y37.459
X35.531 Y37.495
X35.58 Y37.489
X35.626 Y37.471
X35.666 Y37.443
G2 X37.445 Y35.664 I-17.666 J-19.443
G3 X38.536 Y36.574 I0.526 J0.478
G1 X37.962 Y37.326
G3 X37.583 Y37.581 I-0.565 J-0.432
G1 X36.144 Y37.969
X36.075 Y37.984
X31.537 Y38.733
G3 X31.025 Y37.441 I-0.116 J-0.702
G2 X37.446 Y31.017 I-13.087 J-19.503
G3 X38.459 Y30.841 I0.591 J0.396
X38.59 Y31.86 I-0.422 J0.573
G1 X35.742 Y35.385
X35.686 Y35.447
X35.624 Y35.501
X35.555 Y35.548
X31.421 Y38.032
G3 X31.136 Y38.129 I-0.366 J-0.61
G1 X24.988 Y38.828
G3 X24.676 Y37.449 I-0.08 J-0.707
G2 X37.447 Y24.682 I-6.738 J-19.512
G1 X37.455 Y24.65
X37.458 Y24.617
X37.492 Y0.427
X37.486 Y0.378
X37.468 Y0.332
X37.44 Y0.292
G2 X35.697 Y-1.449 I-19.377 J17.646
G3 X36.603 Y-2.544 I0.479 J-0.526
G1 X37.334 Y-1.993
G3 X37.594 Y-1.605 I-0.428 J0.568
G1 X37.965 Y-0.187
X37.979 Y-0.125
X38.741 Y4.386
G3 X37.45 Y4.902 I-0.701 J0.119
G2 X31.099 Y-1.449 I-19.388 J13.036
G3 X30.924 Y-2.462 I0.397 J-0.59
X31.943 Y-2.592 I0.572 J0.423
G1 X35.426 Y0.225
X35.487 Y0.281
X35.542 Y0.344
X35.588 Y0.412
X38.04 Y4.505
G3 X38.137 Y4.79 I-0.61 J0.366
G1 X38.827 Y10.905
G3 X37.448 Y11.218 I-0.707 J0.08
G2 X24.782 Y-1.449 I-19.386 J6.72
X22.167 Y-0.707 I-0.777 J2.241
G3 X19.66 Y0.343 I-2.237 J-1.824
G2 X18 Y0.265 I-1.66 J17.657
X17.938 Y35.735 I0 J17.735
X35.735 Y18 I0 J-17.797
X19.66 Y0.343 I-17.735 J0
X17.294 Y1.702 I-0.221 J2.354
G3 X15.146 Y3.386 I-2.723 J-1.262
G2 X17.938 Y32.89 I2.854 J14.614
X32.89 Y18 I0 J-14.952
X18 Y3.11 I-14.89 J0
X15.146 Y3.386 I0 J14.89
X13.248 Y5.396 I0.455 J2.331
G3 X11.732 Y7.707 I-3.18 J-0.434
G2 X9.496 Y9.452 I6.268 J10.338
X5.955 Y17.938 I8.399 J8.486
X9.47 Y26.486 I12.152 J0
X26.53 Y26.486 I8.53 J-8.443
X30.045 Y17.938 I-8.637 J-8.548
X26.504 Y9.452 I-11.939 J0
X11.732 Y7.707 I-8.504 J8.593
X10.628 Y10.379 I1.265 J2.087
G3 X10.188 Y13.236 I-3.649 J0.901
G2 X25.812 Y22.764 I7.812 J4.764
X27.15 Y18 I-7.812 J-4.764
G1 Y17.938
G2 X18 Y8.85 I-9.15 J0.062
X10.188 Y13.236 I0 J9.15
G3 X9.844 Y13.232 I-0.171 J-0.104
G1 X1.143 Y-1.815
G2 X0.835 Y-1.863 I-0.173 J0.1
G1 X0.79 Y-1.822 Z-6.506 F150
X0.747 Y-1.783 Z-6.524
X0.707 Y-1.747 Z-6.552
X0.673 Y-1.715 Z-6.591
X0.644 Y-1.689 Z-6.638
X0.623 Y-1.67 Z-6.692
X0.61 Y-1.658 Z-6.75
X0.597 Y-1.647 Z-6.808
X0.576 Y-1.627 Z-6.862
X0.547 Y-1.601 Z-6.909
X0.512 Y-1.57 Z-6.948
X0.472 Y-1.534 Z-6.976
X0.429 Y-1.495 Z-6.994
X0.384 Y-1.454 Z-7
X0.376 Y-1.446
G2 X-1.44 Y0.369 I17.687 J19.508 F300
G3 X-2.529 Y-0.545 I-0.527 J-0.478
G1 X-1.932 Y-1.317
G3 X-1.56 Y-1.567 I0.563 J0.435
G1 X-0.102 Y-1.973
X-0.029 Y-1.989
X4.417 Y-2.732
G3 X4.931 Y-1.441 I0.117 J0.702
G2 X-1.443 Y4.935 I13.069 J19.441
G3 X-2.456 Y5.11 I-0.59 J-0.397
X-2.586 Y4.091 I0.422 J-0.572
G1 X0.241 Y0.594
X0.297 Y0.533
X0.36 Y0.479
X0.429 Y0.432
X4.534 Y-2.031
G3 X4.82 Y-2.128 I0.366 J0.61
G1 X10.95 Y-2.825
G3 X11.263 Y-1.446 I0.08 J0.707
G2 X-1.448 Y11.268 I6.737 J19.446
G1 X-1.456 Y11.3
X-1.459 Y11.333
X-1.492 Y35.573
X-1.486 Y35.622
X-1.468 Y35.668
X-1.44 Y35.708
G2 X0.303 Y37.449 I19.377 J-17.646
G3 X-0.603 Y38.544 I-0.479 J0.526
G1 X-1.334 Y37.993
G3 X-1.594 Y37.605 I0.428 J-0.568
G1 X-1.965 Y36.187
X-1.979 Y36.123
X-2.733 Y31.582
G3 X-1.441 Y31.069 I0.702 J-0.116
G2 X4.935 Y37.443 I19.441 J-13.069
G3 X5.11 Y38.456 I-0.397 J0.59
X4.091 Y38.586 I-0.572 J-0.422
G1 X0.594 Y35.759
X0.533 Y35.703
X0.478 Y35.64
X0.432 Y35.571
X-2.031 Y31.466
G3 X-2.128 Y31.18 I0.61 J-0.366
G1 X-2.825 Y25.05
G3 X-1.446 Y24.737 I0.707 J-0.08
G2 X11.268 Y37.448 I19.446 J-6.737
G1 X11.3 Y37.456
X11.333 Y37.459
X35.531 Y37.495
X35.58 Y37.489
X35.626 Y37.471
X35.666 Y37.443
G2 X37.445 Y35.664 I-17.666 J-19.443
G3 X38.536 Y36.574 I0.526 J0.478
G1 X37.962 Y37.326
G3 X37.583 Y37.581 I-0.565 J-0.432
G1 X36.144 Y37.969
X36.075 Y37.984
X31.537 Y38.733
G3 X31.025 Y37.441 I-0.116 J-0.702
G2 X37.446 Y31.017 I-13.087 J-19.503
G3 X38.459 Y30.841 I0.591 J0.396
X38.59 Y31.86 I-0.422 J0.573
G1 X35.742 Y35.385
X35.686 Y35.447
X35.624 Y35.501
X35.555 Y35.548
X31.421 Y38.032
G3 X31.136 Y38.129 I-0.366 J-0.61
G1 X24.988 Y38.828
G3 X24.676 Y37.449 I-0.08 J-0.707
G2 X37.447 Y24.682 I-6.738 J-19.512
G1 X37.455 Y24.65
X37.458 Y24.617
X37.492 Y0.427
X37.486 Y0.378
X37.468 Y0.332
X37.44 Y0.292
G2 X35.697 Y-1.449 I-19.377 J17.646
G3 X36.603 Y-2.544 I0.479 J-0.526
G1 X37.334 Y-1.993
G3 X37.594 Y-1.605 I-0.428 J0.568
G1 X37.965 Y-0.187
X37.979 Y-0.125
X38.741 Y4.386
G3 X37.45 Y4.902 I-0.701 J0.119
G2 X31.099 Y-1.449 I-19.388 J13.036
G3 X30.924 Y-2.462 I0.397 J-0.59
X31.943 Y-2.592 I0.572 J0.423
G1 X35.426 Y0.225
X35.487 Y0.281
X35.542 Y0.344
X35.588 Y0.412
X38.04 Y4.505
G3 X38.137 Y4.79 I-0.61 J0.366
G1 X38.827 Y10.905
G3 X37.448 Y11.218 I-0.707 J0.08
G2 X24.782 Y-1.449 I-19.386 J6.72
X22.167 Y-0.707 I-0.777 J2.241
G3 X19.66 Y0.343 I-2.237 J-1.824
G2 X18 Y0.265 I-1.66 J17.657
X17.938 Y35.735 I0 J17.735
X35.735 Y18 I0 J-17.797
X19.66 Y0.343 I-17.735 J0
X17.294 Y1.702 I-0.221 J2.354
G3 X15.146 Y3.386 I-2.723 J-1.262
G2 X17.938 Y32.89 I2.854 J14.614
X32.89 Y18 I0 J-14.952
X18 Y3.11 I-14.89 J0
X15.146 Y3.386 I0 J14.89
X13.248 Y5.396 I0.455 J2.331
G3 X11.732 Y7.707 I-3.18 J-0.434
G2 X9.496 Y9.452 I6.268 J10.338
X5.955 Y17.938 I8.399 J8.486
X9.47 Y26.486 I12.152 J0
X26.53 Y26.486 I8.53 J-8.443
X30.045 Y17.938 I-8.637 J-8.548
X26.504 Y9.452 I-11.939 J0
X11.732 Y7.707 I-8.504 J8.593
X10.628 Y10.379 I1.265 J2.087
G3 X10.188 Y13.236 I-3.649 J0.901
G2 X25.812 Y22.764 I7.812 J4.764
X27.15 Y18 I-7.812 J-4.764
G1 Y17.938
G2 X18 Y8.85 I-9.15 J0.062
X10.188 Y13.236 I0 J9.15
G3 X9.844 Y13.232 I-0.171 J-0.104
G1 X1.143 Y-1.815
G2 X0.835 Y-1.863 I-0.173 J0.1
G1 X0.79 Y-1.822 Z-7.006 F150
X0.747 Y-1.783 Z-7.024
X0.707 Y-1.747 Z-7.052
X0.673 Y-1.715 Z-7.091
X0.644 Y-1.689 Z-7.138
X0.623 Y-1.67 Z-7.192
X0.61 Y-1.658 Z-7.25
X0.597 Y-1.647 Z-7.308
X0.576 Y-1.627 Z-7.362
X0.547 Y-1.601 Z-7.409
X0.512 Y-1.57 Z-7.448
X0.472 Y-1.534 Z-7.476
X0.429 Y-1.495 Z-7.494
X0.384 Y-1.454 Z-7.5
X0.376 Y-1.446
G2 X-1.44 Y0.369 I17.687 J19.508 F300
G3 X-2.529 Y-0.545 I-0.527 J-0.478
G1 X-1.932 Y-1.317
G3 X-1.56 Y-1.567 I0.563 J0.435
G1 X-0.102 Y-1.973
X-0.029 Y-1.989
X4.417 Y-2.732
G3 X4.931 Y-1.441 I0.117 J0.702
G2 X-1.443 Y4.935 I13.069 J19.441
G3 X-2.456 Y5.11 I-0.59 J-0.397
X-2.586 Y4.091 I0.422 J-0.572
G1 X0.241 Y0.594
X0.297 Y0.533
X0.36 Y0.479
X0.429 Y0.432
X4.534 Y-2.031
G3 X4.82 Y-2.128 I0.366 J0.61
G1 X10.95 Y-2.825
G3 X11.263 Y-1.446 I0.08 J0.707
G2 X-1.448 Y11.268 I6.737 J19.446
G1 X-1.456 Y11.3
X-1.459 Y11.333
X-1.492 Y35.573
X-1.486 Y35.622
X-1.468 Y35.668
X-1.44 Y35.708
G2 X0.303 Y37.449 I19.377 J-17.646
G3 X-0.603 Y38.544 I-0.479 J0.526
G1 X-1.334 Y37.993
G3 X-1.594 Y37.605 I0.428 J-0.568
G1 X-1.965 Y36.187
X-1.979 Y36.123
X-2.733 Y31.582
G3 X-1.441 Y31.069 I0.702 J-0.116
G2 X4.935 Y37.443 I19.441 J-13.069
G3 X5.11 Y38.456 I-0.397 J0.59
X4.091 Y38.586 I-0.572 J-0.422
G1 X0.594 Y35.759
X0.533 Y35.703
X0.478 Y35.64
X0.432 Y35.571
X-2.031 Y31.466
G3 X-2.128 Y31.18 I0.61 J-0.366
G1 X-2.825 Y25.05
G3 X-1.446 Y24.737 I0.707 J-0.08
G2 X11.268 Y37.448 I19.446 J-6.737
G1 X11.3 Y37.456
X11.333 Y37.459
X35.531 Y37.495
X35.58 Y37.489
X35.626 Y37.471
X35.666 Y37.443
G2 X37.445 Y35.664 I-17.666 J-19.443
G3 X38.536 Y36.574 I0.526 J0.478
G1 X37.962 Y37.326
G3 X37.583 Y37.581 I-0.565 J-0.432
G1 X36.144 Y37.969
X36.075 Y37.984
X31.537 Y38.733
G3 X31.025 Y37.441 I-0.116 J-0.702
G2 X37.446 Y31.017 I-13.087 J-19.503
G3 X38.459 Y30.841 I0.591 J0.396
X38.59 Y31.86 I-0.422 J0.573
G1 X35.742 Y35.385
X35.686 Y35.447
X35.624 Y35.501
X35.555 Y35.548
X31.421 Y38.032
G3 X31.136 Y38.129 I-0.366 J-0.61
G1 X24.988 Y38.828
G3 X24.676 Y37.449 I-0.08 J-0.707
G2 X37.447 Y24.682 I-6.738 J-19.512
G1 X37.455 Y24.65
X37.458 Y24.617
X37.492 Y0.427
X37.486 Y0.378
X37.468 Y0.332
X37.44 Y0.292
G2 X35.697 Y-1.449 I-19.377 J17.646
G3 X36.603 Y-2.544 I0.479 J-0.526
G1 X37.334 Y-1.993
G3 X37.594 Y-1.605 I-0.428 J0.568
G1 X37.965 Y-0.187
X37.979 Y-0.125
X38.741 Y4.386
G3 X37.45 Y4.902 I-0.701 J0.119
G2 X31.099 Y-1.449 I-19.388 J13.036
G3 X30.924 Y-2.462 I0.397 J-0.59
X31.943 Y-2.592 I0.572 J0.423
G1 X35.426 Y0.225
X35.487 Y0.281
X35.542 Y0.344
X35.588 Y0.412
X38.04 Y4.505
G3 X38.137 Y4.79 I-0.61 J0.366
G1 X38.827 Y10.905
G3 X37.448 Y11.218 I-0.707 J0.08
G2 X24.782 Y-1.449 I-19.386 J6.72
X22.167 Y-0.707 I-0.777 J2.241
G3 X19.66 Y0.343 I-2.237 J-1.824
G2 X18 Y0.265 I-1.66 J17.657
X17.938 Y35.735 I0 J17.735
X35.735 Y18 I0 J-17.797
X19.66 Y0.343 I-17.735 J0
X17.294 Y1.702 I-0.221 J2.354
G3 X15.146 Y3.386 I-2.723 J-1.262
G2 X17.938 Y32.89 I2.854 J14.614
X32.89 Y18 I0 J-14.952
X18 Y3.11 I-14.89 J0
X15.146 Y3.386 I0 J14.89
X13.248 Y5.396 I0.455 J2.331
G3 X11.732 Y7.707 I-3.18 J-0.434
G2 X9.496 Y9.452 I6.268 J10.338
X5.955 Y17.938 I8.399 J8.486
X9.47 Y26.486 I12.152 J0
X26.53 Y26.486 I8.53 J-8.443
X30.045 Y17.938 I-8.637 J-8.548
X26.504 Y9.452 I-11.939 J0
X11.732 Y7.707 I-8.504 J8.593
X10.628 Y10.379 I1.265 J2.087
G3 X10.188 Y13.236 I-3.649 J0.901
G2 X25.812 Y22.764 I7.812 J4.764
X27.15 Y18 I-7.812 J-4.764
G1 Y17.938
G2 X18 Y8.85 I-9.15 J0.062
X10.188 Y13.236 I0 J9.15
G3 X9.844 Y13.232 I-0.171 J-0.104
G1 X1.143 Y-1.815
G2 X0.835 Y-1.863 I-0.173 J0.1
G1 X0.79 Y-1.822 Z-7.506 F150
X0.747 Y-1.783 Z-7.524
X0.707 Y-1.747 Z-7.552
X0.673 Y-1.715 Z-7.591
X0.644 Y-1.689 Z-7.638
X0.623 Y-1.67 Z-7.692
X0.61 Y-1.658 Z-7.75
X0.597 Y-1.647 Z-7.808
X0.576 Y-1.627 Z-7.862
X0.547 Y-1.601 Z-7.909
X0.512 Y-1.57 Z-7.948
X0.472 Y-1.534 Z-7.976
X0.429 Y-1.495 Z-7.994
X0.384 Y-1.454 Z-8
X0.376 Y-1.446
G2 X-1.44 Y0.369 I17.687 J19.508 F300
G3 X-2.529 Y-0.545 I-0.527 J-0.478
G1 X-1.932 Y-1.317
G3 X-1.56 Y-1.567 I0.563 J0.435
G1 X-0.102 Y-1.973
X-0.029 Y-1.989
X4.417 Y-2.732
G3 X4.931 Y-1.441 I0.117 J0.702
G2 X-1.443 Y4.935 I13.069 J19.441
G3 X-2.456 Y5.11 I-0.59 J-0.397
X-2.586 Y4.091 I0.422 J-0.572
G1 X0.241 Y0.594
X0.297 Y0.533
X0.36 Y0.479
X0.429 Y0.432
X4.534 Y-2.031
G3 X4.82 Y-2.128 I0.366 J0.61
G1 X10.95 Y-2.825
G3 X11.263 Y-1.446 I0.08 J0.707
G2 X-1.448 Y11.268 I6.737 J19.446
G1 X-1.456 Y11.3
X-1.459 Y11.333
X-1.492 Y35.573
X-1.486 Y35.622
X-1.468 Y35.668
X-1.44 Y35.708
G2 X0.303 Y37.449 I19.377 J-17.646
G3 X-0.603 Y38.544 I-0.479 J0.526
G1 X-1.334 Y37.993
G3 X-1.594 Y37.605 I0.428 J-0.568
G1 X-1.965 Y36.187
X-1.979 Y36.123
X-2.733 Y31.582
G3 X-1.441 Y31.069 I0.702 J-0.116
G2 X4.935 Y37.443 I19.441 J-13.069
G3 X5.11 Y38.456 I-0.397 J0.59
X4.091 Y38.586 I-0.572 J-0.422
G1 X0.594 Y35.759
X0.533 Y35.703
X0.478 Y35.64
X0.432 Y35.571
X-2.031 Y31.466
G3 X-2.128 Y31.18 I0.61 J-0.366
G1 X-2.825 Y25.05
G3 X-1.446 Y24.737 I0.707 J-0.08
G2 X11.268 Y37.448 I19.446 J-6.737
G1 X11.3 Y37.456
X11.333 Y37.459
X35.531 Y37.495
X35.58 Y37.489
X35.626 Y37.471
X35.666 Y37.443
G2 X37.445 Y35.664 I-17.666 J-19.443
G3 X38.536 Y36.574 I0.526 J0.478
G1 X37.962 Y37.326
G3 X37.583 Y37.581 I-0.565 J-0.432
G1 X36.144 Y37.969
X36.075 Y37.984
X31.537 Y38.733
G3 X31.025 Y37.441 I-0.116 J-0.702
G2 X37.446 Y31.017 I-13.087 J-19.503
G3 X38.459 Y30.841 I0.591 J0.396
X38.59 Y31.86 I-0.422 J0.573
G1 X35.742 Y35.385
X35.686 Y35.447
X35.624 Y35.501
X35.555 Y35.548
X31.421 Y38.032
G3 X31.136 Y38.129 I-0.366 J-0.61
G1 X24.988 Y38.828
G3 X24.676 Y37.449 I-0.08 J-0.707
G2 X37.447 Y24.682 I-6.738 J-19.512
G1 X37.455 Y24.65
X37.458 Y24.617
X37.492 Y0.427
X37.486 Y0.378
X37.468 Y0.332
X37.44 Y0.292
G2 X35.697 Y-1.449 I-19.377 J17.646
G3 X36.603 Y-2.544 I0.479 J-0.526
G1 X37.334 Y-1.993
G3 X37.594 Y-1.605 I-0.428 J0.568
G1 X37.965 Y-0.187
X37.979 Y-0.125
X38.741 Y4.386
G3 X37.45 Y4.902 I-0.701 J0.119
G2 X31.099 Y-1.449 I-19.388 J13.036
G3 X30.924 Y-2.462 I0.397 J-0.59
X31.943 Y-2.592 I0.572 J0.423
G1 X35.426 Y0.225
X35.487 Y0.281
X35.542 Y0.344
X35.588 Y0.412
X38.04 Y4.505
G3 X38.137 Y4.79 I-0.61 J0.366
G1 X38.827 Y10.905
G3 X37.448 Y11.218 I-0.707 J0.08
G2 X24.782 Y-1.449 I-19.386 J6.72
X22.167 Y-0.707 I-0.777 J2.241
G3 X19.66 Y0.343 I-2.237 J-1.824
G2 X18 Y0.265 I-1.66 J17.657
X17.938 Y35.735 I0 J17.735
X35.735 Y18 I0 J-17.797
X19.66 Y0.343 I-17.735 J0
X17.294 Y1.702 I-0.221 J2.354
G3 X15.146 Y3.386 I-2.723 J-1.262
G2 X17.938 Y32.89 I2.854 J14.614
X32.89 Y18 I0 J-14.952
X18 Y3.11 I-14.89 J0
X15.146 Y3.386 I0 J14.89
X13.248 Y5.396 I0.455 J2.331
G3 X11.732 Y7.707 I-3.18 J-0.434
G2 X9.496 Y9.452 I6.268 J10.338
X5.955 Y17.938 I8.399 J8.486
X9.47 Y26.486 I12.152 J0
X26.53 Y26.486 I8.53 J-8.443
X30.045 Y17.938 I-8.637 J-8.548
X26.504 Y9.452 I-11.939 J0
X11.732 Y7.707 I-8.504 J8.593
X10.628 Y10.379 I1.265 J2.087
G3 X10.188 Y13.236 I-3.649 J0.901
G2 X25.812 Y22.764 I7.812 J4.764
X27.15 Y18 I-7.812 J-4.764
G1 Y17.938
G2 X18 Y8.85 I-9.15 J0.062
X10.188 Y13.236 I0 J9.15
G3 X9.844 Y13.232 I-0.171 J-0.104
G1 X1.143 Y-1.815
G2 X0.835 Y-1.863 I-0.173 J0.1
G1 X0.79 Y-1.822 Z-8.006 F150
X0.747 Y-1.783 Z-8.024
X0.707 Y-1.747 Z-8.052
X0.673 Y-1.715 Z-8.091
X0.644 Y-1.689 Z-8.138
X0.623 Y-1.67 Z-8.192
X0.61 Y-1.658 Z-8.25
X0.597 Y-1.647 Z-8.308
X0.576 Y-1.627 Z-8.362
X0.547 Y-1.601 Z-8.409
X0.512 Y-1.57 Z-8.448
X0.472 Y-1.534 Z-8.476
X0.429 Y-1.495 Z-8.494
X0.384 Y-1.454 Z-8.5
X0.376 Y-1.446
G2 X-1.44 Y0.369 I17.687 J19.508 F300
G3 X-2.529 Y-0.545 I-0.527 J-0.478
G1 X-1.932 Y-1.317
G3 X-1.56 Y-1.567 I0.563 J0.435
G1 X-0.102 Y-1.973
X-0.029 Y-1.989
X4.417 Y-2.732
G3 X4.931 Y-1.441 I0.117 J0.702
G2 X-1.443 Y4.935 I13.069 J19.441
G3 X-2.456 Y5.11 I-0.59 J-0.397
X-2.586 Y4.091 I0.422 J-0.572
G1 X0.241 Y0.594
X0.297 Y0.533
X0.36 Y0.479
X0.429 Y0.432
X4.534 Y-2.031
G3 X4.82 Y-2.128 I0.366 J0.61
G1 X10.95 Y-2.825
G3 X11.263 Y-1.446 I0.08 J0.707
G2 X-1.448 Y11.268 I6.737 J19.446
G1 X-1.456 Y11.3
X-1.459 Y11.333
X-1.492 Y35.573
X-1.486 Y35.622
X-1.468 Y35.668
X-1.44 Y35.708
G2 X0.303 Y37.449 I19.377 J-17.646
G3 X-0.603 Y38.544 I-0.479 J0.526
G1 X-1.334 Y37.993
G3 X-1.594 Y37.605 I0.428 J-0.568
G1 X-1.965 Y36.187
X-1.979 Y36.123
X-2.733 Y31.582
G3 X-1.441 Y31.069 I0.702 J-0.116
G2 X4.935 Y37.443 I19.441 J-13.069
G3 X5.11 Y38.456 I-0.397 J0.59
X4.091 Y38.586 I-0.572 J-0.422
G1 X0.594 Y35.759
X0.533 Y35.703
X0.478 Y35.64
X0.432 Y35.571
X-2.031 Y31.466
G3 X-2.128 Y31.18 I0.61 J-0.366
G1 X-2.825 Y25.05
G3 X-1.446 Y24.737 I0.707 J-0.08
G2 X11.268 Y37.448 I19.446 J-6.737
G1 X11.3 Y37.456
X11.333 Y37.459
X35.531 Y37.495
X35.58 Y37.489
X35.626 Y37.471
X35.666 Y37.443
G2 X37.445 Y35.664 I-17.666 J-19.443
G3 X38.536 Y36.574 I0.526 J0.478
G1 X37.962 Y37.326
G3 X37.583 Y37.581 I-0.565 J-0.432
G1 X36.144 Y37.969
X36.075 Y37.984
X31.537 Y38.733
G3 X31.025 Y37.441 I-0.116 J-0.702
G2 X37.446 Y31.017 I-13.087 J-19.503
G3 X38.459 Y30.841 I0.591 J0.396
X38.59 Y31.86 I-0.422 J0.573
G1 X35.742 Y35.385
X35.686 Y35.447
X35.624 Y35.501
X35.555 Y35.548
X31.421 Y38.032
G3 X31.136 Y38.129 I-0.366 J-0.61
G1 X24.988 Y38.828
G3 X24.676 Y37.449 I-0.08 J-0.707
G2 X37.447 Y24.682 I-6.738 J-19.512
G1 X37.455 Y24.65
X37.458 Y24.617
X37.492 Y0.427
X37.486 Y0.378
X37.468 Y0.332
X37.44 Y0.292
G2 X35.697 Y-1.449 I-19.377 J17.646
G3 X36.603 Y-2.544 I0.479 J-0.526
G1 X37.334 Y-1.993
G3 X37.594 Y-1.605 I-0.428 J0.568
G1 X37.965 Y-0.187
X37.979 Y-0.125
X38.741 Y4.386
G3 X37.45 Y4.902 I-0.701 J0.119
G2 X31.099 Y-1.449 I-19.388 J13.036
G3 X30.924 Y-2.462 I0.397 J-0.59
X31.943 Y-2.592 I0.572 J0.423
G1 X35.426 Y0.225
X35.487 Y0.281
X35.542 Y0.344
X35.588 Y0.412
X38.04 Y4.505
G3 X38.137 Y4.79 I-0.61 J0.366
G1 X38.827 Y10.905
G3 X37.448 Y11.218 I-0.707 J0.08
G2 X24.782 Y-1.449 I-19.386 J6.72
X22.167 Y-0.707 I-0.777 J2.241
G3 X19.66 Y0.343 I-2.237 J-1.824
G2 X18 Y0.265 I-1.66 J17.657
X17.938 Y35.735 I0 J17.735
X35.735 Y18 I0 J-17.797
X19.66 Y0.343 I-17.735 J0
X17.294 Y1.702 I-0.221 J2.354
G3 X15.146 Y3.386 I-2.723 J-1.262
G2 X17.938 Y32.89 I2.854 J14.614
X32.89 Y18 I0 J-14.952
X18 Y3.11 I-14.89 J0
X15.146 Y3.386 I0 J14.89
X13.248 Y5.396 I0.455 J2.331
G3 X11.732 Y7.707 I-3.18 J-0.434
G2 X9.496 Y9.452 I6.268 J10.338
X5.955 Y17.938 I8.399 J8.486
X9.47 Y26.486 I12.152 J0
X26.53 Y26.486 I8.53 J-8.443
X30.045 Y17.938 I-8.637 J-8.548
X26.504 Y9.452 I-11.939 J0
X11.732 Y7.707 I-8.504 J8.593
X10.628 Y10.379 I1.265 J2.087
G3 X10.188 Y13.236 I-3.649 J0.901
G2 X25.812 Y22.764 I7.812 J4.764
X27.15 Y18 I-7.812 J-4.764
G1 Y17.938
G2 X18 Y8.85 I-9.15 J0.062
X10.188 Y13.236 I0 J9.15
G3 X9.844 Y13.232 I-0.171 J-0.104
G1 X1.143 Y-1.815
G2 X0.835 Y-1.863 I-0.173 J0.1
G1 X0.79 Y-1.822 Z-8.506 F150
X0.747 Y-1.783 Z-8.524
X0.707 Y-1.747 Z-8.552
X0.673 Y-1.715 Z-8.591
X0.644 Y-1.689 Z-8.638
X0.623 Y-1.67 Z-8.692
X0.61 Y-1.658 Z-8.75
X0.597 Y-1.647 Z-8.808
X0.576 Y-1.627 Z-8.862
X0.547 Y-1.601 Z-8.909
X0.512 Y-1.57 Z-8.948
X0.472 Y-1.534 Z-8.976
X0.429 Y-1.495 Z-8.994
X0.384 Y-1.454 Z-9
X0.376 Y-1.446
G2 X-1.44 Y0.369 I17.687 J19.508 F300
G3 X-2.529 Y-0.545 I-0.527 J-0.478
G1 X-1.932 Y-1.317
G3 X-1.56 Y-1.567 I0.563 J0.435
G1 X-0.102 Y-1.973
X-0.029 Y-1.989
X4.417 Y-2.732
G3 X4.931 Y-1.441 I0.117 J0.702
G2 X-1.443 Y4.935 I13.069 J19.441
G3 X-2.456 Y5.11 I-0.59 J-0.397
X-2.586 Y4.091 I0.422 J-0.572
G1 X0.241 Y0.594
X0.297 Y0.533
X0.36 Y0.479
X0.429 Y0.432
X4.534 Y-2.031
G3 X4.82 Y-2.128 I0.366 J0.61
G1 X10.95 Y-2.825
G3 X11.263 Y-1.446 I0.08 J0.707
G2 X-1.448 Y11.268 I6.737 J19.446
G1 X-1.456 Y11.3
X-1.459 Y11.333
X-1.492 Y35.573
X-1.486 Y35.622
X-1.468 Y35.668
X-1.44 Y35.708
G2 X0.303 Y37.449 I19.377 J-17.646
G3 X-0.603 Y38.544 I-0.479 J0.526
G1 X-1.334 Y37.993
G3 X-1.594 Y37.605 I0.428 J-0.568
G1 X-1.965 Y36.187
X-1.979 Y36.123
X-2.733 Y31.582
G3 X-1.441 Y31.069 I0.702 J-0.116
G2 X4.935 Y37.443 I19.441 J-13.069
G3 X5.11 Y38.456 I-0.397 J0.59
X4.091 Y38.586 I-0.572 J-0.422
G1 X0.594 Y35.759
X0.533 Y35.703
X0.478 Y35.64
X0.432 Y35.571
X-2.031 Y31.466
G3 X-2.128 Y31.18 I0.61 J-0.366
G1 X-2.825 Y25.05
G3 X-1.446 Y24.737 I0.707 J-0.08
G2 X11.268 Y37.448 I19.446 J-6.737
G1 X11.3 Y37.456
X11.333 Y37.459
X35.531 Y37.495
X35.58 Y37.489
X35.626 Y37.471
X35.666 Y37.443
G2 X37.445 Y35.664 I-17.666 J-19.443
G3 X38.536 Y36.574 I0.526 J0.478
G1 X37.962 Y37.326
G3 X37.583 Y37.581 I-0.565 J-0.432
G1 X36.144 Y37.969
X36.075 Y37.984
X31.537 Y38.733
G3 X31.025 Y37.441 I-0.116 J-0.702
G2 X37.446 Y31.017 I-13.087 J-19.503
G3 X38.459 Y30.841 I0.591 J0.396
X38.59 Y31.86 I-0.422 J0.573
G1 X35.742 Y35.385
X35.686 Y35.447
X35.624 Y35.501
X35.555 Y35.548
X31.421 Y38.032
G3 X31.136 Y38.129 I-0.366 J-0.61
G1 X24.988 Y38.828
G3 X24.676 Y37.449 I-0.08 J-0.707
G2 X37.447 Y24.682 I-6.738 J-19.512
G1 X37.455 Y24.65
X37.458 Y24.617
X37.492 Y0.427
X37.486 Y0.378
X37.468 Y0.332
X37.44 Y0.292
G2 X35.697 Y-1.449 I-19.377 J17.646
G3 X36.603 Y-2.544 I0.479 J-0.526
G1 X37.334 Y-1.993
G3 X37.594 Y-1.605 I-0.428 J0.568
G1 X37.965 Y-0.187
X37.979 Y-0.125
X38.741 Y4.386
G3 X37.45 Y4.902 I-0.701 J0.119
G2 X31.099 Y-1.449 I-19.388 J13.036
G3 X30.924 Y-2.462 I0.397 J-0.59
X31.943 Y-2.592 I0.572 J0.423
G1 X35.426 Y0.225
X35.487 Y0.281
X35.542 Y0.344
X35.588 Y0.412
X38.04 Y4.505
G3 X38.137 Y4.79 I-0.61 J0.366
G1 X38.827 Y10.905
G3 X37.448 Y11.218 I-0.707 J0.08
G2 X24.782 Y-1.449 I-19.386 J6.72
X22.167 Y-0.707 I-0.777 J2.241
G3 X19.66 Y0.343 I-2.237 J-1.824
G2 X18 Y0.265 I-1.66 J17.657
X17.938 Y35.735 I0 J17.735
X35.735 Y18 I0 J-17.797
X19.66 Y0.343 I-17.735 J0
X17.294 Y1.702 I-0.221 J2.354
G3 X15.146 Y3.386 I-2.723 J-1.262
G2 X17.938 Y32.89 I2.854 J14.614
X32.89 Y18 I0 J-14.952
X18 Y3.11 I-14.89 J0
X15.146 Y3.386 I0 J14.89
X13.248 Y5.396 I0.455 J2.331
G3 X11.732 Y7.707 I-3.18 J-0.434
G2 X9.496 Y9.452 I6.268 J10.338
X5.955 Y17.938 I8.399 J8.486
X9.47 Y26.486 I12.152 J0
X26.53 Y26.486 I8.53 J-8.443
X30.045 Y17.938 I-8.637 J-8.548
X26.504 Y9.452 I-11.939 J0
X11.732 Y7.707 I-8.504 J8.593
X10.628 Y10.379 I1.265 J2.087
G3 X10.188 Y13.236 I-3.649 J0.901
G2 X25.812 Y22.764 I7.812 J4.764
X27.15 Y18 I-7.812 J-4.764
G1 Y17.938
G2 X18 Y8.85 I-9.15 J0.062
X10.188 Y13.236 I0 J9.15
G1 X10.152 Y13.284 Z-8.988
X10.108 Y13.323 Z-8.976
X10.066 Y13.35 Z-8.943
X10.02 Y13.37 Z-8.909
X9.954 Y13.383 Z-8.809
X9.93 Y13.385 Z-8.69
Z10
(When using Fusion 360 for Personal Use, the feedrate of)
(rapid moves is reduced to match the feedrate of cutting)
(moves, which can increase machining time. Unrestricted rapid)
(moves are available with a Fusion 360 Subscription.)

(metal_coupler_8mm_drill)
(Machine)
(  vendor: Autodesk)
(  model: Generic 3-axis)
(  description: This machine has XY axis on the Table and Z axis on the Head)
(T3  D=3.1 CR=0 - ZMIN=-14 - flat end mill)
G90 G94
G17
G21

(Drill1)
T3
S24000 M3
G54
M8
G0 X26.75 Y26.75
Z10
Z5
Z-4
G1 Z-9 F150
Z-9.5
X26.758 Y26.788 F300
X26.779 Y26.821
X26.812 Y26.842
X26.85 Y26.85
X26.888 Y26.842
X26.921 Y26.821
X26.942 Y26.788
X26.95 Y26.75
G2 X26.55 Y26.75 I-0.2 J0
X26.95 Y26.75 I0.2 J0
G1 X26.75
Z-10 F150
X26.758 Y26.788 F300
X26.779 Y26.821
X26.812 Y26.842
X26.85 Y26.85
X26.888 Y26.842
X26.921 Y26.821
X26.942 Y26.788
X26.95 Y26.75
G2 X26.55 Y26.75 I-0.2 J0
X26.95 Y26.75 I0.2 J0
G1 X26.75
Z-10.5 F150
X26.758 Y26.788 F300
X26.779 Y26.821
X26.812 Y26.842
X26.85 Y26.85
X26.888 Y26.842
X26.921 Y26.821
X26.942 Y26.788
X26.95 Y26.75
G2 X26.55 Y26.75 I-0.2 J0
X26.95 Y26.75 I0.2 J0
G1 X26.75
Z-11 F150
X26.758 Y26.788 F300
X26.779 Y26.821
X26.812 Y26.842
X26.85 Y26.85
X26.888 Y26.842
X26.921 Y26.821
X26.942 Y26.788
X26.95 Y26.75
G2 X26.55 Y26.75 I-0.2 J0
X26.95 Y26.75 I0.2 J0
G1 X26.75
Z-11.5 F150
X26.758 Y26.788 F300
X26.779 Y26.821
X26.812 Y26.842
X26.85 Y26.85
X26.888 Y26.842
X26.921 Y26.821
X26.942 Y26.788
X26.95 Y26.75
G2 X26.55 Y26.75 I-0.2 J0
X26.95 Y26.75 I0.2 J0
G1 X26.75
Z-12 F150
X26.758 Y26.788 F300
X26.779 Y26.821
X26.812 Y26.842
X26.85 Y26.85
X26.888 Y26.842
X26.921 Y26.821
X26.942 Y26.788
X26.95 Y26.75
G2 X26.55 Y26.75 I-0.2 J0
X26.95 Y26.75 I0.2 J0
G1 X26.75
Z-12.5 F150
X26.758 Y26.788 F300
X26.779 Y26.821
X26.812 Y26.842
X26.85 Y26.85
X26.888 Y26.842
X26.921 Y26.821
X26.942 Y26.788
X26.95 Y26.75
G2 X26.55 Y26.75 I-0.2 J0
X26.95 Y26.75 I0.2 J0
G1 X26.75
Z-13 F150
X26.758 Y26.788 F300
X26.779 Y26.821
X26.812 Y26.842
X26.85 Y26.85
X26.888 Y26.842
X26.921 Y26.821
X26.942 Y26.788
X26.95 Y26.75
G2 X26.55 Y26.75 I-0.2 J0
X26.95 Y26.75 I0.2 J0
G1 X26.75
Z-13.5 F150
X26.758 Y26.788 F300
X26.779 Y26.821
X26.812 Y26.842
X26.85 Y26.85
X26.888 Y26.842
X26.921 Y26.821
X26.942 Y26.788
X26.95 Y26.75
G2 X26.55 Y26.75 I-0.2 J0
X26.95 Y26.75 I0.2 J0
G1 X26.75
Z-14 F150
X26.758 Y26.788 F300
X26.779 Y26.821
X26.812 Y26.842
X26.85 Y26.85
X26.888 Y26.842
X26.921 Y26.821
X26.942 Y26.788
X26.95 Y26.75
G2 X26.55 Y26.75 I-0.2 J0
X26.95 Y26.75 I0.2 J0
G1 X26.75
G0 Z5
X9.25
Z-4
G1 Z-9 F150
Z-9.5
X9.258 Y26.788 F300
X9.279 Y26.821
X9.312 Y26.842
X9.35 Y26.85
X9.388 Y26.842
X9.421 Y26.821
X9.442 Y26.788
X9.45 Y26.75
G2 X9.05 Y26.75 I-0.2 J0
X9.45 Y26.75 I0.2 J0
G1 X9.25
Z-10 F150
X9.258 Y26.788 F300
X9.279 Y26.821
X9.312 Y26.842
X9.35 Y26.85
X9.388 Y26.842
X9.421 Y26.821
X9.442 Y26.788
X9.45 Y26.75
G2 X9.05 Y26.75 I-0.2 J0
X9.45 Y26.75 I0.2 J0
G1 X9.25
Z-10.5 F150
X9.258 Y26.788 F300
X9.279 Y26.821
X9.312 Y26.842
X9.35 Y26.85
X9.388 Y26.842
X9.421 Y26.821
X9.442 Y26.788
X9.45 Y26.75
G2 X9.05 Y26.75 I-0.2 J0
X9.45 Y26.75 I0.2 J0
G1 X9.25
Z-11 F150
X9.258 Y26.788 F300
X9.279 Y26.821
X9.312 Y26.842
X9.35 Y26.85
X9.388 Y26.842
X9.421 Y26.821
X9.442 Y26.788
X9.45 Y26.75
G2 X9.05 Y26.75 I-0.2 J0
X9.45 Y26.75 I0.2 J0
G1 X9.25
Z-11.5 F150
X9.258 Y26.788 F300
X9.279 Y26.821
X9.312 Y26.842
X9.35 Y26.85
X9.388 Y26.842
X9.421 Y26.821
X9.442 Y26.788
X9.45 Y26.75
G2 X9.05 Y26.75 I-0.2 J0
X9.45 Y26.75 I0.2 J0
G1 X9.25
Z-12 F150
X9.258 Y26.788 F300
X9.279 Y26.821
X9.312 Y26.842
X9.35 Y26.85
X9.388 Y26.842
X9.421 Y26.821
X9.442 Y26.788
X9.45 Y26.75
G2 X9.05 Y26.75 I-0.2 J0
X9.45 Y26.75 I0.2 J0
G1 X9.25
Z-12.5 F150
X9.258 Y26.788 F300
X9.279 Y26.821
X9.312 Y26.842
X9.35 Y26.85
X9.388 Y26.842
X9.421 Y26.821
X9.442 Y26.788
X9.45 Y26.75
G2 X9.05 Y26.75 I-0.2 J0
X9.45 Y26.75 I0.2 J0
G1 X9.25
Z-13 F150
X9.258 Y26.788 F300
X9.279 Y26.821
X9.312 Y26.842
X9.35 Y26.85
X9.388 Y26.842
X9.421 Y26.821
X9.442 Y26.788
X9.45 Y26.75
G2 X9.05 Y26.75 I-0.2 J0
X9.45 Y26.75 I0.2 J0
G1 X9.25
Z-13.5 F150
X9.258 Y26.788 F300
X9.279 Y26.821
X9.312 Y26.842
X9.35 Y26.85
X9.388 Y26.842
X9.421 Y26.821
X9.442 Y26.788
X9.45 Y26.75
G2 X9.05 Y26.75 I-0.2 J0
X9.45 Y26.75 I0.2 J0
G1 X9.25
Z-14 F150
X9.258 Y26.788 F300
X9.279 Y26.821
X9.312 Y26.842
X9.35 Y26.85
X9.388 Y26.842
X9.421 Y26.821
X9.442 Y26.788
X9.45 Y26.75
G2 X9.05 Y26.75 I-0.2 J0
X9.45 Y26.75 I0.2 J0
G1 X9.25
G0 Z5
Y9.25
Z-4
G1 Z-9 F150
Z-9.5
X9.258 Y9.288 F300
X9.279 Y9.321
X9.312 Y9.342
X9.35 Y9.35
X9.388 Y9.342
X9.421 Y9.321
X9.442 Y9.288
X9.45 Y9.25
G2 X9.05 Y9.25 I-0.2 J0
X9.45 Y9.25 I0.2 J0
G1 X9.25
Z-10 F150
X9.258 Y9.288 F300
X9.279 Y9.321
X9.312 Y9.342
X9.35 Y9.35
X9.388 Y9.342
X9.421 Y9.321
X9.442 Y9.288
X9.45 Y9.25
G2 X9.05 Y9.25 I-0.2 J0
X9.45 Y9.25 I0.2 J0
G1 X9.25
Z-10.5 F150
X9.258 Y9.288 F300
X9.279 Y9.321
X9.312 Y9.342
X9.35 Y9.35
X9.388 Y9.342
X9.421 Y9.321
X9.442 Y9.288
X9.45 Y9.25
G2 X9.05 Y9.25 I-0.2 J0
X9.45 Y9.25 I0.2 J0
G1 X9.25
Z-11 F150
X9.258 Y9.288 F300
X9.279 Y9.321
X9.312 Y9.342
X9.35 Y9.35
X9.388 Y9.342
X9.421 Y9.321
X9.442 Y9.288
X9.45 Y9.25
G2 X9.05 Y9.25 I-0.2 J0
X9.45 Y9.25 I0.2 J0
G1 X9.25
Z-11.5 F150
X9.258 Y9.288 F300
X9.279 Y9.321
X9.312 Y9.342
X9.35 Y9.35
X9.388 Y9.342
X9.421 Y9.321
X9.442 Y9.288
X9.45 Y9.25
G2 X9.05 Y9.25 I-0.2 J0
X9.45 Y9.25 I0.2 J0
G1 X9.25
Z-12 F150
X9.258 Y9.288 F300
X9.279 Y9.321
X9.312 Y9.342
X9.35 Y9.35
X9.388 Y9.342
X9.421 Y9.321
X9.442 Y9.288
X9.45 Y9.25
G2 X9.05 Y9.25 I-0.2 J0
X9.45 Y9.25 I0.2 J0
G1 X9.25
Z-12.5 F150
X9.258 Y9.288 F300
X9.279 Y9.321
X9.312 Y9.342
X9.35 Y9.35
X9.388 Y9.342
X9.421 Y9.321
X9.442 Y9.288
X9.45 Y9.25
G2 X9.05 Y9.25 I-0.2 J0
X9.45 Y9.25 I0.2 J0
G1 X9.25
Z-13 F150
X9.258 Y9.288 F300
X9.279 Y9.321
X9.312 Y9.342
X9.35 Y9.35
X9.388 Y9.342
X9.421 Y9.321
X9.442 Y9.288
X9.45 Y9.25
G2 X9.05 Y9.25 I-0.2 J0
X9.45 Y9.25 I0.2 J0
G1 X9.25
Z-13.5 F150
X9.258 Y9.288 F300
X9.279 Y9.321
X9.312 Y9.342
X9.35 Y9.35
X9.388 Y9.342
X9.421 Y9.321
X9.442 Y9.288
X9.45 Y9.25
G2 X9.05 Y9.25 I-0.2 J0
X9.45 Y9.25 I0.2 J0
G1 X9.25
Z-14 F150
X9.258 Y9.288 F300
X9.279 Y9.321
X9.312 Y9.342
X9.35 Y9.35
X9.388 Y9.342
X9.421 Y9.321
X9.442 Y9.288
X9.45 Y9.25
G2 X9.05 Y9.25 I-0.2 J0
X9.45 Y9.25 I0.2 J0
G1 X9.25
G0 Z5
X26.75
Z-4
G1 Z-9 F150
Z-9.5
X26.758 Y9.288 F300
X26.779 Y9.321
X26.812 Y9.342
X26.85 Y9.35
X26.888 Y9.342
X26.921 Y9.321
X26.942 Y9.288
X26.95 Y9.25
G2 X26.55 Y9.25 I-0.2 J0
X26.95 Y9.25 I0.2 J0
G1 X26.75
Z-10 F150
X26.758 Y9.288 F300
X26.779 Y9.321
X26.812 Y9.342
X26.85 Y9.35
X26.888 Y9.342
X26.921 Y9.321
X26.942 Y9.288
X26.95 Y9.25
G2 X26.55 Y9.25 I-0.2 J0
X26.95 Y9.25 I0.2 J0
G1 X26.75
Z-10.5 F150
X26.758 Y9.288 F300
X26.779 Y9.321
X26.812 Y9.342
X26.85 Y9.35
X26.888 Y9.342
X26.921 Y9.321
X26.942 Y9.288
X26.95 Y9.25
G2 X26.55 Y9.25 I-0.2 J0
X26.95 Y9.25 I0.2 J0
G1 X26.75
Z-11 F150
X26.758 Y9.288 F300
X26.779 Y9.321
X26.812 Y9.342
X26.85 Y9.35
X26.888 Y9.342
X26.921 Y9.321
X26.942 Y9.288
X26.95 Y9.25
G2 X26.55 Y9.25 I-0.2 J0
X26.95 Y9.25 I0.2 J0
G1 X26.75
Z-11.5 F150
X26.758 Y9.288 F300
X26.779 Y9.321
X26.812 Y9.342
X26.85 Y9.35
X26.888 Y9.342
X26.921 Y9.321
X26.942 Y9.288
X26.95 Y9.25
G2 X26.55 Y9.25 I-0.2 J0
X26.95 Y9.25 I0.2 J0
G1 X26.75
Z-12 F150
X26.758 Y9.288 F300
X26.779 Y9.321
X26.812 Y9.342
X26.85 Y9.35
X26.888 Y9.342
X26.921 Y9.321
X26.942 Y9.288
X26.95 Y9.25
G2 X26.55 Y9.25 I-0.2 J0
X26.95 Y9.25 I0.2 J0
G1 X26.75
Z-12.5 F150
X26.758 Y9.288 F300
X26.779 Y9.321
X26.812 Y9.342
X26.85 Y9.35
X26.888 Y9.342
X26.921 Y9.321
X26.942 Y9.288
X26.95 Y9.25
G2 X26.55 Y9.25 I-0.2 J0
X26.95 Y9.25 I0.2 J0
G1 X26.75
Z-13 F150
X26.758 Y9.288 F300
X26.779 Y9.321
X26.812 Y9.342
X26.85 Y9.35
X26.888 Y9.342
X26.921 Y9.321
X26.942 Y9.288
X26.95 Y9.25
G2 X26.55 Y9.25 I-0.2 J0
X26.95 Y9.25 I0.2 J0
G1 X26.75
Z-13.5 F150
X26.758 Y9.288 F300
X26.779 Y9.321
X26.812 Y9.342
X26.85 Y9.35
X26.888 Y9.342
X26.921 Y9.321
X26.942 Y9.288
X26.95 Y9.25
G2 X26.55 Y9.25 I-0.2 J0
X26.95 Y9.25 I0.2 J0
G1 X26.75
Z-14 F150
X26.758 Y9.288 F300
X26.779 Y9.321
X26.812 Y9.342
X26.85 Y9.35
X26.888 Y9.342
X26.921 Y9.321
X26.942 Y9.288
X26.95 Y9.25
G2 X26.55 Y9.25 I-0.2 J0
X26.95 Y9.25 I0.2 J0
G1 X26.75
G0 Z5
Z10

(2D Contour5)
G0 X18.31 Y-1.48
G1 Z10 F300
Z5
Z1.5 F150
Z-0.19
G19 G3 Y-1.17 Z-0.5 J0.31 K0
G1 Y-0.86
G17 G3 X18 Y-0.55 I-0.31 J0
G2 X18 Y36.55 I0 J18.55 F300
X18 Y-0.55 I0 J-18.55
G3 X17.69 Y-0.86 I0 J-0.31
G1 Y-1.17
G19 G2 Y-1.48 Z-0.19 J0 K0.31
G1 Z5
X18.31
Z1 F150
Z-0.69
G3 Y-1.17 Z-1 J0.31 K0
G1 Y-0.86
G17 G3 X18 Y-0.55 I-0.31 J0
G2 X18 Y36.55 I0 J18.55 F300
X18 Y-0.55 I0 J-18.55
G3 X17.69 Y-0.86 I0 J-0.31
G1 Y-1.17
G19 G2 Y-1.48 Z-0.69 J0 K0.31
G1 Z5
X18.31
Z0.5 F150
Z-1.19
G3 Y-1.17 Z-1.5 J0.31 K0
G1 Y-0.86
G17 G3 X18 Y-0.55 I-0.31 J0
G2 X18 Y36.55 I0 J18.55 F300
X18 Y-0.55 I0 J-18.55
G3 X17.69 Y-0.86 I0 J-0.31
G1 Y-1.17
G19 G2 Y-1.48 Z-1.19 J0 K0.31
G1 Z5
X18.31
Z0 F150
Z-1.69
G3 Y-1.17 Z-2 J0.31 K0
G1 Y-0.86
G17 G3 X18 Y-0.55 I-0.31 J0
G2 X18 Y36.55 I0 J18.55 F300
X18 Y-0.55 I0 J-18.55
G3 X17.69 Y-0.86 I0 J-0.31
G1 Y-1.17
G19 G2 Y-1.48 Z-1.69 J0 K0.31
G1 Z5
X18.31
Z-0.5 F150
Z-2.19
G3 Y-1.17 Z-2.5 J0.31 K0
G1 Y-0.86
G17 G3 X18 Y-0.55 I-0.31 J0
G2 X18 Y36.55 I0 J18.55 F300
X18 Y-0.55 I0 J-18.55
G3 X17.69 Y-0.86 I0 J-0.31
G1 Y-1.17
G19 G2 Y-1.48 Z-2.19 J0 K0.31
G1 Z5
X18.31
Z-1 F150
Z-2.69
G3 Y-1.17 Z-3 J0.31 K0
G1 Y-0.86
G17 G3 X18 Y-0.55 I-0.31 J0
G2 X18 Y36.55 I0 J18.55 F300
X18 Y-0.55 I0 J-18.55
G3 X17.69 Y-0.86 I0 J-0.31
G1 Y-1.17
G19 G2 Y-1.48 Z-2.69 J0 K0.31
G1 Z5
X18.31
Z-1.5 F150
Z-3.19
G3 Y-1.17 Z-3.5 J0.31 K0
G1 Y-0.86
G17 G3 X18 Y-0.55 I-0.31 J0
G2 X18 Y36.55 I0 J18.55 F300
X18 Y-0.55 I0 J-18.55
G3 X17.69 Y-0.86 I0 J-0.31
G1 Y-1.17
G19 G2 Y-1.48 Z-3.19 J0 K0.31
G1 Z5
X18.31
Z-2 F150
Z-3.69
G3 Y-1.17 Z-4 J0.31 K0
G1 Y-0.86
G17 G3 X18 Y-0.55 I-0.31 J0
G2 X18 Y36.55 I0 J18.55 F300
X18 Y-0.55 I0 J-18.55
G3 X17.69 Y-0.86 I0 J-0.31
G1 Y-1.17
G19 G2 Y-1.48 Z-3.69 J0 K0.31
G1 Z5
X18.31
Z-2.5 F150
Z-4.19
G3 Y-1.17 Z-4.5 J0.31 K0
G1 Y-0.86
G17 G3 X18 Y-0.55 I-0.31 J0
G2 X18 Y36.55 I0 J18.55 F300
X18 Y-0.55 I0 J-18.55
G3 X17.69 Y-0.86 I0 J-0.31
G1 Y-1.17
G19 G2 Y-1.48 Z-4.19 J0 K0.31
G1 Z5
X18.31
Z-3 F150
Z-4.69
G3 Y-1.17 Z-5 J0.31 K0
G1 Y-0.86
G17 G3 X18 Y-0.55 I-0.31 J0
G2 X18 Y36.55 I0 J18.55 F300
X18 Y-0.55 I0 J-18.55
G3 X17.69 Y-0.86 I0 J-0.31
G1 Y-1.17
G19 G2 Y-1.48 Z-4.69 J0 K0.31
G1 Z5
X18.31
Z-3.5 F150
Z-5.19
G3 Y-1.17 Z-5.5 J0.31 K0
G1 Y-0.86
G17 G3 X18 Y-0.55 I-0.31 J0
G2 X18 Y36.55 I0 J18.55 F300
X18 Y-0.55 I0 J-18.55
G3 X17.69 Y-0.86 I0 J-0.31
G1 Y-1.17
G19 G2 Y-1.48 Z-5.19 J0 K0.31
G1 Z5
X18.31
Z-4 F150
Z-5.69
G3 Y-1.17 Z-6 J0.31 K0
G1 Y-0.86
G17 G3 X18 Y-0.55 I-0.31 J0
G2 X18 Y36.55 I0 J18.55 F300
X18 Y-0.55 I0 J-18.55
G3 X17.69 Y-0.86 I0 J-0.31
G1 Y-1.17
G19 G2 Y-1.48 Z-5.69 J0 K0.31
G1 Z5
X18.31
Z-4.5 F150
Z-6.19
G3 Y-1.17 Z-6.5 J0.31 K0
G1 Y-0.86
G17 G3 X18 Y-0.55 I-0.31 J0
G2 X18 Y36.55 I0 J18.55 F300
X18 Y-0.55 I0 J-18.55
G3 X17.69 Y-0.86 I0 J-0.31
G1 Y-1.17
G19 G2 Y-1.48 Z-6.19 J0 K0.31
G1 Z5
X18.31
Z-5 F150
Z-6.69
G3 Y-1.17 Z-7 J0.31 K0
G1 Y-0.86
G17 G3 X18 Y-0.55 I-0.31 J0
G2 X18 Y36.55 I0 J18.55 F300
X18 Y-0.55 I0 J-18.55
G3 X17.69 Y-0.86 I0 J-0.31
G1 Y-1.17
G19 G2 Y-1.48 Z-6.69 J0 K0.31
G1 Z5
X18.31
Z-5.5 F150
Z-7.19
G3 Y-1.17 Z-7.5 J0.31 K0
G1 Y-0.86
G17 G3 X18 Y-0.55 I-0.31 J0
G2 X18 Y36.55 I0 J18.55 F300
X18 Y-0.55 I0 J-18.55
G3 X17.69 Y-0.86 I0 J-0.31
G1 Y-1.17
G19 G2 Y-1.48 Z-7.19 J0 K0.31
G1 Z5
X18.31
Z-6 F150
Z-7.69
G3 Y-1.17 Z-8 J0.31 K0
G1 Y-0.86
G17 G3 X18 Y-0.55 I-0.31 J0
G2 X18 Y36.55 I0 J18.55 F300
X18 Y-0.55 I0 J-18.55
G3 X17.69 Y-0.86 I0 J-0.31
G1 Y-1.17
G19 G2 Y-1.48 Z-7.69 J0 K0.31
G1 Z5
X18.31
Z-6.5 F150
Z-8.19
G3 Y-1.17 Z-8.5 J0.31 K0
G1 Y-0.86
G17 G3 X18 Y-0.55 I-0.31 J0
G2 X18 Y36.55 I0 J18.55 F300
X18 Y-0.55 I0 J-18.55
G3 X17.69 Y-0.86 I0 J-0.31
G1 Y-1.17
G19 G2 Y-1.48 Z-8.19 J0 K0.31
G1 Z5
X18.31
Z-7 F150
Z-8.69
G3 Y-1.17 Z-9 J0.31 K0
G1 Y-0.86
G17 G3 X18 Y-0.55 I-0.31 J0
G2 X18 Y36.55 I0 J18.55 F300
X18 Y-0.55 I0 J-18.55
G3 X17.69 Y-0.86 I0 J-0.31
G1 Y-1.17
G19 G2 Y-1.48 Z-8.69 J0 K0.31
G1 Z5
X18.31
Z-7.5 F150
Z-9.19
G3 Y-1.17 Z-9.5 J0.31 K0
G1 Y-0.86
G17 G3 X18 Y-0.55 I-0.31 J0
G2 X18 Y36.55 I0 J18.55 F300
X18 Y-0.55 I0 J-18.55
G3 X17.69 Y-0.86 I0 J-0.31
G1 Y-1.17
G19 G2 Y-1.48 Z-9.19 J0 K0.31
G1 Z5
X18.31
Z-8 F150
Z-9.69
G3 Y-1.17 Z-10 J0.31 K0
G1 Y-0.86
G17 G3 X18 Y-0.55 I-0.31 J0
G2 X18 Y36.55 I0 J18.55 F300
X18 Y-0.55 I0 J-18.55
G3 X17.69 Y-0.86 I0 J-0.31
G1 Y-1.17
G19 G2 Y-1.48 Z-9.69 J0 K0.31
G1 Z5
X18.31
Z-8.5 F150
Z-10.19
G3 Y-1.17 Z-10.5 J0.31 K0
G1 Y-0.86
G17 G3 X18 Y-0.55 I-0.31 J0
G2 X18 Y36.55 I0 J18.55 F300
X18 Y-0.55 I0 J-18.55
G3 X17.69 Y-0.86 I0 J-0.31
G1 Y-1.17
G19 G2 Y-1.48 Z-10.19 J0 K0.31
G1 Z5
X18.31
Z-9 F150
Z-10.69
G3 Y-1.17 Z-11 J0.31 K0
G1 Y-0.86
G17 G3 X18 Y-0.55 I-0.31 J0
G2 X18 Y36.55 I0 J18.55 F300
X18 Y-0.55 I0 J-18.55
G3 X17.69 Y-0.86 I0 J-0.31
G1 Y-1.17
G19 G2 Y-1.48 Z-10.69 J0 K0.31
G1 Z5
X18.31
Z-9.5 F150
Z-11.19
G3 Y-1.17 Z-11.5 J0.31 K0
G1 Y-0.86
G17 G3 X18 Y-0.55 I-0.31 J0
G2 X18 Y36.55 I0 J18.55 F300
X18 Y-0.55 I0 J-18.55
G3 X17.69 Y-0.86 I0 J-0.31
G1 Y-1.17
G19 G2 Y-1.48 Z-11.19 J0 K0.31
G1 Z5
X18.31
Z-10 F150
Z-11.69
G3 Y-1.17 Z-12 J0.31 K0
G1 Y-0.86
G17 G3 X18 Y-0.55 I-0.31 J0
G2 X18 Y36.55 I0 J18.55 F300
X18 Y-0.55 I0 J-18.55
G3 X17.69 Y-0.86 I0 J-0.31
G1 Y-1.17
G19 G2 Y-1.48 Z-11.69 J0 K0.31
G1 Z5
X18.31
Z-10.5 F150
Z-12.19
G3 Y-1.17 Z-12.5 J0.31 K0
G1 Y-0.86
G17 G3 X18 Y-0.55 I-0.31 J0
G2 X18 Y36.55 I0 J18.55 F300
X18 Y-0.55 I0 J-18.55
G3 X17.69 Y-0.86 I0 J-0.31
G1 Y-1.17
G19 G2 Y-1.48 Z-12.19 J0 K0.31
G1 Z5
X18.31
Z-11 F150
Z-12.69
G3 Y-1.17 Z-13 J0.31 K0
G1 Y-0.86
G17 G3 X18 Y-0.55 I-0.31 J0
G2 X18 Y36.55 I0 J18.55 F300
X18 Y-0.55 I0 J-18.55
G3 X17.69 Y-0.86 I0 J-0.31
G1 Y-1.17
G19 G2 Y-1.48 Z-12.69 J0 K0.31
G1 Z5
X18.31
Z-11.5 F150
Z-13.19
G3 Y-1.17 Z-13.5 J0.31 K0
G1 Y-0.86
G17 G3 X18 Y-0.55 I-0.31 J0
G2 X18 Y36.55 I0 J18.55 F300
X18 Y-0.55 I0 J-18.55
G3 X17.69 Y-0.86 I0 J-0.31
G1 Y-1.17
G19 G2 Y-1.48 Z-13.19 J0 K0.31
G1 Z5
X18.31
Z-12 F150
Z-13.69
G3 Y-1.17 Z-14 J0.31 K0
G1 Y-0.86
G17 G3 X18 Y-0.55 I-0.31 J0
G2 X18 Y36.55 I0 J18.55 F300
X18 Y-0.55 I0 J-18.55
G3 X17.69 Y-0.86 I0 J-0.31
G1 Y-1.17
G19 G2 Y-1.48 Z-13.69 J0 K0.31
G1 Z10
G17
M9
M5
M30
