(metal_coupler_8mm_wdrill)
(Machine)
(  vendor: Autodesk)
(  model: Generic 3-axis)
(  description: This machine has XY axis on the Table and Z axis on the Head)
(T1  D=4.76 CR=0 - ZMIN=-14 - flat end mill)
G90 G94
G17
G21
(When using Fusion 360 for Personal Use, the feedrate of)
(rapid moves is reduced to match the feedrate of cutting)
(moves, which can increase machining time. Unrestricted rapid)
(moves are available with a Fusion 360 Subscription.)
G28 G91 Z0
G90

(2D Contour1)
T1
S24000 M3
G54
M8
G0 X17.692 Y17.524
Z10
G1 Z5 F150
Z1.6 F50
Z-0.124
G18 G2 X18.168 Z-0.6 I0.476 K0
G1 X18.644
G17 G3 X19.12 Y18 I0 J0.476
G1 Y19.17 F150
G3 X16.88 Y16.83 I-1.12 J-1.17
X19.12 Y16.83 I1.12 J1.17
G1 Y18
G3 X18.644 Y18.476 I-0.476 J0
G1 X18.168
G18 G3 X17.692 Z-0.124 I0 K0.476
G1 Z5
Y17.524
Z1 F50
Z-0.724
G2 X18.168 Z-1.2 I0.476 K0
G1 X18.644
G17 G3 X19.12 Y18 I0 J0.476
G1 Y19.17 F150
G3 X16.88 Y16.83 I-1.12 J-1.17
X19.12 Y16.83 I1.12 J1.17
G1 Y18
G3 X18.644 Y18.476 I-0.476 J0
G1 X18.168
G18 G3 X17.692 Z-0.724 I0 K0.476
G1 Z5
Y17.524
Z0.4 F50
Z-1.324
G2 X18.168 Z-1.8 I0.476 K0
G1 X18.644
G17 G3 X19.12 Y18 I0 J0.476
G1 Y19.17 F150
G3 X16.88 Y16.83 I-1.12 J-1.17
X19.12 Y16.83 I1.12 J1.17
G1 Y18
G3 X18.644 Y18.476 I-0.476 J0
G1 X18.168
G18 G3 X17.692 Z-1.324 I0 K0.476
G1 Z5
Y17.524
Z-0.2 F50
Z-1.924
G2 X18.168 Z-2.4 I0.476 K0
G1 X18.644
G17 G3 X19.12 Y18 I0 J0.476
G1 Y19.17 F150
G3 X16.88 Y16.83 I-1.12 J-1.17
X19.12 Y16.83 I1.12 J1.17
G1 Y18
G3 X18.644 Y18.476 I-0.476 J0
G1 X18.168
G18 G3 X17.692 Z-1.924 I0 K0.476
G1 Z5
Y17.524
Z-0.8 F50
Z-2.524
G2 X18.168 Z-3 I0.476 K0
G1 X18.644
G17 G3 X19.12 Y18 I0 J0.476
G1 Y19.17 F150
G3 X16.88 Y16.83 I-1.12 J-1.17
X19.12 Y16.83 I1.12 J1.17
G1 Y18
G3 X18.644 Y18.476 I-0.476 J0
G1 X18.168
G18 G3 X17.692 Z-2.524 I0 K0.476
G1 Z5
Y17.524
Z-1.4 F50
Z-3.124
G2 X18.168 Z-3.6 I0.476 K0
G1 X18.644
G17 G3 X19.12 Y18 I0 J0.476
G1 Y19.17 F150
G3 X16.88 Y16.83 I-1.12 J-1.17
X19.12 Y16.83 I1.12 J1.17
G1 Y18
G3 X18.644 Y18.476 I-0.476 J0
G1 X18.168
G18 G3 X17.692 Z-3.124 I0 K0.476
G1 Z5
Y17.524
Z-2 F50
Z-3.724
G2 X18.168 Z-4.2 I0.476 K0
G1 X18.644
G17 G3 X19.12 Y18 I0 J0.476
G1 Y19.17 F150
G3 X16.88 Y16.83 I-1.12 J-1.17
X19.12 Y16.83 I1.12 J1.17
G1 Y18
G3 X18.644 Y18.476 I-0.476 J0
G1 X18.168
G18 G3 X17.692 Z-3.724 I0 K0.476
G1 Z5
Y17.524
Z-2.6 F50
Z-4.324
G2 X18.168 Z-4.8 I0.476 K0
G1 X18.644
G17 G3 X19.12 Y18 I0 J0.476
G1 Y19.17 F150
G3 X16.88 Y16.83 I-1.12 J-1.17
X19.12 Y16.83 I1.12 J1.17
G1 Y18
G3 X18.644 Y18.476 I-0.476 J0
G1 X18.168
G18 G3 X17.692 Z-4.324 I0 K0.476
G1 Z5
Y17.524
Z-3.2 F50
Z-4.924
G2 X18.168 Z-5.4 I0.476 K0
G1 X18.644
G17 G3 X19.12 Y18 I0 J0.476
G1 Y19.17 F150
G3 X16.88 Y16.83 I-1.12 J-1.17
X19.12 Y16.83 I1.12 J1.17
G1 Y18
G3 X18.644 Y18.476 I-0.476 J0
G1 X18.168
G18 G3 X17.692 Z-4.924 I0 K0.476
G1 Z5
Y17.524
Z-3.8 F50
Z-5.524
G2 X18.168 Z-6 I0.476 K0
G1 X18.644
G17 G3 X19.12 Y18 I0 J0.476
G1 Y19.17 F150
G3 X16.88 Y16.83 I-1.12 J-1.17
X19.12 Y16.83 I1.12 J1.17
G1 Y18
G3 X18.644 Y18.476 I-0.476 J0
G1 X18.168
G18 G3 X17.692 Z-5.524 I0 K0.476
G1 Z5
Y17.524
Z-4.4 F50
Z-6.124
G2 X18.168 Z-6.6 I0.476 K0
G1 X18.644
G17 G3 X19.12 Y18 I0 J0.476
G1 Y19.17 F150
G3 X16.88 Y16.83 I-1.12 J-1.17
X19.12 Y16.83 I1.12 J1.17
G1 Y18
G3 X18.644 Y18.476 I-0.476 J0
G1 X18.168
G18 G3 X17.692 Z-6.124 I0 K0.476
G1 Z5
Y17.524
Z-5 F50
Z-6.724
G2 X18.168 Z-7.2 I0.476 K0
G1 X18.644
G17 G3 X19.12 Y18 I0 J0.476
G1 Y19.17 F150
G3 X16.88 Y16.83 I-1.12 J-1.17
X19.12 Y16.83 I1.12 J1.17
G1 Y18
G3 X18.644 Y18.476 I-0.476 J0
G1 X18.168
G18 G3 X17.692 Z-6.724 I0 K0.476
G1 Z5
Y17.524
Z-5.6 F50
Z-7.324
G2 X18.168 Z-7.8 I0.476 K0
G1 X18.644
G17 G3 X19.12 Y18 I0 J0.476
G1 Y19.17 F150
G3 X16.88 Y16.83 I-1.12 J-1.17
X19.12 Y16.83 I1.12 J1.17
G1 Y18
G3 X18.644 Y18.476 I-0.476 J0
G1 X18.168
G18 G3 X17.692 Z-7.324 I0 K0.476
G1 Z5
Y17.524
Z-6.2 F50
Z-7.924
G2 X18.168 Z-8.4 I0.476 K0
G1 X18.644
G17 G3 X19.12 Y18 I0 J0.476
G1 Y19.17 F150
G3 X16.88 Y16.83 I-1.12 J-1.17
X19.12 Y16.83 I1.12 J1.17
G1 Y18
G3 X18.644 Y18.476 I-0.476 J0
G1 X18.168
G18 G3 X17.692 Z-7.924 I0 K0.476
G1 Z5
Y17.524
Z-6.8 F50
Z-8.524
G2 X18.168 Z-9 I0.476 K0
G1 X18.644
G17 G3 X19.12 Y18 I0 J0.476
G1 Y19.17 F150
G3 X16.88 Y16.83 I-1.12 J-1.17
X19.12 Y16.83 I1.12 J1.17
G1 Y18
G3 X18.644 Y18.476 I-0.476 J0
G1 X18.168
G18 G3 X17.692 Z-8.524 I0 K0.476
G1 Z5
Y17.524
Z-7.4 F50
Z-9.124
G2 X18.168 Z-9.6 I0.476 K0
G1 X18.644
G17 G3 X19.12 Y18 I0 J0.476
G1 Y19.17 F150
G3 X16.88 Y16.83 I-1.12 J-1.17
X19.12 Y16.83 I1.12 J1.17
G1 Y18
G3 X18.644 Y18.476 I-0.476 J0
G1 X18.168
G18 G3 X17.692 Z-9.124 I0 K0.476
G1 Z5
Y17.524
Z-8 F50
Z-9.724
G2 X18.168 Z-10.2 I0.476 K0
G1 X18.644
G17 G3 X19.12 Y18 I0 J0.476
G1 Y19.17 F150
G3 X16.88 Y16.83 I-1.12 J-1.17
X19.12 Y16.83 I1.12 J1.17
G1 Y18
G3 X18.644 Y18.476 I-0.476 J0
G1 X18.168
G18 G3 X17.692 Z-9.724 I0 K0.476
G1 Z5
Y17.524
Z-8.6 F50
Z-10.324
G2 X18.168 Z-10.8 I0.476 K0
G1 X18.644
G17 G3 X19.12 Y18 I0 J0.476
G1 Y19.17 F150
G3 X16.88 Y16.83 I-1.12 J-1.17
X19.12 Y16.83 I1.12 J1.17
G1 Y18
G3 X18.644 Y18.476 I-0.476 J0
G1 X18.168
G18 G3 X17.692 Z-10.324 I0 K0.476
G1 Z5
Y17.524
Z-9.2 F50
Z-10.924
G2 X18.168 Z-11.4 I0.476 K0
G1 X18.644
G17 G3 X19.12 Y18 I0 J0.476
G1 Y19.17 F150
G3 X16.88 Y16.83 I-1.12 J-1.17
X19.12 Y16.83 I1.12 J1.17
G1 Y18
G3 X18.644 Y18.476 I-0.476 J0
G1 X18.168
G18 G3 X17.692 Z-10.924 I0 K0.476
G1 Z5
Y17.524
Z-9.8 F50
Z-11.524
G2 X18.168 Z-12 I0.476 K0
G1 X18.644
G17 G3 X19.12 Y18 I0 J0.476
G1 Y19.17 F150
G3 X16.88 Y16.83 I-1.12 J-1.17
X19.12 Y16.83 I1.12 J1.17
G1 Y18
G3 X18.644 Y18.476 I-0.476 J0
G1 X18.168
G18 G3 X17.692 Z-11.524 I0 K0.476
G1 Z5
Y17.524
Z-10.4 F50
Z-12.124
G2 X18.168 Z-12.6 I0.476 K0
G1 X18.644
G17 G3 X19.12 Y18 I0 J0.476
G1 Y19.17 F150
G3 X16.88 Y16.83 I-1.12 J-1.17
X19.12 Y16.83 I1.12 J1.17
G1 Y18
G3 X18.644 Y18.476 I-0.476 J0
G1 X18.168
G18 G3 X17.692 Z-12.124 I0 K0.476
G1 Z5
Y17.524
Z-11 F50
Z-12.724
G2 X18.168 Z-13.2 I0.476 K0
G1 X18.644
G17 G3 X19.12 Y18 I0 J0.476
G1 Y19.17 F150
G3 X16.88 Y16.83 I-1.12 J-1.17
X19.12 Y16.83 I1.12 J1.17
G1 Y18
G3 X18.644 Y18.476 I-0.476 J0
G1 X18.168
G18 G3 X17.692 Z-12.724 I0 K0.476
G1 Z5
Y17.524
Z-11.6 F50
Z-13.324
G2 X18.168 Z-13.8 I0.476 K0
G1 X18.644
G17 G3 X19.12 Y18 I0 J0.476
G1 Y19.17 F150
G3 X16.88 Y16.83 I-1.12 J-1.17
X19.12 Y16.83 I1.12 J1.17
G1 Y18
G3 X18.644 Y18.476 I-0.476 J0
G1 X18.168
G18 G3 X17.692 Z-13.324 I0 K0.476
G1 Z5
Y17.524
Z-12.2 F50
Z-13.524
G2 X18.168 Z-14 I0.476 K0
G1 X18.644
G17 G3 X19.12 Y18 I0 J0.476
G1 Y19.17 F150
G3 X16.88 Y16.83 I-1.12 J-1.17
X19.12 Y16.83 I1.12 J1.17
G1 Y18
G3 X18.644 Y18.476 I-0.476 J0
G1 X18.168
G18 G3 X17.692 Z-13.524 I0 K0.476
G1 Z10
G17
(When using Fusion 360 for Personal Use, the feedrate of)
(rapid moves is reduced to match the feedrate of cutting)
(moves, which can increase machining time. Unrestricted rapid)
(moves are available with a Fusion 360 Subscription.)

(2D Pocket2)
G0 X-3.883 Y35.07
G1 Z10 F150
Z5
Z-0.124 F50
X-3.878 Y35.075 Z-0.207
X-3.863 Y35.091 Z-0.287
X-3.839 Y35.116 Z-0.362
X-3.806 Y35.151 Z-0.43
X-3.765 Y35.193 Z-0.489
X-3.719 Y35.242 Z-0.536
X-3.667 Y35.297 Z-0.571
X-3.611 Y35.355 Z-0.593
X-3.554 Y35.415 Z-0.6
X-1.995 Y37.051
G2 X-1.053 Y37.994 I19.995 J-19.051 F150
G3 X-0.778 Y39.175 I-0.763 J0.8
G1 X-0.979 Y39.723
G3 X-3.093 Y39.091 I-1.038 J-0.381
G1 X-2.796 Y37.814
G2 X-2.791 Y37.336 I-1.077 J-0.251
G1 X-4.324 Y30.031
G3 X-2.276 Y29.267 I1.082 J-0.227
G2 X6.733 Y38.276 I20.276 J-11.267
G1 X6.764 Y38.301
X6.785 Y38.336
X6.793 Y38.375
X6.795 Y38.464
X6.801 Y38.499
X6.818 Y38.531
X6.844 Y38.557
X6.877 Y38.573
X6.913 Y38.578
X36.946 Y38.244
X36.985 Y38.25
X37.02 Y38.27
X37.045 Y38.3
X37.058 Y38.337
Y38.377
X37.044 Y38.414
X37.018 Y38.444
X36.984 Y38.463
X36.945 Y38.469
X36.906 Y38.461
X36.872 Y38.44
X36.848 Y38.408
X36.836 Y38.371
X36.838 Y38.331
X36.853 Y38.295
X37.051 Y37.995
G2 X37.994 Y37.053 I-19.051 J-19.995
G3 X39.175 Y36.778 I0.8 J0.763
G1 X39.723 Y36.979
G3 X39.091 Y39.093 I-0.381 J1.038
G1 X37.814 Y38.796
G2 X37.336 Y38.791 I-0.251 J1.077
G1 X30.031 Y40.324
G3 X29.267 Y38.276 I-0.227 J-1.082
G2 X38.276 Y29.267 I-11.267 J-20.276
G1 X38.301 Y29.236
X38.336 Y29.215
X38.375 Y29.207
X38.464 Y29.205
X38.499 Y29.199
X38.531 Y29.182
X38.557 Y29.156
X38.573 Y29.123
X38.578 Y29.087
X38.244 Y-0.946
X38.25 Y-0.985
X38.27 Y-1.02
X38.3 Y-1.045
X38.337 Y-1.058
X38.377
X38.414 Y-1.044
X38.444 Y-1.018
X38.463 Y-0.984
X38.469 Y-0.945
X38.461 Y-0.906
X38.44 Y-0.872
X38.408 Y-0.848
X38.371 Y-0.836
X38.331 Y-0.838
X38.295 Y-0.853
X37.995 Y-1.051
G2 X37.053 Y-1.994 I-19.995 J19.051
G3 X36.778 Y-3.175 I0.763 J-0.8
G1 X36.979 Y-3.723
G3 X39.093 Y-3.091 I1.038 J0.381
G1 X38.796 Y-1.814
G2 X38.791 Y-1.334 I1.077 J0.251
G1 X40.327 Y5.927
G3 X38.279 Y6.693 I-1.082 J0.229
G2 X29.307 Y-2.279 I-20.218 J11.246
G1 X29.276 Y-2.304
X29.255 Y-2.339
X29.247 Y-2.378
X29.245 Y-2.467
X29.239 Y-2.502
X29.222 Y-2.534
X29.196 Y-2.559
X29.163 Y-2.575
X29.127 Y-2.581
X-0.946 Y-2.244
X-0.985 Y-2.25
X-1.02 Y-2.27
X-1.045 Y-2.3
X-1.058 Y-2.337
Y-2.377
X-1.044 Y-2.414
X-1.018 Y-2.444
X-0.984 Y-2.463
X-0.945 Y-2.469
X-0.906 Y-2.461
X-0.872 Y-2.44
X-0.848 Y-2.409
X-0.836 Y-2.371
X-0.838 Y-2.331
X-0.853 Y-2.295
X-1.051 Y-1.995
G2 X-1.994 Y-1.053 I19.051 J19.995
G3 X-3.175 Y-0.778 I-0.8 J-0.763
G1 X-3.723 Y-0.979
G3 X-3.091 Y-3.093 I0.381 J-1.038
G1 X-1.814 Y-2.796
G2 X-1.336 Y-2.791 I0.251 J-1.077
G1 X5.969 Y-4.324
G3 X6.733 Y-2.276 I0.227 J1.082
G2 X-2.276 Y6.733 I11.267 J20.276
X-1.785 Y11.004 I3.227 J1.793
G3 X-0.552 Y15.122 I-3.703 J3.353
G2 X18 Y36.774 I18.552 J2.878
X36.774 Y17.939 I0 J-18.774
X18 Y-0.774 I-18.713 J0
X-0.552 Y15.122 I0 J18.774
X1.467 Y19.021 I3.674 J0.57
G3 X4.325 Y22.355 I-2.507 J5.042
G2 X31.675 Y13.645 I13.675 J-4.355
X4.325 Y22.355 I-13.675 J4.355
X8.107 Y25.005 I3.63 J-1.156
G3 X12.556 Y26.245 I0.301 J7.521
G2 X27.88 Y18 I5.444 J-8.245
G1 Y17.939
G2 X18 Y8.12 I-9.88 J0.061
X12.556 Y26.245 I0 J9.88
G3 X12.55 Y26.646 I-0.131 J0.199
G1 X-2.572 Y36.031
G2 X-2.618 Y36.397 I0.126 J0.202
G1 X-2.563 Y36.455 Z-0.607 F50
X-2.509 Y36.512 Z-0.627
X-2.458 Y36.566 Z-0.661
X-2.412 Y36.614 Z-0.706
X-2.371 Y36.656 Z-0.762
X-2.338 Y36.691 Z-0.828
X-2.313 Y36.717 Z-0.9
X-2.288 Y36.744 Z-0.972
X-2.255 Y36.778 Z-1.038
X-2.215 Y36.82 Z-1.094
X-2.169 Y36.869 Z-1.139
X-2.118 Y36.922 Z-1.173
X-2.064 Y36.979 Z-1.193
X-2.008 Y37.037 Z-1.2
X-1.995 Y37.051
G2 X-1.053 Y37.994 I19.995 J-19.051 F150
G3 X-0.778 Y39.175 I-0.763 J0.8
G1 X-0.979 Y39.723
G3 X-3.093 Y39.091 I-1.038 J-0.381
G1 X-2.796 Y37.814
G2 X-2.791 Y37.336 I-1.077 J-0.251
G1 X-4.324 Y30.031
G3 X-2.276 Y29.267 I1.082 J-0.227
G2 X6.733 Y38.276 I20.276 J-11.267
G1 X6.764 Y38.301
X6.785 Y38.336
X6.793 Y38.375
X6.795 Y38.464
X6.801 Y38.499
X6.818 Y38.531
X6.844 Y38.557
X6.877 Y38.573
X6.913 Y38.578
X36.946 Y38.244
X36.985 Y38.25
X37.02 Y38.27
X37.045 Y38.3
X37.058 Y38.337
Y38.377
X37.044 Y38.414
X37.018 Y38.444
X36.984 Y38.463
X36.945 Y38.469
X36.906 Y38.461
X36.872 Y38.44
X36.848 Y38.408
X36.836 Y38.371
X36.838 Y38.331
X36.853 Y38.295
X37.051 Y37.995
G2 X37.994 Y37.053 I-19.051 J-19.995
G3 X39.175 Y36.778 I0.8 J0.763
G1 X39.723 Y36.979
G3 X39.091 Y39.093 I-0.381 J1.038
G1 X37.814 Y38.796
G2 X37.336 Y38.791 I-0.251 J1.077
G1 X30.031 Y40.324
G3 X29.267 Y38.276 I-0.227 J-1.082
G2 X38.276 Y29.267 I-11.267 J-20.276
G1 X38.301 Y29.236
X38.336 Y29.215
X38.375 Y29.207
X38.464 Y29.205
X38.499 Y29.199
X38.531 Y29.182
X38.557 Y29.156
X38.573 Y29.123
X38.578 Y29.087
X38.244 Y-0.946
X38.25 Y-0.985
X38.27 Y-1.02
X38.3 Y-1.045
X38.337 Y-1.058
X38.377
X38.414 Y-1.044
X38.444 Y-1.018
X38.463 Y-0.984
X38.469 Y-0.945
X38.461 Y-0.906
X38.44 Y-0.872
X38.408 Y-0.848
X38.371 Y-0.836
X38.331 Y-0.838
X38.295 Y-0.853
X37.995 Y-1.051
G2 X37.053 Y-1.994 I-19.995 J19.051
G3 X36.778 Y-3.175 I0.763 J-0.8
G1 X36.979 Y-3.723
G3 X39.093 Y-3.091 I1.038 J0.381
G1 X38.796 Y-1.814
G2 X38.791 Y-1.334 I1.077 J0.251
G1 X40.327 Y5.927
G3 X38.279 Y6.693 I-1.082 J0.229
G2 X29.307 Y-2.279 I-20.218 J11.246
G1 X29.276 Y-2.304
X29.255 Y-2.339
X29.247 Y-2.378
X29.245 Y-2.467
X29.239 Y-2.502
X29.222 Y-2.534
X29.196 Y-2.559
X29.163 Y-2.575
X29.127 Y-2.581
X-0.946 Y-2.244
X-0.985 Y-2.25
X-1.02 Y-2.27
X-1.045 Y-2.3
X-1.058 Y-2.337
Y-2.377
X-1.044 Y-2.414
X-1.018 Y-2.444
X-0.984 Y-2.463
X-0.945 Y-2.469
X-0.906 Y-2.461
X-0.872 Y-2.44
X-0.848 Y-2.409
X-0.836 Y-2.371
X-0.838 Y-2.331
X-0.853 Y-2.295
X-1.051 Y-1.995
G2 X-1.994 Y-1.053 I19.051 J19.995
G3 X-3.175 Y-0.778 I-0.8 J-0.763
G1 X-3.723 Y-0.979
G3 X-3.091 Y-3.093 I0.381 J-1.038
G1 X-1.814 Y-2.796
G2 X-1.336 Y-2.791 I0.251 J-1.077
G1 X5.969 Y-4.324
G3 X6.733 Y-2.276 I0.227 J1.082
G2 X-2.276 Y6.733 I11.267 J20.276
X-1.785 Y11.004 I3.227 J1.793
G3 X-0.552 Y15.122 I-3.703 J3.353
G2 X18 Y36.774 I18.552 J2.878
X36.774 Y17.939 I0 J-18.774
X18 Y-0.774 I-18.713 J0
X-0.552 Y15.122 I0 J18.774
X1.467 Y19.021 I3.674 J0.57
G3 X4.325 Y22.355 I-2.507 J5.042
G2 X31.675 Y13.645 I13.675 J-4.355
X4.325 Y22.355 I-13.675 J4.355
X8.107 Y25.005 I3.63 J-1.156
G3 X12.556 Y26.245 I0.301 J7.521
G2 X27.88 Y18 I5.444 J-8.245
G1 Y17.939
G2 X18 Y8.12 I-9.88 J0.061
X12.556 Y26.245 I0 J9.88
G3 X12.55 Y26.646 I-0.131 J0.199
G1 X-2.572 Y36.031
G2 X-2.618 Y36.397 I0.126 J0.202
G1 X-2.563 Y36.455 Z-1.207 F50
X-2.509 Y36.512 Z-1.227
X-2.458 Y36.566 Z-1.261
X-2.412 Y36.614 Z-1.306
X-2.371 Y36.656 Z-1.362
X-2.338 Y36.691 Z-1.428
X-2.313 Y36.717 Z-1.5
X-2.288 Y36.744 Z-1.572
X-2.255 Y36.778 Z-1.638
X-2.215 Y36.82 Z-1.694
X-2.169 Y36.869 Z-1.739
X-2.118 Y36.922 Z-1.773
X-2.064 Y36.979 Z-1.793
X-2.008 Y37.037 Z-1.8
X-1.995 Y37.051
G2 X-1.053 Y37.994 I19.995 J-19.051 F150
G3 X-0.778 Y39.175 I-0.763 J0.8
G1 X-0.979 Y39.723
G3 X-3.093 Y39.091 I-1.038 J-0.381
G1 X-2.796 Y37.814
G2 X-2.791 Y37.336 I-1.077 J-0.251
G1 X-4.324 Y30.031
G3 X-2.276 Y29.267 I1.082 J-0.227
G2 X6.733 Y38.276 I20.276 J-11.267
G1 X6.764 Y38.301
X6.785 Y38.336
X6.793 Y38.375
X6.795 Y38.464
X6.801 Y38.499
X6.818 Y38.531
X6.844 Y38.557
X6.877 Y38.573
X6.913 Y38.578
X36.946 Y38.244
X36.985 Y38.25
X37.02 Y38.27
X37.045 Y38.3
X37.058 Y38.337
Y38.377
X37.044 Y38.414
X37.018 Y38.444
X36.984 Y38.463
X36.945 Y38.469
X36.906 Y38.461
X36.872 Y38.44
X36.848 Y38.408
X36.836 Y38.371
X36.838 Y38.331
X36.853 Y38.295
X37.051 Y37.995
G2 X37.994 Y37.053 I-19.051 J-19.995
G3 X39.175 Y36.778 I0.8 J0.763
G1 X39.723 Y36.979
G3 X39.091 Y39.093 I-0.381 J1.038
G1 X37.814 Y38.796
G2 X37.336 Y38.791 I-0.251 J1.077
G1 X30.031 Y40.324
G3 X29.267 Y38.276 I-0.227 J-1.082
G2 X38.276 Y29.267 I-11.267 J-20.276
G1 X38.301 Y29.236
X38.336 Y29.215
X38.375 Y29.207
X38.464 Y29.205
X38.499 Y29.199
X38.531 Y29.182
X38.557 Y29.156
X38.573 Y29.123
X38.578 Y29.087
X38.244 Y-0.946
X38.25 Y-0.985
X38.27 Y-1.02
X38.3 Y-1.045
X38.337 Y-1.058
X38.377
X38.414 Y-1.044
X38.444 Y-1.018
X38.463 Y-0.984
X38.469 Y-0.945
X38.461 Y-0.906
X38.44 Y-0.872
X38.408 Y-0.848
X38.371 Y-0.836
X38.331 Y-0.838
X38.295 Y-0.853
X37.995 Y-1.051
G2 X37.053 Y-1.994 I-19.995 J19.051
G3 X36.778 Y-3.175 I0.763 J-0.8
G1 X36.979 Y-3.723
G3 X39.093 Y-3.091 I1.038 J0.381
G1 X38.796 Y-1.814
G2 X38.791 Y-1.334 I1.077 J0.251
G1 X40.327 Y5.927
G3 X38.279 Y6.693 I-1.082 J0.229
G2 X29.307 Y-2.279 I-20.218 J11.246
G1 X29.276 Y-2.304
X29.255 Y-2.339
X29.247 Y-2.378
X29.245 Y-2.467
X29.239 Y-2.502
X29.222 Y-2.534
X29.196 Y-2.559
X29.163 Y-2.575
X29.127 Y-2.581
X-0.946 Y-2.244
X-0.985 Y-2.25
X-1.02 Y-2.27
X-1.045 Y-2.3
X-1.058 Y-2.337
Y-2.377
X-1.044 Y-2.414
X-1.018 Y-2.444
X-0.984 Y-2.463
X-0.945 Y-2.469
X-0.906 Y-2.461
X-0.872 Y-2.44
X-0.848 Y-2.409
X-0.836 Y-2.371
X-0.838 Y-2.331
X-0.853 Y-2.295
X-1.051 Y-1.995
G2 X-1.994 Y-1.053 I19.051 J19.995
G3 X-3.175 Y-0.778 I-0.8 J-0.763
G1 X-3.723 Y-0.979
G3 X-3.091 Y-3.093 I0.381 J-1.038
G1 X-1.814 Y-2.796
G2 X-1.336 Y-2.791 I0.251 J-1.077
G1 X5.969 Y-4.324
G3 X6.733 Y-2.276 I0.227 J1.082
G2 X-2.276 Y6.733 I11.267 J20.276
X-1.785 Y11.004 I3.227 J1.793
G3 X-0.552 Y15.122 I-3.703 J3.353
G2 X18 Y36.774 I18.552 J2.878
X36.774 Y17.939 I0 J-18.774
X18 Y-0.774 I-18.713 J0
X-0.552 Y15.122 I0 J18.774
X1.467 Y19.021 I3.674 J0.57
G3 X4.325 Y22.355 I-2.507 J5.042
G2 X31.675 Y13.645 I13.675 J-4.355
X4.325 Y22.355 I-13.675 J4.355
X8.107 Y25.005 I3.63 J-1.156
G3 X12.556 Y26.245 I0.301 J7.521
G2 X27.88 Y18 I5.444 J-8.245
G1 Y17.939
G2 X18 Y8.12 I-9.88 J0.061
X12.556 Y26.245 I0 J9.88
G3 X12.55 Y26.646 I-0.131 J0.199
G1 X-2.572 Y36.031
G2 X-2.618 Y36.397 I0.126 J0.202
G1 X-2.563 Y36.455 Z-1.807 F50
X-2.509 Y36.512 Z-1.827
X-2.458 Y36.566 Z-1.861
X-2.412 Y36.614 Z-1.906
X-2.371 Y36.656 Z-1.962
X-2.338 Y36.691 Z-2.028
X-2.313 Y36.717 Z-2.1
X-2.288 Y36.744 Z-2.172
X-2.255 Y36.778 Z-2.238
X-2.215 Y36.82 Z-2.294
X-2.169 Y36.869 Z-2.339
X-2.118 Y36.922 Z-2.373
X-2.064 Y36.979 Z-2.393
X-2.008 Y37.037 Z-2.4
X-1.995 Y37.051
G2 X-1.053 Y37.994 I19.995 J-19.051 F150
G3 X-0.778 Y39.175 I-0.763 J0.8
G1 X-0.979 Y39.723
G3 X-3.093 Y39.091 I-1.038 J-0.381
G1 X-2.796 Y37.814
G2 X-2.791 Y37.336 I-1.077 J-0.251
G1 X-4.324 Y30.031
G3 X-2.276 Y29.267 I1.082 J-0.227
G2 X6.733 Y38.276 I20.276 J-11.267
G1 X6.764 Y38.301
X6.785 Y38.336
X6.793 Y38.375
X6.795 Y38.464
X6.801 Y38.499
X6.818 Y38.531
X6.844 Y38.557
X6.877 Y38.573
X6.913 Y38.578
X36.946 Y38.244
X36.985 Y38.25
X37.02 Y38.27
X37.045 Y38.3
X37.058 Y38.337
Y38.377
X37.044 Y38.414
X37.018 Y38.444
X36.984 Y38.463
X36.945 Y38.469
X36.906 Y38.461
X36.872 Y38.44
X36.848 Y38.408
X36.836 Y38.371
X36.838 Y38.331
X36.853 Y38.295
X37.051 Y37.995
G2 X37.994 Y37.053 I-19.051 J-19.995
G3 X39.175 Y36.778 I0.8 J0.763
G1 X39.723 Y36.979
G3 X39.091 Y39.093 I-0.381 J1.038
G1 X37.814 Y38.796
G2 X37.336 Y38.791 I-0.251 J1.077
G1 X30.031 Y40.324
G3 X29.267 Y38.276 I-0.227 J-1.082
G2 X38.276 Y29.267 I-11.267 J-20.276
G1 X38.301 Y29.236
X38.336 Y29.215
X38.375 Y29.207
X38.464 Y29.205
X38.499 Y29.199
X38.531 Y29.182
X38.557 Y29.156
X38.573 Y29.123
X38.578 Y29.087
X38.244 Y-0.946
X38.25 Y-0.985
X38.27 Y-1.02
X38.3 Y-1.045
X38.337 Y-1.058
X38.377
X38.414 Y-1.044
X38.444 Y-1.018
X38.463 Y-0.984
X38.469 Y-0.945
X38.461 Y-0.906
X38.44 Y-0.872
X38.408 Y-0.848
X38.371 Y-0.836
X38.331 Y-0.838
X38.295 Y-0.853
X37.995 Y-1.051
G2 X37.053 Y-1.994 I-19.995 J19.051
G3 X36.778 Y-3.175 I0.763 J-0.8
G1 X36.979 Y-3.723
G3 X39.093 Y-3.091 I1.038 J0.381
G1 X38.796 Y-1.814
G2 X38.791 Y-1.334 I1.077 J0.251
G1 X40.327 Y5.927
G3 X38.279 Y6.693 I-1.082 J0.229
G2 X29.307 Y-2.279 I-20.218 J11.246
G1 X29.276 Y-2.304
X29.255 Y-2.339
X29.247 Y-2.378
X29.245 Y-2.467
X29.239 Y-2.502
X29.222 Y-2.534
X29.196 Y-2.559
X29.163 Y-2.575
X29.127 Y-2.581
X-0.946 Y-2.244
X-0.985 Y-2.25
X-1.02 Y-2.27
X-1.045 Y-2.3
X-1.058 Y-2.337
Y-2.377
X-1.044 Y-2.414
X-1.018 Y-2.444
X-0.984 Y-2.463
X-0.945 Y-2.469
X-0.906 Y-2.461
X-0.872 Y-2.44
X-0.848 Y-2.409
X-0.836 Y-2.371
X-0.838 Y-2.331
X-0.853 Y-2.295
X-1.051 Y-1.995
G2 X-1.994 Y-1.053 I19.051 J19.995
G3 X-3.175 Y-0.778 I-0.8 J-0.763
G1 X-3.723 Y-0.979
G3 X-3.091 Y-3.093 I0.381 J-1.038
G1 X-1.814 Y-2.796
G2 X-1.336 Y-2.791 I0.251 J-1.077
G1 X5.969 Y-4.324
G3 X6.733 Y-2.276 I0.227 J1.082
G2 X-2.276 Y6.733 I11.267 J20.276
X-1.785 Y11.004 I3.227 J1.793
G3 X-0.552 Y15.122 I-3.703 J3.353
G2 X18 Y36.774 I18.552 J2.878
X36.774 Y17.939 I0 J-18.774
X18 Y-0.774 I-18.713 J0
X-0.552 Y15.122 I0 J18.774
X1.467 Y19.021 I3.674 J0.57
G3 X4.325 Y22.355 I-2.507 J5.042
G2 X31.675 Y13.645 I13.675 J-4.355
X4.325 Y22.355 I-13.675 J4.355
X8.107 Y25.005 I3.63 J-1.156
G3 X12.556 Y26.245 I0.301 J7.521
G2 X27.88 Y18 I5.444 J-8.245
G1 Y17.939
G2 X18 Y8.12 I-9.88 J0.061
X12.556 Y26.245 I0 J9.88
G3 X12.55 Y26.646 I-0.131 J0.199
G1 X-2.572 Y36.031
G2 X-2.618 Y36.397 I0.126 J0.202
G1 X-2.563 Y36.455 Z-2.407 F50
X-2.509 Y36.512 Z-2.427
X-2.458 Y36.566 Z-2.461
X-2.412 Y36.614 Z-2.506
X-2.371 Y36.656 Z-2.562
X-2.338 Y36.691 Z-2.628
X-2.313 Y36.717 Z-2.7
X-2.288 Y36.744 Z-2.772
X-2.255 Y36.778 Z-2.838
X-2.215 Y36.82 Z-2.894
X-2.169 Y36.869 Z-2.939
X-2.118 Y36.922 Z-2.973
X-2.064 Y36.979 Z-2.993
X-2.008 Y37.037 Z-3
X-1.995 Y37.051
G2 X-1.053 Y37.994 I19.995 J-19.051 F150
G3 X-0.778 Y39.175 I-0.763 J0.8
G1 X-0.979 Y39.723
G3 X-3.093 Y39.091 I-1.038 J-0.381
G1 X-2.796 Y37.814
G2 X-2.791 Y37.336 I-1.077 J-0.251
G1 X-4.324 Y30.031
G3 X-2.276 Y29.267 I1.082 J-0.227
G2 X6.733 Y38.276 I20.276 J-11.267
G1 X6.764 Y38.301
X6.785 Y38.336
X6.793 Y38.375
X6.795 Y38.464
X6.801 Y38.499
X6.818 Y38.531
X6.844 Y38.557
X6.877 Y38.573
X6.913 Y38.578
X36.946 Y38.244
X36.985 Y38.25
X37.02 Y38.27
X37.045 Y38.3
X37.058 Y38.337
Y38.377
X37.044 Y38.414
X37.018 Y38.444
X36.984 Y38.463
X36.945 Y38.469
X36.906 Y38.461
X36.872 Y38.44
X36.848 Y38.408
X36.836 Y38.371
X36.838 Y38.331
X36.853 Y38.295
X37.051 Y37.995
G2 X37.994 Y37.053 I-19.051 J-19.995
G3 X39.175 Y36.778 I0.8 J0.763
G1 X39.723 Y36.979
G3 X39.091 Y39.093 I-0.381 J1.038
G1 X37.814 Y38.796
G2 X37.336 Y38.791 I-0.251 J1.077
G1 X30.031 Y40.324
G3 X29.267 Y38.276 I-0.227 J-1.082
G2 X38.276 Y29.267 I-11.267 J-20.276
G1 X38.301 Y29.236
X38.336 Y29.215
X38.375 Y29.207
X38.464 Y29.205
X38.499 Y29.199
X38.531 Y29.182
X38.557 Y29.156
X38.573 Y29.123
X38.578 Y29.087
X38.244 Y-0.946
X38.25 Y-0.985
X38.27 Y-1.02
X38.3 Y-1.045
X38.337 Y-1.058
X38.377
X38.414 Y-1.044
X38.444 Y-1.018
X38.463 Y-0.984
X38.469 Y-0.945
X38.461 Y-0.906
X38.44 Y-0.872
X38.408 Y-0.848
X38.371 Y-0.836
X38.331 Y-0.838
X38.295 Y-0.853
X37.995 Y-1.051
G2 X37.053 Y-1.994 I-19.995 J19.051
G3 X36.778 Y-3.175 I0.763 J-0.8
G1 X36.979 Y-3.723
G3 X39.093 Y-3.091 I1.038 J0.381
G1 X38.796 Y-1.814
G2 X38.791 Y-1.334 I1.077 J0.251
G1 X40.327 Y5.927
G3 X38.279 Y6.693 I-1.082 J0.229
G2 X29.307 Y-2.279 I-20.218 J11.246
G1 X29.276 Y-2.304
X29.255 Y-2.339
X29.247 Y-2.378
X29.245 Y-2.467
X29.239 Y-2.502
X29.222 Y-2.534
X29.196 Y-2.559
X29.163 Y-2.575
X29.127 Y-2.581
X-0.946 Y-2.244
X-0.985 Y-2.25
X-1.02 Y-2.27
X-1.045 Y-2.3
X-1.058 Y-2.337
Y-2.377
X-1.044 Y-2.414
X-1.018 Y-2.444
X-0.984 Y-2.463
X-0.945 Y-2.469
X-0.906 Y-2.461
X-0.872 Y-2.44
X-0.848 Y-2.409
X-0.836 Y-2.371
X-0.838 Y-2.331
X-0.853 Y-2.295
X-1.051 Y-1.995
G2 X-1.994 Y-1.053 I19.051 J19.995
G3 X-3.175 Y-0.778 I-0.8 J-0.763
G1 X-3.723 Y-0.979
G3 X-3.091 Y-3.093 I0.381 J-1.038
G1 X-1.814 Y-2.796
G2 X-1.336 Y-2.791 I0.251 J-1.077
G1 X5.969 Y-4.324
G3 X6.733 Y-2.276 I0.227 J1.082
G2 X-2.276 Y6.733 I11.267 J20.276
X-1.785 Y11.004 I3.227 J1.793
G3 X-0.552 Y15.122 I-3.703 J3.353
G2 X18 Y36.774 I18.552 J2.878
X36.774 Y17.939 I0 J-18.774
X18 Y-0.774 I-18.713 J0
X-0.552 Y15.122 I0 J18.774
X1.467 Y19.021 I3.674 J0.57
G3 X4.325 Y22.355 I-2.507 J5.042
G2 X31.675 Y13.645 I13.675 J-4.355
X4.325 Y22.355 I-13.675 J4.355
X8.107 Y25.005 I3.63 J-1.156
G3 X12.556 Y26.245 I0.301 J7.521
G2 X27.88 Y18 I5.444 J-8.245
G1 Y17.939
G2 X18 Y8.12 I-9.88 J0.061
X12.556 Y26.245 I0 J9.88
G3 X12.55 Y26.646 I-0.131 J0.199
G1 X-2.572 Y36.031
G2 X-2.618 Y36.397 I0.126 J0.202
G1 X-2.563 Y36.455 Z-3.007 F50
X-2.509 Y36.512 Z-3.027
X-2.458 Y36.566 Z-3.061
X-2.412 Y36.614 Z-3.106
X-2.371 Y36.656 Z-3.162
X-2.338 Y36.691 Z-3.228
X-2.313 Y36.717 Z-3.3
X-2.288 Y36.744 Z-3.372
X-2.255 Y36.778 Z-3.438
X-2.215 Y36.82 Z-3.494
X-2.169 Y36.869 Z-3.539
X-2.118 Y36.922 Z-3.573
X-2.064 Y36.979 Z-3.593
X-2.008 Y37.037 Z-3.6
X-1.995 Y37.051
G2 X-1.053 Y37.994 I19.995 J-19.051 F150
G3 X-0.778 Y39.175 I-0.763 J0.8
G1 X-0.979 Y39.723
G3 X-3.093 Y39.091 I-1.038 J-0.381
G1 X-2.796 Y37.814
G2 X-2.791 Y37.336 I-1.077 J-0.251
G1 X-4.324 Y30.031
G3 X-2.276 Y29.267 I1.082 J-0.227
G2 X6.733 Y38.276 I20.276 J-11.267
G1 X6.764 Y38.301
X6.785 Y38.336
X6.793 Y38.375
X6.795 Y38.464
X6.801 Y38.499
X6.818 Y38.531
X6.844 Y38.557
X6.877 Y38.573
X6.913 Y38.578
X36.946 Y38.244
X36.985 Y38.25
X37.02 Y38.27
X37.045 Y38.3
X37.058 Y38.337
Y38.377
X37.044 Y38.414
X37.018 Y38.444
X36.984 Y38.463
X36.945 Y38.469
X36.906 Y38.461
X36.872 Y38.44
X36.848 Y38.408
X36.836 Y38.371
X36.838 Y38.331
X36.853 Y38.295
X37.051 Y37.995
G2 X37.994 Y37.053 I-19.051 J-19.995
G3 X39.175 Y36.778 I0.8 J0.763
G1 X39.723 Y36.979
G3 X39.091 Y39.093 I-0.381 J1.038
G1 X37.814 Y38.796
G2 X37.336 Y38.791 I-0.251 J1.077
G1 X30.031 Y40.324
G3 X29.267 Y38.276 I-0.227 J-1.082
G2 X38.276 Y29.267 I-11.267 J-20.276
G1 X38.301 Y29.236
X38.336 Y29.215
X38.375 Y29.207
X38.464 Y29.205
X38.499 Y29.199
X38.531 Y29.182
X38.557 Y29.156
X38.573 Y29.123
X38.578 Y29.087
X38.244 Y-0.946
X38.25 Y-0.985
X38.27 Y-1.02
X38.3 Y-1.045
X38.337 Y-1.058
X38.377
X38.414 Y-1.044
X38.444 Y-1.018
X38.463 Y-0.984
X38.469 Y-0.945
X38.461 Y-0.906
X38.44 Y-0.872
X38.408 Y-0.848
X38.371 Y-0.836
X38.331 Y-0.838
X38.295 Y-0.853
X37.995 Y-1.051
G2 X37.053 Y-1.994 I-19.995 J19.051
G3 X36.778 Y-3.175 I0.763 J-0.8
G1 X36.979 Y-3.723
G3 X39.093 Y-3.091 I1.038 J0.381
G1 X38.796 Y-1.814
G2 X38.791 Y-1.334 I1.077 J0.251
G1 X40.327 Y5.927
G3 X38.279 Y6.693 I-1.082 J0.229
G2 X29.307 Y-2.279 I-20.218 J11.246
G1 X29.276 Y-2.304
X29.255 Y-2.339
X29.247 Y-2.378
X29.245 Y-2.467
X29.239 Y-2.502
X29.222 Y-2.534
X29.196 Y-2.559
X29.163 Y-2.575
X29.127 Y-2.581
X-0.946 Y-2.244
X-0.985 Y-2.25
X-1.02 Y-2.27
X-1.045 Y-2.3
X-1.058 Y-2.337
Y-2.377
X-1.044 Y-2.414
X-1.018 Y-2.444
X-0.984 Y-2.463
X-0.945 Y-2.469
X-0.906 Y-2.461
X-0.872 Y-2.44
X-0.848 Y-2.409
X-0.836 Y-2.371
X-0.838 Y-2.331
X-0.853 Y-2.295
X-1.051 Y-1.995
G2 X-1.994 Y-1.053 I19.051 J19.995
G3 X-3.175 Y-0.778 I-0.8 J-0.763
G1 X-3.723 Y-0.979
G3 X-3.091 Y-3.093 I0.381 J-1.038
G1 X-1.814 Y-2.796
G2 X-1.336 Y-2.791 I0.251 J-1.077
G1 X5.969 Y-4.324
G3 X6.733 Y-2.276 I0.227 J1.082
G2 X-2.276 Y6.733 I11.267 J20.276
X-1.785 Y11.004 I3.227 J1.793
G3 X-0.552 Y15.122 I-3.703 J3.353
G2 X18 Y36.774 I18.552 J2.878
X36.774 Y17.939 I0 J-18.774
X18 Y-0.774 I-18.713 J0
X-0.552 Y15.122 I0 J18.774
X1.467 Y19.021 I3.674 J0.57
G3 X4.325 Y22.355 I-2.507 J5.042
G2 X31.675 Y13.645 I13.675 J-4.355
X4.325 Y22.355 I-13.675 J4.355
X8.107 Y25.005 I3.63 J-1.156
G3 X12.556 Y26.245 I0.301 J7.521
G2 X27.88 Y18 I5.444 J-8.245
G1 Y17.939
G2 X18 Y8.12 I-9.88 J0.061
X12.556 Y26.245 I0 J9.88
G3 X12.55 Y26.646 I-0.131 J0.199
G1 X-2.572 Y36.031
G2 X-2.618 Y36.397 I0.126 J0.202
G1 X-2.563 Y36.455 Z-3.607 F50
X-2.509 Y36.512 Z-3.627
X-2.458 Y36.566 Z-3.661
X-2.412 Y36.614 Z-3.706
X-2.371 Y36.656 Z-3.762
X-2.338 Y36.691 Z-3.828
X-2.313 Y36.717 Z-3.9
X-2.288 Y36.744 Z-3.972
X-2.255 Y36.778 Z-4.038
X-2.215 Y36.82 Z-4.094
X-2.169 Y36.869 Z-4.139
X-2.118 Y36.922 Z-4.173
X-2.064 Y36.979 Z-4.193
X-2.008 Y37.037 Z-4.2
X-1.995 Y37.051
G2 X-1.053 Y37.994 I19.995 J-19.051 F150
G3 X-0.778 Y39.175 I-0.763 J0.8
G1 X-0.979 Y39.723
G3 X-3.093 Y39.091 I-1.038 J-0.381
G1 X-2.796 Y37.814
G2 X-2.791 Y37.336 I-1.077 J-0.251
G1 X-4.324 Y30.031
G3 X-2.276 Y29.267 I1.082 J-0.227
G2 X6.733 Y38.276 I20.276 J-11.267
G1 X6.764 Y38.301
X6.785 Y38.336
X6.793 Y38.375
X6.795 Y38.464
X6.801 Y38.499
X6.818 Y38.531
X6.844 Y38.557
X6.877 Y38.573
X6.913 Y38.578
X36.946 Y38.244
X36.985 Y38.25
X37.02 Y38.27
X37.045 Y38.3
X37.058 Y38.337
Y38.377
X37.044 Y38.414
X37.018 Y38.444
X36.984 Y38.463
X36.945 Y38.469
X36.906 Y38.461
X36.872 Y38.44
X36.848 Y38.408
X36.836 Y38.371
X36.838 Y38.331
X36.853 Y38.295
X37.051 Y37.995
G2 X37.994 Y37.053 I-19.051 J-19.995
G3 X39.175 Y36.778 I0.8 J0.763
G1 X39.723 Y36.979
G3 X39.091 Y39.093 I-0.381 J1.038
G1 X37.814 Y38.796
G2 X37.336 Y38.791 I-0.251 J1.077
G1 X30.031 Y40.324
G3 X29.267 Y38.276 I-0.227 J-1.082
G2 X38.276 Y29.267 I-11.267 J-20.276
G1 X38.301 Y29.236
X38.336 Y29.215
X38.375 Y29.207
X38.464 Y29.205
X38.499 Y29.199
X38.531 Y29.182
X38.557 Y29.156
X38.573 Y29.123
X38.578 Y29.087
X38.244 Y-0.946
X38.25 Y-0.985
X38.27 Y-1.02
X38.3 Y-1.045
X38.337 Y-1.058
X38.377
X38.414 Y-1.044
X38.444 Y-1.018
X38.463 Y-0.984
X38.469 Y-0.945
X38.461 Y-0.906
X38.44 Y-0.872
X38.408 Y-0.848
X38.371 Y-0.836
X38.331 Y-0.838
X38.295 Y-0.853
X37.995 Y-1.051
G2 X37.053 Y-1.994 I-19.995 J19.051
G3 X36.778 Y-3.175 I0.763 J-0.8
G1 X36.979 Y-3.723
G3 X39.093 Y-3.091 I1.038 J0.381
G1 X38.796 Y-1.814
G2 X38.791 Y-1.334 I1.077 J0.251
G1 X40.327 Y5.927
G3 X38.279 Y6.693 I-1.082 J0.229
G2 X29.307 Y-2.279 I-20.218 J11.246
G1 X29.276 Y-2.304
X29.255 Y-2.339
X29.247 Y-2.378
X29.245 Y-2.467
X29.239 Y-2.502
X29.222 Y-2.534
X29.196 Y-2.559
X29.163 Y-2.575
X29.127 Y-2.581
X-0.946 Y-2.244
X-0.985 Y-2.25
X-1.02 Y-2.27
X-1.045 Y-2.3
X-1.058 Y-2.337
Y-2.377
X-1.044 Y-2.414
X-1.018 Y-2.444
X-0.984 Y-2.463
X-0.945 Y-2.469
X-0.906 Y-2.461
X-0.872 Y-2.44
X-0.848 Y-2.409
X-0.836 Y-2.371
X-0.838 Y-2.331
X-0.853 Y-2.295
X-1.051 Y-1.995
G2 X-1.994 Y-1.053 I19.051 J19.995
G3 X-3.175 Y-0.778 I-0.8 J-0.763
G1 X-3.723 Y-0.979
G3 X-3.091 Y-3.093 I0.381 J-1.038
G1 X-1.814 Y-2.796
G2 X-1.336 Y-2.791 I0.251 J-1.077
G1 X5.969 Y-4.324
G3 X6.733 Y-2.276 I0.227 J1.082
G2 X-2.276 Y6.733 I11.267 J20.276
X-1.785 Y11.004 I3.227 J1.793
G3 X-0.552 Y15.122 I-3.703 J3.353
G2 X18 Y36.774 I18.552 J2.878
X36.774 Y17.939 I0 J-18.774
X18 Y-0.774 I-18.713 J0
X-0.552 Y15.122 I0 J18.774
X1.467 Y19.021 I3.674 J0.57
G3 X4.325 Y22.355 I-2.507 J5.042
G2 X31.675 Y13.645 I13.675 J-4.355
X4.325 Y22.355 I-13.675 J4.355
X8.107 Y25.005 I3.63 J-1.156
G3 X12.556 Y26.245 I0.301 J7.521
G2 X27.88 Y18 I5.444 J-8.245
G1 Y17.939
G2 X18 Y8.12 I-9.88 J0.061
X12.556 Y26.245 I0 J9.88
G3 X12.55 Y26.646 I-0.131 J0.199
G1 X-2.572 Y36.031
G2 X-2.618 Y36.397 I0.126 J0.202
G1 X-2.563 Y36.455 Z-4.207 F50
X-2.509 Y36.512 Z-4.227
X-2.458 Y36.566 Z-4.261
X-2.412 Y36.614 Z-4.306
X-2.371 Y36.656 Z-4.362
X-2.338 Y36.691 Z-4.428
X-2.313 Y36.717 Z-4.5
X-2.288 Y36.744 Z-4.572
X-2.255 Y36.778 Z-4.638
X-2.215 Y36.82 Z-4.694
X-2.169 Y36.869 Z-4.739
X-2.118 Y36.922 Z-4.773
X-2.064 Y36.979 Z-4.793
X-2.008 Y37.037 Z-4.8
X-1.995 Y37.051
G2 X-1.053 Y37.994 I19.995 J-19.051 F150
G3 X-0.778 Y39.175 I-0.763 J0.8
G1 X-0.979 Y39.723
G3 X-3.093 Y39.091 I-1.038 J-0.381
G1 X-2.796 Y37.814
G2 X-2.791 Y37.336 I-1.077 J-0.251
G1 X-4.324 Y30.031
G3 X-2.276 Y29.267 I1.082 J-0.227
G2 X6.733 Y38.276 I20.276 J-11.267
G1 X6.764 Y38.301
X6.785 Y38.336
X6.793 Y38.375
X6.795 Y38.464
X6.801 Y38.499
X6.818 Y38.531
X6.844 Y38.557
X6.877 Y38.573
X6.913 Y38.578
X36.946 Y38.244
X36.985 Y38.25
X37.02 Y38.27
X37.045 Y38.3
X37.058 Y38.337
Y38.377
X37.044 Y38.414
X37.018 Y38.444
X36.984 Y38.463
X36.945 Y38.469
X36.906 Y38.461
X36.872 Y38.44
X36.848 Y38.408
X36.836 Y38.371
X36.838 Y38.331
X36.853 Y38.295
X37.051 Y37.995
G2 X37.994 Y37.053 I-19.051 J-19.995
G3 X39.175 Y36.778 I0.8 J0.763
G1 X39.723 Y36.979
G3 X39.091 Y39.093 I-0.381 J1.038
G1 X37.814 Y38.796
G2 X37.336 Y38.791 I-0.251 J1.077
G1 X30.031 Y40.324
G3 X29.267 Y38.276 I-0.227 J-1.082
G2 X38.276 Y29.267 I-11.267 J-20.276
G1 X38.301 Y29.236
X38.336 Y29.215
X38.375 Y29.207
X38.464 Y29.205
X38.499 Y29.199
X38.531 Y29.182
X38.557 Y29.156
X38.573 Y29.123
X38.578 Y29.087
X38.244 Y-0.946
X38.25 Y-0.985
X38.27 Y-1.02
X38.3 Y-1.045
X38.337 Y-1.058
X38.377
X38.414 Y-1.044
X38.444 Y-1.018
X38.463 Y-0.984
X38.469 Y-0.945
X38.461 Y-0.906
X38.44 Y-0.872
X38.408 Y-0.848
X38.371 Y-0.836
X38.331 Y-0.838
X38.295 Y-0.853
X37.995 Y-1.051
G2 X37.053 Y-1.994 I-19.995 J19.051
G3 X36.778 Y-3.175 I0.763 J-0.8
G1 X36.979 Y-3.723
G3 X39.093 Y-3.091 I1.038 J0.381
G1 X38.796 Y-1.814
G2 X38.791 Y-1.334 I1.077 J0.251
G1 X40.327 Y5.927
G3 X38.279 Y6.693 I-1.082 J0.229
G2 X29.307 Y-2.279 I-20.218 J11.246
G1 X29.276 Y-2.304
X29.255 Y-2.339
X29.247 Y-2.378
X29.245 Y-2.467
X29.239 Y-2.502
X29.222 Y-2.534
X29.196 Y-2.559
X29.163 Y-2.575
X29.127 Y-2.581
X-0.946 Y-2.244
X-0.985 Y-2.25
X-1.02 Y-2.27
X-1.045 Y-2.3
X-1.058 Y-2.337
Y-2.377
X-1.044 Y-2.414
X-1.018 Y-2.444
X-0.984 Y-2.463
X-0.945 Y-2.469
X-0.906 Y-2.461
X-0.872 Y-2.44
X-0.848 Y-2.409
X-0.836 Y-2.371
X-0.838 Y-2.331
X-0.853 Y-2.295
X-1.051 Y-1.995
G2 X-1.994 Y-1.053 I19.051 J19.995
G3 X-3.175 Y-0.778 I-0.8 J-0.763
G1 X-3.723 Y-0.979
G3 X-3.091 Y-3.093 I0.381 J-1.038
G1 X-1.814 Y-2.796
G2 X-1.336 Y-2.791 I0.251 J-1.077
G1 X5.969 Y-4.324
G3 X6.733 Y-2.276 I0.227 J1.082
G2 X-2.276 Y6.733 I11.267 J20.276
X-1.785 Y11.004 I3.227 J1.793
G3 X-0.552 Y15.122 I-3.703 J3.353
G2 X18 Y36.774 I18.552 J2.878
X36.774 Y17.939 I0 J-18.774
X18 Y-0.774 I-18.713 J0
X-0.552 Y15.122 I0 J18.774
X1.467 Y19.021 I3.674 J0.57
G3 X4.325 Y22.355 I-2.507 J5.042
G2 X31.675 Y13.645 I13.675 J-4.355
X4.325 Y22.355 I-13.675 J4.355
X8.107 Y25.005 I3.63 J-1.156
G3 X12.556 Y26.245 I0.301 J7.521
G2 X27.88 Y18 I5.444 J-8.245
G1 Y17.939
G2 X18 Y8.12 I-9.88 J0.061
X12.556 Y26.245 I0 J9.88
G3 X12.55 Y26.646 I-0.131 J0.199
G1 X-2.572 Y36.031
G2 X-2.618 Y36.397 I0.126 J0.202
G1 X-2.563 Y36.455 Z-4.807 F50
X-2.509 Y36.512 Z-4.827
X-2.458 Y36.566 Z-4.861
X-2.412 Y36.614 Z-4.906
X-2.371 Y36.656 Z-4.962
X-2.338 Y36.691 Z-5.028
X-2.313 Y36.717 Z-5.1
X-2.288 Y36.744 Z-5.172
X-2.255 Y36.778 Z-5.238
X-2.215 Y36.82 Z-5.294
X-2.169 Y36.869 Z-5.339
X-2.118 Y36.922 Z-5.373
X-2.064 Y36.979 Z-5.393
X-2.008 Y37.037 Z-5.4
X-1.995 Y37.051
G2 X-1.053 Y37.994 I19.995 J-19.051 F150
G3 X-0.778 Y39.175 I-0.763 J0.8
G1 X-0.979 Y39.723
G3 X-3.093 Y39.091 I-1.038 J-0.381
G1 X-2.796 Y37.814
G2 X-2.791 Y37.336 I-1.077 J-0.251
G1 X-4.324 Y30.031
G3 X-2.276 Y29.267 I1.082 J-0.227
G2 X6.733 Y38.276 I20.276 J-11.267
G1 X6.764 Y38.301
X6.785 Y38.336
X6.793 Y38.375
X6.795 Y38.464
X6.801 Y38.499
X6.818 Y38.531
X6.844 Y38.557
X6.877 Y38.573
X6.913 Y38.578
X36.946 Y38.244
X36.985 Y38.25
X37.02 Y38.27
X37.045 Y38.3
X37.058 Y38.337
Y38.377
X37.044 Y38.414
X37.018 Y38.444
X36.984 Y38.463
X36.945 Y38.469
X36.906 Y38.461
X36.872 Y38.44
X36.848 Y38.408
X36.836 Y38.371
X36.838 Y38.331
X36.853 Y38.295
X37.051 Y37.995
G2 X37.994 Y37.053 I-19.051 J-19.995
G3 X39.175 Y36.778 I0.8 J0.763
G1 X39.723 Y36.979
G3 X39.091 Y39.093 I-0.381 J1.038
G1 X37.814 Y38.796
G2 X37.336 Y38.791 I-0.251 J1.077
G1 X30.031 Y40.324
G3 X29.267 Y38.276 I-0.227 J-1.082
G2 X38.276 Y29.267 I-11.267 J-20.276
G1 X38.301 Y29.236
X38.336 Y29.215
X38.375 Y29.207
X38.464 Y29.205
X38.499 Y29.199
X38.531 Y29.182
X38.557 Y29.156
X38.573 Y29.123
X38.578 Y29.087
X38.244 Y-0.946
X38.25 Y-0.985
X38.27 Y-1.02
X38.3 Y-1.045
X38.337 Y-1.058
X38.377
X38.414 Y-1.044
X38.444 Y-1.018
X38.463 Y-0.984
X38.469 Y-0.945
X38.461 Y-0.906
X38.44 Y-0.872
X38.408 Y-0.848
X38.371 Y-0.836
X38.331 Y-0.838
X38.295 Y-0.853
X37.995 Y-1.051
G2 X37.053 Y-1.994 I-19.995 J19.051
G3 X36.778 Y-3.175 I0.763 J-0.8
G1 X36.979 Y-3.723
G3 X39.093 Y-3.091 I1.038 J0.381
G1 X38.796 Y-1.814
G2 X38.791 Y-1.334 I1.077 J0.251
G1 X40.327 Y5.927
G3 X38.279 Y6.693 I-1.082 J0.229
G2 X29.307 Y-2.279 I-20.218 J11.246
G1 X29.276 Y-2.304
X29.255 Y-2.339
X29.247 Y-2.378
X29.245 Y-2.467
X29.239 Y-2.502
X29.222 Y-2.534
X29.196 Y-2.559
X29.163 Y-2.575
X29.127 Y-2.581
X-0.946 Y-2.244
X-0.985 Y-2.25
X-1.02 Y-2.27
X-1.045 Y-2.3
X-1.058 Y-2.337
Y-2.377
X-1.044 Y-2.414
X-1.018 Y-2.444
X-0.984 Y-2.463
X-0.945 Y-2.469
X-0.906 Y-2.461
X-0.872 Y-2.44
X-0.848 Y-2.409
X-0.836 Y-2.371
X-0.838 Y-2.331
X-0.853 Y-2.295
X-1.051 Y-1.995
G2 X-1.994 Y-1.053 I19.051 J19.995
G3 X-3.175 Y-0.778 I-0.8 J-0.763
G1 X-3.723 Y-0.979
G3 X-3.091 Y-3.093 I0.381 J-1.038
G1 X-1.814 Y-2.796
G2 X-1.336 Y-2.791 I0.251 J-1.077
G1 X5.969 Y-4.324
G3 X6.733 Y-2.276 I0.227 J1.082
G2 X-2.276 Y6.733 I11.267 J20.276
X-1.785 Y11.004 I3.227 J1.793
G3 X-0.552 Y15.122 I-3.703 J3.353
G2 X18 Y36.774 I18.552 J2.878
X36.774 Y17.939 I0 J-18.774
X18 Y-0.774 I-18.713 J0
X-0.552 Y15.122 I0 J18.774
X1.467 Y19.021 I3.674 J0.57
G3 X4.325 Y22.355 I-2.507 J5.042
G2 X31.675 Y13.645 I13.675 J-4.355
X4.325 Y22.355 I-13.675 J4.355
X8.107 Y25.005 I3.63 J-1.156
G3 X12.556 Y26.245 I0.301 J7.521
G2 X27.88 Y18 I5.444 J-8.245
G1 Y17.939
G2 X18 Y8.12 I-9.88 J0.061
X12.556 Y26.245 I0 J9.88
G3 X12.55 Y26.646 I-0.131 J0.199
G1 X-2.572 Y36.031
G2 X-2.618 Y36.397 I0.126 J0.202
G1 X-2.563 Y36.455 Z-5.407 F50
X-2.509 Y36.512 Z-5.427
X-2.458 Y36.566 Z-5.461
X-2.412 Y36.614 Z-5.506
X-2.371 Y36.656 Z-5.562
X-2.338 Y36.691 Z-5.628
X-2.313 Y36.717 Z-5.7
X-2.288 Y36.744 Z-5.772
X-2.255 Y36.778 Z-5.838
X-2.215 Y36.82 Z-5.894
X-2.169 Y36.869 Z-5.939
X-2.118 Y36.922 Z-5.973
X-2.064 Y36.979 Z-5.993
X-2.008 Y37.037 Z-6
X-1.995 Y37.051
G2 X-1.053 Y37.994 I19.995 J-19.051 F150
G3 X-0.778 Y39.175 I-0.763 J0.8
G1 X-0.979 Y39.723
G3 X-3.093 Y39.091 I-1.038 J-0.381
G1 X-2.796 Y37.814
G2 X-2.791 Y37.336 I-1.077 J-0.251
G1 X-4.324 Y30.031
G3 X-2.276 Y29.267 I1.082 J-0.227
G2 X6.733 Y38.276 I20.276 J-11.267
G1 X6.764 Y38.301
X6.785 Y38.336
X6.793 Y38.375
X6.795 Y38.464
X6.801 Y38.499
X6.818 Y38.531
X6.844 Y38.557
X6.877 Y38.573
X6.913 Y38.578
X36.946 Y38.244
X36.985 Y38.25
X37.02 Y38.27
X37.045 Y38.3
X37.058 Y38.337
Y38.377
X37.044 Y38.414
X37.018 Y38.444
X36.984 Y38.463
X36.945 Y38.469
X36.906 Y38.461
X36.872 Y38.44
X36.848 Y38.408
X36.836 Y38.371
X36.838 Y38.331
X36.853 Y38.295
X37.051 Y37.995
G2 X37.994 Y37.053 I-19.051 J-19.995
G3 X39.175 Y36.778 I0.8 J0.763
G1 X39.723 Y36.979
G3 X39.091 Y39.093 I-0.381 J1.038
G1 X37.814 Y38.796
G2 X37.336 Y38.791 I-0.251 J1.077
G1 X30.031 Y40.324
G3 X29.267 Y38.276 I-0.227 J-1.082
G2 X38.276 Y29.267 I-11.267 J-20.276
G1 X38.301 Y29.236
X38.336 Y29.215
X38.375 Y29.207
X38.464 Y29.205
X38.499 Y29.199
X38.531 Y29.182
X38.557 Y29.156
X38.573 Y29.123
X38.578 Y29.087
X38.244 Y-0.946
X38.25 Y-0.985
X38.27 Y-1.02
X38.3 Y-1.045
X38.337 Y-1.058
X38.377
X38.414 Y-1.044
X38.444 Y-1.018
X38.463 Y-0.984
X38.469 Y-0.945
X38.461 Y-0.906
X38.44 Y-0.872
X38.408 Y-0.848
X38.371 Y-0.836
X38.331 Y-0.838
X38.295 Y-0.853
X37.995 Y-1.051
G2 X37.053 Y-1.994 I-19.995 J19.051
G3 X36.778 Y-3.175 I0.763 J-0.8
G1 X36.979 Y-3.723
G3 X39.093 Y-3.091 I1.038 J0.381
G1 X38.796 Y-1.814
G2 X38.791 Y-1.334 I1.077 J0.251
G1 X40.327 Y5.927
G3 X38.279 Y6.693 I-1.082 J0.229
G2 X29.307 Y-2.279 I-20.218 J11.246
G1 X29.276 Y-2.304
X29.255 Y-2.339
X29.247 Y-2.378
X29.245 Y-2.467
X29.239 Y-2.502
X29.222 Y-2.534
X29.196 Y-2.559
X29.163 Y-2.575
X29.127 Y-2.581
X-0.946 Y-2.244
X-0.985 Y-2.25
X-1.02 Y-2.27
X-1.045 Y-2.3
X-1.058 Y-2.337
Y-2.377
X-1.044 Y-2.414
X-1.018 Y-2.444
X-0.984 Y-2.463
X-0.945 Y-2.469
X-0.906 Y-2.461
X-0.872 Y-2.44
X-0.848 Y-2.409
X-0.836 Y-2.371
X-0.838 Y-2.331
X-0.853 Y-2.295
X-1.051 Y-1.995
G2 X-1.994 Y-1.053 I19.051 J19.995
G3 X-3.175 Y-0.778 I-0.8 J-0.763
G1 X-3.723 Y-0.979
G3 X-3.091 Y-3.093 I0.381 J-1.038
G1 X-1.814 Y-2.796
G2 X-1.336 Y-2.791 I0.251 J-1.077
G1 X5.969 Y-4.324
G3 X6.733 Y-2.276 I0.227 J1.082
G2 X-2.276 Y6.733 I11.267 J20.276
X-1.785 Y11.004 I3.227 J1.793
G3 X-0.552 Y15.122 I-3.703 J3.353
G2 X18 Y36.774 I18.552 J2.878
X36.774 Y17.939 I0 J-18.774
X18 Y-0.774 I-18.713 J0
X-0.552 Y15.122 I0 J18.774
X1.467 Y19.021 I3.674 J0.57
G3 X4.325 Y22.355 I-2.507 J5.042
G2 X31.675 Y13.645 I13.675 J-4.355
X4.325 Y22.355 I-13.675 J4.355
X8.107 Y25.005 I3.63 J-1.156
G3 X12.556 Y26.245 I0.301 J7.521
G2 X27.88 Y18 I5.444 J-8.245
G1 Y17.939
G2 X18 Y8.12 I-9.88 J0.061
X12.556 Y26.245 I0 J9.88
G3 X12.55 Y26.646 I-0.131 J0.199
G1 X-2.572 Y36.031
G2 X-2.618 Y36.397 I0.126 J0.202
G1 X-2.563 Y36.455 Z-6.007 F50
X-2.509 Y36.512 Z-6.027
X-2.458 Y36.566 Z-6.061
X-2.412 Y36.614 Z-6.106
X-2.371 Y36.656 Z-6.162
X-2.338 Y36.691 Z-6.228
X-2.313 Y36.717 Z-6.3
X-2.288 Y36.744 Z-6.372
X-2.255 Y36.778 Z-6.438
X-2.215 Y36.82 Z-6.494
X-2.169 Y36.869 Z-6.539
X-2.118 Y36.922 Z-6.573
X-2.064 Y36.979 Z-6.593
X-2.008 Y37.037 Z-6.6
X-1.995 Y37.051
G2 X-1.053 Y37.994 I19.995 J-19.051 F150
G3 X-0.778 Y39.175 I-0.763 J0.8
G1 X-0.979 Y39.723
G3 X-3.093 Y39.091 I-1.038 J-0.381
G1 X-2.796 Y37.814
G2 X-2.791 Y37.336 I-1.077 J-0.251
G1 X-4.324 Y30.031
G3 X-2.276 Y29.267 I1.082 J-0.227
G2 X6.733 Y38.276 I20.276 J-11.267
G1 X6.764 Y38.301
X6.785 Y38.336
X6.793 Y38.375
X6.795 Y38.464
X6.801 Y38.499
X6.818 Y38.531
X6.844 Y38.557
X6.877 Y38.573
X6.913 Y38.578
X36.946 Y38.244
X36.985 Y38.25
X37.02 Y38.27
X37.045 Y38.3
X37.058 Y38.337
Y38.377
X37.044 Y38.414
X37.018 Y38.444
X36.984 Y38.463
X36.945 Y38.469
X36.906 Y38.461
X36.872 Y38.44
X36.848 Y38.408
X36.836 Y38.371
X36.838 Y38.331
X36.853 Y38.295
X37.051 Y37.995
G2 X37.994 Y37.053 I-19.051 J-19.995
G3 X39.175 Y36.778 I0.8 J0.763
G1 X39.723 Y36.979
G3 X39.091 Y39.093 I-0.381 J1.038
G1 X37.814 Y38.796
G2 X37.336 Y38.791 I-0.251 J1.077
G1 X30.031 Y40.324
G3 X29.267 Y38.276 I-0.227 J-1.082
G2 X38.276 Y29.267 I-11.267 J-20.276
G1 X38.301 Y29.236
X38.336 Y29.215
X38.375 Y29.207
X38.464 Y29.205
X38.499 Y29.199
X38.531 Y29.182
X38.557 Y29.156
X38.573 Y29.123
X38.578 Y29.087
X38.244 Y-0.946
X38.25 Y-0.985
X38.27 Y-1.02
X38.3 Y-1.045
X38.337 Y-1.058
X38.377
X38.414 Y-1.044
X38.444 Y-1.018
X38.463 Y-0.984
X38.469 Y-0.945
X38.461 Y-0.906
X38.44 Y-0.872
X38.408 Y-0.848
X38.371 Y-0.836
X38.331 Y-0.838
X38.295 Y-0.853
X37.995 Y-1.051
G2 X37.053 Y-1.994 I-19.995 J19.051
G3 X36.778 Y-3.175 I0.763 J-0.8
G1 X36.979 Y-3.723
G3 X39.093 Y-3.091 I1.038 J0.381
G1 X38.796 Y-1.814
G2 X38.791 Y-1.334 I1.077 J0.251
G1 X40.327 Y5.927
G3 X38.279 Y6.693 I-1.082 J0.229
G2 X29.307 Y-2.279 I-20.218 J11.246
G1 X29.276 Y-2.304
X29.255 Y-2.339
X29.247 Y-2.378
X29.245 Y-2.467
X29.239 Y-2.502
X29.222 Y-2.534
X29.196 Y-2.559
X29.163 Y-2.575
X29.127 Y-2.581
X-0.946 Y-2.244
X-0.985 Y-2.25
X-1.02 Y-2.27
X-1.045 Y-2.3
X-1.058 Y-2.337
Y-2.377
X-1.044 Y-2.414
X-1.018 Y-2.444
X-0.984 Y-2.463
X-0.945 Y-2.469
X-0.906 Y-2.461
X-0.872 Y-2.44
X-0.848 Y-2.409
X-0.836 Y-2.371
X-0.838 Y-2.331
X-0.853 Y-2.295
X-1.051 Y-1.995
G2 X-1.994 Y-1.053 I19.051 J19.995
G3 X-3.175 Y-0.778 I-0.8 J-0.763
G1 X-3.723 Y-0.979
G3 X-3.091 Y-3.093 I0.381 J-1.038
G1 X-1.814 Y-2.796
G2 X-1.336 Y-2.791 I0.251 J-1.077
G1 X5.969 Y-4.324
G3 X6.733 Y-2.276 I0.227 J1.082
G2 X-2.276 Y6.733 I11.267 J20.276
X-1.785 Y11.004 I3.227 J1.793
G3 X-0.552 Y15.122 I-3.703 J3.353
G2 X18 Y36.774 I18.552 J2.878
X36.774 Y17.939 I0 J-18.774
X18 Y-0.774 I-18.713 J0
X-0.552 Y15.122 I0 J18.774
X1.467 Y19.021 I3.674 J0.57
G3 X4.325 Y22.355 I-2.507 J5.042
G2 X31.675 Y13.645 I13.675 J-4.355
X4.325 Y22.355 I-13.675 J4.355
X8.107 Y25.005 I3.63 J-1.156
G3 X12.556 Y26.245 I0.301 J7.521
G2 X27.88 Y18 I5.444 J-8.245
G1 Y17.939
G2 X18 Y8.12 I-9.88 J0.061
X12.556 Y26.245 I0 J9.88
G3 X12.55 Y26.646 I-0.131 J0.199
G1 X-2.572 Y36.031
G2 X-2.618 Y36.397 I0.126 J0.202
G1 X-2.563 Y36.455 Z-6.607 F50
X-2.509 Y36.512 Z-6.627
X-2.458 Y36.566 Z-6.661
X-2.412 Y36.614 Z-6.706
X-2.371 Y36.656 Z-6.762
X-2.338 Y36.691 Z-6.828
X-2.313 Y36.717 Z-6.9
X-2.288 Y36.744 Z-6.972
X-2.255 Y36.778 Z-7.038
X-2.215 Y36.82 Z-7.094
X-2.169 Y36.869 Z-7.139
X-2.118 Y36.922 Z-7.173
X-2.064 Y36.979 Z-7.193
X-2.008 Y37.037 Z-7.2
X-1.995 Y37.051
G2 X-1.053 Y37.994 I19.995 J-19.051 F150
G3 X-0.778 Y39.175 I-0.763 J0.8
G1 X-0.979 Y39.723
G3 X-3.093 Y39.091 I-1.038 J-0.381
G1 X-2.796 Y37.814
G2 X-2.791 Y37.336 I-1.077 J-0.251
G1 X-4.324 Y30.031
G3 X-2.276 Y29.267 I1.082 J-0.227
G2 X6.733 Y38.276 I20.276 J-11.267
G1 X6.764 Y38.301
X6.785 Y38.336
X6.793 Y38.375
X6.795 Y38.464
X6.801 Y38.499
X6.818 Y38.531
X6.844 Y38.557
X6.877 Y38.573
X6.913 Y38.578
X36.946 Y38.244
X36.985 Y38.25
X37.02 Y38.27
X37.045 Y38.3
X37.058 Y38.337
Y38.377
X37.044 Y38.414
X37.018 Y38.444
X36.984 Y38.463
X36.945 Y38.469
X36.906 Y38.461
X36.872 Y38.44
X36.848 Y38.408
X36.836 Y38.371
X36.838 Y38.331
X36.853 Y38.295
X37.051 Y37.995
G2 X37.994 Y37.053 I-19.051 J-19.995
G3 X39.175 Y36.778 I0.8 J0.763
G1 X39.723 Y36.979
G3 X39.091 Y39.093 I-0.381 J1.038
G1 X37.814 Y38.796
G2 X37.336 Y38.791 I-0.251 J1.077
G1 X30.031 Y40.324
G3 X29.267 Y38.276 I-0.227 J-1.082
G2 X38.276 Y29.267 I-11.267 J-20.276
G1 X38.301 Y29.236
X38.336 Y29.215
X38.375 Y29.207
X38.464 Y29.205
X38.499 Y29.199
X38.531 Y29.182
X38.557 Y29.156
X38.573 Y29.123
X38.578 Y29.087
X38.244 Y-0.946
X38.25 Y-0.985
X38.27 Y-1.02
X38.3 Y-1.045
X38.337 Y-1.058
X38.377
X38.414 Y-1.044
X38.444 Y-1.018
X38.463 Y-0.984
X38.469 Y-0.945
X38.461 Y-0.906
X38.44 Y-0.872
X38.408 Y-0.848
X38.371 Y-0.836
X38.331 Y-0.838
X38.295 Y-0.853
X37.995 Y-1.051
G2 X37.053 Y-1.994 I-19.995 J19.051
G3 X36.778 Y-3.175 I0.763 J-0.8
G1 X36.979 Y-3.723
G3 X39.093 Y-3.091 I1.038 J0.381
G1 X38.796 Y-1.814
G2 X38.791 Y-1.334 I1.077 J0.251
G1 X40.327 Y5.927
G3 X38.279 Y6.693 I-1.082 J0.229
G2 X29.307 Y-2.279 I-20.218 J11.246
G1 X29.276 Y-2.304
X29.255 Y-2.339
X29.247 Y-2.378
X29.245 Y-2.467
X29.239 Y-2.502
X29.222 Y-2.534
X29.196 Y-2.559
X29.163 Y-2.575
X29.127 Y-2.581
X-0.946 Y-2.244
X-0.985 Y-2.25
X-1.02 Y-2.27
X-1.045 Y-2.3
X-1.058 Y-2.337
Y-2.377
X-1.044 Y-2.414
X-1.018 Y-2.444
X-0.984 Y-2.463
X-0.945 Y-2.469
X-0.906 Y-2.461
X-0.872 Y-2.44
X-0.848 Y-2.409
X-0.836 Y-2.371
X-0.838 Y-2.331
X-0.853 Y-2.295
X-1.051 Y-1.995
G2 X-1.994 Y-1.053 I19.051 J19.995
G3 X-3.175 Y-0.778 I-0.8 J-0.763
G1 X-3.723 Y-0.979
G3 X-3.091 Y-3.093 I0.381 J-1.038
G1 X-1.814 Y-2.796
G2 X-1.336 Y-2.791 I0.251 J-1.077
G1 X5.969 Y-4.324
G3 X6.733 Y-2.276 I0.227 J1.082
G2 X-2.276 Y6.733 I11.267 J20.276
X-1.785 Y11.004 I3.227 J1.793
G3 X-0.552 Y15.122 I-3.703 J3.353
G2 X18 Y36.774 I18.552 J2.878
X36.774 Y17.939 I0 J-18.774
X18 Y-0.774 I-18.713 J0
X-0.552 Y15.122 I0 J18.774
X1.467 Y19.021 I3.674 J0.57
G3 X4.325 Y22.355 I-2.507 J5.042
G2 X31.675 Y13.645 I13.675 J-4.355
X4.325 Y22.355 I-13.675 J4.355
X8.107 Y25.005 I3.63 J-1.156
G3 X12.556 Y26.245 I0.301 J7.521
G2 X27.88 Y18 I5.444 J-8.245
G1 Y17.939
G2 X18 Y8.12 I-9.88 J0.061
X12.556 Y26.245 I0 J9.88
G3 X12.55 Y26.646 I-0.131 J0.199
G1 X-2.572 Y36.031
G2 X-2.618 Y36.397 I0.126 J0.202
G1 X-2.563 Y36.455 Z-7.207 F50
X-2.509 Y36.512 Z-7.227
X-2.458 Y36.566 Z-7.261
X-2.412 Y36.614 Z-7.306
X-2.371 Y36.656 Z-7.362
X-2.338 Y36.691 Z-7.428
X-2.313 Y36.717 Z-7.5
X-2.288 Y36.744 Z-7.572
X-2.255 Y36.778 Z-7.638
X-2.215 Y36.82 Z-7.694
X-2.169 Y36.869 Z-7.739
X-2.118 Y36.922 Z-7.773
X-2.064 Y36.979 Z-7.793
X-2.008 Y37.037 Z-7.8
X-1.995 Y37.051
G2 X-1.053 Y37.994 I19.995 J-19.051 F150
G3 X-0.778 Y39.175 I-0.763 J0.8
G1 X-0.979 Y39.723
G3 X-3.093 Y39.091 I-1.038 J-0.381
G1 X-2.796 Y37.814
G2 X-2.791 Y37.336 I-1.077 J-0.251
G1 X-4.324 Y30.031
G3 X-2.276 Y29.267 I1.082 J-0.227
G2 X6.733 Y38.276 I20.276 J-11.267
G1 X6.764 Y38.301
X6.785 Y38.336
X6.793 Y38.375
X6.795 Y38.464
X6.801 Y38.499
X6.818 Y38.531
X6.844 Y38.557
X6.877 Y38.573
X6.913 Y38.578
X36.946 Y38.244
X36.985 Y38.25
X37.02 Y38.27
X37.045 Y38.3
X37.058 Y38.337
Y38.377
X37.044 Y38.414
X37.018 Y38.444
X36.984 Y38.463
X36.945 Y38.469
X36.906 Y38.461
X36.872 Y38.44
X36.848 Y38.408
X36.836 Y38.371
X36.838 Y38.331
X36.853 Y38.295
X37.051 Y37.995
G2 X37.994 Y37.053 I-19.051 J-19.995
G3 X39.175 Y36.778 I0.8 J0.763
G1 X39.723 Y36.979
G3 X39.091 Y39.093 I-0.381 J1.038
G1 X37.814 Y38.796
G2 X37.336 Y38.791 I-0.251 J1.077
G1 X30.031 Y40.324
G3 X29.267 Y38.276 I-0.227 J-1.082
G2 X38.276 Y29.267 I-11.267 J-20.276
G1 X38.301 Y29.236
X38.336 Y29.215
X38.375 Y29.207
X38.464 Y29.205
X38.499 Y29.199
X38.531 Y29.182
X38.557 Y29.156
X38.573 Y29.123
X38.578 Y29.087
X38.244 Y-0.946
X38.25 Y-0.985
X38.27 Y-1.02
X38.3 Y-1.045
X38.337 Y-1.058
X38.377
X38.414 Y-1.044
X38.444 Y-1.018
X38.463 Y-0.984
X38.469 Y-0.945
X38.461 Y-0.906
X38.44 Y-0.872
X38.408 Y-0.848
X38.371 Y-0.836
X38.331 Y-0.838
X38.295 Y-0.853
X37.995 Y-1.051
G2 X37.053 Y-1.994 I-19.995 J19.051
G3 X36.778 Y-3.175 I0.763 J-0.8
G1 X36.979 Y-3.723
G3 X39.093 Y-3.091 I1.038 J0.381
G1 X38.796 Y-1.814
G2 X38.791 Y-1.334 I1.077 J0.251
G1 X40.327 Y5.927
G3 X38.279 Y6.693 I-1.082 J0.229
G2 X29.307 Y-2.279 I-20.218 J11.246
G1 X29.276 Y-2.304
X29.255 Y-2.339
X29.247 Y-2.378
X29.245 Y-2.467
X29.239 Y-2.502
X29.222 Y-2.534
X29.196 Y-2.559
X29.163 Y-2.575
X29.127 Y-2.581
X-0.946 Y-2.244
X-0.985 Y-2.25
X-1.02 Y-2.27
X-1.045 Y-2.3
X-1.058 Y-2.337
Y-2.377
X-1.044 Y-2.414
X-1.018 Y-2.444
X-0.984 Y-2.463
X-0.945 Y-2.469
X-0.906 Y-2.461
X-0.872 Y-2.44
X-0.848 Y-2.409
X-0.836 Y-2.371
X-0.838 Y-2.331
X-0.853 Y-2.295
X-1.051 Y-1.995
G2 X-1.994 Y-1.053 I19.051 J19.995
G3 X-3.175 Y-0.778 I-0.8 J-0.763
G1 X-3.723 Y-0.979
G3 X-3.091 Y-3.093 I0.381 J-1.038
G1 X-1.814 Y-2.796
G2 X-1.336 Y-2.791 I0.251 J-1.077
G1 X5.969 Y-4.324
G3 X6.733 Y-2.276 I0.227 J1.082
G2 X-2.276 Y6.733 I11.267 J20.276
X-1.785 Y11.004 I3.227 J1.793
G3 X-0.552 Y15.122 I-3.703 J3.353
G2 X18 Y36.774 I18.552 J2.878
X36.774 Y17.939 I0 J-18.774
X18 Y-0.774 I-18.713 J0
X-0.552 Y15.122 I0 J18.774
X1.467 Y19.021 I3.674 J0.57
G3 X4.325 Y22.355 I-2.507 J5.042
G2 X31.675 Y13.645 I13.675 J-4.355
X4.325 Y22.355 I-13.675 J4.355
X8.107 Y25.005 I3.63 J-1.156
G3 X12.556 Y26.245 I0.301 J7.521
G2 X27.88 Y18 I5.444 J-8.245
G1 Y17.939
G2 X18 Y8.12 I-9.88 J0.061
X12.556 Y26.245 I0 J9.88
G3 X12.55 Y26.646 I-0.131 J0.199
G1 X-2.572 Y36.031
G2 X-2.618 Y36.397 I0.126 J0.202
G1 X-2.563 Y36.455 Z-7.807 F50
X-2.509 Y36.512 Z-7.827
X-2.458 Y36.566 Z-7.861
X-2.412 Y36.614 Z-7.906
X-2.371 Y36.656 Z-7.962
X-2.338 Y36.691 Z-8.028
X-2.313 Y36.717 Z-8.1
X-2.288 Y36.744 Z-8.172
X-2.255 Y36.778 Z-8.238
X-2.215 Y36.82 Z-8.294
X-2.169 Y36.869 Z-8.339
X-2.118 Y36.922 Z-8.373
X-2.064 Y36.979 Z-8.393
X-2.008 Y37.037 Z-8.4
X-1.995 Y37.051
G2 X-1.053 Y37.994 I19.995 J-19.051 F150
G3 X-0.778 Y39.175 I-0.763 J0.8
G1 X-0.979 Y39.723
G3 X-3.093 Y39.091 I-1.038 J-0.381
G1 X-2.796 Y37.814
G2 X-2.791 Y37.336 I-1.077 J-0.251
G1 X-4.324 Y30.031
G3 X-2.276 Y29.267 I1.082 J-0.227
G2 X6.733 Y38.276 I20.276 J-11.267
G1 X6.764 Y38.301
X6.785 Y38.336
X6.793 Y38.375
X6.795 Y38.464
X6.801 Y38.499
X6.818 Y38.531
X6.844 Y38.557
X6.877 Y38.573
X6.913 Y38.578
X36.946 Y38.244
X36.985 Y38.25
X37.02 Y38.27
X37.045 Y38.3
X37.058 Y38.337
Y38.377
X37.044 Y38.414
X37.018 Y38.444
X36.984 Y38.463
X36.945 Y38.469
X36.906 Y38.461
X36.872 Y38.44
X36.848 Y38.408
X36.836 Y38.371
X36.838 Y38.331
X36.853 Y38.295
X37.051 Y37.995
G2 X37.994 Y37.053 I-19.051 J-19.995
G3 X39.175 Y36.778 I0.8 J0.763
G1 X39.723 Y36.979
G3 X39.091 Y39.093 I-0.381 J1.038
G1 X37.814 Y38.796
G2 X37.336 Y38.791 I-0.251 J1.077
G1 X30.031 Y40.324
G3 X29.267 Y38.276 I-0.227 J-1.082
G2 X38.276 Y29.267 I-11.267 J-20.276
G1 X38.301 Y29.236
X38.336 Y29.215
X38.375 Y29.207
X38.464 Y29.205
X38.499 Y29.199
X38.531 Y29.182
X38.557 Y29.156
X38.573 Y29.123
X38.578 Y29.087
X38.244 Y-0.946
X38.25 Y-0.985
X38.27 Y-1.02
X38.3 Y-1.045
X38.337 Y-1.058
X38.377
X38.414 Y-1.044
X38.444 Y-1.018
X38.463 Y-0.984
X38.469 Y-0.945
X38.461 Y-0.906
X38.44 Y-0.872
X38.408 Y-0.848
X38.371 Y-0.836
X38.331 Y-0.838
X38.295 Y-0.853
X37.995 Y-1.051
G2 X37.053 Y-1.994 I-19.995 J19.051
G3 X36.778 Y-3.175 I0.763 J-0.8
G1 X36.979 Y-3.723
G3 X39.093 Y-3.091 I1.038 J0.381
G1 X38.796 Y-1.814
G2 X38.791 Y-1.334 I1.077 J0.251
G1 X40.327 Y5.927
G3 X38.279 Y6.693 I-1.082 J0.229
G2 X29.307 Y-2.279 I-20.218 J11.246
G1 X29.276 Y-2.304
X29.255 Y-2.339
X29.247 Y-2.378
X29.245 Y-2.467
X29.239 Y-2.502
X29.222 Y-2.534
X29.196 Y-2.559
X29.163 Y-2.575
X29.127 Y-2.581
X-0.946 Y-2.244
X-0.985 Y-2.25
X-1.02 Y-2.27
X-1.045 Y-2.3
X-1.058 Y-2.337
Y-2.377
X-1.044 Y-2.414
X-1.018 Y-2.444
X-0.984 Y-2.463
X-0.945 Y-2.469
X-0.906 Y-2.461
X-0.872 Y-2.44
X-0.848 Y-2.409
X-0.836 Y-2.371
X-0.838 Y-2.331
X-0.853 Y-2.295
X-1.051 Y-1.995
G2 X-1.994 Y-1.053 I19.051 J19.995
G3 X-3.175 Y-0.778 I-0.8 J-0.763
G1 X-3.723 Y-0.979
G3 X-3.091 Y-3.093 I0.381 J-1.038
G1 X-1.814 Y-2.796
G2 X-1.336 Y-2.791 I0.251 J-1.077
G1 X5.969 Y-4.324
G3 X6.733 Y-2.276 I0.227 J1.082
G2 X-2.276 Y6.733 I11.267 J20.276
X-1.785 Y11.004 I3.227 J1.793
G3 X-0.552 Y15.122 I-3.703 J3.353
G2 X18 Y36.774 I18.552 J2.878
X36.774 Y17.939 I0 J-18.774
X18 Y-0.774 I-18.713 J0
X-0.552 Y15.122 I0 J18.774
X1.467 Y19.021 I3.674 J0.57
G3 X4.325 Y22.355 I-2.507 J5.042
G2 X31.675 Y13.645 I13.675 J-4.355
X4.325 Y22.355 I-13.675 J4.355
X8.107 Y25.005 I3.63 J-1.156
G3 X12.556 Y26.245 I0.301 J7.521
G2 X27.88 Y18 I5.444 J-8.245
G1 Y17.939
G2 X18 Y8.12 I-9.88 J0.061
X12.556 Y26.245 I0 J9.88
G3 X12.55 Y26.646 I-0.131 J0.199
G1 X-2.572 Y36.031
G2 X-2.618 Y36.397 I0.126 J0.202
G1 X-2.563 Y36.455 Z-8.407 F50
X-2.509 Y36.512 Z-8.427
X-2.458 Y36.566 Z-8.461
X-2.412 Y36.614 Z-8.506
X-2.371 Y36.656 Z-8.562
X-2.338 Y36.691 Z-8.628
X-2.313 Y36.717 Z-8.7
X-2.288 Y36.744 Z-8.772
X-2.255 Y36.778 Z-8.838
X-2.215 Y36.82 Z-8.894
X-2.169 Y36.869 Z-8.939
X-2.118 Y36.922 Z-8.973
X-2.064 Y36.979 Z-8.993
X-2.008 Y37.037 Z-9
X-1.995 Y37.051
G2 X-1.053 Y37.994 I19.995 J-19.051 F150
G3 X-0.778 Y39.175 I-0.763 J0.8
G1 X-0.979 Y39.723
G3 X-3.093 Y39.091 I-1.038 J-0.381
G1 X-2.796 Y37.814
G2 X-2.791 Y37.336 I-1.077 J-0.251
G1 X-4.324 Y30.031
G3 X-2.276 Y29.267 I1.082 J-0.227
G2 X6.733 Y38.276 I20.276 J-11.267
G1 X6.764 Y38.301
X6.785 Y38.336
X6.793 Y38.375
X6.795 Y38.464
X6.801 Y38.499
X6.818 Y38.531
X6.844 Y38.557
X6.877 Y38.573
X6.913 Y38.578
X36.946 Y38.244
X36.985 Y38.25
X37.02 Y38.27
X37.045 Y38.3
X37.058 Y38.337
Y38.377
X37.044 Y38.414
X37.018 Y38.444
X36.984 Y38.463
X36.945 Y38.469
X36.906 Y38.461
X36.872 Y38.44
X36.848 Y38.408
X36.836 Y38.371
X36.838 Y38.331
X36.853 Y38.295
X37.051 Y37.995
G2 X37.994 Y37.053 I-19.051 J-19.995
G3 X39.175 Y36.778 I0.8 J0.763
G1 X39.723 Y36.979
G3 X39.091 Y39.093 I-0.381 J1.038
G1 X37.814 Y38.796
G2 X37.336 Y38.791 I-0.251 J1.077
G1 X30.031 Y40.324
G3 X29.267 Y38.276 I-0.227 J-1.082
G2 X38.276 Y29.267 I-11.267 J-20.276
G1 X38.301 Y29.236
X38.336 Y29.215
X38.375 Y29.207
X38.464 Y29.205
X38.499 Y29.199
X38.531 Y29.182
X38.557 Y29.156
X38.573 Y29.123
X38.578 Y29.087
X38.244 Y-0.946
X38.25 Y-0.985
X38.27 Y-1.02
X38.3 Y-1.045
X38.337 Y-1.058
X38.377
X38.414 Y-1.044
X38.444 Y-1.018
X38.463 Y-0.984
X38.469 Y-0.945
X38.461 Y-0.906
X38.44 Y-0.872
X38.408 Y-0.848
X38.371 Y-0.836
X38.331 Y-0.838
X38.295 Y-0.853
X37.995 Y-1.051
G2 X37.053 Y-1.994 I-19.995 J19.051
G3 X36.778 Y-3.175 I0.763 J-0.8
G1 X36.979 Y-3.723
G3 X39.093 Y-3.091 I1.038 J0.381
G1 X38.796 Y-1.814
G2 X38.791 Y-1.334 I1.077 J0.251
G1 X40.327 Y5.927
G3 X38.279 Y6.693 I-1.082 J0.229
G2 X29.307 Y-2.279 I-20.218 J11.246
G1 X29.276 Y-2.304
X29.255 Y-2.339
X29.247 Y-2.378
X29.245 Y-2.467
X29.239 Y-2.502
X29.222 Y-2.534
X29.196 Y-2.559
X29.163 Y-2.575
X29.127 Y-2.581
X-0.946 Y-2.244
X-0.985 Y-2.25
X-1.02 Y-2.27
X-1.045 Y-2.3
X-1.058 Y-2.337
Y-2.377
X-1.044 Y-2.414
X-1.018 Y-2.444
X-0.984 Y-2.463
X-0.945 Y-2.469
X-0.906 Y-2.461
X-0.872 Y-2.44
X-0.848 Y-2.409
X-0.836 Y-2.371
X-0.838 Y-2.331
X-0.853 Y-2.295
X-1.051 Y-1.995
G2 X-1.994 Y-1.053 I19.051 J19.995
G3 X-3.175 Y-0.778 I-0.8 J-0.763
G1 X-3.723 Y-0.979
G3 X-3.091 Y-3.093 I0.381 J-1.038
G1 X-1.814 Y-2.796
G2 X-1.336 Y-2.791 I0.251 J-1.077
G1 X5.969 Y-4.324
G3 X6.733 Y-2.276 I0.227 J1.082
G2 X-2.276 Y6.733 I11.267 J20.276
X-1.785 Y11.004 I3.227 J1.793
G3 X-0.552 Y15.122 I-3.703 J3.353
G2 X18 Y36.774 I18.552 J2.878
X36.774 Y17.939 I0 J-18.774
X18 Y-0.774 I-18.713 J0
X-0.552 Y15.122 I0 J18.774
X1.467 Y19.021 I3.674 J0.57
G3 X4.325 Y22.355 I-2.507 J5.042
G2 X31.675 Y13.645 I13.675 J-4.355
X4.325 Y22.355 I-13.675 J4.355
X8.107 Y25.005 I3.63 J-1.156
G3 X12.556 Y26.245 I0.301 J7.521
G2 X27.88 Y18 I5.444 J-8.245
G1 Y17.939
G2 X18 Y8.12 I-9.88 J0.061
X12.556 Y26.245 I0 J9.88
G1 X12.604 Y26.281 Z-8.988
X12.648 Y26.324 Z-8.976
X12.685 Y26.371 Z-8.964
X12.724 Y26.438 Z-8.912
X12.751 Y26.51 Z-8.861
X12.763 Y26.561 Z-8.783
X12.769 Y26.612 Z-8.706
X12.77 Y26.648 Z-8.524
Z10

(Drill1)
G0 X26.75 Y26.75
Z10
Z5
Z-4
G1 Z-14 F25
G0 Z5
X9.25
Z-4
G1 Z-14 F25
G0 Z5
Y9.25
Z-4
G1 Z-14 F25
G0 Z5
X26.75
Z-4
G1 Z-14 F25
G0 Z5
Z10
(When using Fusion 360 for Personal Use, the feedrate of)
(rapid moves is reduced to match the feedrate of cutting)
(moves, which can increase machining time. Unrestricted rapid)
(moves are available with a Fusion 360 Subscription.)

(2D Contour5)
X18.476 Y-2.808
G1 Z10 F150
Z5
Z1.6 F25
Z-0.124
G19 G3 Y-2.332 Z-0.6 J0.476 K0 F150
G1 Y-1.856
G17 G3 X18 Y-1.38 I-0.476 J0
G2 X18 Y37.38 I0 J19.38
X18 Y-1.38 I0 J-19.38
G3 X17.524 Y-1.856 I0 J-0.476
G1 Y-2.332
G19 G2 Y-2.808 Z-0.124 J0 K0.476
G1 Z5
X18.476
Z1 F25
Z-0.724
G3 Y-2.332 Z-1.2 J0.476 K0 F150
G1 Y-1.856
G17 G3 X18 Y-1.38 I-0.476 J0
G2 X18 Y37.38 I0 J19.38
X18 Y-1.38 I0 J-19.38
G3 X17.524 Y-1.856 I0 J-0.476
G1 Y-2.332
G19 G2 Y-2.808 Z-0.724 J0 K0.476
G1 Z5
X18.476
Z0.4 F25
Z-1.324
G3 Y-2.332 Z-1.8 J0.476 K0 F150
G1 Y-1.856
G17 G3 X18 Y-1.38 I-0.476 J0
G2 X18 Y37.38 I0 J19.38
X18 Y-1.38 I0 J-19.38
G3 X17.524 Y-1.856 I0 J-0.476
G1 Y-2.332
G19 G2 Y-2.808 Z-1.324 J0 K0.476
G1 Z5
X18.476
Z-0.2 F25
Z-1.924
G3 Y-2.332 Z-2.4 J0.476 K0 F150
G1 Y-1.856
G17 G3 X18 Y-1.38 I-0.476 J0
G2 X18 Y37.38 I0 J19.38
X18 Y-1.38 I0 J-19.38
G3 X17.524 Y-1.856 I0 J-0.476
G1 Y-2.332
G19 G2 Y-2.808 Z-1.924 J0 K0.476
G1 Z5
X18.476
Z-0.8 F25
Z-2.524
G3 Y-2.332 Z-3 J0.476 K0 F150
G1 Y-1.856
G17 G3 X18 Y-1.38 I-0.476 J0
G2 X18 Y37.38 I0 J19.38
X18 Y-1.38 I0 J-19.38
G3 X17.524 Y-1.856 I0 J-0.476
G1 Y-2.332
G19 G2 Y-2.808 Z-2.524 J0 K0.476
G1 Z5
X18.476
Z-1.4 F25
Z-3.124
G3 Y-2.332 Z-3.6 J0.476 K0 F150
G1 Y-1.856
G17 G3 X18 Y-1.38 I-0.476 J0
G2 X18 Y37.38 I0 J19.38
X18 Y-1.38 I0 J-19.38
G3 X17.524 Y-1.856 I0 J-0.476
G1 Y-2.332
G19 G2 Y-2.808 Z-3.124 J0 K0.476
G1 Z5
X18.476
Z-2 F25
Z-3.724
G3 Y-2.332 Z-4.2 J0.476 K0 F150
G1 Y-1.856
G17 G3 X18 Y-1.38 I-0.476 J0
G2 X18 Y37.38 I0 J19.38
X18 Y-1.38 I0 J-19.38
G3 X17.524 Y-1.856 I0 J-0.476
G1 Y-2.332
G19 G2 Y-2.808 Z-3.724 J0 K0.476
G1 Z5
X18.476
Z-2.6 F25
Z-4.324
G3 Y-2.332 Z-4.8 J0.476 K0 F150
G1 Y-1.856
G17 G3 X18 Y-1.38 I-0.476 J0
G2 X18 Y37.38 I0 J19.38
X18 Y-1.38 I0 J-19.38
G3 X17.524 Y-1.856 I0 J-0.476
G1 Y-2.332
G19 G2 Y-2.808 Z-4.324 J0 K0.476
G1 Z5
X18.476
Z-3.2 F25
Z-4.924
G3 Y-2.332 Z-5.4 J0.476 K0 F150
G1 Y-1.856
G17 G3 X18 Y-1.38 I-0.476 J0
G2 X18 Y37.38 I0 J19.38
X18 Y-1.38 I0 J-19.38
G3 X17.524 Y-1.856 I0 J-0.476
G1 Y-2.332
G19 G2 Y-2.808 Z-4.924 J0 K0.476
G1 Z5
X18.476
Z-3.8 F25
Z-5.524
G3 Y-2.332 Z-6 J0.476 K0 F150
G1 Y-1.856
G17 G3 X18 Y-1.38 I-0.476 J0
G2 X18 Y37.38 I0 J19.38
X18 Y-1.38 I0 J-19.38
G3 X17.524 Y-1.856 I0 J-0.476
G1 Y-2.332
G19 G2 Y-2.808 Z-5.524 J0 K0.476
G1 Z5
X18.476
Z-4.4 F25
Z-6.124
G3 Y-2.332 Z-6.6 J0.476 K0 F150
G1 Y-1.856
G17 G3 X18 Y-1.38 I-0.476 J0
G2 X18 Y37.38 I0 J19.38
X18 Y-1.38 I0 J-19.38
G3 X17.524 Y-1.856 I0 J-0.476
G1 Y-2.332
G19 G2 Y-2.808 Z-6.124 J0 K0.476
G1 Z5
X18.476
Z-5 F25
Z-6.724
G3 Y-2.332 Z-7.2 J0.476 K0 F150
G1 Y-1.856
G17 G3 X18 Y-1.38 I-0.476 J0
G2 X18 Y37.38 I0 J19.38
X18 Y-1.38 I0 J-19.38
G3 X17.524 Y-1.856 I0 J-0.476
G1 Y-2.332
G19 G2 Y-2.808 Z-6.724 J0 K0.476
G1 Z5
X18.476
Z-5.6 F25
Z-7.324
G3 Y-2.332 Z-7.8 J0.476 K0 F150
G1 Y-1.856
G17 G3 X18 Y-1.38 I-0.476 J0
G2 X18 Y37.38 I0 J19.38
X18 Y-1.38 I0 J-19.38
G3 X17.524 Y-1.856 I0 J-0.476
G1 Y-2.332
G19 G2 Y-2.808 Z-7.324 J0 K0.476
G1 Z5
X18.476
Z-6.2 F25
Z-7.924
G3 Y-2.332 Z-8.4 J0.476 K0 F150
G1 Y-1.856
G17 G3 X18 Y-1.38 I-0.476 J0
G2 X18 Y37.38 I0 J19.38
X18 Y-1.38 I0 J-19.38
G3 X17.524 Y-1.856 I0 J-0.476
G1 Y-2.332
G19 G2 Y-2.808 Z-7.924 J0 K0.476
G1 Z5
X18.476
Z-6.8 F25
Z-8.524
G3 Y-2.332 Z-9 J0.476 K0 F150
G1 Y-1.856
G17 G3 X18 Y-1.38 I-0.476 J0
G2 X18 Y37.38 I0 J19.38
X18 Y-1.38 I0 J-19.38
G3 X17.524 Y-1.856 I0 J-0.476
G1 Y-2.332
G19 G2 Y-2.808 Z-8.524 J0 K0.476
G1 Z5
X18.476
Z-7.4 F25
Z-9.124
G3 Y-2.332 Z-9.6 J0.476 K0 F150
G1 Y-1.856
G17 G3 X18 Y-1.38 I-0.476 J0
G2 X18 Y37.38 I0 J19.38
X18 Y-1.38 I0 J-19.38
G3 X17.524 Y-1.856 I0 J-0.476
G1 Y-2.332
G19 G2 Y-2.808 Z-9.124 J0 K0.476
G1 Z5
X18.476
Z-8 F25
Z-9.724
G3 Y-2.332 Z-10.2 J0.476 K0 F150
G1 Y-1.856
G17 G3 X18 Y-1.38 I-0.476 J0
G2 X18 Y37.38 I0 J19.38
X18 Y-1.38 I0 J-19.38
G3 X17.524 Y-1.856 I0 J-0.476
G1 Y-2.332
G19 G2 Y-2.808 Z-9.724 J0 K0.476
G1 Z5
X18.476
Z-8.6 F25
Z-10.324
G3 Y-2.332 Z-10.8 J0.476 K0 F150
G1 Y-1.856
G17 G3 X18 Y-1.38 I-0.476 J0
G2 X18 Y37.38 I0 J19.38
X18 Y-1.38 I0 J-19.38
G3 X17.524 Y-1.856 I0 J-0.476
G1 Y-2.332
G19 G2 Y-2.808 Z-10.324 J0 K0.476
G1 Z5
X18.476
Z-9.2 F25
Z-10.924
G3 Y-2.332 Z-11.4 J0.476 K0 F150
G1 Y-1.856
G17 G3 X18 Y-1.38 I-0.476 J0
G2 X18 Y37.38 I0 J19.38
X18 Y-1.38 I0 J-19.38
G3 X17.524 Y-1.856 I0 J-0.476
G1 Y-2.332
G19 G2 Y-2.808 Z-10.924 J0 K0.476
G1 Z5
X18.476
Z-9.8 F25
Z-11.524
G3 Y-2.332 Z-12 J0.476 K0 F150
G1 Y-1.856
G17 G3 X18 Y-1.38 I-0.476 J0
G2 X18 Y37.38 I0 J19.38
X18 Y-1.38 I0 J-19.38
G3 X17.524 Y-1.856 I0 J-0.476
G1 Y-2.332
G19 G2 Y-2.808 Z-11.524 J0 K0.476
G1 Z5
X18.476
Z-10.4 F25
Z-12.124
G3 Y-2.332 Z-12.6 J0.476 K0 F150
G1 Y-1.856
G17 G3 X18 Y-1.38 I-0.476 J0
G2 X18 Y37.38 I0 J19.38
X18 Y-1.38 I0 J-19.38
G3 X17.524 Y-1.856 I0 J-0.476
G1 Y-2.332
G19 G2 Y-2.808 Z-12.124 J0 K0.476
G1 Z5
X18.476
Z-11 F25
Z-12.724
G3 Y-2.332 Z-13.2 J0.476 K0 F150
G1 Y-1.856
G17 G3 X18 Y-1.38 I-0.476 J0
G2 X18 Y37.38 I0 J19.38
X18 Y-1.38 I0 J-19.38
G3 X17.524 Y-1.856 I0 J-0.476
G1 Y-2.332
G19 G2 Y-2.808 Z-12.724 J0 K0.476
G1 Z5
X18.476
Z-11.6 F25
Z-13.324
G3 Y-2.332 Z-13.8 J0.476 K0 F150
G1 Y-1.856
G17 G3 X18 Y-1.38 I-0.476 J0
G2 X18 Y37.38 I0 J19.38
X18 Y-1.38 I0 J-19.38
G3 X17.524 Y-1.856 I0 J-0.476
G1 Y-2.332
G19 G2 Y-2.808 Z-13.324 J0 K0.476
G1 Z5
X18.476
Z-12.2 F25
Z-13.524
G3 Y-2.332 Z-14 J0.476 K0 F150
G1 Y-1.856
G17 G3 X18 Y-1.38 I-0.476 J0
G2 X18 Y37.38 I0 J19.38
X18 Y-1.38 I0 J-19.38
G3 X17.524 Y-1.856 I0 J-0.476
G1 Y-2.332
G19 G2 Y-2.808 Z-13.524 J0 K0.476
G1 Z10
G17
M9
G28 G91 Z0
G90
G28 G91 X0 Y0
G90
M5
M30
