(metal_coupler_14mm_drill)
(Machine)
(  vendor: Autodesk)
(  model: Generic 3-axis)
(  description: This machine has XY axis on the Table and Z axis on the Head)
(T1  D=2 CR=0 - ZMIN=-14 - flat end mill)
G90 G94
G17
G21
G28 G91 Z0
G90

(Drill1)
T1
S24000 M3
G54
M8
G0 X26.75 Y26.75
Z10
Z5
Z-4
G1 Z-9 F50
Z-9.5
G2 X27.7 Y26.75 I0.475 J0 F1000
X25.75 Y26.75 I-0.975 J0
X27.75 Y26.75 I1 J0
X25.75 Y26.75 I-1 J0
G1 X26.75
Z-10 F50
G2 X27.7 Y26.75 I0.475 J0 F1000
X25.75 Y26.75 I-0.975 J0
X27.75 Y26.75 I1 J0
X25.75 Y26.75 I-1 J0
G1 X26.75
Z-10.5 F50
G2 X27.7 Y26.75 I0.475 J0 F1000
X25.75 Y26.75 I-0.975 J0
X27.75 Y26.75 I1 J0
X25.75 Y26.75 I-1 J0
G1 X26.75
Z-11 F50
G2 X27.7 Y26.75 I0.475 J0 F1000
X25.75 Y26.75 I-0.975 J0
X27.75 Y26.75 I1 J0
X25.75 Y26.75 I-1 J0
G1 X26.75
Z-11.5 F50
G2 X27.7 Y26.75 I0.475 J0 F1000
X25.75 Y26.75 I-0.975 J0
X27.75 Y26.75 I1 J0
X25.75 Y26.75 I-1 J0
G1 X26.75
Z-12 F50
G2 X27.7 Y26.75 I0.475 J0 F1000
X25.75 Y26.75 I-0.975 J0
X27.75 Y26.75 I1 J0
X25.75 Y26.75 I-1 J0
G1 X26.75
Z-12.5 F50
G2 X27.7 Y26.75 I0.475 J0 F1000
X25.75 Y26.75 I-0.975 J0
X27.75 Y26.75 I1 J0
X25.75 Y26.75 I-1 J0
G1 X26.75
Z-13 F50
G2 X27.7 Y26.75 I0.475 J0 F1000
X25.75 Y26.75 I-0.975 J0
X27.75 Y26.75 I1 J0
X25.75 Y26.75 I-1 J0
G1 X26.75
Z-13.5 F50
G2 X27.7 Y26.75 I0.475 J0 F1000
X25.75 Y26.75 I-0.975 J0
X27.75 Y26.75 I1 J0
X25.75 Y26.75 I-1 J0
G1 X26.75
Z-14 F50
G2 X27.7 Y26.75 I0.475 J0 F1000
X25.75 Y26.75 I-0.975 J0
X27.75 Y26.75 I1 J0
X25.75 Y26.75 I-1 J0
G1 X26.75
G0 Z5
X9.25
Z-4
G1 Z-9 F50
Z-9.5
G2 X10.2 Y26.75 I0.475 J0 F1000
X8.25 Y26.75 I-0.975 J0
X10.25 Y26.75 I1 J0
X8.25 Y26.75 I-1 J0
G1 X9.25
Z-10 F50
G2 X10.2 Y26.75 I0.475 J0 F1000
X8.25 Y26.75 I-0.975 J0
X10.25 Y26.75 I1 J0
X8.25 Y26.75 I-1 J0
G1 X9.25
Z-10.5 F50
G2 X10.2 Y26.75 I0.475 J0 F1000
X8.25 Y26.75 I-0.975 J0
X10.25 Y26.75 I1 J0
X8.25 Y26.75 I-1 J0
G1 X9.25
Z-11 F50
G2 X10.2 Y26.75 I0.475 J0 F1000
X8.25 Y26.75 I-0.975 J0
X10.25 Y26.75 I1 J0
X8.25 Y26.75 I-1 J0
G1 X9.25
Z-11.5 F50
G2 X10.2 Y26.75 I0.475 J0 F1000
X8.25 Y26.75 I-0.975 J0
X10.25 Y26.75 I1 J0
X8.25 Y26.75 I-1 J0
G1 X9.25
Z-12 F50
G2 X10.2 Y26.75 I0.475 J0 F1000
X8.25 Y26.75 I-0.975 J0
X10.25 Y26.75 I1 J0
X8.25 Y26.75 I-1 J0
G1 X9.25
Z-12.5 F50
G2 X10.2 Y26.75 I0.475 J0 F1000
X8.25 Y26.75 I-0.975 J0
X10.25 Y26.75 I1 J0
X8.25 Y26.75 I-1 J0
G1 X9.25
Z-13 F50
G2 X10.2 Y26.75 I0.475 J0 F1000
X8.25 Y26.75 I-0.975 J0
X10.25 Y26.75 I1 J0
X8.25 Y26.75 I-1 J0
G1 X9.25
Z-13.5 F50
G2 X10.2 Y26.75 I0.475 J0 F1000
X8.25 Y26.75 I-0.975 J0
X10.25 Y26.75 I1 J0
X8.25 Y26.75 I-1 J0
G1 X9.25
Z-14 F50
G2 X10.2 Y26.75 I0.475 J0 F1000
X8.25 Y26.75 I-0.975 J0
X10.25 Y26.75 I1 J0
X8.25 Y26.75 I-1 J0
G1 X9.25
G0 Z5
Y9.25
Z-4
G1 Z-9 F50
Z-9.5
G2 X10.2 Y9.25 I0.475 J0 F1000
X8.25 Y9.25 I-0.975 J0
X10.25 Y9.25 I1 J0
X8.25 Y9.25 I-1 J0
G1 X9.25
Z-10 F50
G2 X10.2 Y9.25 I0.475 J0 F1000
X8.25 Y9.25 I-0.975 J0
X10.25 Y9.25 I1 J0
X8.25 Y9.25 I-1 J0
G1 X9.25
Z-10.5 F50
G2 X10.2 Y9.25 I0.475 J0 F1000
X8.25 Y9.25 I-0.975 J0
X10.25 Y9.25 I1 J0
X8.25 Y9.25 I-1 J0
G1 X9.25
Z-11 F50
G2 X10.2 Y9.25 I0.475 J0 F1000
X8.25 Y9.25 I-0.975 J0
X10.25 Y9.25 I1 J0
X8.25 Y9.25 I-1 J0
G1 X9.25
Z-11.5 F50
G2 X10.2 Y9.25 I0.475 J0 F1000
X8.25 Y9.25 I-0.975 J0
X10.25 Y9.25 I1 J0
X8.25 Y9.25 I-1 J0
G1 X9.25
Z-12 F50
G2 X10.2 Y9.25 I0.475 J0 F1000
X8.25 Y9.25 I-0.975 J0
X10.25 Y9.25 I1 J0
X8.25 Y9.25 I-1 J0
G1 X9.25
Z-12.5 F50
G2 X10.2 Y9.25 I0.475 J0 F1000
X8.25 Y9.25 I-0.975 J0
X10.25 Y9.25 I1 J0
X8.25 Y9.25 I-1 J0
G1 X9.25
Z-13 F50
G2 X10.2 Y9.25 I0.475 J0 F1000
X8.25 Y9.25 I-0.975 J0
X10.25 Y9.25 I1 J0
X8.25 Y9.25 I-1 J0
G1 X9.25
Z-13.5 F50
G2 X10.2 Y9.25 I0.475 J0 F1000
X8.25 Y9.25 I-0.975 J0
X10.25 Y9.25 I1 J0
X8.25 Y9.25 I-1 J0
G1 X9.25
Z-14 F50
G2 X10.2 Y9.25 I0.475 J0 F1000
X8.25 Y9.25 I-0.975 J0
X10.25 Y9.25 I1 J0
X8.25 Y9.25 I-1 J0
G1 X9.25
G0 Z5
X26.75
Z-4
G1 Z-9 F50
Z-9.5
G2 X27.7 Y9.25 I0.475 J0 F1000
X25.75 Y9.25 I-0.975 J0
X27.75 Y9.25 I1 J0
X25.75 Y9.25 I-1 J0
G1 X26.75
Z-10 F50
G2 X27.7 Y9.25 I0.475 J0 F1000
X25.75 Y9.25 I-0.975 J0
X27.75 Y9.25 I1 J0
X25.75 Y9.25 I-1 J0
G1 X26.75
Z-10.5 F50
G2 X27.7 Y9.25 I0.475 J0 F1000
X25.75 Y9.25 I-0.975 J0
X27.75 Y9.25 I1 J0
X25.75 Y9.25 I-1 J0
G1 X26.75
Z-11 F50
G2 X27.7 Y9.25 I0.475 J0 F1000
X25.75 Y9.25 I-0.975 J0
X27.75 Y9.25 I1 J0
X25.75 Y9.25 I-1 J0
G1 X26.75
Z-11.5 F50
G2 X27.7 Y9.25 I0.475 J0 F1000
X25.75 Y9.25 I-0.975 J0
X27.75 Y9.25 I1 J0
X25.75 Y9.25 I-1 J0
G1 X26.75
Z-12 F50
G2 X27.7 Y9.25 I0.475 J0 F1000
X25.75 Y9.25 I-0.975 J0
X27.75 Y9.25 I1 J0
X25.75 Y9.25 I-1 J0
G1 X26.75
Z-12.5 F50
G2 X27.7 Y9.25 I0.475 J0 F1000
X25.75 Y9.25 I-0.975 J0
X27.75 Y9.25 I1 J0
X25.75 Y9.25 I-1 J0
G1 X26.75
Z-13 F50
G2 X27.7 Y9.25 I0.475 J0 F1000
X25.75 Y9.25 I-0.975 J0
X27.75 Y9.25 I1 J0
X25.75 Y9.25 I-1 J0
G1 X26.75
Z-13.5 F50
G2 X27.7 Y9.25 I0.475 J0 F1000
X25.75 Y9.25 I-0.975 J0
X27.75 Y9.25 I1 J0
X25.75 Y9.25 I-1 J0
G1 X26.75
Z-14 F50
G2 X27.7 Y9.25 I0.475 J0 F1000
X25.75 Y9.25 I-0.975 J0
X27.75 Y9.25 I1 J0
X25.75 Y9.25 I-1 J0
G1 X26.75
G0 Z5
Z10
M9
G28 G91 Z0
G90
G28 G91 X0 Y0
G90
M5
M30
