(metal_coupler_12mm_drill)
(Machine)
(  vendor: Autodesk)
(  model: GARAGE CNC)
(  description: GARAGE CNC)
(T3  D=3.1 CR=0 - ZMIN=-14 - flat end mill)
G90 G94
G17
G21

(Drill1)
T3
S24000 M3
G54
M8
G0 X27 Y27
Z10
Z5
Z2
G1 Z-0.3 F50
G0 Z5
Z1.7
G1 Z-0.6 F50
G0 Z5
Z1.4
G1 Z-0.9 F50
G0 Z5
Z1.1
G1 Z-1.2 F50
G0 Z5
Z0.8
G1 Z-1.5 F50
G0 Z5
Z0.5
G1 Z-1.8 F50
G0 Z5
Z0.2
G1 Z-2.1 F50
G0 Z5
Z-0.1
G1 Z-2.4 F50
G0 Z5
Z-0.4
G1 Z-2.7 F50
G0 Z5
Z-0.7
G1 Z-3 F50
G0 Z5
Z-1
G1 Z-3.3 F50
G0 Z5
Z-1.3
G1 Z-3.6 F50
G0 Z5
Z-1.6
G1 Z-3.9 F50
G0 Z5
Z-1.9
G1 Z-4.2 F50
G0 Z5
Z-2.2
G1 Z-4.5 F50
G0 Z5
Z-2.5
G1 Z-4.8 F50
G0 Z5
Z-2.8
G1 Z-5.1 F50
G0 Z5
Z-3.1
G1 Z-5.4 F50
G0 Z5
Z-3.4
G1 Z-5.7 F50
G0 Z5
Z-3.7
G1 Z-6 F50
G0 Z5
Z-4
G1 Z-6.3 F50
G0 Z5
Z-4.3
G1 Z-6.6 F50
G0 Z5
Z-4.6
G1 Z-6.9 F50
G0 Z5
Z-4.9
G1 Z-7.2 F50
G0 Z5
Z-5.2
G1 Z-7.5 F50
G0 Z5
Z-5.5
G1 Z-7.8 F50
G0 Z5
Z-5.8
G1 Z-8.1 F50
G0 Z5
Z-6.1
G1 Z-8.4 F50
G0 Z5
Z-6.4
G1 Z-8.7 F50
G0 Z5
Z-6.7
G1 Z-9 F50
G0 Z5
Z-7
G1 Z-9.3 F50
G0 Z5
Z-7.3
G1 Z-9.6 F50
G0 Z5
Z-7.6
G1 Z-9.9 F50
G0 Z5
Z-7.9
G1 Z-10.2 F50
G0 Z5
Z-8.2
G1 Z-10.5 F50
G0 Z5
Z-8.5
G1 Z-10.8 F50
G0 Z5
Z-8.8
G1 Z-11.1 F50
G0 Z5
Z-9.1
G1 Z-11.4 F50
G0 Z5
Z-9.4
G1 Z-11.7 F50
G0 Z5
Z-9.7
G1 Z-12 F50
G0 Z5
Z-10
G1 Z-12.3 F50
G0 Z5
Z-10.3
G1 Z-12.6 F50
G0 Z5
Z-10.6
G1 Z-12.9 F50
G0 Z5
Z-10.9
G1 Z-13.2 F50
G0 Z5
Z-11.2
G1 Z-13.5 F50
G0 Z5
Z-11.5
G1 Z-13.8 F50
G0 Z5
Z-11.8
G1 Z-14 F50
G4 P1.
G0 Z5
X9
Z2
G1 Z-0.3 F50
G0 Z5
Z1.7
G1 Z-0.6 F50
G0 Z5
Z1.4
G1 Z-0.9 F50
G0 Z5
Z1.1
G1 Z-1.2 F50
G0 Z5
Z0.8
G1 Z-1.5 F50
G0 Z5
Z0.5
G1 Z-1.8 F50
G0 Z5
Z0.2
G1 Z-2.1 F50
G0 Z5
Z-0.1
G1 Z-2.4 F50
G0 Z5
Z-0.4
G1 Z-2.7 F50
G0 Z5
Z-0.7
G1 Z-3 F50
G0 Z5
Z-1
G1 Z-3.3 F50
G0 Z5
Z-1.3
G1 Z-3.6 F50
G0 Z5
Z-1.6
G1 Z-3.9 F50
G0 Z5
Z-1.9
G1 Z-4.2 F50
G0 Z5
Z-2.2
G1 Z-4.5 F50
G0 Z5
Z-2.5
G1 Z-4.8 F50
G0 Z5
Z-2.8
G1 Z-5.1 F50
G0 Z5
Z-3.1
G1 Z-5.4 F50
G0 Z5
Z-3.4
G1 Z-5.7 F50
G0 Z5
Z-3.7
G1 Z-6 F50
G0 Z5
Z-4
G1 Z-6.3 F50
G0 Z5
Z-4.3
G1 Z-6.6 F50
G0 Z5
Z-4.6
G1 Z-6.9 F50
G0 Z5
Z-4.9
G1 Z-7.2 F50
G0 Z5
Z-5.2
G1 Z-7.5 F50
G0 Z5
Z-5.5
G1 Z-7.8 F50
G0 Z5
Z-5.8
G1 Z-8.1 F50
G0 Z5
Z-6.1
G1 Z-8.4 F50
G0 Z5
Z-6.4
G1 Z-8.7 F50
G0 Z5
Z-6.7
G1 Z-9 F50
G0 Z5
Z-7
G1 Z-9.3 F50
G0 Z5
Z-7.3
G1 Z-9.6 F50
G0 Z5
Z-7.6
G1 Z-9.9 F50
G0 Z5
Z-7.9
G1 Z-10.2 F50
G0 Z5
Z-8.2
G1 Z-10.5 F50
G0 Z5
Z-8.5
G1 Z-10.8 F50
G0 Z5
Z-8.8
G1 Z-11.1 F50
G0 Z5
Z-9.1
G1 Z-11.4 F50
G0 Z5
Z-9.4
G1 Z-11.7 F50
G0 Z5
Z-9.7
G1 Z-12 F50
G0 Z5
Z-10
G1 Z-12.3 F50
G0 Z5
Z-10.3
G1 Z-12.6 F50
G0 Z5
Z-10.6
G1 Z-12.9 F50
G0 Z5
Z-10.9
G1 Z-13.2 F50
G0 Z5
Z-11.2
G1 Z-13.5 F50
G0 Z5
Z-11.5
G1 Z-13.8 F50
G0 Z5
Z-11.8
G1 Z-14 F50
G4 P1.
G0 Z5
Y9
Z2
G1 Z-0.3 F50
G0 Z5
Z1.7
G1 Z-0.6 F50
G0 Z5
Z1.4
G1 Z-0.9 F50
G0 Z5
Z1.1
G1 Z-1.2 F50
G0 Z5
Z0.8
G1 Z-1.5 F50
G0 Z5
Z0.5
G1 Z-1.8 F50
G0 Z5
Z0.2
G1 Z-2.1 F50
G0 Z5
Z-0.1
G1 Z-2.4 F50
G0 Z5
Z-0.4
G1 Z-2.7 F50
G0 Z5
Z-0.7
G1 Z-3 F50
G0 Z5
Z-1
G1 Z-3.3 F50
G0 Z5
Z-1.3
G1 Z-3.6 F50
G0 Z5
Z-1.6
G1 Z-3.9 F50
G0 Z5
Z-1.9
G1 Z-4.2 F50
G0 Z5
Z-2.2
G1 Z-4.5 F50
G0 Z5
Z-2.5
G1 Z-4.8 F50
G0 Z5
Z-2.8
G1 Z-5.1 F50
G0 Z5
Z-3.1
G1 Z-5.4 F50
G0 Z5
Z-3.4
G1 Z-5.7 F50
G0 Z5
Z-3.7
G1 Z-6 F50
G0 Z5
Z-4
G1 Z-6.3 F50
G0 Z5
Z-4.3
G1 Z-6.6 F50
G0 Z5
Z-4.6
G1 Z-6.9 F50
G0 Z5
Z-4.9
G1 Z-7.2 F50
G0 Z5
Z-5.2
G1 Z-7.5 F50
G0 Z5
Z-5.5
G1 Z-7.8 F50
G0 Z5
Z-5.8
G1 Z-8.1 F50
G0 Z5
Z-6.1
G1 Z-8.4 F50
G0 Z5
Z-6.4
G1 Z-8.7 F50
G0 Z5
Z-6.7
G1 Z-9 F50
G0 Z5
Z-7
G1 Z-9.3 F50
G0 Z5
Z-7.3
G1 Z-9.6 F50
G0 Z5
Z-7.6
G1 Z-9.9 F50
G0 Z5
Z-7.9
G1 Z-10.2 F50
G0 Z5
Z-8.2
G1 Z-10.5 F50
G0 Z5
Z-8.5
G1 Z-10.8 F50
G0 Z5
Z-8.8
G1 Z-11.1 F50
G0 Z5
Z-9.1
G1 Z-11.4 F50
G0 Z5
Z-9.4
G1 Z-11.7 F50
G0 Z5
Z-9.7
G1 Z-12 F50
G0 Z5
Z-10
G1 Z-12.3 F50
G0 Z5
Z-10.3
G1 Z-12.6 F50
G0 Z5
Z-10.6
G1 Z-12.9 F50
G0 Z5
Z-10.9
G1 Z-13.2 F50
G0 Z5
Z-11.2
G1 Z-13.5 F50
G0 Z5
Z-11.5
G1 Z-13.8 F50
G0 Z5
Z-11.8
G1 Z-14 F50
G4 P1.
G0 Z5
X27
Z2
G1 Z-0.3 F50
G0 Z5
Z1.7
G1 Z-0.6 F50
G0 Z5
Z1.4
G1 Z-0.9 F50
G0 Z5
Z1.1
G1 Z-1.2 F50
G0 Z5
Z0.8
G1 Z-1.5 F50
G0 Z5
Z0.5
G1 Z-1.8 F50
G0 Z5
Z0.2
G1 Z-2.1 F50
G0 Z5
Z-0.1
G1 Z-2.4 F50
G0 Z5
Z-0.4
G1 Z-2.7 F50
G0 Z5
Z-0.7
G1 Z-3 F50
G0 Z5
Z-1
G1 Z-3.3 F50
G0 Z5
Z-1.3
G1 Z-3.6 F50
G0 Z5
Z-1.6
G1 Z-3.9 F50
G0 Z5
Z-1.9
G1 Z-4.2 F50
G0 Z5
Z-2.2
G1 Z-4.5 F50
G0 Z5
Z-2.5
G1 Z-4.8 F50
G0 Z5
Z-2.8
G1 Z-5.1 F50
G0 Z5
Z-3.1
G1 Z-5.4 F50
G0 Z5
Z-3.4
G1 Z-5.7 F50
G0 Z5
Z-3.7
G1 Z-6 F50
G0 Z5
Z-4
G1 Z-6.3 F50
G0 Z5
Z-4.3
G1 Z-6.6 F50
G0 Z5
Z-4.6
G1 Z-6.9 F50
G0 Z5
Z-4.9
G1 Z-7.2 F50
G0 Z5
Z-5.2
G1 Z-7.5 F50
G0 Z5
Z-5.5
G1 Z-7.8 F50
G0 Z5
Z-5.8
G1 Z-8.1 F50
G0 Z5
Z-6.1
G1 Z-8.4 F50
G0 Z5
Z-6.4
G1 Z-8.7 F50
G0 Z5
Z-6.7
G1 Z-9 F50
G0 Z5
Z-7
G1 Z-9.3 F50
G0 Z5
Z-7.3
G1 Z-9.6 F50
G0 Z5
Z-7.6
G1 Z-9.9 F50
G0 Z5
Z-7.9
G1 Z-10.2 F50
G0 Z5
Z-8.2
G1 Z-10.5 F50
G0 Z5
Z-8.5
G1 Z-10.8 F50
G0 Z5
Z-8.8
G1 Z-11.1 F50
G0 Z5
Z-9.1
G1 Z-11.4 F50
G0 Z5
Z-9.4
G1 Z-11.7 F50
G0 Z5
Z-9.7
G1 Z-12 F50
G0 Z5
Z-10
G1 Z-12.3 F50
G0 Z5
Z-10.3
G1 Z-12.6 F50
G0 Z5
Z-10.6
G1 Z-12.9 F50
G0 Z5
Z-10.9
G1 Z-13.2 F50
G0 Z5
Z-11.2
G1 Z-13.5 F50
G0 Z5
Z-11.5
G1 Z-13.8 F50
G0 Z5
Z-11.8
G1 Z-14 F50
G4 P1.
G0 Z5
Z10
M9
M5
M30
