(metal_coupler_14mm_wdrill)
(Machine)
(  vendor: Autodesk)
(  model: GARAGE CNC)
(  description: GARAGE CNC)
(T1  D=4.7 CR=0 - ZMIN=-14 - flat end mill)
G90 G94
G17
G21
(When using Fusion 360 for Personal Use, the feedrate of)
(rapid moves is reduced to match the feedrate of cutting)
(moves, which can increase machining time. Unrestricted rapid)
(moves are available with a Fusion 360 Subscription.)
G28 G91 Z0
G90

(2D Pocket3)
T1
S24000 M3
G54
M8
G0 X14.62 Y16.288
Z10
G1 Z5 F150
Z2.97 F50
S5000
X14.643 Y16.268 Z2.802
X14.713 Y16.214 Z2.657
X14.837 Y16.127 Z2.544
X14.994 Y16.034 Z2.5
G3 X17.111 Y19.966 Z2.255 I1.058 J1.966
X14.994 Y16.034 Z2.01 I-1.058 J-1.966
X17.111 Y19.966 Z1.765 I1.058 J1.966
X14.994 Y16.034 Z1.52 I-1.058 J-1.966
X17.111 Y19.966 Z1.275 I1.058 J1.966
X14.994 Y16.034 Z1.03 I-1.058 J-1.966
X17.111 Y19.966 Z0.786 I1.058 J1.966
X14.994 Y16.034 Z0.541 I-1.058 J-1.966
X17.111 Y19.966 Z0.296 I1.058 J1.966
X14.994 Y16.034 Z0.051 I-1.058 J-1.966
X17.111 Y19.966 Z-0.194 I1.058 J1.966
X14.994 Y16.034 Z-0.439 I-1.058 J-1.966
X18.285 Y18 Z-0.6 I1.058 J1.966
S24000
X17.715 Y18 I-0.285 J0 F150
X22.75 Y18 I2.517 J0
X13.25 Y18 I-4.75 J0
X22.75 Y18 I4.75 J0
S5000
X20.517 Y20.233 Z-0.714 I-2.233 J0 F50
G1 X16.052 Z-0.859
G3 X16.052 Y15.767 Z-1.086 I0 J-2.233
X18.285 Y18 Z-1.2 I0 J2.233
S24000
X17.715 Y18 I-0.285 J0 F150
X22.75 Y18 I2.517 J0
X13.25 Y18 I-4.75 J0
X22.75 Y18 I4.75 J0
S5000
X20.517 Y20.233 Z-1.314 I-2.233 J0 F50
G1 X16.052 Z-1.459
G3 X16.052 Y15.767 Z-1.686 I0 J-2.233
X18.285 Y18 Z-1.8 I0 J2.233
S24000
X17.715 Y18 I-0.285 J0 F150
X22.75 Y18 I2.517 J0
X13.25 Y18 I-4.75 J0
X22.75 Y18 I4.75 J0
S5000
X20.517 Y20.233 Z-1.914 I-2.233 J0 F50
G1 X16.052 Z-2.059
G3 X16.052 Y15.767 Z-2.286 I0 J-2.233
X18.285 Y18 Z-2.4 I0 J2.233
S24000
X17.715 Y18 I-0.285 J0 F150
X22.75 Y18 I2.517 J0
X13.25 Y18 I-4.75 J0
X22.75 Y18 I4.75 J0
S5000
X20.517 Y20.233 Z-2.514 I-2.233 J0 F50
G1 X16.052 Z-2.659
G3 X16.052 Y15.767 Z-2.886 I0 J-2.233
X18.285 Y18 Z-3 I0 J2.233
S24000
X17.715 Y18 I-0.285 J0 F150
X22.75 Y18 I2.517 J0
X13.25 Y18 I-4.75 J0
X22.75 Y18 I4.75 J0
S5000
X20.517 Y20.233 Z-3.114 I-2.233 J0 F50
G1 X16.052 Z-3.259
G3 X16.052 Y15.767 Z-3.486 I0 J-2.233
X18.285 Y18 Z-3.6 I0 J2.233
S24000
X17.715 Y18 I-0.285 J0 F150
X22.75 Y18 I2.517 J0
X13.25 Y18 I-4.75 J0
X22.75 Y18 I4.75 J0
S5000
X20.517 Y20.233 Z-3.714 I-2.233 J0 F50
G1 X16.052 Z-3.859
G3 X16.052 Y15.767 Z-4.086 I0 J-2.233
X18.285 Y18 Z-4.2 I0 J2.233
S24000
X17.715 Y18 I-0.285 J0 F150
X22.75 Y18 I2.517 J0
X13.25 Y18 I-4.75 J0
X22.75 Y18 I4.75 J0
S5000
X20.517 Y20.233 Z-4.314 I-2.233 J0 F50
G1 X16.052 Z-4.459
G3 X16.052 Y15.767 Z-4.686 I0 J-2.233
X18.285 Y18 Z-4.8 I0 J2.233
S24000
X17.715 Y18 I-0.285 J0 F150
X22.75 Y18 I2.517 J0
X13.25 Y18 I-4.75 J0
X22.75 Y18 I4.75 J0
S5000
X20.517 Y20.233 Z-4.914 I-2.233 J0 F50
G1 X16.052 Z-5.059
G3 X16.052 Y15.767 Z-5.286 I0 J-2.233
X18.285 Y18 Z-5.4 I0 J2.233
S24000
X17.715 Y18 I-0.285 J0 F150
X22.75 Y18 I2.517 J0
X13.25 Y18 I-4.75 J0
X22.75 Y18 I4.75 J0
S5000
X20.517 Y20.233 Z-5.514 I-2.233 J0 F50
G1 X16.052 Z-5.659
G3 X16.052 Y15.767 Z-5.886 I0 J-2.233
X18.285 Y18 Z-6 I0 J2.233
S24000
X17.715 Y18 I-0.285 J0 F150
X22.75 Y18 I2.517 J0
X13.25 Y18 I-4.75 J0
X22.75 Y18 I4.75 J0
S5000
X20.517 Y20.233 Z-6.114 I-2.233 J0 F50
G1 X16.052 Z-6.259
G3 X16.052 Y15.767 Z-6.486 I0 J-2.233
X18.285 Y18 Z-6.6 I0 J2.233
S24000
X17.715 Y18 I-0.285 J0 F150
X22.75 Y18 I2.517 J0
X13.25 Y18 I-4.75 J0
X22.75 Y18 I4.75 J0
S5000
X20.517 Y20.233 Z-6.714 I-2.233 J0 F50
G1 X16.052 Z-6.859
G3 X16.052 Y15.767 Z-7.086 I0 J-2.233
X18.285 Y18 Z-7.2 I0 J2.233
S24000
X17.715 Y18 I-0.285 J0 F150
X22.75 Y18 I2.517 J0
X13.25 Y18 I-4.75 J0
X22.75 Y18 I4.75 J0
S5000
X20.517 Y20.233 Z-7.314 I-2.233 J0 F50
G1 X16.052 Z-7.459
G3 X16.052 Y15.767 Z-7.686 I0 J-2.233
X18.285 Y18 Z-7.8 I0 J2.233
S24000
X17.715 Y18 I-0.285 J0 F150
X22.75 Y18 I2.517 J0
X13.25 Y18 I-4.75 J0
X22.75 Y18 I4.75 J0
S5000
X20.517 Y20.233 Z-7.914 I-2.233 J0 F50
G1 X16.052 Z-8.059
G3 X16.052 Y15.767 Z-8.286 I0 J-2.233
X18.285 Y18 Z-8.4 I0 J2.233
S24000
X17.715 Y18 I-0.285 J0 F150
X22.75 Y18 I2.517 J0
X13.25 Y18 I-4.75 J0
X22.75 Y18 I4.75 J0
S5000
X20.517 Y20.233 Z-8.514 I-2.233 J0 F50
G1 X16.052 Z-8.659
G3 X16.052 Y15.767 Z-8.886 I0 J-2.233
X18.285 Y18 Z-9 I0 J2.233
S24000
X17.715 Y18 I-0.285 J0 F150
X22.75 Y18 I2.517 J0
X13.25 Y18 I-4.75 J0
X22.75 Y18 I4.75 J0
S5000
X20.517 Y20.233 Z-9.114 I-2.233 J0 F50
G1 X16.052 Z-9.259
G3 X16.052 Y15.767 Z-9.486 I0 J-2.233
X18.285 Y18 Z-9.6 I0 J2.233
S24000
X17.715 Y18 I-0.285 J0 F150
X22.75 Y18 I2.517 J0
X13.25 Y18 I-4.75 J0
X22.75 Y18 I4.75 J0
S5000
X20.517 Y20.233 Z-9.714 I-2.233 J0 F50
G1 X16.052 Z-9.859
G3 X16.052 Y15.767 Z-10.086 I0 J-2.233
X18.285 Y18 Z-10.2 I0 J2.233
S24000
X17.715 Y18 I-0.285 J0 F150
X22.75 Y18 I2.517 J0
X13.25 Y18 I-4.75 J0
X22.75 Y18 I4.75 J0
S5000
X20.517 Y20.233 Z-10.314 I-2.233 J0 F50
G1 X16.052 Z-10.459
G3 X16.052 Y15.767 Z-10.686 I0 J-2.233
X18.285 Y18 Z-10.8 I0 J2.233
S24000
X17.715 Y18 I-0.285 J0 F150
X22.75 Y18 I2.517 J0
X13.25 Y18 I-4.75 J0
X22.75 Y18 I4.75 J0
S5000
X20.517 Y20.233 Z-10.914 I-2.233 J0 F50
G1 X16.052 Z-11.059
G3 X16.052 Y15.767 Z-11.286 I0 J-2.233
X18.285 Y18 Z-11.4 I0 J2.233
S24000
X17.715 Y18 I-0.285 J0 F150
X22.75 Y18 I2.517 J0
X13.25 Y18 I-4.75 J0
X22.75 Y18 I4.75 J0
S5000
X20.517 Y20.233 Z-11.514 I-2.233 J0 F50
G1 X16.052 Z-11.659
G3 X16.052 Y15.767 Z-11.886 I0 J-2.233
X18.285 Y18 Z-12 I0 J2.233
S24000
X17.715 Y18 I-0.285 J0 F150
X22.75 Y18 I2.517 J0
X13.25 Y18 I-4.75 J0
X22.75 Y18 I4.75 J0
S5000
X20.517 Y20.233 Z-12.114 I-2.233 J0 F50
G1 X16.052 Z-12.259
G3 X16.052 Y15.767 Z-12.486 I0 J-2.233
X18.285 Y18 Z-12.6 I0 J2.233
S24000
X17.715 Y18 I-0.285 J0 F150
X22.75 Y18 I2.517 J0
X13.25 Y18 I-4.75 J0
X22.75 Y18 I4.75 J0
S5000
X20.517 Y20.233 Z-12.714 I-2.233 J0 F50
G1 X16.052 Z-12.859
G3 X16.052 Y15.767 Z-13.086 I0 J-2.233
X18.285 Y18 Z-13.2 I0 J2.233
S24000
X17.715 Y18 I-0.285 J0 F150
X22.75 Y18 I2.517 J0
X13.25 Y18 I-4.75 J0
X22.75 Y18 I4.75 J0
S5000
X20.517 Y20.233 Z-13.314 I-2.233 J0 F50
G1 X16.052 Z-13.459
G3 X16.052 Y15.767 Z-13.686 I0 J-2.233
X18.285 Y18 Z-13.8 I0 J2.233
S24000
X17.715 Y18 I-0.285 J0 F150
X22.75 Y18 I2.517 J0
X13.25 Y18 I-4.75 J0
X22.75 Y18 I4.75 J0
S5000
X20.517 Y20.233 Z-13.838 I-2.233 J0 F50
G1 X16.052 Z-13.886
G3 X16.052 Y15.767 Z-13.962 I0 J-2.233
X18.285 Y18 Z-14 I0 J2.233
S24000
X17.715 Y18 I-0.285 J0 F150
X22.75 Y18 I2.517 J0
X13.25 Y18 I-4.75 J0
X22.75 Y18 I4.75 J0
G1 X22.746 Y18.06 Z-13.988
X22.735 Y18.119 Z-13.976
X22.716 Y18.176 Z-13.964
X22.682 Y18.244 Z-13.913
X22.637 Y18.305 Z-13.862
X22.602 Y18.342 Z-13.786
X22.563 Y18.375 Z-13.71
X22.534 Y18.395 Z-13.53
Z10
(When using Fusion 360 for Personal Use, the feedrate of)
(rapid moves is reduced to match the feedrate of cutting)
(moves, which can increase machining time. Unrestricted rapid)
(moves are available with a Fusion 360 Subscription.)

(2D Pocket2)
G0 X5.728 Y-3.799
G1 Z10 F150
Z5
Z-0.13 F50
X5.723 Y-3.795 Z-0.212
X5.705 Y-3.783 Z-0.291
X5.677 Y-3.763 Z-0.365
X5.639 Y-3.735 Z-0.432
X5.592 Y-3.702 Z-0.49
X5.537 Y-3.663 Z-0.537
X5.477 Y-3.62 Z-0.572
X5.412 Y-3.574 Z-0.593
X5.346 Y-3.526 Z-0.6
X3.553 Y-2.246
G2 X0.258 Y0.572 I14.447 J20.231 F150
G3 X-1.077 Y1.491 I-3.01 J-2.941
G2 X-2.25 Y2.06 I6.107 J14.078
G3 X-3.363 Y0.185 I-0.518 J-0.961
G1 X-0.907 Y-1.413
X-0.834 Y-1.457
X-0.756 Y-1.495
X2.919 Y-3.134
G3 X3.248 Y-3.222 I0.444 J0.997
G1 X14.483 Y-4.411
G3 X14.769 Y-2.249 I0.115 J1.085
G2 X2.593 Y4.469 I3.231 J20.251
G3 X1.568 Y5.149 I-1.761 J-1.541
G2 X-2.248 Y7.339 I3.469 J10.465
G1 X-2.281 Y7.375
X-2.307 Y7.418
X-2.322 Y7.465
X-2.327 Y7.515
X-2.37 Y34.747
X-2.364 Y34.797
X-2.348 Y34.845
X-2.322 Y34.889
X-2.287 Y34.926
X-2.245 Y34.954
G2 X0.376 Y36.053 I7.181 J-13.454
G3 X1.734 Y36.814 I-1.169 J3.68
G2 X3.557 Y38.248 I16.267 J-18.799
G3 X3.801 Y39.785 I-0.634 J0.888
X2.26 Y40.003 I-0.878 J-0.648
G1 X-0.027 Y38.254
X-0.074 Y38.216
X-2.759 Y35.917
G3 X-3.12 Y35.301 I0.71 J-0.829
G1 X-4.036 Y30.7
G3 X-2.245 Y29.668 I1.07 J-0.213
G2 X2.676 Y32.155 I7.267 J-8.268
G3 X3.718 Y32.714 I-0.459 J2.105
G2 X14.772 Y38.249 I14.282 J-14.716
G1 X32.31 Y38.29
X32.359 Y38.285
X32.405 Y38.27
X32.447 Y38.246
G2 X35.742 Y35.428 I-14.447 J-20.231
G3 X37.077 Y34.509 I3.01 J2.941
G2 X38.25 Y33.94 I-6.107 J-14.078
G3 X39.363 Y35.815 I0.518 J0.961
G1 X36.907 Y37.413
X36.834 Y37.457
X36.756 Y37.495
X33.081 Y39.134
G3 X32.752 Y39.222 I-0.444 J-0.997
G1 X21.517 Y40.411
G3 X21.231 Y38.249 I-0.115 J-1.085
G2 X33.407 Y31.531 I-3.231 J-20.251
G3 X34.432 Y30.851 I1.761 J1.541
G2 X38.248 Y28.661 I-3.469 J-10.465
G1 X38.281 Y28.625
X38.307 Y28.582
X38.322 Y28.534
X38.328 Y28.485
X38.37 Y1.253
X38.364 Y1.203
X38.348 Y1.155
X38.322 Y1.111
X38.287 Y1.074
X38.245 Y1.046
G2 X35.624 Y-0.053 I-7.181 J13.454
G3 X34.266 Y-0.814 I1.169 J-3.68
G2 X32.443 Y-2.248 I-16.267 J18.799
G3 X32.199 Y-3.785 I0.634 J-0.888
X33.74 Y-4.003 I0.878 J0.648
G1 X36.027 Y-2.254
X36.074 Y-2.216
X38.759 Y0.083
G3 X39.12 Y0.699 I-0.71 J0.829
G1 X40.036 Y5.3
G3 X38.245 Y6.332 I-1.07 J0.213
G2 X33.324 Y3.845 I-7.267 J8.268
G3 X32.282 Y3.286 I0.459 J-2.105
G2 X21.228 Y-2.249 I-14.282 J14.716
X17.457 Y-0.349 I-0.568 J3.565
G3 X14.141 Y2.266 I-4.556 J-2.368
G2 X10.61 Y3.607 I3.838 J15.417
X4.874 Y8.575 I7.672 J14.655
G3 X4.169 Y8.993 I-0.835 J-0.603
G2 X0.054 Y11.157 I0.842 J6.597
X-1.605 Y15.5 I4.856 J4.343
G1 Y21.5
G2 X0.304 Y26.112 I6.527 J0
X4.899 Y28.059 I4.698 J-4.691
G3 X5.639 Y28.409 I-0.015 J0.989
G2 X11.191 Y32.672 I12.609 J-10.673
X18.022 Y34.205 I6.831 J-14.457
X25.39 Y32.393 I0 J-15.888
X31.126 Y27.425 I-7.672 J-14.655
G3 X31.831 Y27.007 I0.835 J0.603
G2 X35.946 Y24.843 I-0.843 J-6.597
X37.605 Y20.5 I-4.856 J-4.343
G1 Y14.5
G2 X35.696 Y9.888 I-6.527 J0
X31.101 Y7.941 I-4.698 J4.691
G3 X30.361 Y7.591 I0.015 J-0.989
G2 X24.809 Y3.328 I-12.609 J10.673
X17.979 Y1.795 I-6.831 J14.457
X14.141 Y2.266 I0 J15.888
X11.421 Y5.557 I0.868 J3.486
G3 X9.657 Y9.445 I-5.867 J-0.319
G2 X7.078 Y13.15 I8.343 J8.555
G1 X5
G2 X2.65 Y15.5 I0 J2.35
G1 Y21.5
G2 X5 Y23.85 I2.35 J0
G1 X7.58
G2 X28.922 Y22.85 I10.42 J-5.85
G1 X31
G2 X33.35 Y20.5 I0 J-2.35
G1 Y14.5
G2 X31 Y12.15 I-2.35 J0
G1 X28.42
G2 X9.657 Y9.445 I-10.42 J5.85
G3 X9.273 Y9.361 I-0.164 J-0.168
G1 X4.637 Y-2.659
G2 X4.281 Y-2.766 I-0.219 J0.085
G1 X4.216 Y-2.719 Z-0.607 F50
X4.152 Y-2.674 Z-0.627
X4.093 Y-2.631 Z-0.661
X4.039 Y-2.593 Z-0.706
X3.992 Y-2.559 Z-0.763
X3.953 Y-2.532 Z-0.828
X3.924 Y-2.511 Z-0.9
X3.895 Y-2.49 Z-0.972
X3.857 Y-2.463 Z-1.037
X3.81 Y-2.429 Z-1.094
X3.756 Y-2.391 Z-1.139
X3.696 Y-2.348 Z-1.173
X3.633 Y-2.303 Z-1.193
X3.568 Y-2.256 Z-1.2
X3.553 Y-2.246
G2 X0.258 Y0.572 I14.447 J20.231 F150
G3 X-1.077 Y1.491 I-3.01 J-2.941
G2 X-2.25 Y2.06 I6.107 J14.078
G3 X-3.363 Y0.185 I-0.518 J-0.961
G1 X-0.907 Y-1.413
X-0.834 Y-1.457
X-0.756 Y-1.495
X2.919 Y-3.134
G3 X3.248 Y-3.222 I0.444 J0.997
G1 X14.483 Y-4.411
G3 X14.769 Y-2.249 I0.115 J1.085
G2 X2.593 Y4.469 I3.231 J20.251
G3 X1.568 Y5.149 I-1.761 J-1.541
G2 X-2.248 Y7.339 I3.469 J10.465
G1 X-2.281 Y7.375
X-2.307 Y7.418
X-2.322 Y7.465
X-2.327 Y7.515
X-2.37 Y34.747
X-2.364 Y34.797
X-2.348 Y34.845
X-2.322 Y34.889
X-2.287 Y34.926
X-2.245 Y34.954
G2 X0.376 Y36.053 I7.181 J-13.454
G3 X1.734 Y36.814 I-1.169 J3.68
G2 X3.557 Y38.248 I16.267 J-18.799
G3 X3.801 Y39.785 I-0.634 J0.888
X2.26 Y40.003 I-0.878 J-0.648
G1 X-0.027 Y38.254
X-0.074 Y38.216
X-2.759 Y35.917
G3 X-3.12 Y35.301 I0.71 J-0.829
G1 X-4.036 Y30.7
G3 X-2.245 Y29.668 I1.07 J-0.213
G2 X2.676 Y32.155 I7.267 J-8.268
G3 X3.718 Y32.714 I-0.459 J2.105
G2 X14.772 Y38.249 I14.282 J-14.716
G1 X32.31 Y38.29
X32.359 Y38.285
X32.405 Y38.27
X32.447 Y38.246
G2 X35.742 Y35.428 I-14.447 J-20.231
G3 X37.077 Y34.509 I3.01 J2.941
G2 X38.25 Y33.94 I-6.107 J-14.078
G3 X39.363 Y35.815 I0.518 J0.961
G1 X36.907 Y37.413
X36.834 Y37.457
X36.756 Y37.495
X33.081 Y39.134
G3 X32.752 Y39.222 I-0.444 J-0.997
G1 X21.517 Y40.411
G3 X21.231 Y38.249 I-0.115 J-1.085
G2 X33.407 Y31.531 I-3.231 J-20.251
G3 X34.432 Y30.851 I1.761 J1.541
G2 X38.248 Y28.661 I-3.469 J-10.465
G1 X38.281 Y28.625
X38.307 Y28.582
X38.322 Y28.534
X38.328 Y28.485
X38.37 Y1.253
X38.364 Y1.203
X38.348 Y1.155
X38.322 Y1.111
X38.287 Y1.074
X38.245 Y1.046
G2 X35.624 Y-0.053 I-7.181 J13.454
G3 X34.266 Y-0.814 I1.169 J-3.68
G2 X32.443 Y-2.248 I-16.267 J18.799
G3 X32.199 Y-3.785 I0.634 J-0.888
X33.74 Y-4.003 I0.878 J0.648
G1 X36.027 Y-2.254
X36.074 Y-2.216
X38.759 Y0.083
G3 X39.12 Y0.699 I-0.71 J0.829
G1 X40.036 Y5.3
G3 X38.245 Y6.332 I-1.07 J0.213
G2 X33.324 Y3.845 I-7.267 J8.268
G3 X32.282 Y3.286 I0.459 J-2.105
G2 X21.228 Y-2.249 I-14.282 J14.716
X17.457 Y-0.349 I-0.568 J3.565
G3 X14.141 Y2.266 I-4.556 J-2.368
G2 X10.61 Y3.607 I3.838 J15.417
X4.874 Y8.575 I7.672 J14.655
G3 X4.169 Y8.993 I-0.835 J-0.603
G2 X0.054 Y11.157 I0.842 J6.597
X-1.605 Y15.5 I4.856 J4.343
G1 Y21.5
G2 X0.304 Y26.112 I6.527 J0
X4.899 Y28.059 I4.698 J-4.691
G3 X5.639 Y28.409 I-0.015 J0.989
G2 X11.191 Y32.672 I12.609 J-10.673
X18.022 Y34.205 I6.831 J-14.457
X25.39 Y32.393 I0 J-15.888
X31.126 Y27.425 I-7.672 J-14.655
G3 X31.831 Y27.007 I0.835 J0.603
G2 X35.946 Y24.843 I-0.843 J-6.597
X37.605 Y20.5 I-4.856 J-4.343
G1 Y14.5
G2 X35.696 Y9.888 I-6.527 J0
X31.101 Y7.941 I-4.698 J4.691
G3 X30.361 Y7.591 I0.015 J-0.989
G2 X24.809 Y3.328 I-12.609 J10.673
X17.979 Y1.795 I-6.831 J14.457
X14.141 Y2.266 I0 J15.888
X11.421 Y5.557 I0.868 J3.486
G3 X9.657 Y9.445 I-5.867 J-0.319
G2 X7.078 Y13.15 I8.343 J8.555
G1 X5
G2 X2.65 Y15.5 I0 J2.35
G1 Y21.5
G2 X5 Y23.85 I2.35 J0
G1 X7.58
G2 X28.922 Y22.85 I10.42 J-5.85
G1 X31
G2 X33.35 Y20.5 I0 J-2.35
G1 Y14.5
G2 X31 Y12.15 I-2.35 J0
G1 X28.42
G2 X9.657 Y9.445 I-10.42 J5.85
G3 X9.273 Y9.361 I-0.164 J-0.168
G1 X4.637 Y-2.659
G2 X4.281 Y-2.766 I-0.219 J0.085
G1 X4.216 Y-2.719 Z-1.207 F50
X4.152 Y-2.674 Z-1.227
X4.093 Y-2.631 Z-1.261
X4.039 Y-2.593 Z-1.306
X3.992 Y-2.559 Z-1.363
X3.953 Y-2.532 Z-1.428
X3.924 Y-2.511 Z-1.5
X3.895 Y-2.49 Z-1.572
X3.857 Y-2.463 Z-1.637
X3.81 Y-2.429 Z-1.694
X3.756 Y-2.391 Z-1.739
X3.696 Y-2.348 Z-1.773
X3.633 Y-2.303 Z-1.793
X3.568 Y-2.256 Z-1.8
X3.553 Y-2.246
G2 X0.258 Y0.572 I14.447 J20.231 F150
G3 X-1.077 Y1.491 I-3.01 J-2.941
G2 X-2.25 Y2.06 I6.107 J14.078
G3 X-3.363 Y0.185 I-0.518 J-0.961
G1 X-0.907 Y-1.413
X-0.834 Y-1.457
X-0.756 Y-1.495
X2.919 Y-3.134
G3 X3.248 Y-3.222 I0.444 J0.997
G1 X14.483 Y-4.411
G3 X14.769 Y-2.249 I0.115 J1.085
G2 X2.593 Y4.469 I3.231 J20.251
G3 X1.568 Y5.149 I-1.761 J-1.541
G2 X-2.248 Y7.339 I3.469 J10.465
G1 X-2.281 Y7.375
X-2.307 Y7.418
X-2.322 Y7.465
X-2.327 Y7.515
X-2.37 Y34.747
X-2.364 Y34.797
X-2.348 Y34.845
X-2.322 Y34.889
X-2.287 Y34.926
X-2.245 Y34.954
G2 X0.376 Y36.053 I7.181 J-13.454
G3 X1.734 Y36.814 I-1.169 J3.68
G2 X3.557 Y38.248 I16.267 J-18.799
G3 X3.801 Y39.785 I-0.634 J0.888
X2.26 Y40.003 I-0.878 J-0.648
G1 X-0.027 Y38.254
X-0.074 Y38.216
X-2.759 Y35.917
G3 X-3.12 Y35.301 I0.71 J-0.829
G1 X-4.036 Y30.7
G3 X-2.245 Y29.668 I1.07 J-0.213
G2 X2.676 Y32.155 I7.267 J-8.268
G3 X3.718 Y32.714 I-0.459 J2.105
G2 X14.772 Y38.249 I14.282 J-14.716
G1 X32.31 Y38.29
X32.359 Y38.285
X32.405 Y38.27
X32.447 Y38.246
G2 X35.742 Y35.428 I-14.447 J-20.231
G3 X37.077 Y34.509 I3.01 J2.941
G2 X38.25 Y33.94 I-6.107 J-14.078
G3 X39.363 Y35.815 I0.518 J0.961
G1 X36.907 Y37.413
X36.834 Y37.457
X36.756 Y37.495
X33.081 Y39.134
G3 X32.752 Y39.222 I-0.444 J-0.997
G1 X21.517 Y40.411
G3 X21.231 Y38.249 I-0.115 J-1.085
G2 X33.407 Y31.531 I-3.231 J-20.251
G3 X34.432 Y30.851 I1.761 J1.541
G2 X38.248 Y28.661 I-3.469 J-10.465
G1 X38.281 Y28.625
X38.307 Y28.582
X38.322 Y28.534
X38.328 Y28.485
X38.37 Y1.253
X38.364 Y1.203
X38.348 Y1.155
X38.322 Y1.111
X38.287 Y1.074
X38.245 Y1.046
G2 X35.624 Y-0.053 I-7.181 J13.454
G3 X34.266 Y-0.814 I1.169 J-3.68
G2 X32.443 Y-2.248 I-16.267 J18.799
G3 X32.199 Y-3.785 I0.634 J-0.888
X33.74 Y-4.003 I0.878 J0.648
G1 X36.027 Y-2.254
X36.074 Y-2.216
X38.759 Y0.083
G3 X39.12 Y0.699 I-0.71 J0.829
G1 X40.036 Y5.3
G3 X38.245 Y6.332 I-1.07 J0.213
G2 X33.324 Y3.845 I-7.267 J8.268
G3 X32.282 Y3.286 I0.459 J-2.105
G2 X21.228 Y-2.249 I-14.282 J14.716
X17.457 Y-0.349 I-0.568 J3.565
G3 X14.141 Y2.266 I-4.556 J-2.368
G2 X10.61 Y3.607 I3.838 J15.417
X4.874 Y8.575 I7.672 J14.655
G3 X4.169 Y8.993 I-0.835 J-0.603
G2 X0.054 Y11.157 I0.842 J6.597
X-1.605 Y15.5 I4.856 J4.343
G1 Y21.5
G2 X0.304 Y26.112 I6.527 J0
X4.899 Y28.059 I4.698 J-4.691
G3 X5.639 Y28.409 I-0.015 J0.989
G2 X11.191 Y32.672 I12.609 J-10.673
X18.022 Y34.205 I6.831 J-14.457
X25.39 Y32.393 I0 J-15.888
X31.126 Y27.425 I-7.672 J-14.655
G3 X31.831 Y27.007 I0.835 J0.603
G2 X35.946 Y24.843 I-0.843 J-6.597
X37.605 Y20.5 I-4.856 J-4.343
G1 Y14.5
G2 X35.696 Y9.888 I-6.527 J0
X31.101 Y7.941 I-4.698 J4.691
G3 X30.361 Y7.591 I0.015 J-0.989
G2 X24.809 Y3.328 I-12.609 J10.673
X17.979 Y1.795 I-6.831 J14.457
X14.141 Y2.266 I0 J15.888
X11.421 Y5.557 I0.868 J3.486
G3 X9.657 Y9.445 I-5.867 J-0.319
G2 X7.078 Y13.15 I8.343 J8.555
G1 X5
G2 X2.65 Y15.5 I0 J2.35
G1 Y21.5
G2 X5 Y23.85 I2.35 J0
G1 X7.58
G2 X28.922 Y22.85 I10.42 J-5.85
G1 X31
G2 X33.35 Y20.5 I0 J-2.35
G1 Y14.5
G2 X31 Y12.15 I-2.35 J0
G1 X28.42
G2 X9.657 Y9.445 I-10.42 J5.85
G3 X9.273 Y9.361 I-0.164 J-0.168
G1 X4.637 Y-2.659
G2 X4.281 Y-2.766 I-0.219 J0.085
G1 X4.216 Y-2.719 Z-1.807 F50
X4.152 Y-2.674 Z-1.827
X4.093 Y-2.631 Z-1.861
X4.039 Y-2.593 Z-1.906
X3.992 Y-2.559 Z-1.963
X3.953 Y-2.532 Z-2.028
X3.924 Y-2.511 Z-2.1
X3.895 Y-2.49 Z-2.172
X3.857 Y-2.463 Z-2.237
X3.81 Y-2.429 Z-2.294
X3.756 Y-2.391 Z-2.339
X3.696 Y-2.348 Z-2.373
X3.633 Y-2.303 Z-2.393
X3.568 Y-2.256 Z-2.4
X3.553 Y-2.246
G2 X0.258 Y0.572 I14.447 J20.231 F150
G3 X-1.077 Y1.491 I-3.01 J-2.941
G2 X-2.25 Y2.06 I6.107 J14.078
G3 X-3.363 Y0.185 I-0.518 J-0.961
G1 X-0.907 Y-1.413
X-0.834 Y-1.457
X-0.756 Y-1.495
X2.919 Y-3.134
G3 X3.248 Y-3.222 I0.444 J0.997
G1 X14.483 Y-4.411
G3 X14.769 Y-2.249 I0.115 J1.085
G2 X2.593 Y4.469 I3.231 J20.251
G3 X1.568 Y5.149 I-1.761 J-1.541
G2 X-2.248 Y7.339 I3.469 J10.465
G1 X-2.281 Y7.375
X-2.307 Y7.418
X-2.322 Y7.465
X-2.327 Y7.515
X-2.37 Y34.747
X-2.364 Y34.797
X-2.348 Y34.845
X-2.322 Y34.889
X-2.287 Y34.926
X-2.245 Y34.954
G2 X0.376 Y36.053 I7.181 J-13.454
G3 X1.734 Y36.814 I-1.169 J3.68
G2 X3.557 Y38.248 I16.267 J-18.799
G3 X3.801 Y39.785 I-0.634 J0.888
X2.26 Y40.003 I-0.878 J-0.648
G1 X-0.027 Y38.254
X-0.074 Y38.216
X-2.759 Y35.917
G3 X-3.12 Y35.301 I0.71 J-0.829
G1 X-4.036 Y30.7
G3 X-2.245 Y29.668 I1.07 J-0.213
G2 X2.676 Y32.155 I7.267 J-8.268
G3 X3.718 Y32.714 I-0.459 J2.105
G2 X14.772 Y38.249 I14.282 J-14.716
G1 X32.31 Y38.29
X32.359 Y38.285
X32.405 Y38.27
X32.447 Y38.246
G2 X35.742 Y35.428 I-14.447 J-20.231
G3 X37.077 Y34.509 I3.01 J2.941
G2 X38.25 Y33.94 I-6.107 J-14.078
G3 X39.363 Y35.815 I0.518 J0.961
G1 X36.907 Y37.413
X36.834 Y37.457
X36.756 Y37.495
X33.081 Y39.134
G3 X32.752 Y39.222 I-0.444 J-0.997
G1 X21.517 Y40.411
G3 X21.231 Y38.249 I-0.115 J-1.085
G2 X33.407 Y31.531 I-3.231 J-20.251
G3 X34.432 Y30.851 I1.761 J1.541
G2 X38.248 Y28.661 I-3.469 J-10.465
G1 X38.281 Y28.625
X38.307 Y28.582
X38.322 Y28.534
X38.328 Y28.485
X38.37 Y1.253
X38.364 Y1.203
X38.348 Y1.155
X38.322 Y1.111
X38.287 Y1.074
X38.245 Y1.046
G2 X35.624 Y-0.053 I-7.181 J13.454
G3 X34.266 Y-0.814 I1.169 J-3.68
G2 X32.443 Y-2.248 I-16.267 J18.799
G3 X32.199 Y-3.785 I0.634 J-0.888
X33.74 Y-4.003 I0.878 J0.648
G1 X36.027 Y-2.254
X36.074 Y-2.216
X38.759 Y0.083
G3 X39.12 Y0.699 I-0.71 J0.829
G1 X40.036 Y5.3
G3 X38.245 Y6.332 I-1.07 J0.213
G2 X33.324 Y3.845 I-7.267 J8.268
G3 X32.282 Y3.286 I0.459 J-2.105
G2 X21.228 Y-2.249 I-14.282 J14.716
X17.457 Y-0.349 I-0.568 J3.565
G3 X14.141 Y2.266 I-4.556 J-2.368
G2 X10.61 Y3.607 I3.838 J15.417
X4.874 Y8.575 I7.672 J14.655
G3 X4.169 Y8.993 I-0.835 J-0.603
G2 X0.054 Y11.157 I0.842 J6.597
X-1.605 Y15.5 I4.856 J4.343
G1 Y21.5
G2 X0.304 Y26.112 I6.527 J0
X4.899 Y28.059 I4.698 J-4.691
G3 X5.639 Y28.409 I-0.015 J0.989
G2 X11.191 Y32.672 I12.609 J-10.673
X18.022 Y34.205 I6.831 J-14.457
X25.39 Y32.393 I0 J-15.888
X31.126 Y27.425 I-7.672 J-14.655
G3 X31.831 Y27.007 I0.835 J0.603
G2 X35.946 Y24.843 I-0.843 J-6.597
X37.605 Y20.5 I-4.856 J-4.343
G1 Y14.5
G2 X35.696 Y9.888 I-6.527 J0
X31.101 Y7.941 I-4.698 J4.691
G3 X30.361 Y7.591 I0.015 J-0.989
G2 X24.809 Y3.328 I-12.609 J10.673
X17.979 Y1.795 I-6.831 J14.457
X14.141 Y2.266 I0 J15.888
X11.421 Y5.557 I0.868 J3.486
G3 X9.657 Y9.445 I-5.867 J-0.319
G2 X7.078 Y13.15 I8.343 J8.555
G1 X5
G2 X2.65 Y15.5 I0 J2.35
G1 Y21.5
G2 X5 Y23.85 I2.35 J0
G1 X7.58
G2 X28.922 Y22.85 I10.42 J-5.85
G1 X31
G2 X33.35 Y20.5 I0 J-2.35
G1 Y14.5
G2 X31 Y12.15 I-2.35 J0
G1 X28.42
G2 X9.657 Y9.445 I-10.42 J5.85
G3 X9.273 Y9.361 I-0.164 J-0.168
G1 X4.637 Y-2.659
G2 X4.281 Y-2.766 I-0.219 J0.085
G1 X4.216 Y-2.719 Z-2.407 F50
X4.152 Y-2.674 Z-2.427
X4.093 Y-2.631 Z-2.461
X4.039 Y-2.593 Z-2.506
X3.992 Y-2.559 Z-2.563
X3.953 Y-2.532 Z-2.628
X3.924 Y-2.511 Z-2.7
X3.895 Y-2.49 Z-2.772
X3.857 Y-2.463 Z-2.837
X3.81 Y-2.429 Z-2.894
X3.756 Y-2.391 Z-2.939
X3.696 Y-2.348 Z-2.973
X3.633 Y-2.303 Z-2.993
X3.568 Y-2.256 Z-3
X3.553 Y-2.246
G2 X0.258 Y0.572 I14.447 J20.231 F150
G3 X-1.077 Y1.491 I-3.01 J-2.941
G2 X-2.25 Y2.06 I6.107 J14.078
G3 X-3.363 Y0.185 I-0.518 J-0.961
G1 X-0.907 Y-1.413
X-0.834 Y-1.457
X-0.756 Y-1.495
X2.919 Y-3.134
G3 X3.248 Y-3.222 I0.444 J0.997
G1 X14.483 Y-4.411
G3 X14.769 Y-2.249 I0.115 J1.085
G2 X2.593 Y4.469 I3.231 J20.251
G3 X1.568 Y5.149 I-1.761 J-1.541
G2 X-2.248 Y7.339 I3.469 J10.465
G1 X-2.281 Y7.375
X-2.307 Y7.418
X-2.322 Y7.465
X-2.327 Y7.515
X-2.37 Y34.747
X-2.364 Y34.797
X-2.348 Y34.845
X-2.322 Y34.889
X-2.287 Y34.926
X-2.245 Y34.954
G2 X0.376 Y36.053 I7.181 J-13.454
G3 X1.734 Y36.814 I-1.169 J3.68
G2 X3.557 Y38.248 I16.267 J-18.799
G3 X3.801 Y39.785 I-0.634 J0.888
X2.26 Y40.003 I-0.878 J-0.648
G1 X-0.027 Y38.254
X-0.074 Y38.216
X-2.759 Y35.917
G3 X-3.12 Y35.301 I0.71 J-0.829
G1 X-4.036 Y30.7
G3 X-2.245 Y29.668 I1.07 J-0.213
G2 X2.676 Y32.155 I7.267 J-8.268
G3 X3.718 Y32.714 I-0.459 J2.105
G2 X14.772 Y38.249 I14.282 J-14.716
G1 X32.31 Y38.29
X32.359 Y38.285
X32.405 Y38.27
X32.447 Y38.246
G2 X35.742 Y35.428 I-14.447 J-20.231
G3 X37.077 Y34.509 I3.01 J2.941
G2 X38.25 Y33.94 I-6.107 J-14.078
G3 X39.363 Y35.815 I0.518 J0.961
G1 X36.907 Y37.413
X36.834 Y37.457
X36.756 Y37.495
X33.081 Y39.134
G3 X32.752 Y39.222 I-0.444 J-0.997
G1 X21.517 Y40.411
G3 X21.231 Y38.249 I-0.115 J-1.085
G2 X33.407 Y31.531 I-3.231 J-20.251
G3 X34.432 Y30.851 I1.761 J1.541
G2 X38.248 Y28.661 I-3.469 J-10.465
G1 X38.281 Y28.625
X38.307 Y28.582
X38.322 Y28.534
X38.328 Y28.485
X38.37 Y1.253
X38.364 Y1.203
X38.348 Y1.155
X38.322 Y1.111
X38.287 Y1.074
X38.245 Y1.046
G2 X35.624 Y-0.053 I-7.181 J13.454
G3 X34.266 Y-0.814 I1.169 J-3.68
G2 X32.443 Y-2.248 I-16.267 J18.799
G3 X32.199 Y-3.785 I0.634 J-0.888
X33.74 Y-4.003 I0.878 J0.648
G1 X36.027 Y-2.254
X36.074 Y-2.216
X38.759 Y0.083
G3 X39.12 Y0.699 I-0.71 J0.829
G1 X40.036 Y5.3
G3 X38.245 Y6.332 I-1.07 J0.213
G2 X33.324 Y3.845 I-7.267 J8.268
G3 X32.282 Y3.286 I0.459 J-2.105
G2 X21.228 Y-2.249 I-14.282 J14.716
X17.457 Y-0.349 I-0.568 J3.565
G3 X14.141 Y2.266 I-4.556 J-2.368
G2 X10.61 Y3.607 I3.838 J15.417
X4.874 Y8.575 I7.672 J14.655
G3 X4.169 Y8.993 I-0.835 J-0.603
G2 X0.054 Y11.157 I0.842 J6.597
X-1.605 Y15.5 I4.856 J4.343
G1 Y21.5
G2 X0.304 Y26.112 I6.527 J0
X4.899 Y28.059 I4.698 J-4.691
G3 X5.639 Y28.409 I-0.015 J0.989
G2 X11.191 Y32.672 I12.609 J-10.673
X18.022 Y34.205 I6.831 J-14.457
X25.39 Y32.393 I0 J-15.888
X31.126 Y27.425 I-7.672 J-14.655
G3 X31.831 Y27.007 I0.835 J0.603
G2 X35.946 Y24.843 I-0.843 J-6.597
X37.605 Y20.5 I-4.856 J-4.343
G1 Y14.5
G2 X35.696 Y9.888 I-6.527 J0
X31.101 Y7.941 I-4.698 J4.691
G3 X30.361 Y7.591 I0.015 J-0.989
G2 X24.809 Y3.328 I-12.609 J10.673
X17.979 Y1.795 I-6.831 J14.457
X14.141 Y2.266 I0 J15.888
X11.421 Y5.557 I0.868 J3.486
G3 X9.657 Y9.445 I-5.867 J-0.319
G2 X7.078 Y13.15 I8.343 J8.555
G1 X5
G2 X2.65 Y15.5 I0 J2.35
G1 Y21.5
G2 X5 Y23.85 I2.35 J0
G1 X7.58
G2 X28.922 Y22.85 I10.42 J-5.85
G1 X31
G2 X33.35 Y20.5 I0 J-2.35
G1 Y14.5
G2 X31 Y12.15 I-2.35 J0
G1 X28.42
G2 X9.657 Y9.445 I-10.42 J5.85
G3 X9.273 Y9.361 I-0.164 J-0.168
G1 X4.637 Y-2.659
G2 X4.281 Y-2.766 I-0.219 J0.085
G1 X4.216 Y-2.719 Z-3.007 F50
X4.152 Y-2.674 Z-3.027
X4.093 Y-2.631 Z-3.061
X4.039 Y-2.593 Z-3.106
X3.992 Y-2.559 Z-3.163
X3.953 Y-2.532 Z-3.228
X3.924 Y-2.511 Z-3.3
X3.895 Y-2.49 Z-3.372
X3.857 Y-2.463 Z-3.437
X3.81 Y-2.429 Z-3.494
X3.756 Y-2.391 Z-3.539
X3.696 Y-2.348 Z-3.573
X3.633 Y-2.303 Z-3.593
X3.568 Y-2.256 Z-3.6
X3.553 Y-2.246
G2 X0.258 Y0.572 I14.447 J20.231 F150
G3 X-1.077 Y1.491 I-3.01 J-2.941
G2 X-2.25 Y2.06 I6.107 J14.078
G3 X-3.363 Y0.185 I-0.518 J-0.961
G1 X-0.907 Y-1.413
X-0.834 Y-1.457
X-0.756 Y-1.495
X2.919 Y-3.134
G3 X3.248 Y-3.222 I0.444 J0.997
G1 X14.483 Y-4.411
G3 X14.769 Y-2.249 I0.115 J1.085
G2 X2.593 Y4.469 I3.231 J20.251
G3 X1.568 Y5.149 I-1.761 J-1.541
G2 X-2.248 Y7.339 I3.469 J10.465
G1 X-2.281 Y7.375
X-2.307 Y7.418
X-2.322 Y7.465
X-2.327 Y7.515
X-2.37 Y34.747
X-2.364 Y34.797
X-2.348 Y34.845
X-2.322 Y34.889
X-2.287 Y34.926
X-2.245 Y34.954
G2 X0.376 Y36.053 I7.181 J-13.454
G3 X1.734 Y36.814 I-1.169 J3.68
G2 X3.557 Y38.248 I16.267 J-18.799
G3 X3.801 Y39.785 I-0.634 J0.888
X2.26 Y40.003 I-0.878 J-0.648
G1 X-0.027 Y38.254
X-0.074 Y38.216
X-2.759 Y35.917
G3 X-3.12 Y35.301 I0.71 J-0.829
G1 X-4.036 Y30.7
G3 X-2.245 Y29.668 I1.07 J-0.213
G2 X2.676 Y32.155 I7.267 J-8.268
G3 X3.718 Y32.714 I-0.459 J2.105
G2 X14.772 Y38.249 I14.282 J-14.716
G1 X32.31 Y38.29
X32.359 Y38.285
X32.405 Y38.27
X32.447 Y38.246
G2 X35.742 Y35.428 I-14.447 J-20.231
G3 X37.077 Y34.509 I3.01 J2.941
G2 X38.25 Y33.94 I-6.107 J-14.078
G3 X39.363 Y35.815 I0.518 J0.961
G1 X36.907 Y37.413
X36.834 Y37.457
X36.756 Y37.495
X33.081 Y39.134
G3 X32.752 Y39.222 I-0.444 J-0.997
G1 X21.517 Y40.411
G3 X21.231 Y38.249 I-0.115 J-1.085
G2 X33.407 Y31.531 I-3.231 J-20.251
G3 X34.432 Y30.851 I1.761 J1.541
G2 X38.248 Y28.661 I-3.469 J-10.465
G1 X38.281 Y28.625
X38.307 Y28.582
X38.322 Y28.534
X38.328 Y28.485
X38.37 Y1.253
X38.364 Y1.203
X38.348 Y1.155
X38.322 Y1.111
X38.287 Y1.074
X38.245 Y1.046
G2 X35.624 Y-0.053 I-7.181 J13.454
G3 X34.266 Y-0.814 I1.169 J-3.68
G2 X32.443 Y-2.248 I-16.267 J18.799
G3 X32.199 Y-3.785 I0.634 J-0.888
X33.74 Y-4.003 I0.878 J0.648
G1 X36.027 Y-2.254
X36.074 Y-2.216
X38.759 Y0.083
G3 X39.12 Y0.699 I-0.71 J0.829
G1 X40.036 Y5.3
G3 X38.245 Y6.332 I-1.07 J0.213
G2 X33.324 Y3.845 I-7.267 J8.268
G3 X32.282 Y3.286 I0.459 J-2.105
G2 X21.228 Y-2.249 I-14.282 J14.716
X17.457 Y-0.349 I-0.568 J3.565
G3 X14.141 Y2.266 I-4.556 J-2.368
G2 X10.61 Y3.607 I3.838 J15.417
X4.874 Y8.575 I7.672 J14.655
G3 X4.169 Y8.993 I-0.835 J-0.603
G2 X0.054 Y11.157 I0.842 J6.597
X-1.605 Y15.5 I4.856 J4.343
G1 Y21.5
G2 X0.304 Y26.112 I6.527 J0
X4.899 Y28.059 I4.698 J-4.691
G3 X5.639 Y28.409 I-0.015 J0.989
G2 X11.191 Y32.672 I12.609 J-10.673
X18.022 Y34.205 I6.831 J-14.457
X25.39 Y32.393 I0 J-15.888
X31.126 Y27.425 I-7.672 J-14.655
G3 X31.831 Y27.007 I0.835 J0.603
G2 X35.946 Y24.843 I-0.843 J-6.597
X37.605 Y20.5 I-4.856 J-4.343
G1 Y14.5
G2 X35.696 Y9.888 I-6.527 J0
X31.101 Y7.941 I-4.698 J4.691
G3 X30.361 Y7.591 I0.015 J-0.989
G2 X24.809 Y3.328 I-12.609 J10.673
X17.979 Y1.795 I-6.831 J14.457
X14.141 Y2.266 I0 J15.888
X11.421 Y5.557 I0.868 J3.486
G3 X9.657 Y9.445 I-5.867 J-0.319
G2 X7.078 Y13.15 I8.343 J8.555
G1 X5
G2 X2.65 Y15.5 I0 J2.35
G1 Y21.5
G2 X5 Y23.85 I2.35 J0
G1 X7.58
G2 X28.922 Y22.85 I10.42 J-5.85
G1 X31
G2 X33.35 Y20.5 I0 J-2.35
G1 Y14.5
G2 X31 Y12.15 I-2.35 J0
G1 X28.42
G2 X9.657 Y9.445 I-10.42 J5.85
G3 X9.273 Y9.361 I-0.164 J-0.168
G1 X4.637 Y-2.659
G2 X4.281 Y-2.766 I-0.219 J0.085
G1 X4.216 Y-2.719 Z-3.607 F50
X4.152 Y-2.674 Z-3.627
X4.093 Y-2.631 Z-3.661
X4.039 Y-2.593 Z-3.706
X3.992 Y-2.559 Z-3.763
X3.953 Y-2.532 Z-3.828
X3.924 Y-2.511 Z-3.9
X3.895 Y-2.49 Z-3.972
X3.857 Y-2.463 Z-4.037
X3.81 Y-2.429 Z-4.094
X3.756 Y-2.391 Z-4.139
X3.696 Y-2.348 Z-4.173
X3.633 Y-2.303 Z-4.193
X3.568 Y-2.256 Z-4.2
X3.553 Y-2.246
G2 X0.258 Y0.572 I14.447 J20.231 F150
G3 X-1.077 Y1.491 I-3.01 J-2.941
G2 X-2.25 Y2.06 I6.107 J14.078
G3 X-3.363 Y0.185 I-0.518 J-0.961
G1 X-0.907 Y-1.413
X-0.834 Y-1.457
X-0.756 Y-1.495
X2.919 Y-3.134
G3 X3.248 Y-3.222 I0.444 J0.997
G1 X14.483 Y-4.411
G3 X14.769 Y-2.249 I0.115 J1.085
G2 X2.593 Y4.469 I3.231 J20.251
G3 X1.568 Y5.149 I-1.761 J-1.541
G2 X-2.248 Y7.339 I3.469 J10.465
G1 X-2.281 Y7.375
X-2.307 Y7.418
X-2.322 Y7.465
X-2.327 Y7.515
X-2.37 Y34.747
X-2.364 Y34.797
X-2.348 Y34.845
X-2.322 Y34.889
X-2.287 Y34.926
X-2.245 Y34.954
G2 X0.376 Y36.053 I7.181 J-13.454
G3 X1.734 Y36.814 I-1.169 J3.68
G2 X3.557 Y38.248 I16.267 J-18.799
G3 X3.801 Y39.785 I-0.634 J0.888
X2.26 Y40.003 I-0.878 J-0.648
G1 X-0.027 Y38.254
X-0.074 Y38.216
X-2.759 Y35.917
G3 X-3.12 Y35.301 I0.71 J-0.829
G1 X-4.036 Y30.7
G3 X-2.245 Y29.668 I1.07 J-0.213
G2 X2.676 Y32.155 I7.267 J-8.268
G3 X3.718 Y32.714 I-0.459 J2.105
G2 X14.772 Y38.249 I14.282 J-14.716
G1 X32.31 Y38.29
X32.359 Y38.285
X32.405 Y38.27
X32.447 Y38.246
G2 X35.742 Y35.428 I-14.447 J-20.231
G3 X37.077 Y34.509 I3.01 J2.941
G2 X38.25 Y33.94 I-6.107 J-14.078
G3 X39.363 Y35.815 I0.518 J0.961
G1 X36.907 Y37.413
X36.834 Y37.457
X36.756 Y37.495
X33.081 Y39.134
G3 X32.752 Y39.222 I-0.444 J-0.997
G1 X21.517 Y40.411
G3 X21.231 Y38.249 I-0.115 J-1.085
G2 X33.407 Y31.531 I-3.231 J-20.251
G3 X34.432 Y30.851 I1.761 J1.541
G2 X38.248 Y28.661 I-3.469 J-10.465
G1 X38.281 Y28.625
X38.307 Y28.582
X38.322 Y28.534
X38.328 Y28.485
X38.37 Y1.253
X38.364 Y1.203
X38.348 Y1.155
X38.322 Y1.111
X38.287 Y1.074
X38.245 Y1.046
G2 X35.624 Y-0.053 I-7.181 J13.454
G3 X34.266 Y-0.814 I1.169 J-3.68
G2 X32.443 Y-2.248 I-16.267 J18.799
G3 X32.199 Y-3.785 I0.634 J-0.888
X33.74 Y-4.003 I0.878 J0.648
G1 X36.027 Y-2.254
X36.074 Y-2.216
X38.759 Y0.083
G3 X39.12 Y0.699 I-0.71 J0.829
G1 X40.036 Y5.3
G3 X38.245 Y6.332 I-1.07 J0.213
G2 X33.324 Y3.845 I-7.267 J8.268
G3 X32.282 Y3.286 I0.459 J-2.105
G2 X21.228 Y-2.249 I-14.282 J14.716
X17.457 Y-0.349 I-0.568 J3.565
G3 X14.141 Y2.266 I-4.556 J-2.368
G2 X10.61 Y3.607 I3.838 J15.417
X4.874 Y8.575 I7.672 J14.655
G3 X4.169 Y8.993 I-0.835 J-0.603
G2 X0.054 Y11.157 I0.842 J6.597
X-1.605 Y15.5 I4.856 J4.343
G1 Y21.5
G2 X0.304 Y26.112 I6.527 J0
X4.899 Y28.059 I4.698 J-4.691
G3 X5.639 Y28.409 I-0.015 J0.989
G2 X11.191 Y32.672 I12.609 J-10.673
X18.022 Y34.205 I6.831 J-14.457
X25.39 Y32.393 I0 J-15.888
X31.126 Y27.425 I-7.672 J-14.655
G3 X31.831 Y27.007 I0.835 J0.603
G2 X35.946 Y24.843 I-0.843 J-6.597
X37.605 Y20.5 I-4.856 J-4.343
G1 Y14.5
G2 X35.696 Y9.888 I-6.527 J0
X31.101 Y7.941 I-4.698 J4.691
G3 X30.361 Y7.591 I0.015 J-0.989
G2 X24.809 Y3.328 I-12.609 J10.673
X17.979 Y1.795 I-6.831 J14.457
X14.141 Y2.266 I0 J15.888
X11.421 Y5.557 I0.868 J3.486
G3 X9.657 Y9.445 I-5.867 J-0.319
G2 X7.078 Y13.15 I8.343 J8.555
G1 X5
G2 X2.65 Y15.5 I0 J2.35
G1 Y21.5
G2 X5 Y23.85 I2.35 J0
G1 X7.58
G2 X28.922 Y22.85 I10.42 J-5.85
G1 X31
G2 X33.35 Y20.5 I0 J-2.35
G1 Y14.5
G2 X31 Y12.15 I-2.35 J0
G1 X28.42
G2 X9.657 Y9.445 I-10.42 J5.85
G3 X9.273 Y9.361 I-0.164 J-0.168
G1 X4.637 Y-2.659
G2 X4.281 Y-2.766 I-0.219 J0.085
G1 X4.216 Y-2.719 Z-4.207 F50
X4.152 Y-2.674 Z-4.227
X4.093 Y-2.631 Z-4.261
X4.039 Y-2.593 Z-4.306
X3.992 Y-2.559 Z-4.363
X3.953 Y-2.532 Z-4.428
X3.924 Y-2.511 Z-4.5
X3.895 Y-2.49 Z-4.572
X3.857 Y-2.463 Z-4.637
X3.81 Y-2.429 Z-4.694
X3.756 Y-2.391 Z-4.739
X3.696 Y-2.348 Z-4.773
X3.633 Y-2.303 Z-4.793
X3.568 Y-2.256 Z-4.8
X3.553 Y-2.246
G2 X0.258 Y0.572 I14.447 J20.231 F150
G3 X-1.077 Y1.491 I-3.01 J-2.941
G2 X-2.25 Y2.06 I6.107 J14.078
G3 X-3.363 Y0.185 I-0.518 J-0.961
G1 X-0.907 Y-1.413
X-0.834 Y-1.457
X-0.756 Y-1.495
X2.919 Y-3.134
G3 X3.248 Y-3.222 I0.444 J0.997
G1 X14.483 Y-4.411
G3 X14.769 Y-2.249 I0.115 J1.085
G2 X2.593 Y4.469 I3.231 J20.251
G3 X1.568 Y5.149 I-1.761 J-1.541
G2 X-2.248 Y7.339 I3.469 J10.465
G1 X-2.281 Y7.375
X-2.307 Y7.418
X-2.322 Y7.465
X-2.327 Y7.515
X-2.37 Y34.747
X-2.364 Y34.797
X-2.348 Y34.845
X-2.322 Y34.889
X-2.287 Y34.926
X-2.245 Y34.954
G2 X0.376 Y36.053 I7.181 J-13.454
G3 X1.734 Y36.814 I-1.169 J3.68
G2 X3.557 Y38.248 I16.267 J-18.799
G3 X3.801 Y39.785 I-0.634 J0.888
X2.26 Y40.003 I-0.878 J-0.648
G1 X-0.027 Y38.254
X-0.074 Y38.216
X-2.759 Y35.917
G3 X-3.12 Y35.301 I0.71 J-0.829
G1 X-4.036 Y30.7
G3 X-2.245 Y29.668 I1.07 J-0.213
G2 X2.676 Y32.155 I7.267 J-8.268
G3 X3.718 Y32.714 I-0.459 J2.105
G2 X14.772 Y38.249 I14.282 J-14.716
G1 X32.31 Y38.29
X32.359 Y38.285
X32.405 Y38.27
X32.447 Y38.246
G2 X35.742 Y35.428 I-14.447 J-20.231
G3 X37.077 Y34.509 I3.01 J2.941
G2 X38.25 Y33.94 I-6.107 J-14.078
G3 X39.363 Y35.815 I0.518 J0.961
G1 X36.907 Y37.413
X36.834 Y37.457
X36.756 Y37.495
X33.081 Y39.134
G3 X32.752 Y39.222 I-0.444 J-0.997
G1 X21.517 Y40.411
G3 X21.231 Y38.249 I-0.115 J-1.085
G2 X33.407 Y31.531 I-3.231 J-20.251
G3 X34.432 Y30.851 I1.761 J1.541
G2 X38.248 Y28.661 I-3.469 J-10.465
G1 X38.281 Y28.625
X38.307 Y28.582
X38.322 Y28.534
X38.328 Y28.485
X38.37 Y1.253
X38.364 Y1.203
X38.348 Y1.155
X38.322 Y1.111
X38.287 Y1.074
X38.245 Y1.046
G2 X35.624 Y-0.053 I-7.181 J13.454
G3 X34.266 Y-0.814 I1.169 J-3.68
G2 X32.443 Y-2.248 I-16.267 J18.799
G3 X32.199 Y-3.785 I0.634 J-0.888
X33.74 Y-4.003 I0.878 J0.648
G1 X36.027 Y-2.254
X36.074 Y-2.216
X38.759 Y0.083
G3 X39.12 Y0.699 I-0.71 J0.829
G1 X40.036 Y5.3
G3 X38.245 Y6.332 I-1.07 J0.213
G2 X33.324 Y3.845 I-7.267 J8.268
G3 X32.282 Y3.286 I0.459 J-2.105
G2 X21.228 Y-2.249 I-14.282 J14.716
X17.457 Y-0.349 I-0.568 J3.565
G3 X14.141 Y2.266 I-4.556 J-2.368
G2 X10.61 Y3.607 I3.838 J15.417
X4.874 Y8.575 I7.672 J14.655
G3 X4.169 Y8.993 I-0.835 J-0.603
G2 X0.054 Y11.157 I0.842 J6.597
X-1.605 Y15.5 I4.856 J4.343
G1 Y21.5
G2 X0.304 Y26.112 I6.527 J0
X4.899 Y28.059 I4.698 J-4.691
G3 X5.639 Y28.409 I-0.015 J0.989
G2 X11.191 Y32.672 I12.609 J-10.673
X18.022 Y34.205 I6.831 J-14.457
X25.39 Y32.393 I0 J-15.888
X31.126 Y27.425 I-7.672 J-14.655
G3 X31.831 Y27.007 I0.835 J0.603
G2 X35.946 Y24.843 I-0.843 J-6.597
X37.605 Y20.5 I-4.856 J-4.343
G1 Y14.5
G2 X35.696 Y9.888 I-6.527 J0
X31.101 Y7.941 I-4.698 J4.691
G3 X30.361 Y7.591 I0.015 J-0.989
G2 X24.809 Y3.328 I-12.609 J10.673
X17.979 Y1.795 I-6.831 J14.457
X14.141 Y2.266 I0 J15.888
X11.421 Y5.557 I0.868 J3.486
G3 X9.657 Y9.445 I-5.867 J-0.319
G2 X7.078 Y13.15 I8.343 J8.555
G1 X5
G2 X2.65 Y15.5 I0 J2.35
G1 Y21.5
G2 X5 Y23.85 I2.35 J0
G1 X7.58
G2 X28.922 Y22.85 I10.42 J-5.85
G1 X31
G2 X33.35 Y20.5 I0 J-2.35
G1 Y14.5
G2 X31 Y12.15 I-2.35 J0
G1 X28.42
G2 X9.657 Y9.445 I-10.42 J5.85
G3 X9.273 Y9.361 I-0.164 J-0.168
G1 X4.637 Y-2.659
G2 X4.281 Y-2.766 I-0.219 J0.085
G1 X4.216 Y-2.719 Z-4.807 F50
X4.152 Y-2.674 Z-4.827
X4.093 Y-2.631 Z-4.861
X4.039 Y-2.593 Z-4.906
X3.992 Y-2.559 Z-4.963
X3.953 Y-2.532 Z-5.028
X3.924 Y-2.511 Z-5.1
X3.895 Y-2.49 Z-5.172
X3.857 Y-2.463 Z-5.237
X3.81 Y-2.429 Z-5.294
X3.756 Y-2.391 Z-5.339
X3.696 Y-2.348 Z-5.373
X3.633 Y-2.303 Z-5.393
X3.568 Y-2.256 Z-5.4
X3.553 Y-2.246
G2 X0.258 Y0.572 I14.447 J20.231 F150
G3 X-1.077 Y1.491 I-3.01 J-2.941
G2 X-2.25 Y2.06 I6.107 J14.078
G3 X-3.363 Y0.185 I-0.518 J-0.961
G1 X-0.907 Y-1.413
X-0.834 Y-1.457
X-0.756 Y-1.495
X2.919 Y-3.134
G3 X3.248 Y-3.222 I0.444 J0.997
G1 X14.483 Y-4.411
G3 X14.769 Y-2.249 I0.115 J1.085
G2 X2.593 Y4.469 I3.231 J20.251
G3 X1.568 Y5.149 I-1.761 J-1.541
G2 X-2.248 Y7.339 I3.469 J10.465
G1 X-2.281 Y7.375
X-2.307 Y7.418
X-2.322 Y7.465
X-2.327 Y7.515
X-2.37 Y34.747
X-2.364 Y34.797
X-2.348 Y34.845
X-2.322 Y34.889
X-2.287 Y34.926
X-2.245 Y34.954
G2 X0.376 Y36.053 I7.181 J-13.454
G3 X1.734 Y36.814 I-1.169 J3.68
G2 X3.557 Y38.248 I16.267 J-18.799
G3 X3.801 Y39.785 I-0.634 J0.888
X2.26 Y40.003 I-0.878 J-0.648
G1 X-0.027 Y38.254
X-0.074 Y38.216
X-2.759 Y35.917
G3 X-3.12 Y35.301 I0.71 J-0.829
G1 X-4.036 Y30.7
G3 X-2.245 Y29.668 I1.07 J-0.213
G2 X2.676 Y32.155 I7.267 J-8.268
G3 X3.718 Y32.714 I-0.459 J2.105
G2 X14.772 Y38.249 I14.282 J-14.716
G1 X32.31 Y38.29
X32.359 Y38.285
X32.405 Y38.27
X32.447 Y38.246
G2 X35.742 Y35.428 I-14.447 J-20.231
G3 X37.077 Y34.509 I3.01 J2.941
G2 X38.25 Y33.94 I-6.107 J-14.078
G3 X39.363 Y35.815 I0.518 J0.961
G1 X36.907 Y37.413
X36.834 Y37.457
X36.756 Y37.495
X33.081 Y39.134
G3 X32.752 Y39.222 I-0.444 J-0.997
G1 X21.517 Y40.411
G3 X21.231 Y38.249 I-0.115 J-1.085
G2 X33.407 Y31.531 I-3.231 J-20.251
G3 X34.432 Y30.851 I1.761 J1.541
G2 X38.248 Y28.661 I-3.469 J-10.465
G1 X38.281 Y28.625
X38.307 Y28.582
X38.322 Y28.534
X38.328 Y28.485
X38.37 Y1.253
X38.364 Y1.203
X38.348 Y1.155
X38.322 Y1.111
X38.287 Y1.074
X38.245 Y1.046
G2 X35.624 Y-0.053 I-7.181 J13.454
G3 X34.266 Y-0.814 I1.169 J-3.68
G2 X32.443 Y-2.248 I-16.267 J18.799
G3 X32.199 Y-3.785 I0.634 J-0.888
X33.74 Y-4.003 I0.878 J0.648
G1 X36.027 Y-2.254
X36.074 Y-2.216
X38.759 Y0.083
G3 X39.12 Y0.699 I-0.71 J0.829
G1 X40.036 Y5.3
G3 X38.245 Y6.332 I-1.07 J0.213
G2 X33.324 Y3.845 I-7.267 J8.268
G3 X32.282 Y3.286 I0.459 J-2.105
G2 X21.228 Y-2.249 I-14.282 J14.716
X17.457 Y-0.349 I-0.568 J3.565
G3 X14.141 Y2.266 I-4.556 J-2.368
G2 X10.61 Y3.607 I3.838 J15.417
X4.874 Y8.575 I7.672 J14.655
G3 X4.169 Y8.993 I-0.835 J-0.603
G2 X0.054 Y11.157 I0.842 J6.597
X-1.605 Y15.5 I4.856 J4.343
G1 Y21.5
G2 X0.304 Y26.112 I6.527 J0
X4.899 Y28.059 I4.698 J-4.691
G3 X5.639 Y28.409 I-0.015 J0.989
G2 X11.191 Y32.672 I12.609 J-10.673
X18.022 Y34.205 I6.831 J-14.457
X25.39 Y32.393 I0 J-15.888
X31.126 Y27.425 I-7.672 J-14.655
G3 X31.831 Y27.007 I0.835 J0.603
G2 X35.946 Y24.843 I-0.843 J-6.597
X37.605 Y20.5 I-4.856 J-4.343
G1 Y14.5
G2 X35.696 Y9.888 I-6.527 J0
X31.101 Y7.941 I-4.698 J4.691
G3 X30.361 Y7.591 I0.015 J-0.989
G2 X24.809 Y3.328 I-12.609 J10.673
X17.979 Y1.795 I-6.831 J14.457
X14.141 Y2.266 I0 J15.888
X11.421 Y5.557 I0.868 J3.486
G3 X9.657 Y9.445 I-5.867 J-0.319
G2 X7.078 Y13.15 I8.343 J8.555
G1 X5
G2 X2.65 Y15.5 I0 J2.35
G1 Y21.5
G2 X5 Y23.85 I2.35 J0
G1 X7.58
G2 X28.922 Y22.85 I10.42 J-5.85
G1 X31
G2 X33.35 Y20.5 I0 J-2.35
G1 Y14.5
G2 X31 Y12.15 I-2.35 J0
G1 X28.42
G2 X9.657 Y9.445 I-10.42 J5.85
G3 X9.273 Y9.361 I-0.164 J-0.168
G1 X4.637 Y-2.659
G2 X4.281 Y-2.766 I-0.219 J0.085
G1 X4.216 Y-2.719 Z-5.407 F50
X4.152 Y-2.674 Z-5.427
X4.093 Y-2.631 Z-5.461
X4.039 Y-2.593 Z-5.506
X3.992 Y-2.559 Z-5.563
X3.953 Y-2.532 Z-5.628
X3.924 Y-2.511 Z-5.7
X3.895 Y-2.49 Z-5.772
X3.857 Y-2.463 Z-5.837
X3.81 Y-2.429 Z-5.894
X3.756 Y-2.391 Z-5.939
X3.696 Y-2.348 Z-5.973
X3.633 Y-2.303 Z-5.993
X3.568 Y-2.256 Z-6
X3.553 Y-2.246
G2 X0.258 Y0.572 I14.447 J20.231 F150
G3 X-1.077 Y1.491 I-3.01 J-2.941
G2 X-2.25 Y2.06 I6.107 J14.078
G3 X-3.363 Y0.185 I-0.518 J-0.961
G1 X-0.907 Y-1.413
X-0.834 Y-1.457
X-0.756 Y-1.495
X2.919 Y-3.134
G3 X3.248 Y-3.222 I0.444 J0.997
G1 X14.483 Y-4.411
G3 X14.769 Y-2.249 I0.115 J1.085
G2 X2.593 Y4.469 I3.231 J20.251
G3 X1.568 Y5.149 I-1.761 J-1.541
G2 X-2.248 Y7.339 I3.469 J10.465
G1 X-2.281 Y7.375
X-2.307 Y7.418
X-2.322 Y7.465
X-2.327 Y7.515
X-2.37 Y34.747
X-2.364 Y34.797
X-2.348 Y34.845
X-2.322 Y34.889
X-2.287 Y34.926
X-2.245 Y34.954
G2 X0.376 Y36.053 I7.181 J-13.454
G3 X1.734 Y36.814 I-1.169 J3.68
G2 X3.557 Y38.248 I16.267 J-18.799
G3 X3.801 Y39.785 I-0.634 J0.888
X2.26 Y40.003 I-0.878 J-0.648
G1 X-0.027 Y38.254
X-0.074 Y38.216
X-2.759 Y35.917
G3 X-3.12 Y35.301 I0.71 J-0.829
G1 X-4.036 Y30.7
G3 X-2.245 Y29.668 I1.07 J-0.213
G2 X2.676 Y32.155 I7.267 J-8.268
G3 X3.718 Y32.714 I-0.459 J2.105
G2 X14.772 Y38.249 I14.282 J-14.716
G1 X32.31 Y38.29
X32.359 Y38.285
X32.405 Y38.27
X32.447 Y38.246
G2 X35.742 Y35.428 I-14.447 J-20.231
G3 X37.077 Y34.509 I3.01 J2.941
G2 X38.25 Y33.94 I-6.107 J-14.078
G3 X39.363 Y35.815 I0.518 J0.961
G1 X36.907 Y37.413
X36.834 Y37.457
X36.756 Y37.495
X33.081 Y39.134
G3 X32.752 Y39.222 I-0.444 J-0.997
G1 X21.517 Y40.411
G3 X21.231 Y38.249 I-0.115 J-1.085
G2 X33.407 Y31.531 I-3.231 J-20.251
G3 X34.432 Y30.851 I1.761 J1.541
G2 X38.248 Y28.661 I-3.469 J-10.465
G1 X38.281 Y28.625
X38.307 Y28.582
X38.322 Y28.534
X38.328 Y28.485
X38.37 Y1.253
X38.364 Y1.203
X38.348 Y1.155
X38.322 Y1.111
X38.287 Y1.074
X38.245 Y1.046
G2 X35.624 Y-0.053 I-7.181 J13.454
G3 X34.266 Y-0.814 I1.169 J-3.68
G2 X32.443 Y-2.248 I-16.267 J18.799
G3 X32.199 Y-3.785 I0.634 J-0.888
X33.74 Y-4.003 I0.878 J0.648
G1 X36.027 Y-2.254
X36.074 Y-2.216
X38.759 Y0.083
G3 X39.12 Y0.699 I-0.71 J0.829
G1 X40.036 Y5.3
G3 X38.245 Y6.332 I-1.07 J0.213
G2 X33.324 Y3.845 I-7.267 J8.268
G3 X32.282 Y3.286 I0.459 J-2.105
G2 X21.228 Y-2.249 I-14.282 J14.716
X17.457 Y-0.349 I-0.568 J3.565
G3 X14.141 Y2.266 I-4.556 J-2.368
G2 X10.61 Y3.607 I3.838 J15.417
X4.874 Y8.575 I7.672 J14.655
G3 X4.169 Y8.993 I-0.835 J-0.603
G2 X0.054 Y11.157 I0.842 J6.597
X-1.605 Y15.5 I4.856 J4.343
G1 Y21.5
G2 X0.304 Y26.112 I6.527 J0
X4.899 Y28.059 I4.698 J-4.691
G3 X5.639 Y28.409 I-0.015 J0.989
G2 X11.191 Y32.672 I12.609 J-10.673
X18.022 Y34.205 I6.831 J-14.457
X25.39 Y32.393 I0 J-15.888
X31.126 Y27.425 I-7.672 J-14.655
G3 X31.831 Y27.007 I0.835 J0.603
G2 X35.946 Y24.843 I-0.843 J-6.597
X37.605 Y20.5 I-4.856 J-4.343
G1 Y14.5
G2 X35.696 Y9.888 I-6.527 J0
X31.101 Y7.941 I-4.698 J4.691
G3 X30.361 Y7.591 I0.015 J-0.989
G2 X24.809 Y3.328 I-12.609 J10.673
X17.979 Y1.795 I-6.831 J14.457
X14.141 Y2.266 I0 J15.888
X11.421 Y5.557 I0.868 J3.486
G3 X9.657 Y9.445 I-5.867 J-0.319
G2 X7.078 Y13.15 I8.343 J8.555
G1 X5
G2 X2.65 Y15.5 I0 J2.35
G1 Y21.5
G2 X5 Y23.85 I2.35 J0
G1 X7.58
G2 X28.922 Y22.85 I10.42 J-5.85
G1 X31
G2 X33.35 Y20.5 I0 J-2.35
G1 Y14.5
G2 X31 Y12.15 I-2.35 J0
G1 X28.42
G2 X9.657 Y9.445 I-10.42 J5.85
G3 X9.273 Y9.361 I-0.164 J-0.168
G1 X4.637 Y-2.659
G2 X4.281 Y-2.766 I-0.219 J0.085
G1 X4.216 Y-2.719 Z-6.007 F50
X4.152 Y-2.674 Z-6.027
X4.093 Y-2.631 Z-6.061
X4.039 Y-2.593 Z-6.106
X3.992 Y-2.559 Z-6.163
X3.953 Y-2.532 Z-6.228
X3.924 Y-2.511 Z-6.3
X3.895 Y-2.49 Z-6.372
X3.857 Y-2.463 Z-6.437
X3.81 Y-2.429 Z-6.494
X3.756 Y-2.391 Z-6.539
X3.696 Y-2.348 Z-6.573
X3.633 Y-2.303 Z-6.593
X3.568 Y-2.256 Z-6.6
X3.553 Y-2.246
G2 X0.258 Y0.572 I14.447 J20.231 F150
G3 X-1.077 Y1.491 I-3.01 J-2.941
G2 X-2.25 Y2.06 I6.107 J14.078
G3 X-3.363 Y0.185 I-0.518 J-0.961
G1 X-0.907 Y-1.413
X-0.834 Y-1.457
X-0.756 Y-1.495
X2.919 Y-3.134
G3 X3.248 Y-3.222 I0.444 J0.997
G1 X14.483 Y-4.411
G3 X14.769 Y-2.249 I0.115 J1.085
G2 X2.593 Y4.469 I3.231 J20.251
G3 X1.568 Y5.149 I-1.761 J-1.541
G2 X-2.248 Y7.339 I3.469 J10.465
G1 X-2.281 Y7.375
X-2.307 Y7.418
X-2.322 Y7.465
X-2.327 Y7.515
X-2.37 Y34.747
X-2.364 Y34.797
X-2.348 Y34.845
X-2.322 Y34.889
X-2.287 Y34.926
X-2.245 Y34.954
G2 X0.376 Y36.053 I7.181 J-13.454
G3 X1.734 Y36.814 I-1.169 J3.68
G2 X3.557 Y38.248 I16.267 J-18.799
G3 X3.801 Y39.785 I-0.634 J0.888
X2.26 Y40.003 I-0.878 J-0.648
G1 X-0.027 Y38.254
X-0.074 Y38.216
X-2.759 Y35.917
G3 X-3.12 Y35.301 I0.71 J-0.829
G1 X-4.036 Y30.7
G3 X-2.245 Y29.668 I1.07 J-0.213
G2 X2.676 Y32.155 I7.267 J-8.268
G3 X3.718 Y32.714 I-0.459 J2.105
G2 X14.772 Y38.249 I14.282 J-14.716
G1 X32.31 Y38.29
X32.359 Y38.285
X32.405 Y38.27
X32.447 Y38.246
G2 X35.742 Y35.428 I-14.447 J-20.231
G3 X37.077 Y34.509 I3.01 J2.941
G2 X38.25 Y33.94 I-6.107 J-14.078
G3 X39.363 Y35.815 I0.518 J0.961
G1 X36.907 Y37.413
X36.834 Y37.457
X36.756 Y37.495
X33.081 Y39.134
G3 X32.752 Y39.222 I-0.444 J-0.997
G1 X21.517 Y40.411
G3 X21.231 Y38.249 I-0.115 J-1.085
G2 X33.407 Y31.531 I-3.231 J-20.251
G3 X34.432 Y30.851 I1.761 J1.541
G2 X38.248 Y28.661 I-3.469 J-10.465
G1 X38.281 Y28.625
X38.307 Y28.582
X38.322 Y28.534
X38.328 Y28.485
X38.37 Y1.253
X38.364 Y1.203
X38.348 Y1.155
X38.322 Y1.111
X38.287 Y1.074
X38.245 Y1.046
G2 X35.624 Y-0.053 I-7.181 J13.454
G3 X34.266 Y-0.814 I1.169 J-3.68
G2 X32.443 Y-2.248 I-16.267 J18.799
G3 X32.199 Y-3.785 I0.634 J-0.888
X33.74 Y-4.003 I0.878 J0.648
G1 X36.027 Y-2.254
X36.074 Y-2.216
X38.759 Y0.083
G3 X39.12 Y0.699 I-0.71 J0.829
G1 X40.036 Y5.3
G3 X38.245 Y6.332 I-1.07 J0.213
G2 X33.324 Y3.845 I-7.267 J8.268
G3 X32.282 Y3.286 I0.459 J-2.105
G2 X21.228 Y-2.249 I-14.282 J14.716
X17.457 Y-0.349 I-0.568 J3.565
G3 X14.141 Y2.266 I-4.556 J-2.368
G2 X10.61 Y3.607 I3.838 J15.417
X4.874 Y8.575 I7.672 J14.655
G3 X4.169 Y8.993 I-0.835 J-0.603
G2 X0.054 Y11.157 I0.842 J6.597
X-1.605 Y15.5 I4.856 J4.343
G1 Y21.5
G2 X0.304 Y26.112 I6.527 J0
X4.899 Y28.059 I4.698 J-4.691
G3 X5.639 Y28.409 I-0.015 J0.989
G2 X11.191 Y32.672 I12.609 J-10.673
X18.022 Y34.205 I6.831 J-14.457
X25.39 Y32.393 I0 J-15.888
X31.126 Y27.425 I-7.672 J-14.655
G3 X31.831 Y27.007 I0.835 J0.603
G2 X35.946 Y24.843 I-0.843 J-6.597
X37.605 Y20.5 I-4.856 J-4.343
G1 Y14.5
G2 X35.696 Y9.888 I-6.527 J0
X31.101 Y7.941 I-4.698 J4.691
G3 X30.361 Y7.591 I0.015 J-0.989
G2 X24.809 Y3.328 I-12.609 J10.673
X17.979 Y1.795 I-6.831 J14.457
X14.141 Y2.266 I0 J15.888
X11.421 Y5.557 I0.868 J3.486
G3 X9.657 Y9.445 I-5.867 J-0.319
G2 X7.078 Y13.15 I8.343 J8.555
G1 X5
G2 X2.65 Y15.5 I0 J2.35
G1 Y21.5
G2 X5 Y23.85 I2.35 J0
G1 X7.58
G2 X28.922 Y22.85 I10.42 J-5.85
G1 X31
G2 X33.35 Y20.5 I0 J-2.35
G1 Y14.5
G2 X31 Y12.15 I-2.35 J0
G1 X28.42
G2 X9.657 Y9.445 I-10.42 J5.85
G3 X9.273 Y9.361 I-0.164 J-0.168
G1 X4.637 Y-2.659
G2 X4.281 Y-2.766 I-0.219 J0.085
G1 X4.216 Y-2.719 Z-6.607 F50
X4.152 Y-2.674 Z-6.627
X4.093 Y-2.631 Z-6.661
X4.039 Y-2.593 Z-6.706
X3.992 Y-2.559 Z-6.763
X3.953 Y-2.532 Z-6.828
X3.924 Y-2.511 Z-6.9
X3.895 Y-2.49 Z-6.972
X3.857 Y-2.463 Z-7.037
X3.81 Y-2.429 Z-7.094
X3.756 Y-2.391 Z-7.139
X3.696 Y-2.348 Z-7.173
X3.633 Y-2.303 Z-7.193
X3.568 Y-2.256 Z-7.2
X3.553 Y-2.246
G2 X0.258 Y0.572 I14.447 J20.231 F150
G3 X-1.077 Y1.491 I-3.01 J-2.941
G2 X-2.25 Y2.06 I6.107 J14.078
G3 X-3.363 Y0.185 I-0.518 J-0.961
G1 X-0.907 Y-1.413
X-0.834 Y-1.457
X-0.756 Y-1.495
X2.919 Y-3.134
G3 X3.248 Y-3.222 I0.444 J0.997
G1 X14.483 Y-4.411
G3 X14.769 Y-2.249 I0.115 J1.085
G2 X2.593 Y4.469 I3.231 J20.251
G3 X1.568 Y5.149 I-1.761 J-1.541
G2 X-2.248 Y7.339 I3.469 J10.465
G1 X-2.281 Y7.375
X-2.307 Y7.418
X-2.322 Y7.465
X-2.327 Y7.515
X-2.37 Y34.747
X-2.364 Y34.797
X-2.348 Y34.845
X-2.322 Y34.889
X-2.287 Y34.926
X-2.245 Y34.954
G2 X0.376 Y36.053 I7.181 J-13.454
G3 X1.734 Y36.814 I-1.169 J3.68
G2 X3.557 Y38.248 I16.267 J-18.799
G3 X3.801 Y39.785 I-0.634 J0.888
X2.26 Y40.003 I-0.878 J-0.648
G1 X-0.027 Y38.254
X-0.074 Y38.216
X-2.759 Y35.917
G3 X-3.12 Y35.301 I0.71 J-0.829
G1 X-4.036 Y30.7
G3 X-2.245 Y29.668 I1.07 J-0.213
G2 X2.676 Y32.155 I7.267 J-8.268
G3 X3.718 Y32.714 I-0.459 J2.105
G2 X14.772 Y38.249 I14.282 J-14.716
G1 X32.31 Y38.29
X32.359 Y38.285
X32.405 Y38.27
X32.447 Y38.246
G2 X35.742 Y35.428 I-14.447 J-20.231
G3 X37.077 Y34.509 I3.01 J2.941
G2 X38.25 Y33.94 I-6.107 J-14.078
G3 X39.363 Y35.815 I0.518 J0.961
G1 X36.907 Y37.413
X36.834 Y37.457
X36.756 Y37.495
X33.081 Y39.134
G3 X32.752 Y39.222 I-0.444 J-0.997
G1 X21.517 Y40.411
G3 X21.231 Y38.249 I-0.115 J-1.085
G2 X33.407 Y31.531 I-3.231 J-20.251
G3 X34.432 Y30.851 I1.761 J1.541
G2 X38.248 Y28.661 I-3.469 J-10.465
G1 X38.281 Y28.625
X38.307 Y28.582
X38.322 Y28.534
X38.328 Y28.485
X38.37 Y1.253
X38.364 Y1.203
X38.348 Y1.155
X38.322 Y1.111
X38.287 Y1.074
X38.245 Y1.046
G2 X35.624 Y-0.053 I-7.181 J13.454
G3 X34.266 Y-0.814 I1.169 J-3.68
G2 X32.443 Y-2.248 I-16.267 J18.799
G3 X32.199 Y-3.785 I0.634 J-0.888
X33.74 Y-4.003 I0.878 J0.648
G1 X36.027 Y-2.254
X36.074 Y-2.216
X38.759 Y0.083
G3 X39.12 Y0.699 I-0.71 J0.829
G1 X40.036 Y5.3
G3 X38.245 Y6.332 I-1.07 J0.213
G2 X33.324 Y3.845 I-7.267 J8.268
G3 X32.282 Y3.286 I0.459 J-2.105
G2 X21.228 Y-2.249 I-14.282 J14.716
X17.457 Y-0.349 I-0.568 J3.565
G3 X14.141 Y2.266 I-4.556 J-2.368
G2 X10.61 Y3.607 I3.838 J15.417
X4.874 Y8.575 I7.672 J14.655
G3 X4.169 Y8.993 I-0.835 J-0.603
G2 X0.054 Y11.157 I0.842 J6.597
X-1.605 Y15.5 I4.856 J4.343
G1 Y21.5
G2 X0.304 Y26.112 I6.527 J0
X4.899 Y28.059 I4.698 J-4.691
G3 X5.639 Y28.409 I-0.015 J0.989
G2 X11.191 Y32.672 I12.609 J-10.673
X18.022 Y34.205 I6.831 J-14.457
X25.39 Y32.393 I0 J-15.888
X31.126 Y27.425 I-7.672 J-14.655
G3 X31.831 Y27.007 I0.835 J0.603
G2 X35.946 Y24.843 I-0.843 J-6.597
X37.605 Y20.5 I-4.856 J-4.343
G1 Y14.5
G2 X35.696 Y9.888 I-6.527 J0
X31.101 Y7.941 I-4.698 J4.691
G3 X30.361 Y7.591 I0.015 J-0.989
G2 X24.809 Y3.328 I-12.609 J10.673
X17.979 Y1.795 I-6.831 J14.457
X14.141 Y2.266 I0 J15.888
X11.421 Y5.557 I0.868 J3.486
G3 X9.657 Y9.445 I-5.867 J-0.319
G2 X7.078 Y13.15 I8.343 J8.555
G1 X5
G2 X2.65 Y15.5 I0 J2.35
G1 Y21.5
G2 X5 Y23.85 I2.35 J0
G1 X7.58
G2 X28.922 Y22.85 I10.42 J-5.85
G1 X31
G2 X33.35 Y20.5 I0 J-2.35
G1 Y14.5
G2 X31 Y12.15 I-2.35 J0
G1 X28.42
G2 X9.657 Y9.445 I-10.42 J5.85
G3 X9.273 Y9.361 I-0.164 J-0.168
G1 X4.637 Y-2.659
G2 X4.281 Y-2.766 I-0.219 J0.085
G1 X4.216 Y-2.719 Z-7.207 F50
X4.152 Y-2.674 Z-7.227
X4.093 Y-2.631 Z-7.261
X4.039 Y-2.593 Z-7.306
X3.992 Y-2.559 Z-7.363
X3.953 Y-2.532 Z-7.428
X3.924 Y-2.511 Z-7.5
X3.895 Y-2.49 Z-7.572
X3.857 Y-2.463 Z-7.637
X3.81 Y-2.429 Z-7.694
X3.756 Y-2.391 Z-7.739
X3.696 Y-2.348 Z-7.773
X3.633 Y-2.303 Z-7.793
X3.568 Y-2.256 Z-7.8
X3.553 Y-2.246
G2 X0.258 Y0.572 I14.447 J20.231 F150
G3 X-1.077 Y1.491 I-3.01 J-2.941
G2 X-2.25 Y2.06 I6.107 J14.078
G3 X-3.363 Y0.185 I-0.518 J-0.961
G1 X-0.907 Y-1.413
X-0.834 Y-1.457
X-0.756 Y-1.495
X2.919 Y-3.134
G3 X3.248 Y-3.222 I0.444 J0.997
G1 X14.483 Y-4.411
G3 X14.769 Y-2.249 I0.115 J1.085
G2 X2.593 Y4.469 I3.231 J20.251
G3 X1.568 Y5.149 I-1.761 J-1.541
G2 X-2.248 Y7.339 I3.469 J10.465
G1 X-2.281 Y7.375
X-2.307 Y7.418
X-2.322 Y7.465
X-2.327 Y7.515
X-2.37 Y34.747
X-2.364 Y34.797
X-2.348 Y34.845
X-2.322 Y34.889
X-2.287 Y34.926
X-2.245 Y34.954
G2 X0.376 Y36.053 I7.181 J-13.454
G3 X1.734 Y36.814 I-1.169 J3.68
G2 X3.557 Y38.248 I16.267 J-18.799
G3 X3.801 Y39.785 I-0.634 J0.888
X2.26 Y40.003 I-0.878 J-0.648
G1 X-0.027 Y38.254
X-0.074 Y38.216
X-2.759 Y35.917
G3 X-3.12 Y35.301 I0.71 J-0.829
G1 X-4.036 Y30.7
G3 X-2.245 Y29.668 I1.07 J-0.213
G2 X2.676 Y32.155 I7.267 J-8.268
G3 X3.718 Y32.714 I-0.459 J2.105
G2 X14.772 Y38.249 I14.282 J-14.716
G1 X32.31 Y38.29
X32.359 Y38.285
X32.405 Y38.27
X32.447 Y38.246
G2 X35.742 Y35.428 I-14.447 J-20.231
G3 X37.077 Y34.509 I3.01 J2.941
G2 X38.25 Y33.94 I-6.107 J-14.078
G3 X39.363 Y35.815 I0.518 J0.961
G1 X36.907 Y37.413
X36.834 Y37.457
X36.756 Y37.495
X33.081 Y39.134
G3 X32.752 Y39.222 I-0.444 J-0.997
G1 X21.517 Y40.411
G3 X21.231 Y38.249 I-0.115 J-1.085
G2 X33.407 Y31.531 I-3.231 J-20.251
G3 X34.432 Y30.851 I1.761 J1.541
G2 X38.248 Y28.661 I-3.469 J-10.465
G1 X38.281 Y28.625
X38.307 Y28.582
X38.322 Y28.534
X38.328 Y28.485
X38.37 Y1.253
X38.364 Y1.203
X38.348 Y1.155
X38.322 Y1.111
X38.287 Y1.074
X38.245 Y1.046
G2 X35.624 Y-0.053 I-7.181 J13.454
G3 X34.266 Y-0.814 I1.169 J-3.68
G2 X32.443 Y-2.248 I-16.267 J18.799
G3 X32.199 Y-3.785 I0.634 J-0.888
X33.74 Y-4.003 I0.878 J0.648
G1 X36.027 Y-2.254
X36.074 Y-2.216
X38.759 Y0.083
G3 X39.12 Y0.699 I-0.71 J0.829
G1 X40.036 Y5.3
G3 X38.245 Y6.332 I-1.07 J0.213
G2 X33.324 Y3.845 I-7.267 J8.268
G3 X32.282 Y3.286 I0.459 J-2.105
G2 X21.228 Y-2.249 I-14.282 J14.716
X17.457 Y-0.349 I-0.568 J3.565
G3 X14.141 Y2.266 I-4.556 J-2.368
G2 X10.61 Y3.607 I3.838 J15.417
X4.874 Y8.575 I7.672 J14.655
G3 X4.169 Y8.993 I-0.835 J-0.603
G2 X0.054 Y11.157 I0.842 J6.597
X-1.605 Y15.5 I4.856 J4.343
G1 Y21.5
G2 X0.304 Y26.112 I6.527 J0
X4.899 Y28.059 I4.698 J-4.691
G3 X5.639 Y28.409 I-0.015 J0.989
G2 X11.191 Y32.672 I12.609 J-10.673
X18.022 Y34.205 I6.831 J-14.457
X25.39 Y32.393 I0 J-15.888
X31.126 Y27.425 I-7.672 J-14.655
G3 X31.831 Y27.007 I0.835 J0.603
G2 X35.946 Y24.843 I-0.843 J-6.597
X37.605 Y20.5 I-4.856 J-4.343
G1 Y14.5
G2 X35.696 Y9.888 I-6.527 J0
X31.101 Y7.941 I-4.698 J4.691
G3 X30.361 Y7.591 I0.015 J-0.989
G2 X24.809 Y3.328 I-12.609 J10.673
X17.979 Y1.795 I-6.831 J14.457
X14.141 Y2.266 I0 J15.888
X11.421 Y5.557 I0.868 J3.486
G3 X9.657 Y9.445 I-5.867 J-0.319
G2 X7.078 Y13.15 I8.343 J8.555
G1 X5
G2 X2.65 Y15.5 I0 J2.35
G1 Y21.5
G2 X5 Y23.85 I2.35 J0
G1 X7.58
G2 X28.922 Y22.85 I10.42 J-5.85
G1 X31
G2 X33.35 Y20.5 I0 J-2.35
G1 Y14.5
G2 X31 Y12.15 I-2.35 J0
G1 X28.42
G2 X9.657 Y9.445 I-10.42 J5.85
G3 X9.273 Y9.361 I-0.164 J-0.168
G1 X4.637 Y-2.659
G2 X4.281 Y-2.766 I-0.219 J0.085
G1 X4.216 Y-2.719 Z-7.807 F50
X4.152 Y-2.674 Z-7.827
X4.093 Y-2.631 Z-7.861
X4.039 Y-2.593 Z-7.906
X3.992 Y-2.559 Z-7.963
X3.953 Y-2.532 Z-8.028
X3.924 Y-2.511 Z-8.1
X3.895 Y-2.49 Z-8.172
X3.857 Y-2.463 Z-8.237
X3.81 Y-2.429 Z-8.294
X3.756 Y-2.391 Z-8.339
X3.696 Y-2.348 Z-8.373
X3.633 Y-2.303 Z-8.393
X3.568 Y-2.256 Z-8.4
X3.553 Y-2.246
G2 X0.258 Y0.572 I14.447 J20.231 F150
G3 X-1.077 Y1.491 I-3.01 J-2.941
G2 X-2.25 Y2.06 I6.107 J14.078
G3 X-3.363 Y0.185 I-0.518 J-0.961
G1 X-0.907 Y-1.413
X-0.834 Y-1.457
X-0.756 Y-1.495
X2.919 Y-3.134
G3 X3.248 Y-3.222 I0.444 J0.997
G1 X14.483 Y-4.411
G3 X14.769 Y-2.249 I0.115 J1.085
G2 X2.593 Y4.469 I3.231 J20.251
G3 X1.568 Y5.149 I-1.761 J-1.541
G2 X-2.248 Y7.339 I3.469 J10.465
G1 X-2.281 Y7.375
X-2.307 Y7.418
X-2.322 Y7.465
X-2.327 Y7.515
X-2.37 Y34.747
X-2.364 Y34.797
X-2.348 Y34.845
X-2.322 Y34.889
X-2.287 Y34.926
X-2.245 Y34.954
G2 X0.376 Y36.053 I7.181 J-13.454
G3 X1.734 Y36.814 I-1.169 J3.68
G2 X3.557 Y38.248 I16.267 J-18.799
G3 X3.801 Y39.785 I-0.634 J0.888
X2.26 Y40.003 I-0.878 J-0.648
G1 X-0.027 Y38.254
X-0.074 Y38.216
X-2.759 Y35.917
G3 X-3.12 Y35.301 I0.71 J-0.829
G1 X-4.036 Y30.7
G3 X-2.245 Y29.668 I1.07 J-0.213
G2 X2.676 Y32.155 I7.267 J-8.268
G3 X3.718 Y32.714 I-0.459 J2.105
G2 X14.772 Y38.249 I14.282 J-14.716
G1 X32.31 Y38.29
X32.359 Y38.285
X32.405 Y38.27
X32.447 Y38.246
G2 X35.742 Y35.428 I-14.447 J-20.231
G3 X37.077 Y34.509 I3.01 J2.941
G2 X38.25 Y33.94 I-6.107 J-14.078
G3 X39.363 Y35.815 I0.518 J0.961
G1 X36.907 Y37.413
X36.834 Y37.457
X36.756 Y37.495
X33.081 Y39.134
G3 X32.752 Y39.222 I-0.444 J-0.997
G1 X21.517 Y40.411
G3 X21.231 Y38.249 I-0.115 J-1.085
G2 X33.407 Y31.531 I-3.231 J-20.251
G3 X34.432 Y30.851 I1.761 J1.541
G2 X38.248 Y28.661 I-3.469 J-10.465
G1 X38.281 Y28.625
X38.307 Y28.582
X38.322 Y28.534
X38.328 Y28.485
X38.37 Y1.253
X38.364 Y1.203
X38.348 Y1.155
X38.322 Y1.111
X38.287 Y1.074
X38.245 Y1.046
G2 X35.624 Y-0.053 I-7.181 J13.454
G3 X34.266 Y-0.814 I1.169 J-3.68
G2 X32.443 Y-2.248 I-16.267 J18.799
G3 X32.199 Y-3.785 I0.634 J-0.888
X33.74 Y-4.003 I0.878 J0.648
G1 X36.027 Y-2.254
X36.074 Y-2.216
X38.759 Y0.083
G3 X39.12 Y0.699 I-0.71 J0.829
G1 X40.036 Y5.3
G3 X38.245 Y6.332 I-1.07 J0.213
G2 X33.324 Y3.845 I-7.267 J8.268
G3 X32.282 Y3.286 I0.459 J-2.105
G2 X21.228 Y-2.249 I-14.282 J14.716
X17.457 Y-0.349 I-0.568 J3.565
G3 X14.141 Y2.266 I-4.556 J-2.368
G2 X10.61 Y3.607 I3.838 J15.417
X4.874 Y8.575 I7.672 J14.655
G3 X4.169 Y8.993 I-0.835 J-0.603
G2 X0.054 Y11.157 I0.842 J6.597
X-1.605 Y15.5 I4.856 J4.343
G1 Y21.5
G2 X0.304 Y26.112 I6.527 J0
X4.899 Y28.059 I4.698 J-4.691
G3 X5.639 Y28.409 I-0.015 J0.989
G2 X11.191 Y32.672 I12.609 J-10.673
X18.022 Y34.205 I6.831 J-14.457
X25.39 Y32.393 I0 J-15.888
X31.126 Y27.425 I-7.672 J-14.655
G3 X31.831 Y27.007 I0.835 J0.603
G2 X35.946 Y24.843 I-0.843 J-6.597
X37.605 Y20.5 I-4.856 J-4.343
G1 Y14.5
G2 X35.696 Y9.888 I-6.527 J0
X31.101 Y7.941 I-4.698 J4.691
G3 X30.361 Y7.591 I0.015 J-0.989
G2 X24.809 Y3.328 I-12.609 J10.673
X17.979 Y1.795 I-6.831 J14.457
X14.141 Y2.266 I0 J15.888
X11.421 Y5.557 I0.868 J3.486
G3 X9.657 Y9.445 I-5.867 J-0.319
G2 X7.078 Y13.15 I8.343 J8.555
G1 X5
G2 X2.65 Y15.5 I0 J2.35
G1 Y21.5
G2 X5 Y23.85 I2.35 J0
G1 X7.58
G2 X28.922 Y22.85 I10.42 J-5.85
G1 X31
G2 X33.35 Y20.5 I0 J-2.35
G1 Y14.5
G2 X31 Y12.15 I-2.35 J0
G1 X28.42
G2 X9.657 Y9.445 I-10.42 J5.85
G3 X9.273 Y9.361 I-0.164 J-0.168
G1 X4.637 Y-2.659
G2 X4.281 Y-2.766 I-0.219 J0.085
G1 X4.216 Y-2.719 Z-8.407 F50
X4.152 Y-2.674 Z-8.427
X4.093 Y-2.631 Z-8.461
X4.039 Y-2.593 Z-8.506
X3.992 Y-2.559 Z-8.563
X3.953 Y-2.532 Z-8.628
X3.924 Y-2.511 Z-8.7
X3.895 Y-2.49 Z-8.772
X3.857 Y-2.463 Z-8.837
X3.81 Y-2.429 Z-8.894
X3.756 Y-2.391 Z-8.939
X3.696 Y-2.348 Z-8.973
X3.633 Y-2.303 Z-8.993
X3.568 Y-2.256 Z-9
X3.553 Y-2.246
G2 X0.258 Y0.572 I14.447 J20.231 F150
G3 X-1.077 Y1.491 I-3.01 J-2.941
G2 X-2.25 Y2.06 I6.107 J14.078
G3 X-3.363 Y0.185 I-0.518 J-0.961
G1 X-0.907 Y-1.413
X-0.834 Y-1.457
X-0.756 Y-1.495
X2.919 Y-3.134
G3 X3.248 Y-3.222 I0.444 J0.997
G1 X14.483 Y-4.411
G3 X14.769 Y-2.249 I0.115 J1.085
G2 X2.593 Y4.469 I3.231 J20.251
G3 X1.568 Y5.149 I-1.761 J-1.541
G2 X-2.248 Y7.339 I3.469 J10.465
G1 X-2.281 Y7.375
X-2.307 Y7.418
X-2.322 Y7.465
X-2.327 Y7.515
X-2.37 Y34.747
X-2.364 Y34.797
X-2.348 Y34.845
X-2.322 Y34.889
X-2.287 Y34.926
X-2.245 Y34.954
G2 X0.376 Y36.053 I7.181 J-13.454
G3 X1.734 Y36.814 I-1.169 J3.68
G2 X3.557 Y38.248 I16.267 J-18.799
G3 X3.801 Y39.785 I-0.634 J0.888
X2.26 Y40.003 I-0.878 J-0.648
G1 X-0.027 Y38.254
X-0.074 Y38.216
X-2.759 Y35.917
G3 X-3.12 Y35.301 I0.71 J-0.829
G1 X-4.036 Y30.7
G3 X-2.245 Y29.668 I1.07 J-0.213
G2 X2.676 Y32.155 I7.267 J-8.268
G3 X3.718 Y32.714 I-0.459 J2.105
G2 X14.772 Y38.249 I14.282 J-14.716
G1 X32.31 Y38.29
X32.359 Y38.285
X32.405 Y38.27
X32.447 Y38.246
G2 X35.742 Y35.428 I-14.447 J-20.231
G3 X37.077 Y34.509 I3.01 J2.941
G2 X38.25 Y33.94 I-6.107 J-14.078
G3 X39.363 Y35.815 I0.518 J0.961
G1 X36.907 Y37.413
X36.834 Y37.457
X36.756 Y37.495
X33.081 Y39.134
G3 X32.752 Y39.222 I-0.444 J-0.997
G1 X21.517 Y40.411
G3 X21.231 Y38.249 I-0.115 J-1.085
G2 X33.407 Y31.531 I-3.231 J-20.251
G3 X34.432 Y30.851 I1.761 J1.541
G2 X38.248 Y28.661 I-3.469 J-10.465
G1 X38.281 Y28.625
X38.307 Y28.582
X38.322 Y28.534
X38.328 Y28.485
X38.37 Y1.253
X38.364 Y1.203
X38.348 Y1.155
X38.322 Y1.111
X38.287 Y1.074
X38.245 Y1.046
G2 X35.624 Y-0.053 I-7.181 J13.454
G3 X34.266 Y-0.814 I1.169 J-3.68
G2 X32.443 Y-2.248 I-16.267 J18.799
G3 X32.199 Y-3.785 I0.634 J-0.888
X33.74 Y-4.003 I0.878 J0.648
G1 X36.027 Y-2.254
X36.074 Y-2.216
X38.759 Y0.083
G3 X39.12 Y0.699 I-0.71 J0.829
G1 X40.036 Y5.3
G3 X38.245 Y6.332 I-1.07 J0.213
G2 X33.324 Y3.845 I-7.267 J8.268
G3 X32.282 Y3.286 I0.459 J-2.105
G2 X21.228 Y-2.249 I-14.282 J14.716
X17.457 Y-0.349 I-0.568 J3.565
G3 X14.141 Y2.266 I-4.556 J-2.368
G2 X10.61 Y3.607 I3.838 J15.417
X4.874 Y8.575 I7.672 J14.655
G3 X4.169 Y8.993 I-0.835 J-0.603
G2 X0.054 Y11.157 I0.842 J6.597
X-1.605 Y15.5 I4.856 J4.343
G1 Y21.5
G2 X0.304 Y26.112 I6.527 J0
X4.899 Y28.059 I4.698 J-4.691
G3 X5.639 Y28.409 I-0.015 J0.989
G2 X11.191 Y32.672 I12.609 J-10.673
X18.022 Y34.205 I6.831 J-14.457
X25.39 Y32.393 I0 J-15.888
X31.126 Y27.425 I-7.672 J-14.655
G3 X31.831 Y27.007 I0.835 J0.603
G2 X35.946 Y24.843 I-0.843 J-6.597
X37.605 Y20.5 I-4.856 J-4.343
G1 Y14.5
G2 X35.696 Y9.888 I-6.527 J0
X31.101 Y7.941 I-4.698 J4.691
G3 X30.361 Y7.591 I0.015 J-0.989
G2 X24.809 Y3.328 I-12.609 J10.673
X17.979 Y1.795 I-6.831 J14.457
X14.141 Y2.266 I0 J15.888
X11.421 Y5.557 I0.868 J3.486
G3 X9.657 Y9.445 I-5.867 J-0.319
G2 X7.078 Y13.15 I8.343 J8.555
G1 X5
G2 X2.65 Y15.5 I0 J2.35
G1 Y21.5
G2 X5 Y23.85 I2.35 J0
G1 X7.58
G2 X28.922 Y22.85 I10.42 J-5.85
G1 X31
G2 X33.35 Y20.5 I0 J-2.35
G1 Y14.5
G2 X31 Y12.15 I-2.35 J0
G1 X28.42
G2 X9.657 Y9.445 I-10.42 J5.85
G1 X9.611 Y9.484 Z-8.988
X9.561 Y9.516 Z-8.976
X9.507 Y9.543 Z-8.964
X9.435 Y9.566 Z-8.913
X9.359 Y9.577 Z-8.862
X9.308 Y9.578 Z-8.786
X9.258 Y9.573 Z-8.71
X9.223 Y9.566 Z-8.53
Z10

(Drill1)
G0 X26.75 Y26.75
Z10
Z5
Z-4
G1 Z-9 F50
Z-9.5
X26.757 Y26.768 F150
X26.775 Y26.775
X26.793 Y26.768
X26.8 Y26.75
G2 X26.7 Y26.75 I-0.05 J0
X26.8 Y26.75 I0.05 J0
G1 X26.75
Z-10 F50
X26.757 Y26.768 F150
X26.775 Y26.775
X26.793 Y26.768
X26.8 Y26.75
G2 X26.7 Y26.75 I-0.05 J0
X26.8 Y26.75 I0.05 J0
G1 X26.75
Z-10.5 F50
X26.757 Y26.768 F150
X26.775 Y26.775
X26.793 Y26.768
X26.8 Y26.75
G2 X26.7 Y26.75 I-0.05 J0
X26.8 Y26.75 I0.05 J0
G1 X26.75
Z-11 F50
X26.757 Y26.768 F150
X26.775 Y26.775
X26.793 Y26.768
X26.8 Y26.75
G2 X26.7 Y26.75 I-0.05 J0
X26.8 Y26.75 I0.05 J0
G1 X26.75
G0 Z5
X9.25
Z-4
G1 Z-9 F50
Z-9.5
X9.257 Y26.768 F150
X9.275 Y26.775
X9.293 Y26.768
X9.3 Y26.75
G2 X9.2 Y26.75 I-0.05 J0
X9.3 Y26.75 I0.05 J0
G1 X9.25
Z-10 F50
X9.257 Y26.768 F150
X9.275 Y26.775
X9.293 Y26.768
X9.3 Y26.75
G2 X9.2 Y26.75 I-0.05 J0
X9.3 Y26.75 I0.05 J0
G1 X9.25
Z-10.5 F50
X9.257 Y26.768 F150
X9.275 Y26.775
X9.293 Y26.768
X9.3 Y26.75
G2 X9.2 Y26.75 I-0.05 J0
X9.3 Y26.75 I0.05 J0
G1 X9.25
Z-11 F50
X9.257 Y26.768 F150
X9.275 Y26.775
X9.293 Y26.768
X9.3 Y26.75
G2 X9.2 Y26.75 I-0.05 J0
X9.3 Y26.75 I0.05 J0
G1 X9.25
G0 Z5
Y9.25
Z-4
G1 Z-9 F50
Z-9.5
X9.257 Y9.268 F150
X9.275 Y9.275
X9.293 Y9.268
X9.3 Y9.25
G2 X9.2 Y9.25 I-0.05 J0
X9.3 Y9.25 I0.05 J0
G1 X9.25
Z-10 F50
X9.257 Y9.268 F150
X9.275 Y9.275
X9.293 Y9.268
X9.3 Y9.25
G2 X9.2 Y9.25 I-0.05 J0
X9.3 Y9.25 I0.05 J0
G1 X9.25
Z-10.5 F50
X9.257 Y9.268 F150
X9.275 Y9.275
X9.293 Y9.268
X9.3 Y9.25
G2 X9.2 Y9.25 I-0.05 J0
X9.3 Y9.25 I0.05 J0
G1 X9.25
Z-11 F50
X9.257 Y9.268 F150
X9.275 Y9.275
X9.293 Y9.268
X9.3 Y9.25
G2 X9.2 Y9.25 I-0.05 J0
X9.3 Y9.25 I0.05 J0
G1 X9.25
G0 Z5
X26.75
Z-4
G1 Z-9 F50
Z-9.5
X26.757 Y9.268 F150
X26.775 Y9.275
X26.793 Y9.268
X26.8 Y9.25
G2 X26.7 Y9.25 I-0.05 J0
X26.8 Y9.25 I0.05 J0
G1 X26.75
Z-10 F50
X26.757 Y9.268 F150
X26.775 Y9.275
X26.793 Y9.268
X26.8 Y9.25
G2 X26.7 Y9.25 I-0.05 J0
X26.8 Y9.25 I0.05 J0
G1 X26.75
Z-10.5 F50
X26.757 Y9.268 F150
X26.775 Y9.275
X26.793 Y9.268
X26.8 Y9.25
G2 X26.7 Y9.25 I-0.05 J0
X26.8 Y9.25 I0.05 J0
G1 X26.75
Z-11 F50
X26.757 Y9.268 F150
X26.775 Y9.275
X26.793 Y9.268
X26.8 Y9.25
G2 X26.7 Y9.25 I-0.05 J0
X26.8 Y9.25 I0.05 J0
G1 X26.75
G0 Z5
Z10
(When using Fusion 360 for Personal Use, the feedrate of)
(rapid moves is reduced to match the feedrate of cutting)
(moves, which can increase machining time. Unrestricted rapid)
(moves are available with a Fusion 360 Subscription.)

(2D Contour5)
X18.47 Y-2.76
G1 Z10 F250
Z-3
Z-6.4 F25
Z-8.13
G19 G3 Y-2.29 Z-8.6 J0.47 K0 F250
G1 Y-1.82
G17 G3 X18 Y-1.35 I-0.47 J0
G2 X18 Y37.35 I0 J19.35
X18 Y-1.35 I0 J-19.35
G3 X17.53 Y-1.82 I0 J-0.47
G1 Y-2.29
G19 G2 Y-2.76 Z-8.13 J0 K0.47
G1 Z5
X18.47
Z-3
Z-7 F25
Z-8.73
G3 Y-2.29 Z-9.2 J0.47 K0 F250
G1 Y-1.82
G17 G3 X18 Y-1.35 I-0.47 J0
G2 X18 Y37.35 I0 J19.35
X18 Y-1.35 I0 J-19.35
G3 X17.53 Y-1.82 I0 J-0.47
G1 Y-2.29
G19 G2 Y-2.76 Z-8.73 J0 K0.47
G1 Z5
X18.47
Z-3
Z-7.6 F25
Z-9.33
G3 Y-2.29 Z-9.8 J0.47 K0 F250
G1 Y-1.82
G17 G3 X18 Y-1.35 I-0.47 J0
G2 X18 Y37.35 I0 J19.35
X18 Y-1.35 I0 J-19.35
G3 X17.53 Y-1.82 I0 J-0.47
G1 Y-2.29
G19 G2 Y-2.76 Z-9.33 J0 K0.47
G1 Z5
X18.47
Z-3
Z-8.2 F25
Z-9.93
G3 Y-2.29 Z-10.4 J0.47 K0 F250
G1 Y-1.82
G17 G3 X18 Y-1.35 I-0.47 J0
G2 X18 Y37.35 I0 J19.35
X18 Y-1.35 I0 J-19.35
G3 X17.53 Y-1.82 I0 J-0.47
G1 Y-2.29
G19 G2 Y-2.76 Z-9.93 J0 K0.47
G1 Z5
X18.47
Z-3
Z-8.8 F25
Z-10.53
G3 Y-2.29 Z-11 J0.47 K0 F250
G1 Y-1.82
G17 G3 X18 Y-1.35 I-0.47 J0
G2 X18 Y37.35 I0 J19.35
X18 Y-1.35 I0 J-19.35
G3 X17.53 Y-1.82 I0 J-0.47
G1 Y-2.29
G19 G2 Y-2.76 Z-10.53 J0 K0.47
G1 Z5
X18.47
Z-3
Z-9.4 F25
Z-11.13
G3 Y-2.29 Z-11.6 J0.47 K0 F250
G1 Y-1.82
G17 G3 X18 Y-1.35 I-0.47 J0
G2 X18 Y37.35 I0 J19.35
X18 Y-1.35 I0 J-19.35
G3 X17.53 Y-1.82 I0 J-0.47
G1 Y-2.29
G19 G2 Y-2.76 Z-11.13 J0 K0.47
G1 Z5
X18.47
Z-3
Z-10 F25
Z-11.73
G3 Y-2.29 Z-12.2 J0.47 K0 F250
G1 Y-1.82
G17 G3 X18 Y-1.35 I-0.47 J0
G2 X18 Y37.35 I0 J19.35
X18 Y-1.35 I0 J-19.35
G3 X17.53 Y-1.82 I0 J-0.47
G1 Y-2.29
G19 G2 Y-2.76 Z-11.73 J0 K0.47
G1 Z5
X18.47
Z-3
Z-10.6 F25
Z-12.33
G3 Y-2.29 Z-12.8 J0.47 K0 F250
G1 Y-1.82
G17 G3 X18 Y-1.35 I-0.47 J0
G2 X18 Y37.35 I0 J19.35
X18 Y-1.35 I0 J-19.35
G3 X17.53 Y-1.82 I0 J-0.47
G1 Y-2.29
G19 G2 Y-2.76 Z-12.33 J0 K0.47
G1 Z5
X18.47
Z-3
Z-11.2 F25
Z-12.93
G3 Y-2.29 Z-13.4 J0.47 K0 F250
G1 Y-1.82
G17 G3 X18 Y-1.35 I-0.47 J0
G2 X18 Y37.35 I0 J19.35
X18 Y-1.35 I0 J-19.35
G3 X17.53 Y-1.82 I0 J-0.47
G1 Y-2.29
G19 G2 Y-2.76 Z-12.93 J0 K0.47
G1 Z5
X18.47
Z-3
Z-11.8 F25
Z-13.53
G3 Y-2.29 Z-14 J0.47 K0 F250
G1 Y-1.82
G17 G3 X18 Y-1.35 I-0.47 J0
G2 X18 Y37.35 I0 J19.35
X18 Y-1.35 I0 J-19.35
G3 X17.53 Y-1.82 I0 J-0.47
G1 Y-2.29
G19 G2 Y-2.76 Z-13.53 J0 K0.47
G1 Z10
G17
M9
G28 G91 Z0
G90
G28 G91 X0 Y0
G90
M5
M30
