(metal_coupler_14mm)
(Machine)
(  vendor: Autodesk)
(  model: Generic 3-axis)
(  description: This machine has XY axis on the Table and Z axis on the Head)
(T1  D=4.76 CR=0 - ZMIN=-14 - flat end mill)
G90 G94
G17
G21
(When using Fusion 360 for Personal Use, the feedrate of)
(rapid moves is reduced to match the feedrate of cutting)
(moves, which can increase machining time. Unrestricted rapid)
(moves are available with a Fusion 360 Subscription.)
G28 G91 Z0
G90

(2D Pocket3)
T1
S24000 M3
G54
M8
G0 X20.801 Y16.916
Z10
G1 Z5 F100
Z2.976
X20.817 Y16.947 Z2.797 F50
X20.862 Y17.035 Z2.645
X20.921 Y17.172 Z2.541
X20.979 Y17.339 Z2.5
G3 X16.655 Y18.661 Z2.252 I-2.162 J0.661
X20.979 Y17.339 Z2.004 I2.162 J-0.661
X16.655 Y18.661 Z1.756 I-2.162 J0.661
X20.979 Y17.339 Z1.508 I2.162 J-0.661
X16.655 Y18.661 Z1.26 I-2.162 J0.661
X20.979 Y17.339 Z1.012 I2.162 J-0.661
X16.655 Y18.661 Z0.764 I-2.162 J0.661
X20.979 Y17.339 Z0.516 I2.162 J-0.661
X16.655 Y18.661 Z0.268 I-2.162 J0.661
X20.979 Y17.339 Z0.02 I2.162 J-0.661
X16.655 Y18.661 Z-0.229 I-2.162 J0.661
X18.482 Y15.764 Z-0.364 I2.162 J-0.661
X21.078 Y18 Z-0.5 I0.334 J2.236
X17.008 Y18 I-2.035 J0
X17.043 Y17.708 I1.257 J0 F100
X17.161 Y17.438 I0.81 J0.194
X17.41 Y17.514 I0.113 J0.076
G1 Y18.486
G3 X17.161 Y18.562 I-0.136 J0
X17.043 Y18.292 I0.692 J-0.463
X17.008 Y18 I1.223 J-0.292
G2 X15.949 Y15.933 I-2.545 J0
G3 X16.223 Y13.627 I0.774 J-1.077
X21.778 Y15.17 I1.777 J4.373
G2 X21.12 Y16.813 I1.722 J1.642
G1 Y19.187
G2 X21.778 Y20.83 I2.38 J0
G3 X14.222 Y15.17 I-3.778 J-2.83
X16.223 Y13.627 I3.778 J2.83
X16.472 Y13.67 I0.09 J0.22
G1 X20.996 Y17.722
X21.028 Y17.757
X21.052 Y17.797
X21.068 Y17.841
X21.075 Y17.888
G3 X16.559 Y18.111 Z-0.748 I-2.258 J0.112 F50
X18.761 Y15.739 Z-0.874 I2.258 J-0.112
X21.078 Y18 Z-1 I0.056 J2.26
X19.043 Y20.034 I-2.035 J0
X17.008 Y18 I0 J-2.035
X17.043 Y17.708 I1.257 J0 F100
X17.161 Y17.438 I0.81 J0.194
X17.41 Y17.514 I0.113 J0.076
G1 Y18.486
G3 X17.161 Y18.562 I-0.136 J0
X17.043 Y18.292 I0.692 J-0.463
X17.008 Y18 I1.223 J-0.292
G2 X15.949 Y15.933 I-2.545 J0
G3 X16.223 Y13.627 I0.774 J-1.077
X21.778 Y15.17 I1.777 J4.373
G2 X21.12 Y16.813 I1.722 J1.642
G1 Y19.187
G2 X21.778 Y20.83 I2.38 J0
G3 X14.222 Y15.17 I-3.778 J-2.83
X16.223 Y13.627 I3.778 J2.83
X16.472 Y13.67 I0.09 J0.22
G1 X20.996 Y17.722
X21.028 Y17.757
X21.052 Y17.797
X21.068 Y17.841
X21.075 Y17.888
G3 X16.559 Y18.111 Z-1.248 I-2.258 J0.112 F50
X18.761 Y15.739 Z-1.374 I2.258 J-0.112
X21.078 Y18 Z-1.5 I0.056 J2.26
X19.043 Y20.034 I-2.035 J0
X17.008 Y18 I0 J-2.035
X17.043 Y17.708 I1.257 J0 F100
X17.161 Y17.438 I0.81 J0.194
X17.41 Y17.514 I0.113 J0.076
G1 Y18.486
G3 X17.161 Y18.562 I-0.136 J0
X17.043 Y18.292 I0.692 J-0.463
X17.008 Y18 I1.223 J-0.292
G2 X15.949 Y15.933 I-2.545 J0
G3 X16.223 Y13.627 I0.774 J-1.077
X21.778 Y15.17 I1.777 J4.373
G2 X21.12 Y16.813 I1.722 J1.642
G1 Y19.187
G2 X21.778 Y20.83 I2.38 J0
G3 X14.222 Y15.17 I-3.778 J-2.83
X16.223 Y13.627 I3.778 J2.83
X16.472 Y13.67 I0.09 J0.22
G1 X20.996 Y17.722
X21.028 Y17.757
X21.052 Y17.797
X21.068 Y17.841
X21.075 Y17.888
G3 X16.559 Y18.111 Z-1.748 I-2.258 J0.112 F50
X18.761 Y15.739 Z-1.874 I2.258 J-0.112
X21.078 Y18 Z-2 I0.056 J2.26
X19.043 Y20.034 I-2.035 J0
X17.008 Y18 I0 J-2.035
X17.043 Y17.708 I1.257 J0 F100
X17.161 Y17.438 I0.81 J0.194
X17.41 Y17.514 I0.113 J0.076
G1 Y18.486
G3 X17.161 Y18.562 I-0.136 J0
X17.043 Y18.292 I0.692 J-0.463
X17.008 Y18 I1.223 J-0.292
G2 X15.949 Y15.933 I-2.545 J0
G3 X16.223 Y13.627 I0.774 J-1.077
X21.778 Y15.17 I1.777 J4.373
G2 X21.12 Y16.813 I1.722 J1.642
G1 Y19.187
G2 X21.778 Y20.83 I2.38 J0
G3 X14.222 Y15.17 I-3.778 J-2.83
X16.223 Y13.627 I3.778 J2.83
X16.472 Y13.67 I0.09 J0.22
G1 X20.996 Y17.722
X21.028 Y17.757
X21.052 Y17.797
X21.068 Y17.841
X21.075 Y17.888
G3 X16.559 Y18.111 Z-2.248 I-2.258 J0.112 F50
X18.761 Y15.739 Z-2.374 I2.258 J-0.112
X21.078 Y18 Z-2.5 I0.056 J2.26
X19.043 Y20.034 I-2.035 J0
X17.008 Y18 I0 J-2.035
X17.043 Y17.708 I1.257 J0 F100
X17.161 Y17.438 I0.81 J0.194
X17.41 Y17.514 I0.113 J0.076
G1 Y18.486
G3 X17.161 Y18.562 I-0.136 J0
X17.043 Y18.292 I0.692 J-0.463
X17.008 Y18 I1.223 J-0.292
G2 X15.949 Y15.933 I-2.545 J0
G3 X16.223 Y13.627 I0.774 J-1.077
X21.778 Y15.17 I1.777 J4.373
G2 X21.12 Y16.813 I1.722 J1.642
G1 Y19.187
G2 X21.778 Y20.83 I2.38 J0
G3 X14.222 Y15.17 I-3.778 J-2.83
X16.223 Y13.627 I3.778 J2.83
X16.472 Y13.67 I0.09 J0.22
G1 X20.996 Y17.722
X21.028 Y17.757
X21.052 Y17.797
X21.068 Y17.841
X21.075 Y17.888
G3 X16.559 Y18.111 Z-2.748 I-2.258 J0.112 F50
X18.761 Y15.739 Z-2.874 I2.258 J-0.112
X21.078 Y18 Z-3 I0.056 J2.26
X19.043 Y20.034 I-2.035 J0
X17.008 Y18 I0 J-2.035
X17.043 Y17.708 I1.257 J0 F100
X17.161 Y17.438 I0.81 J0.194
X17.41 Y17.514 I0.113 J0.076
G1 Y18.486
G3 X17.161 Y18.562 I-0.136 J0
X17.043 Y18.292 I0.692 J-0.463
X17.008 Y18 I1.223 J-0.292
G2 X15.949 Y15.933 I-2.545 J0
G3 X16.223 Y13.627 I0.774 J-1.077
X21.778 Y15.17 I1.777 J4.373
G2 X21.12 Y16.813 I1.722 J1.642
G1 Y19.187
G2 X21.778 Y20.83 I2.38 J0
G3 X14.222 Y15.17 I-3.778 J-2.83
X16.223 Y13.627 I3.778 J2.83
X16.472 Y13.67 I0.09 J0.22
G1 X20.996 Y17.722
X21.028 Y17.757
X21.052 Y17.797
X21.068 Y17.841
X21.075 Y17.888
G3 X16.559 Y18.111 Z-3.248 I-2.258 J0.112 F50
X18.761 Y15.739 Z-3.374 I2.258 J-0.112
X21.078 Y18 Z-3.5 I0.056 J2.26
X19.043 Y20.034 I-2.035 J0
X17.008 Y18 I0 J-2.035
X17.043 Y17.708 I1.257 J0 F100
X17.161 Y17.438 I0.81 J0.194
X17.41 Y17.514 I0.113 J0.076
G1 Y18.486
G3 X17.161 Y18.562 I-0.136 J0
X17.043 Y18.292 I0.692 J-0.463
X17.008 Y18 I1.223 J-0.292
G2 X15.949 Y15.933 I-2.545 J0
G3 X16.223 Y13.627 I0.774 J-1.077
X21.778 Y15.17 I1.777 J4.373
G2 X21.12 Y16.813 I1.722 J1.642
G1 Y19.187
G2 X21.778 Y20.83 I2.38 J0
G3 X14.222 Y15.17 I-3.778 J-2.83
X16.223 Y13.627 I3.778 J2.83
X16.472 Y13.67 I0.09 J0.22
G1 X20.996 Y17.722
X21.028 Y17.757
X21.052 Y17.797
X21.068 Y17.841
X21.075 Y17.888
G3 X16.559 Y18.111 Z-3.748 I-2.258 J0.112 F50
X18.761 Y15.739 Z-3.874 I2.258 J-0.112
X21.078 Y18 Z-4 I0.056 J2.26
X19.043 Y20.034 I-2.035 J0
X17.008 Y18 I0 J-2.035
X17.043 Y17.708 I1.257 J0 F100
X17.161 Y17.438 I0.81 J0.194
X17.41 Y17.514 I0.113 J0.076
G1 Y18.486
G3 X17.161 Y18.562 I-0.136 J0
X17.043 Y18.292 I0.692 J-0.463
X17.008 Y18 I1.223 J-0.292
G2 X15.949 Y15.933 I-2.545 J0
G3 X16.223 Y13.627 I0.774 J-1.077
X21.778 Y15.17 I1.777 J4.373
G2 X21.12 Y16.813 I1.722 J1.642
G1 Y19.187
G2 X21.778 Y20.83 I2.38 J0
G3 X14.222 Y15.17 I-3.778 J-2.83
X16.223 Y13.627 I3.778 J2.83
X16.472 Y13.67 I0.09 J0.22
G1 X20.996 Y17.722
X21.028 Y17.757
X21.052 Y17.797
X21.068 Y17.841
X21.075 Y17.888
G3 X16.559 Y18.111 Z-4.248 I-2.258 J0.112 F50
X18.761 Y15.739 Z-4.374 I2.258 J-0.112
X21.078 Y18 Z-4.5 I0.056 J2.26
X19.043 Y20.034 I-2.035 J0
X17.008 Y18 I0 J-2.035
X17.043 Y17.708 I1.257 J0 F100
X17.161 Y17.438 I0.81 J0.194
X17.41 Y17.514 I0.113 J0.076
G1 Y18.486
G3 X17.161 Y18.562 I-0.136 J0
X17.043 Y18.292 I0.692 J-0.463
X17.008 Y18 I1.223 J-0.292
G2 X15.949 Y15.933 I-2.545 J0
G3 X16.223 Y13.627 I0.774 J-1.077
X21.778 Y15.17 I1.777 J4.373
G2 X21.12 Y16.813 I1.722 J1.642
G1 Y19.187
G2 X21.778 Y20.83 I2.38 J0
G3 X14.222 Y15.17 I-3.778 J-2.83
X16.223 Y13.627 I3.778 J2.83
X16.472 Y13.67 I0.09 J0.22
G1 X20.996 Y17.722
X21.028 Y17.757
X21.052 Y17.797
X21.068 Y17.841
X21.075 Y17.888
G3 X16.559 Y18.111 Z-4.748 I-2.258 J0.112 F50
X18.761 Y15.739 Z-4.874 I2.258 J-0.112
X21.078 Y18 Z-5 I0.056 J2.26
X19.043 Y20.034 I-2.035 J0
X17.008 Y18 I0 J-2.035
X17.043 Y17.708 I1.257 J0 F100
X17.161 Y17.438 I0.81 J0.194
X17.41 Y17.514 I0.113 J0.076
G1 Y18.486
G3 X17.161 Y18.562 I-0.136 J0
X17.043 Y18.292 I0.692 J-0.463
X17.008 Y18 I1.223 J-0.292
G2 X15.949 Y15.933 I-2.545 J0
G3 X16.223 Y13.627 I0.774 J-1.077
X21.778 Y15.17 I1.777 J4.373
G2 X21.12 Y16.813 I1.722 J1.642
G1 Y19.187
G2 X21.778 Y20.83 I2.38 J0
G3 X14.222 Y15.17 I-3.778 J-2.83
X16.223 Y13.627 I3.778 J2.83
X16.472 Y13.67 I0.09 J0.22
G1 X20.996 Y17.722
X21.028 Y17.757
X21.052 Y17.797
X21.068 Y17.841
X21.075 Y17.888
G3 X16.559 Y18.111 Z-5.248 I-2.258 J0.112 F50
X18.761 Y15.739 Z-5.374 I2.258 J-0.112
X21.078 Y18 Z-5.5 I0.056 J2.26
X19.043 Y20.034 I-2.035 J0
X17.008 Y18 I0 J-2.035
X17.043 Y17.708 I1.257 J0 F100
X17.161 Y17.438 I0.81 J0.194
X17.41 Y17.514 I0.113 J0.076
G1 Y18.486
G3 X17.161 Y18.562 I-0.136 J0
X17.043 Y18.292 I0.692 J-0.463
X17.008 Y18 I1.223 J-0.292
G2 X15.949 Y15.933 I-2.545 J0
G3 X16.223 Y13.627 I0.774 J-1.077
X21.778 Y15.17 I1.777 J4.373
G2 X21.12 Y16.813 I1.722 J1.642
G1 Y19.187
G2 X21.778 Y20.83 I2.38 J0
G3 X14.222 Y15.17 I-3.778 J-2.83
X16.223 Y13.627 I3.778 J2.83
X16.472 Y13.67 I0.09 J0.22
G1 X20.996 Y17.722
X21.028 Y17.757
X21.052 Y17.797
X21.068 Y17.841
X21.075 Y17.888
G3 X16.559 Y18.111 Z-5.748 I-2.258 J0.112 F50
X18.761 Y15.739 Z-5.874 I2.258 J-0.112
X21.078 Y18 Z-6 I0.056 J2.26
X19.043 Y20.034 I-2.035 J0
X17.008 Y18 I0 J-2.035
X17.043 Y17.708 I1.257 J0 F100
X17.161 Y17.438 I0.81 J0.194
X17.41 Y17.514 I0.113 J0.076
G1 Y18.486
G3 X17.161 Y18.562 I-0.136 J0
X17.043 Y18.292 I0.692 J-0.463
X17.008 Y18 I1.223 J-0.292
G2 X15.949 Y15.933 I-2.545 J0
G3 X16.223 Y13.627 I0.774 J-1.077
X21.778 Y15.17 I1.777 J4.373
G2 X21.12 Y16.813 I1.722 J1.642
G1 Y19.187
G2 X21.778 Y20.83 I2.38 J0
G3 X14.222 Y15.17 I-3.778 J-2.83
X16.223 Y13.627 I3.778 J2.83
X16.472 Y13.67 I0.09 J0.22
G1 X20.996 Y17.722
X21.028 Y17.757
X21.052 Y17.797
X21.068 Y17.841
X21.075 Y17.888
G3 X16.559 Y18.111 Z-6.248 I-2.258 J0.112 F50
X18.761 Y15.739 Z-6.374 I2.258 J-0.112
X21.078 Y18 Z-6.5 I0.056 J2.26
X19.043 Y20.034 I-2.035 J0
X17.008 Y18 I0 J-2.035
X17.043 Y17.708 I1.257 J0 F100
X17.161 Y17.438 I0.81 J0.194
X17.41 Y17.514 I0.113 J0.076
G1 Y18.486
G3 X17.161 Y18.562 I-0.136 J0
X17.043 Y18.292 I0.692 J-0.463
X17.008 Y18 I1.223 J-0.292
G2 X15.949 Y15.933 I-2.545 J0
G3 X16.223 Y13.627 I0.774 J-1.077
X21.778 Y15.17 I1.777 J4.373
G2 X21.12 Y16.813 I1.722 J1.642
G1 Y19.187
G2 X21.778 Y20.83 I2.38 J0
G3 X14.222 Y15.17 I-3.778 J-2.83
X16.223 Y13.627 I3.778 J2.83
X16.472 Y13.67 I0.09 J0.22
G1 X20.996 Y17.722
X21.028 Y17.757
X21.052 Y17.797
X21.068 Y17.841
X21.075 Y17.888
G3 X16.559 Y18.111 Z-6.748 I-2.258 J0.112 F50
X18.761 Y15.739 Z-6.874 I2.258 J-0.112
X21.078 Y18 Z-7 I0.056 J2.26
X19.043 Y20.034 I-2.035 J0
X17.008 Y18 I0 J-2.035
X17.043 Y17.708 I1.257 J0 F100
X17.161 Y17.438 I0.81 J0.194
X17.41 Y17.514 I0.113 J0.076
G1 Y18.486
G3 X17.161 Y18.562 I-0.136 J0
X17.043 Y18.292 I0.692 J-0.463
X17.008 Y18 I1.223 J-0.292
G2 X15.949 Y15.933 I-2.545 J0
G3 X16.223 Y13.627 I0.774 J-1.077
X21.778 Y15.17 I1.777 J4.373
G2 X21.12 Y16.813 I1.722 J1.642
G1 Y19.187
G2 X21.778 Y20.83 I2.38 J0
G3 X14.222 Y15.17 I-3.778 J-2.83
X16.223 Y13.627 I3.778 J2.83
X16.472 Y13.67 I0.09 J0.22
G1 X20.996 Y17.722
X21.028 Y17.757
X21.052 Y17.797
X21.068 Y17.841
X21.075 Y17.888
G3 X16.559 Y18.111 Z-7.248 I-2.258 J0.112 F50
X18.761 Y15.739 Z-7.374 I2.258 J-0.112
X21.078 Y18 Z-7.5 I0.056 J2.26
X19.043 Y20.034 I-2.035 J0
X17.008 Y18 I0 J-2.035
X17.043 Y17.708 I1.257 J0 F100
X17.161 Y17.438 I0.81 J0.194
X17.41 Y17.514 I0.113 J0.076
G1 Y18.486
G3 X17.161 Y18.562 I-0.136 J0
X17.043 Y18.292 I0.692 J-0.463
X17.008 Y18 I1.223 J-0.292
G2 X15.949 Y15.933 I-2.545 J0
G3 X16.223 Y13.627 I0.774 J-1.077
X21.778 Y15.17 I1.777 J4.373
G2 X21.12 Y16.813 I1.722 J1.642
G1 Y19.187
G2 X21.778 Y20.83 I2.38 J0
G3 X14.222 Y15.17 I-3.778 J-2.83
X16.223 Y13.627 I3.778 J2.83
X16.472 Y13.67 I0.09 J0.22
G1 X20.996 Y17.722
X21.028 Y17.757
X21.052 Y17.797
X21.068 Y17.841
X21.075 Y17.888
G3 X16.559 Y18.111 Z-7.748 I-2.258 J0.112 F50
X18.761 Y15.739 Z-7.874 I2.258 J-0.112
X21.078 Y18 Z-8 I0.056 J2.26
X19.043 Y20.034 I-2.035 J0
X17.008 Y18 I0 J-2.035
X17.043 Y17.708 I1.257 J0 F100
X17.161 Y17.438 I0.81 J0.194
X17.41 Y17.514 I0.113 J0.076
G1 Y18.486
G3 X17.161 Y18.562 I-0.136 J0
X17.043 Y18.292 I0.692 J-0.463
X17.008 Y18 I1.223 J-0.292
G2 X15.949 Y15.933 I-2.545 J0
G3 X16.223 Y13.627 I0.774 J-1.077
X21.778 Y15.17 I1.777 J4.373
G2 X21.12 Y16.813 I1.722 J1.642
G1 Y19.187
G2 X21.778 Y20.83 I2.38 J0
G3 X14.222 Y15.17 I-3.778 J-2.83
X16.223 Y13.627 I3.778 J2.83
X16.472 Y13.67 I0.09 J0.22
G1 X20.996 Y17.722
X21.028 Y17.757
X21.052 Y17.797
X21.068 Y17.841
X21.075 Y17.888
G3 X16.559 Y18.111 Z-8.248 I-2.258 J0.112 F50
X18.761 Y15.739 Z-8.374 I2.258 J-0.112
X21.078 Y18 Z-8.5 I0.056 J2.26
X19.043 Y20.034 I-2.035 J0
X17.008 Y18 I0 J-2.035
X17.043 Y17.708 I1.257 J0 F100
X17.161 Y17.438 I0.81 J0.194
X17.41 Y17.514 I0.113 J0.076
G1 Y18.486
G3 X17.161 Y18.562 I-0.136 J0
X17.043 Y18.292 I0.692 J-0.463
X17.008 Y18 I1.223 J-0.292
G2 X15.949 Y15.933 I-2.545 J0
G3 X16.223 Y13.627 I0.774 J-1.077
X21.778 Y15.17 I1.777 J4.373
G2 X21.12 Y16.813 I1.722 J1.642
G1 Y19.187
G2 X21.778 Y20.83 I2.38 J0
G3 X14.222 Y15.17 I-3.778 J-2.83
X16.223 Y13.627 I3.778 J2.83
X16.472 Y13.67 I0.09 J0.22
G1 X20.996 Y17.722
X21.028 Y17.757
X21.052 Y17.797
X21.068 Y17.841
X21.075 Y17.888
G3 X16.559 Y18.111 Z-8.748 I-2.258 J0.112 F50
X18.761 Y15.739 Z-8.874 I2.258 J-0.112
X21.078 Y18 Z-9 I0.056 J2.26
X19.043 Y20.034 I-2.035 J0
X17.008 Y18 I0 J-2.035
X17.043 Y17.708 I1.257 J0 F100
X17.161 Y17.438 I0.81 J0.194
X17.41 Y17.514 I0.113 J0.076
G1 Y18.486
G3 X17.161 Y18.562 I-0.136 J0
X17.043 Y18.292 I0.692 J-0.463
X17.008 Y18 I1.223 J-0.292
G2 X15.949 Y15.933 I-2.545 J0
G3 X16.223 Y13.627 I0.774 J-1.077
X21.778 Y15.17 I1.777 J4.373
G2 X21.12 Y16.813 I1.722 J1.642
G1 Y19.187
G2 X21.778 Y20.83 I2.38 J0
G3 X14.222 Y15.17 I-3.778 J-2.83
X16.223 Y13.627 I3.778 J2.83
X16.472 Y13.67 I0.09 J0.22
G1 X20.996 Y17.722
X21.028 Y17.757
X21.052 Y17.797
X21.068 Y17.841
X21.075 Y17.888
G3 X16.559 Y18.111 Z-9.248 I-2.258 J0.112 F50
X18.761 Y15.739 Z-9.374 I2.258 J-0.112
X21.078 Y18 Z-9.5 I0.056 J2.26
X19.043 Y20.034 I-2.035 J0
X17.008 Y18 I0 J-2.035
X17.043 Y17.708 I1.257 J0 F100
X17.161 Y17.438 I0.81 J0.194
X17.41 Y17.514 I0.113 J0.076
G1 Y18.486
G3 X17.161 Y18.562 I-0.136 J0
X17.043 Y18.292 I0.692 J-0.463
X17.008 Y18 I1.223 J-0.292
G2 X15.949 Y15.933 I-2.545 J0
G3 X16.223 Y13.627 I0.774 J-1.077
X21.778 Y15.17 I1.777 J4.373
G2 X21.12 Y16.813 I1.722 J1.642
G1 Y19.187
G2 X21.778 Y20.83 I2.38 J0
G3 X14.222 Y15.17 I-3.778 J-2.83
X16.223 Y13.627 I3.778 J2.83
X16.472 Y13.67 I0.09 J0.22
G1 X20.996 Y17.722
X21.028 Y17.757
X21.052 Y17.797
X21.068 Y17.841
X21.075 Y17.888
G3 X16.559 Y18.111 Z-9.748 I-2.258 J0.112 F50
X18.761 Y15.739 Z-9.874 I2.258 J-0.112
X21.078 Y18 Z-10 I0.056 J2.26
X19.043 Y20.034 I-2.035 J0
X17.008 Y18 I0 J-2.035
X17.043 Y17.708 I1.257 J0 F100
X17.161 Y17.438 I0.81 J0.194
X17.41 Y17.514 I0.113 J0.076
G1 Y18.486
G3 X17.161 Y18.562 I-0.136 J0
X17.043 Y18.292 I0.692 J-0.463
X17.008 Y18 I1.223 J-0.292
G2 X15.949 Y15.933 I-2.545 J0
G3 X16.223 Y13.627 I0.774 J-1.077
X21.778 Y15.17 I1.777 J4.373
G2 X21.12 Y16.813 I1.722 J1.642
G1 Y19.187
G2 X21.778 Y20.83 I2.38 J0
G3 X14.222 Y15.17 I-3.778 J-2.83
X16.223 Y13.627 I3.778 J2.83
X16.472 Y13.67 I0.09 J0.22
G1 X20.996 Y17.722
X21.028 Y17.757
X21.052 Y17.797
X21.068 Y17.841
X21.075 Y17.888
G3 X16.559 Y18.111 Z-10.248 I-2.258 J0.112 F50
X18.761 Y15.739 Z-10.374 I2.258 J-0.112
X21.078 Y18 Z-10.5 I0.056 J2.26
X19.043 Y20.034 I-2.035 J0
X17.008 Y18 I0 J-2.035
X17.043 Y17.708 I1.257 J0 F100
X17.161 Y17.438 I0.81 J0.194
X17.41 Y17.514 I0.113 J0.076
G1 Y18.486
G3 X17.161 Y18.562 I-0.136 J0
X17.043 Y18.292 I0.692 J-0.463
X17.008 Y18 I1.223 J-0.292
G2 X15.949 Y15.933 I-2.545 J0
G3 X16.223 Y13.627 I0.774 J-1.077
X21.778 Y15.17 I1.777 J4.373
G2 X21.12 Y16.813 I1.722 J1.642
G1 Y19.187
G2 X21.778 Y20.83 I2.38 J0
G3 X14.222 Y15.17 I-3.778 J-2.83
X16.223 Y13.627 I3.778 J2.83
X16.472 Y13.67 I0.09 J0.22
G1 X20.996 Y17.722
X21.028 Y17.757
X21.052 Y17.797
X21.068 Y17.841
X21.075 Y17.888
G3 X16.559 Y18.111 Z-10.748 I-2.258 J0.112 F50
X18.761 Y15.739 Z-10.874 I2.258 J-0.112
X21.078 Y18 Z-11 I0.056 J2.26
X19.043 Y20.034 I-2.035 J0
X17.008 Y18 I0 J-2.035
X17.043 Y17.708 I1.257 J0 F100
X17.161 Y17.438 I0.81 J0.194
X17.41 Y17.514 I0.113 J0.076
G1 Y18.486
G3 X17.161 Y18.562 I-0.136 J0
X17.043 Y18.292 I0.692 J-0.463
X17.008 Y18 I1.223 J-0.292
G2 X15.949 Y15.933 I-2.545 J0
G3 X16.223 Y13.627 I0.774 J-1.077
X21.778 Y15.17 I1.777 J4.373
G2 X21.12 Y16.813 I1.722 J1.642
G1 Y19.187
G2 X21.778 Y20.83 I2.38 J0
G3 X14.222 Y15.17 I-3.778 J-2.83
X16.223 Y13.627 I3.778 J2.83
X16.472 Y13.67 I0.09 J0.22
G1 X20.996 Y17.722
X21.028 Y17.757
X21.052 Y17.797
X21.068 Y17.841
X21.075 Y17.888
G3 X16.559 Y18.111 Z-11.248 I-2.258 J0.112 F50
X18.761 Y15.739 Z-11.374 I2.258 J-0.112
X21.078 Y18 Z-11.5 I0.056 J2.26
X19.043 Y20.034 I-2.035 J0
X17.008 Y18 I0 J-2.035
X17.043 Y17.708 I1.257 J0 F100
X17.161 Y17.438 I0.81 J0.194
X17.41 Y17.514 I0.113 J0.076
G1 Y18.486
G3 X17.161 Y18.562 I-0.136 J0
X17.043 Y18.292 I0.692 J-0.463
X17.008 Y18 I1.223 J-0.292
G2 X15.949 Y15.933 I-2.545 J0
G3 X16.223 Y13.627 I0.774 J-1.077
X21.778 Y15.17 I1.777 J4.373
G2 X21.12 Y16.813 I1.722 J1.642
G1 Y19.187
G2 X21.778 Y20.83 I2.38 J0
G3 X14.222 Y15.17 I-3.778 J-2.83
X16.223 Y13.627 I3.778 J2.83
X16.472 Y13.67 I0.09 J0.22
G1 X20.996 Y17.722
X21.028 Y17.757
X21.052 Y17.797
X21.068 Y17.841
X21.075 Y17.888
G3 X16.559 Y18.111 Z-11.748 I-2.258 J0.112 F50
X18.761 Y15.739 Z-11.874 I2.258 J-0.112
X21.078 Y18 Z-12 I0.056 J2.26
X19.043 Y20.034 I-2.035 J0
X17.008 Y18 I0 J-2.035
X17.043 Y17.708 I1.257 J0 F100
X17.161 Y17.438 I0.81 J0.194
X17.41 Y17.514 I0.113 J0.076
G1 Y18.486
G3 X17.161 Y18.562 I-0.136 J0
X17.043 Y18.292 I0.692 J-0.463
X17.008 Y18 I1.223 J-0.292
G2 X15.949 Y15.933 I-2.545 J0
G3 X16.223 Y13.627 I0.774 J-1.077
X21.778 Y15.17 I1.777 J4.373
G2 X21.12 Y16.813 I1.722 J1.642
G1 Y19.187
G2 X21.778 Y20.83 I2.38 J0
G3 X14.222 Y15.17 I-3.778 J-2.83
X16.223 Y13.627 I3.778 J2.83
X16.472 Y13.67 I0.09 J0.22
G1 X20.996 Y17.722
X21.028 Y17.757
X21.052 Y17.797
X21.068 Y17.841
X21.075 Y17.888
G3 X16.559 Y18.111 Z-12.248 I-2.258 J0.112 F50
X18.761 Y15.739 Z-12.374 I2.258 J-0.112
X21.078 Y18 Z-12.5 I0.056 J2.26
X19.043 Y20.034 I-2.035 J0
X17.008 Y18 I0 J-2.035
X17.043 Y17.708 I1.257 J0 F100
X17.161 Y17.438 I0.81 J0.194
X17.41 Y17.514 I0.113 J0.076
G1 Y18.486
G3 X17.161 Y18.562 I-0.136 J0
X17.043 Y18.292 I0.692 J-0.463
X17.008 Y18 I1.223 J-0.292
G2 X15.949 Y15.933 I-2.545 J0
G3 X16.223 Y13.627 I0.774 J-1.077
X21.778 Y15.17 I1.777 J4.373
G2 X21.12 Y16.813 I1.722 J1.642
G1 Y19.187
G2 X21.778 Y20.83 I2.38 J0
G3 X14.222 Y15.17 I-3.778 J-2.83
X16.223 Y13.627 I3.778 J2.83
X16.472 Y13.67 I0.09 J0.22
G1 X20.996 Y17.722
X21.028 Y17.757
X21.052 Y17.797
X21.068 Y17.841
X21.075 Y17.888
G3 X16.559 Y18.111 Z-12.748 I-2.258 J0.112 F50
X18.761 Y15.739 Z-12.874 I2.258 J-0.112
X21.078 Y18 Z-13 I0.056 J2.26
X19.043 Y20.034 I-2.035 J0
X17.008 Y18 I0 J-2.035
X17.043 Y17.708 I1.257 J0 F100
X17.161 Y17.438 I0.81 J0.194
X17.41 Y17.514 I0.113 J0.076
G1 Y18.486
G3 X17.161 Y18.562 I-0.136 J0
X17.043 Y18.292 I0.692 J-0.463
X17.008 Y18 I1.223 J-0.292
G2 X15.949 Y15.933 I-2.545 J0
G3 X16.223 Y13.627 I0.774 J-1.077
X21.778 Y15.17 I1.777 J4.373
G2 X21.12 Y16.813 I1.722 J1.642
G1 Y19.187
G2 X21.778 Y20.83 I2.38 J0
G3 X14.222 Y15.17 I-3.778 J-2.83
X16.223 Y13.627 I3.778 J2.83
X16.472 Y13.67 I0.09 J0.22
G1 X20.996 Y17.722
X21.028 Y17.757
X21.052 Y17.797
X21.068 Y17.841
X21.075 Y17.888
G3 X16.559 Y18.111 Z-13.248 I-2.258 J0.112 F50
X18.761 Y15.739 Z-13.374 I2.258 J-0.112
X21.078 Y18 Z-13.5 I0.056 J2.26
X19.043 Y20.034 I-2.035 J0
X17.008 Y18 I0 J-2.035
X17.043 Y17.708 I1.257 J0 F100
X17.161 Y17.438 I0.81 J0.194
X17.41 Y17.514 I0.113 J0.076
G1 Y18.486
G3 X17.161 Y18.562 I-0.136 J0
X17.043 Y18.292 I0.692 J-0.463
X17.008 Y18 I1.223 J-0.292
G2 X15.949 Y15.933 I-2.545 J0
G3 X16.223 Y13.627 I0.774 J-1.077
X21.778 Y15.17 I1.777 J4.373
G2 X21.12 Y16.813 I1.722 J1.642
G1 Y19.187
G2 X21.778 Y20.83 I2.38 J0
G3 X14.222 Y15.17 I-3.778 J-2.83
X16.223 Y13.627 I3.778 J2.83
X16.472 Y13.67 I0.09 J0.22
G1 X20.996 Y17.722
X21.028 Y17.757
X21.052 Y17.797
X21.068 Y17.841
X21.075 Y17.888
G3 X16.559 Y18.111 Z-13.748 I-2.258 J0.112 F50
X18.761 Y15.739 Z-13.874 I2.258 J-0.112
X21.078 Y18 Z-14 I0.056 J2.26
X19.043 Y20.034 I-2.035 J0
X17.008 Y18 I0 J-2.035
X17.043 Y17.708 I1.257 J0 F100
X17.161 Y17.438 I0.81 J0.194
X17.41 Y17.514 I0.113 J0.076
G1 Y18.486
G3 X17.161 Y18.562 I-0.136 J0
X17.043 Y18.292 I0.692 J-0.463
X17.008 Y18 I1.223 J-0.292
G2 X15.949 Y15.933 I-2.545 J0
G3 X16.223 Y13.627 I0.774 J-1.077
X21.778 Y15.17 I1.777 J4.373
G2 X21.12 Y16.813 I1.722 J1.642
G1 Y19.187
G2 X21.778 Y20.83 I2.38 J0
G3 X14.222 Y15.17 I-3.778 J-2.83
X16.223 Y13.627 I3.778 J2.83
G1 X16.281 Y13.608 Z-13.988
X16.341 Y13.596 Z-13.976
X16.401 Y13.592 Z-13.964
X16.478 Y13.598 Z-13.912
X16.553 Y13.616 Z-13.861
X16.601 Y13.635 Z-13.783
X16.647 Y13.659 Z-13.706
X16.677 Y13.679 Z-13.524
Z10
(When using Fusion 360 for Personal Use, the feedrate of)
(rapid moves is reduced to match the feedrate of cutting)
(moves, which can increase machining time. Unrestricted rapid)
(moves are available with a Fusion 360 Subscription.)

(2D Pocket2)
G0 X-3.88 Y30.924
G1 Z10 F150
Z5
Z-0.124 F50
X-3.876 Y30.93 Z-0.207
X-3.863 Y30.947 Z-0.287
X-3.842 Y30.975 Z-0.362
X-3.814 Y31.013 Z-0.43
X-3.779 Y31.06 Z-0.489
X-3.738 Y31.115 Z-0.536
X-3.693 Y31.175 Z-0.571
X-3.645 Y31.239 Z-0.593
X-3.596 Y31.306 Z-0.6
X-2.276 Y33.079
G2 X2.925 Y38.279 I20.346 J-15.148 F150
G3 X3.137 Y39.846 I-0.66 J0.887
X1.565 Y40.021 I-0.871 J-0.68
G1 X-1.128 Y37.817
G3 X-1.428 Y37.432 I0.7 J-0.855
G1 X-3.163 Y33.739
G3 X-3.26 Y33.399 I1.001 J-0.47
G1 X-4.45 Y23.407
G3 X-2.278 Y23.014 I1.098 J-0.131
G2 X12.988 Y38.279 I20.208 J-4.944
G1 X13.044 Y38.285
X32.983 Y38.323
X33.033 Y38.318
X33.082 Y38.302
X33.125 Y38.276
G2 X38.274 Y33.128 I-15.125 J-20.276
G3 X39.841 Y32.918 I0.886 J0.661
X40.016 Y34.489 I-0.681 J0.871
G1 X37.837 Y37.15
G3 X37.449 Y37.452 I-0.855 J-0.7
G1 X33.786 Y39.162
G3 X33.448 Y39.258 I-0.468 J-1.002
G1 X23.336 Y40.452
G3 X22.944 Y38.28 I-0.13 J-1.098
G2 X38.28 Y22.945 I-4.944 J-20.28
G1 X38.287 Y22.889
X38.323 Y3.017
X38.318 Y2.967
X38.302 Y2.918
X38.276 Y2.875
G2 X33.128 Y-2.274 I-20.276 J15.125
G3 X32.918 Y-3.841 I0.661 J-0.886
X34.489 Y-4.016 I0.871 J0.681
G1 X37.15 Y-1.837
G3 X37.452 Y-1.449 I-0.7 J0.855
G1 X39.162 Y2.214
G3 X39.258 Y2.553 I-1.002 J0.468
G1 X40.451 Y12.724
G3 X38.279 Y13.115 I-1.098 J0.129
G2 X22.889 Y-2.279 I-20.349 J4.955
G1 X22.833 Y-2.285
X2.971 Y-2.323
X2.92 Y-2.318
X2.872 Y-2.302
X2.828 Y-2.276
G2 X-2.276 Y2.828 I15.102 J20.206
G3 X-3.842 Y3.037 I-0.885 J-0.662
X-4.017 Y1.466 I0.681 J-0.871
G1 X-1.86 Y-1.169
G3 X-1.471 Y-1.471 I0.855 J0.7
G1 X2.166 Y-3.161
G3 X2.502 Y-3.257 I0.466 J1.003
G1 X12.604 Y-4.449
G3 X12.997 Y-2.278 I0.13 J1.098
G2 X3.19 Y3.289 I4.933 J20.111
X-2.279 Y13.1 I14.98 J14.781
X-0.64 Y17.108 I3.587 J0.872
G3 X1.762 Y20.709 I-2.763 J4.445
G2 X18 Y34.452 I16.168 J-2.639
X18 Y1.548 I0 J-16.452
X1.548 Y18.07 I0 J16.452
X1.762 Y20.709 I16.382 J0
X5.034 Y23.859 I3.74 J-0.611
G3 X9.056 Y25.97 I-0.797 J6.405
G2 X26.944 Y10.03 I8.944 J-7.97
X18 Y6.02 I-8.944 J7.97
G1 X17.93
G2 X6.02 Y18 I0.07 J11.98
X9.056 Y25.97 I11.98 J0
G3 X8.982 Y26.343 I-0.178 J0.158
G1 X-2.728 Y31.998
G2 X-2.815 Y32.354 I0.103 J0.214
G1 X-2.767 Y32.419 Z-0.607 F50
X-2.72 Y32.482 Z-0.627
X-2.676 Y32.541 Z-0.661
X-2.636 Y32.595 Z-0.706
X-2.602 Y32.641 Z-0.762
X-2.573 Y32.68 Z-0.828
X-2.551 Y32.709 Z-0.9
X-2.53 Y32.738 Z-0.972
X-2.501 Y32.776 Z-1.038
X-2.466 Y32.823 Z-1.094
X-2.426 Y32.877 Z-1.139
X-2.382 Y32.936 Z-1.173
X-2.335 Y32.999 Z-1.193
X-2.287 Y33.064 Z-1.2
X-2.276 Y33.079
G2 X2.925 Y38.279 I20.346 J-15.148 F150
G3 X3.137 Y39.846 I-0.66 J0.887
X1.565 Y40.021 I-0.871 J-0.68
G1 X-1.128 Y37.817
G3 X-1.428 Y37.432 I0.7 J-0.855
G1 X-3.163 Y33.739
G3 X-3.26 Y33.399 I1.001 J-0.47
G1 X-4.45 Y23.407
G3 X-2.278 Y23.014 I1.098 J-0.131
G2 X12.988 Y38.279 I20.208 J-4.944
G1 X13.044 Y38.285
X32.983 Y38.323
X33.033 Y38.318
X33.082 Y38.302
X33.125 Y38.276
G2 X38.274 Y33.128 I-15.125 J-20.276
G3 X39.841 Y32.918 I0.886 J0.661
X40.016 Y34.489 I-0.681 J0.871
G1 X37.837 Y37.15
G3 X37.449 Y37.452 I-0.855 J-0.7
G1 X33.786 Y39.162
G3 X33.448 Y39.258 I-0.468 J-1.002
G1 X23.336 Y40.452
G3 X22.944 Y38.28 I-0.13 J-1.098
G2 X38.28 Y22.945 I-4.944 J-20.28
G1 X38.287 Y22.889
X38.323 Y3.017
X38.318 Y2.967
X38.302 Y2.918
X38.276 Y2.875
G2 X33.128 Y-2.274 I-20.276 J15.125
G3 X32.918 Y-3.841 I0.661 J-0.886
X34.489 Y-4.016 I0.871 J0.681
G1 X37.15 Y-1.837
G3 X37.452 Y-1.449 I-0.7 J0.855
G1 X39.162 Y2.214
G3 X39.258 Y2.553 I-1.002 J0.468
G1 X40.451 Y12.724
G3 X38.279 Y13.115 I-1.098 J0.129
G2 X22.889 Y-2.279 I-20.349 J4.955
G1 X22.833 Y-2.285
X2.971 Y-2.323
X2.92 Y-2.318
X2.872 Y-2.302
X2.828 Y-2.276
G2 X-2.276 Y2.828 I15.102 J20.206
G3 X-3.842 Y3.037 I-0.885 J-0.662
X-4.017 Y1.466 I0.681 J-0.871
G1 X-1.86 Y-1.169
G3 X-1.471 Y-1.471 I0.855 J0.7
G1 X2.166 Y-3.161
G3 X2.502 Y-3.257 I0.466 J1.003
G1 X12.604 Y-4.449
G3 X12.997 Y-2.278 I0.13 J1.098
G2 X3.19 Y3.289 I4.933 J20.111
X-2.279 Y13.1 I14.98 J14.781
X-0.64 Y17.108 I3.587 J0.872
G3 X1.762 Y20.709 I-2.763 J4.445
G2 X18 Y34.452 I16.168 J-2.639
X18 Y1.548 I0 J-16.452
X1.548 Y18.07 I0 J16.452
X1.762 Y20.709 I16.382 J0
X5.034 Y23.859 I3.74 J-0.611
G3 X9.056 Y25.97 I-0.797 J6.405
G2 X26.944 Y10.03 I8.944 J-7.97
X18 Y6.02 I-8.944 J7.97
G1 X17.93
G2 X6.02 Y18 I0.07 J11.98
X9.056 Y25.97 I11.98 J0
G3 X8.982 Y26.343 I-0.178 J0.158
G1 X-2.728 Y31.998
G2 X-2.815 Y32.354 I0.103 J0.214
G1 X-2.767 Y32.419 Z-1.207 F50
X-2.72 Y32.482 Z-1.227
X-2.676 Y32.541 Z-1.261
X-2.636 Y32.595 Z-1.306
X-2.602 Y32.641 Z-1.362
X-2.573 Y32.68 Z-1.428
X-2.551 Y32.709 Z-1.5
X-2.53 Y32.738 Z-1.572
X-2.501 Y32.776 Z-1.638
X-2.466 Y32.823 Z-1.694
X-2.426 Y32.877 Z-1.739
X-2.382 Y32.936 Z-1.773
X-2.335 Y32.999 Z-1.793
X-2.287 Y33.064 Z-1.8
X-2.276 Y33.079
G2 X2.925 Y38.279 I20.346 J-15.148 F150
G3 X3.137 Y39.846 I-0.66 J0.887
X1.565 Y40.021 I-0.871 J-0.68
G1 X-1.128 Y37.817
G3 X-1.428 Y37.432 I0.7 J-0.855
G1 X-3.163 Y33.739
G3 X-3.26 Y33.399 I1.001 J-0.47
G1 X-4.45 Y23.407
G3 X-2.278 Y23.014 I1.098 J-0.131
G2 X12.988 Y38.279 I20.208 J-4.944
G1 X13.044 Y38.285
X32.983 Y38.323
X33.033 Y38.318
X33.082 Y38.302
X33.125 Y38.276
G2 X38.274 Y33.128 I-15.125 J-20.276
G3 X39.841 Y32.918 I0.886 J0.661
X40.016 Y34.489 I-0.681 J0.871
G1 X37.837 Y37.15
G3 X37.449 Y37.452 I-0.855 J-0.7
G1 X33.786 Y39.162
G3 X33.448 Y39.258 I-0.468 J-1.002
G1 X23.336 Y40.452
G3 X22.944 Y38.28 I-0.13 J-1.098
G2 X38.28 Y22.945 I-4.944 J-20.28
G1 X38.287 Y22.889
X38.323 Y3.017
X38.318 Y2.967
X38.302 Y2.918
X38.276 Y2.875
G2 X33.128 Y-2.274 I-20.276 J15.125
G3 X32.918 Y-3.841 I0.661 J-0.886
X34.489 Y-4.016 I0.871 J0.681
G1 X37.15 Y-1.837
G3 X37.452 Y-1.449 I-0.7 J0.855
G1 X39.162 Y2.214
G3 X39.258 Y2.553 I-1.002 J0.468
G1 X40.451 Y12.724
G3 X38.279 Y13.115 I-1.098 J0.129
G2 X22.889 Y-2.279 I-20.349 J4.955
G1 X22.833 Y-2.285
X2.971 Y-2.323
X2.92 Y-2.318
X2.872 Y-2.302
X2.828 Y-2.276
G2 X-2.276 Y2.828 I15.102 J20.206
G3 X-3.842 Y3.037 I-0.885 J-0.662
X-4.017 Y1.466 I0.681 J-0.871
G1 X-1.86 Y-1.169
G3 X-1.471 Y-1.471 I0.855 J0.7
G1 X2.166 Y-3.161
G3 X2.502 Y-3.257 I0.466 J1.003
G1 X12.604 Y-4.449
G3 X12.997 Y-2.278 I0.13 J1.098
G2 X3.19 Y3.289 I4.933 J20.111
X-2.279 Y13.1 I14.98 J14.781
X-0.64 Y17.108 I3.587 J0.872
G3 X1.762 Y20.709 I-2.763 J4.445
G2 X18 Y34.452 I16.168 J-2.639
X18 Y1.548 I0 J-16.452
X1.548 Y18.07 I0 J16.452
X1.762 Y20.709 I16.382 J0
X5.034 Y23.859 I3.74 J-0.611
G3 X9.056 Y25.97 I-0.797 J6.405
G2 X26.944 Y10.03 I8.944 J-7.97
X18 Y6.02 I-8.944 J7.97
G1 X17.93
G2 X6.02 Y18 I0.07 J11.98
X9.056 Y25.97 I11.98 J0
G3 X8.982 Y26.343 I-0.178 J0.158
G1 X-2.728 Y31.998
G2 X-2.815 Y32.354 I0.103 J0.214
G1 X-2.767 Y32.419 Z-1.807 F50
X-2.72 Y32.482 Z-1.827
X-2.676 Y32.541 Z-1.861
X-2.636 Y32.595 Z-1.906
X-2.602 Y32.641 Z-1.962
X-2.573 Y32.68 Z-2.028
X-2.551 Y32.709 Z-2.1
X-2.53 Y32.738 Z-2.172
X-2.501 Y32.776 Z-2.238
X-2.466 Y32.823 Z-2.294
X-2.426 Y32.877 Z-2.339
X-2.382 Y32.936 Z-2.373
X-2.335 Y32.999 Z-2.393
X-2.287 Y33.064 Z-2.4
X-2.276 Y33.079
G2 X2.925 Y38.279 I20.346 J-15.148 F150
G3 X3.137 Y39.846 I-0.66 J0.887
X1.565 Y40.021 I-0.871 J-0.68
G1 X-1.128 Y37.817
G3 X-1.428 Y37.432 I0.7 J-0.855
G1 X-3.163 Y33.739
G3 X-3.26 Y33.399 I1.001 J-0.47
G1 X-4.45 Y23.407
G3 X-2.278 Y23.014 I1.098 J-0.131
G2 X12.988 Y38.279 I20.208 J-4.944
G1 X13.044 Y38.285
X32.983 Y38.323
X33.033 Y38.318
X33.082 Y38.302
X33.125 Y38.276
G2 X38.274 Y33.128 I-15.125 J-20.276
G3 X39.841 Y32.918 I0.886 J0.661
X40.016 Y34.489 I-0.681 J0.871
G1 X37.837 Y37.15
G3 X37.449 Y37.452 I-0.855 J-0.7
G1 X33.786 Y39.162
G3 X33.448 Y39.258 I-0.468 J-1.002
G1 X23.336 Y40.452
G3 X22.944 Y38.28 I-0.13 J-1.098
G2 X38.28 Y22.945 I-4.944 J-20.28
G1 X38.287 Y22.889
X38.323 Y3.017
X38.318 Y2.967
X38.302 Y2.918
X38.276 Y2.875
G2 X33.128 Y-2.274 I-20.276 J15.125
G3 X32.918 Y-3.841 I0.661 J-0.886
X34.489 Y-4.016 I0.871 J0.681
G1 X37.15 Y-1.837
G3 X37.452 Y-1.449 I-0.7 J0.855
G1 X39.162 Y2.214
G3 X39.258 Y2.553 I-1.002 J0.468
G1 X40.451 Y12.724
G3 X38.279 Y13.115 I-1.098 J0.129
G2 X22.889 Y-2.279 I-20.349 J4.955
G1 X22.833 Y-2.285
X2.971 Y-2.323
X2.92 Y-2.318
X2.872 Y-2.302
X2.828 Y-2.276
G2 X-2.276 Y2.828 I15.102 J20.206
G3 X-3.842 Y3.037 I-0.885 J-0.662
X-4.017 Y1.466 I0.681 J-0.871
G1 X-1.86 Y-1.169
G3 X-1.471 Y-1.471 I0.855 J0.7
G1 X2.166 Y-3.161
G3 X2.502 Y-3.257 I0.466 J1.003
G1 X12.604 Y-4.449
G3 X12.997 Y-2.278 I0.13 J1.098
G2 X3.19 Y3.289 I4.933 J20.111
X-2.279 Y13.1 I14.98 J14.781
X-0.64 Y17.108 I3.587 J0.872
G3 X1.762 Y20.709 I-2.763 J4.445
G2 X18 Y34.452 I16.168 J-2.639
X18 Y1.548 I0 J-16.452
X1.548 Y18.07 I0 J16.452
X1.762 Y20.709 I16.382 J0
X5.034 Y23.859 I3.74 J-0.611
G3 X9.056 Y25.97 I-0.797 J6.405
G2 X26.944 Y10.03 I8.944 J-7.97
X18 Y6.02 I-8.944 J7.97
G1 X17.93
G2 X6.02 Y18 I0.07 J11.98
X9.056 Y25.97 I11.98 J0
G3 X8.982 Y26.343 I-0.178 J0.158
G1 X-2.728 Y31.998
G2 X-2.815 Y32.354 I0.103 J0.214
G1 X-2.767 Y32.419 Z-2.407 F50
X-2.72 Y32.482 Z-2.427
X-2.676 Y32.541 Z-2.461
X-2.636 Y32.595 Z-2.506
X-2.602 Y32.641 Z-2.562
X-2.573 Y32.68 Z-2.628
X-2.551 Y32.709 Z-2.7
X-2.53 Y32.738 Z-2.772
X-2.501 Y32.776 Z-2.838
X-2.466 Y32.823 Z-2.894
X-2.426 Y32.877 Z-2.939
X-2.382 Y32.936 Z-2.973
X-2.335 Y32.999 Z-2.993
X-2.287 Y33.064 Z-3
X-2.276 Y33.079
G2 X2.925 Y38.279 I20.346 J-15.148 F150
G3 X3.137 Y39.846 I-0.66 J0.887
X1.565 Y40.021 I-0.871 J-0.68
G1 X-1.128 Y37.817
G3 X-1.428 Y37.432 I0.7 J-0.855
G1 X-3.163 Y33.739
G3 X-3.26 Y33.399 I1.001 J-0.47
G1 X-4.45 Y23.407
G3 X-2.278 Y23.014 I1.098 J-0.131
G2 X12.988 Y38.279 I20.208 J-4.944
G1 X13.044 Y38.285
X32.983 Y38.323
X33.033 Y38.318
X33.082 Y38.302
X33.125 Y38.276
G2 X38.274 Y33.128 I-15.125 J-20.276
G3 X39.841 Y32.918 I0.886 J0.661
X40.016 Y34.489 I-0.681 J0.871
G1 X37.837 Y37.15
G3 X37.449 Y37.452 I-0.855 J-0.7
G1 X33.786 Y39.162
G3 X33.448 Y39.258 I-0.468 J-1.002
G1 X23.336 Y40.452
G3 X22.944 Y38.28 I-0.13 J-1.098
G2 X38.28 Y22.945 I-4.944 J-20.28
G1 X38.287 Y22.889
X38.323 Y3.017
X38.318 Y2.967
X38.302 Y2.918
X38.276 Y2.875
G2 X33.128 Y-2.274 I-20.276 J15.125
G3 X32.918 Y-3.841 I0.661 J-0.886
X34.489 Y-4.016 I0.871 J0.681
G1 X37.15 Y-1.837
G3 X37.452 Y-1.449 I-0.7 J0.855
G1 X39.162 Y2.214
G3 X39.258 Y2.553 I-1.002 J0.468
G1 X40.451 Y12.724
G3 X38.279 Y13.115 I-1.098 J0.129
G2 X22.889 Y-2.279 I-20.349 J4.955
G1 X22.833 Y-2.285
X2.971 Y-2.323
X2.92 Y-2.318
X2.872 Y-2.302
X2.828 Y-2.276
G2 X-2.276 Y2.828 I15.102 J20.206
G3 X-3.842 Y3.037 I-0.885 J-0.662
X-4.017 Y1.466 I0.681 J-0.871
G1 X-1.86 Y-1.169
G3 X-1.471 Y-1.471 I0.855 J0.7
G1 X2.166 Y-3.161
G3 X2.502 Y-3.257 I0.466 J1.003
G1 X12.604 Y-4.449
G3 X12.997 Y-2.278 I0.13 J1.098
G2 X3.19 Y3.289 I4.933 J20.111
X-2.279 Y13.1 I14.98 J14.781
X-0.64 Y17.108 I3.587 J0.872
G3 X1.762 Y20.709 I-2.763 J4.445
G2 X18 Y34.452 I16.168 J-2.639
X18 Y1.548 I0 J-16.452
X1.548 Y18.07 I0 J16.452
X1.762 Y20.709 I16.382 J0
X5.034 Y23.859 I3.74 J-0.611
G3 X9.056 Y25.97 I-0.797 J6.405
G2 X26.944 Y10.03 I8.944 J-7.97
X18 Y6.02 I-8.944 J7.97
G1 X17.93
G2 X6.02 Y18 I0.07 J11.98
X9.056 Y25.97 I11.98 J0
G3 X8.982 Y26.343 I-0.178 J0.158
G1 X-2.728 Y31.998
G2 X-2.815 Y32.354 I0.103 J0.214
G1 X-2.767 Y32.419 Z-3.007 F50
X-2.72 Y32.482 Z-3.027
X-2.676 Y32.541 Z-3.061
X-2.636 Y32.595 Z-3.106
X-2.602 Y32.641 Z-3.162
X-2.573 Y32.68 Z-3.228
X-2.551 Y32.709 Z-3.3
X-2.53 Y32.738 Z-3.372
X-2.501 Y32.776 Z-3.438
X-2.466 Y32.823 Z-3.494
X-2.426 Y32.877 Z-3.539
X-2.382 Y32.936 Z-3.573
X-2.335 Y32.999 Z-3.593
X-2.287 Y33.064 Z-3.6
X-2.276 Y33.079
G2 X2.925 Y38.279 I20.346 J-15.148 F150
G3 X3.137 Y39.846 I-0.66 J0.887
X1.565 Y40.021 I-0.871 J-0.68
G1 X-1.128 Y37.817
G3 X-1.428 Y37.432 I0.7 J-0.855
G1 X-3.163 Y33.739
G3 X-3.26 Y33.399 I1.001 J-0.47
G1 X-4.45 Y23.407
G3 X-2.278 Y23.014 I1.098 J-0.131
G2 X12.988 Y38.279 I20.208 J-4.944
G1 X13.044 Y38.285
X32.983 Y38.323
X33.033 Y38.318
X33.082 Y38.302
X33.125 Y38.276
G2 X38.274 Y33.128 I-15.125 J-20.276
G3 X39.841 Y32.918 I0.886 J0.661
X40.016 Y34.489 I-0.681 J0.871
G1 X37.837 Y37.15
G3 X37.449 Y37.452 I-0.855 J-0.7
G1 X33.786 Y39.162
G3 X33.448 Y39.258 I-0.468 J-1.002
G1 X23.336 Y40.452
G3 X22.944 Y38.28 I-0.13 J-1.098
G2 X38.28 Y22.945 I-4.944 J-20.28
G1 X38.287 Y22.889
X38.323 Y3.017
X38.318 Y2.967
X38.302 Y2.918
X38.276 Y2.875
G2 X33.128 Y-2.274 I-20.276 J15.125
G3 X32.918 Y-3.841 I0.661 J-0.886
X34.489 Y-4.016 I0.871 J0.681
G1 X37.15 Y-1.837
G3 X37.452 Y-1.449 I-0.7 J0.855
G1 X39.162 Y2.214
G3 X39.258 Y2.553 I-1.002 J0.468
G1 X40.451 Y12.724
G3 X38.279 Y13.115 I-1.098 J0.129
G2 X22.889 Y-2.279 I-20.349 J4.955
G1 X22.833 Y-2.285
X2.971 Y-2.323
X2.92 Y-2.318
X2.872 Y-2.302
X2.828 Y-2.276
G2 X-2.276 Y2.828 I15.102 J20.206
G3 X-3.842 Y3.037 I-0.885 J-0.662
X-4.017 Y1.466 I0.681 J-0.871
G1 X-1.86 Y-1.169
G3 X-1.471 Y-1.471 I0.855 J0.7
G1 X2.166 Y-3.161
G3 X2.502 Y-3.257 I0.466 J1.003
G1 X12.604 Y-4.449
G3 X12.997 Y-2.278 I0.13 J1.098
G2 X3.19 Y3.289 I4.933 J20.111
X-2.279 Y13.1 I14.98 J14.781
X-0.64 Y17.108 I3.587 J0.872
G3 X1.762 Y20.709 I-2.763 J4.445
G2 X18 Y34.452 I16.168 J-2.639
X18 Y1.548 I0 J-16.452
X1.548 Y18.07 I0 J16.452
X1.762 Y20.709 I16.382 J0
X5.034 Y23.859 I3.74 J-0.611
G3 X9.056 Y25.97 I-0.797 J6.405
G2 X26.944 Y10.03 I8.944 J-7.97
X18 Y6.02 I-8.944 J7.97
G1 X17.93
G2 X6.02 Y18 I0.07 J11.98
X9.056 Y25.97 I11.98 J0
G3 X8.982 Y26.343 I-0.178 J0.158
G1 X-2.728 Y31.998
G2 X-2.815 Y32.354 I0.103 J0.214
G1 X-2.767 Y32.419 Z-3.607 F50
X-2.72 Y32.482 Z-3.627
X-2.676 Y32.541 Z-3.661
X-2.636 Y32.595 Z-3.706
X-2.602 Y32.641 Z-3.762
X-2.573 Y32.68 Z-3.828
X-2.551 Y32.709 Z-3.9
X-2.53 Y32.738 Z-3.972
X-2.501 Y32.776 Z-4.038
X-2.466 Y32.823 Z-4.094
X-2.426 Y32.877 Z-4.139
X-2.382 Y32.936 Z-4.173
X-2.335 Y32.999 Z-4.193
X-2.287 Y33.064 Z-4.2
X-2.276 Y33.079
G2 X2.925 Y38.279 I20.346 J-15.148 F150
G3 X3.137 Y39.846 I-0.66 J0.887
X1.565 Y40.021 I-0.871 J-0.68
G1 X-1.128 Y37.817
G3 X-1.428 Y37.432 I0.7 J-0.855
G1 X-3.163 Y33.739
G3 X-3.26 Y33.399 I1.001 J-0.47
G1 X-4.45 Y23.407
G3 X-2.278 Y23.014 I1.098 J-0.131
G2 X12.988 Y38.279 I20.208 J-4.944
G1 X13.044 Y38.285
X32.983 Y38.323
X33.033 Y38.318
X33.082 Y38.302
X33.125 Y38.276
G2 X38.274 Y33.128 I-15.125 J-20.276
G3 X39.841 Y32.918 I0.886 J0.661
X40.016 Y34.489 I-0.681 J0.871
G1 X37.837 Y37.15
G3 X37.449 Y37.452 I-0.855 J-0.7
G1 X33.786 Y39.162
G3 X33.448 Y39.258 I-0.468 J-1.002
G1 X23.336 Y40.452
G3 X22.944 Y38.28 I-0.13 J-1.098
G2 X38.28 Y22.945 I-4.944 J-20.28
G1 X38.287 Y22.889
X38.323 Y3.017
X38.318 Y2.967
X38.302 Y2.918
X38.276 Y2.875
G2 X33.128 Y-2.274 I-20.276 J15.125
G3 X32.918 Y-3.841 I0.661 J-0.886
X34.489 Y-4.016 I0.871 J0.681
G1 X37.15 Y-1.837
G3 X37.452 Y-1.449 I-0.7 J0.855
G1 X39.162 Y2.214
G3 X39.258 Y2.553 I-1.002 J0.468
G1 X40.451 Y12.724
G3 X38.279 Y13.115 I-1.098 J0.129
G2 X22.889 Y-2.279 I-20.349 J4.955
G1 X22.833 Y-2.285
X2.971 Y-2.323
X2.92 Y-2.318
X2.872 Y-2.302
X2.828 Y-2.276
G2 X-2.276 Y2.828 I15.102 J20.206
G3 X-3.842 Y3.037 I-0.885 J-0.662
X-4.017 Y1.466 I0.681 J-0.871
G1 X-1.86 Y-1.169
G3 X-1.471 Y-1.471 I0.855 J0.7
G1 X2.166 Y-3.161
G3 X2.502 Y-3.257 I0.466 J1.003
G1 X12.604 Y-4.449
G3 X12.997 Y-2.278 I0.13 J1.098
G2 X3.19 Y3.289 I4.933 J20.111
X-2.279 Y13.1 I14.98 J14.781
X-0.64 Y17.108 I3.587 J0.872
G3 X1.762 Y20.709 I-2.763 J4.445
G2 X18 Y34.452 I16.168 J-2.639
X18 Y1.548 I0 J-16.452
X1.548 Y18.07 I0 J16.452
X1.762 Y20.709 I16.382 J0
X5.034 Y23.859 I3.74 J-0.611
G3 X9.056 Y25.97 I-0.797 J6.405
G2 X26.944 Y10.03 I8.944 J-7.97
X18 Y6.02 I-8.944 J7.97
G1 X17.93
G2 X6.02 Y18 I0.07 J11.98
X9.056 Y25.97 I11.98 J0
G3 X8.982 Y26.343 I-0.178 J0.158
G1 X-2.728 Y31.998
G2 X-2.815 Y32.354 I0.103 J0.214
G1 X-2.767 Y32.419 Z-4.207 F50
X-2.72 Y32.482 Z-4.227
X-2.676 Y32.541 Z-4.261
X-2.636 Y32.595 Z-4.306
X-2.602 Y32.641 Z-4.362
X-2.573 Y32.68 Z-4.428
X-2.551 Y32.709 Z-4.5
X-2.53 Y32.738 Z-4.572
X-2.501 Y32.776 Z-4.638
X-2.466 Y32.823 Z-4.694
X-2.426 Y32.877 Z-4.739
X-2.382 Y32.936 Z-4.773
X-2.335 Y32.999 Z-4.793
X-2.287 Y33.064 Z-4.8
X-2.276 Y33.079
G2 X2.925 Y38.279 I20.346 J-15.148 F150
G3 X3.137 Y39.846 I-0.66 J0.887
X1.565 Y40.021 I-0.871 J-0.68
G1 X-1.128 Y37.817
G3 X-1.428 Y37.432 I0.7 J-0.855
G1 X-3.163 Y33.739
G3 X-3.26 Y33.399 I1.001 J-0.47
G1 X-4.45 Y23.407
G3 X-2.278 Y23.014 I1.098 J-0.131
G2 X12.988 Y38.279 I20.208 J-4.944
G1 X13.044 Y38.285
X32.983 Y38.323
X33.033 Y38.318
X33.082 Y38.302
X33.125 Y38.276
G2 X38.274 Y33.128 I-15.125 J-20.276
G3 X39.841 Y32.918 I0.886 J0.661
X40.016 Y34.489 I-0.681 J0.871
G1 X37.837 Y37.15
G3 X37.449 Y37.452 I-0.855 J-0.7
G1 X33.786 Y39.162
G3 X33.448 Y39.258 I-0.468 J-1.002
G1 X23.336 Y40.452
G3 X22.944 Y38.28 I-0.13 J-1.098
G2 X38.28 Y22.945 I-4.944 J-20.28
G1 X38.287 Y22.889
X38.323 Y3.017
X38.318 Y2.967
X38.302 Y2.918
X38.276 Y2.875
G2 X33.128 Y-2.274 I-20.276 J15.125
G3 X32.918 Y-3.841 I0.661 J-0.886
X34.489 Y-4.016 I0.871 J0.681
G1 X37.15 Y-1.837
G3 X37.452 Y-1.449 I-0.7 J0.855
G1 X39.162 Y2.214
G3 X39.258 Y2.553 I-1.002 J0.468
G1 X40.451 Y12.724
G3 X38.279 Y13.115 I-1.098 J0.129
G2 X22.889 Y-2.279 I-20.349 J4.955
G1 X22.833 Y-2.285
X2.971 Y-2.323
X2.92 Y-2.318
X2.872 Y-2.302
X2.828 Y-2.276
G2 X-2.276 Y2.828 I15.102 J20.206
G3 X-3.842 Y3.037 I-0.885 J-0.662
X-4.017 Y1.466 I0.681 J-0.871
G1 X-1.86 Y-1.169
G3 X-1.471 Y-1.471 I0.855 J0.7
G1 X2.166 Y-3.161
G3 X2.502 Y-3.257 I0.466 J1.003
G1 X12.604 Y-4.449
G3 X12.997 Y-2.278 I0.13 J1.098
G2 X3.19 Y3.289 I4.933 J20.111
X-2.279 Y13.1 I14.98 J14.781
X-0.64 Y17.108 I3.587 J0.872
G3 X1.762 Y20.709 I-2.763 J4.445
G2 X18 Y34.452 I16.168 J-2.639
X18 Y1.548 I0 J-16.452
X1.548 Y18.07 I0 J16.452
X1.762 Y20.709 I16.382 J0
X5.034 Y23.859 I3.74 J-0.611
G3 X9.056 Y25.97 I-0.797 J6.405
G2 X26.944 Y10.03 I8.944 J-7.97
X18 Y6.02 I-8.944 J7.97
G1 X17.93
G2 X6.02 Y18 I0.07 J11.98
X9.056 Y25.97 I11.98 J0
G3 X8.982 Y26.343 I-0.178 J0.158
G1 X-2.728 Y31.998
G2 X-2.815 Y32.354 I0.103 J0.214
G1 X-2.767 Y32.419 Z-4.807 F50
X-2.72 Y32.482 Z-4.827
X-2.676 Y32.541 Z-4.861
X-2.636 Y32.595 Z-4.906
X-2.602 Y32.641 Z-4.962
X-2.573 Y32.68 Z-5.028
X-2.551 Y32.709 Z-5.1
X-2.53 Y32.738 Z-5.172
X-2.501 Y32.776 Z-5.238
X-2.466 Y32.823 Z-5.294
X-2.426 Y32.877 Z-5.339
X-2.382 Y32.936 Z-5.373
X-2.335 Y32.999 Z-5.393
X-2.287 Y33.064 Z-5.4
X-2.276 Y33.079
G2 X2.925 Y38.279 I20.346 J-15.148 F150
G3 X3.137 Y39.846 I-0.66 J0.887
X1.565 Y40.021 I-0.871 J-0.68
G1 X-1.128 Y37.817
G3 X-1.428 Y37.432 I0.7 J-0.855
G1 X-3.163 Y33.739
G3 X-3.26 Y33.399 I1.001 J-0.47
G1 X-4.45 Y23.407
G3 X-2.278 Y23.014 I1.098 J-0.131
G2 X12.988 Y38.279 I20.208 J-4.944
G1 X13.044 Y38.285
X32.983 Y38.323
X33.033 Y38.318
X33.082 Y38.302
X33.125 Y38.276
G2 X38.274 Y33.128 I-15.125 J-20.276
G3 X39.841 Y32.918 I0.886 J0.661
X40.016 Y34.489 I-0.681 J0.871
G1 X37.837 Y37.15
G3 X37.449 Y37.452 I-0.855 J-0.7
G1 X33.786 Y39.162
G3 X33.448 Y39.258 I-0.468 J-1.002
G1 X23.336 Y40.452
G3 X22.944 Y38.28 I-0.13 J-1.098
G2 X38.28 Y22.945 I-4.944 J-20.28
G1 X38.287 Y22.889
X38.323 Y3.017
X38.318 Y2.967
X38.302 Y2.918
X38.276 Y2.875
G2 X33.128 Y-2.274 I-20.276 J15.125
G3 X32.918 Y-3.841 I0.661 J-0.886
X34.489 Y-4.016 I0.871 J0.681
G1 X37.15 Y-1.837
G3 X37.452 Y-1.449 I-0.7 J0.855
G1 X39.162 Y2.214
G3 X39.258 Y2.553 I-1.002 J0.468
G1 X40.451 Y12.724
G3 X38.279 Y13.115 I-1.098 J0.129
G2 X22.889 Y-2.279 I-20.349 J4.955
G1 X22.833 Y-2.285
X2.971 Y-2.323
X2.92 Y-2.318
X2.872 Y-2.302
X2.828 Y-2.276
G2 X-2.276 Y2.828 I15.102 J20.206
G3 X-3.842 Y3.037 I-0.885 J-0.662
X-4.017 Y1.466 I0.681 J-0.871
G1 X-1.86 Y-1.169
G3 X-1.471 Y-1.471 I0.855 J0.7
G1 X2.166 Y-3.161
G3 X2.502 Y-3.257 I0.466 J1.003
G1 X12.604 Y-4.449
G3 X12.997 Y-2.278 I0.13 J1.098
G2 X3.19 Y3.289 I4.933 J20.111
X-2.279 Y13.1 I14.98 J14.781
X-0.64 Y17.108 I3.587 J0.872
G3 X1.762 Y20.709 I-2.763 J4.445
G2 X18 Y34.452 I16.168 J-2.639
X18 Y1.548 I0 J-16.452
X1.548 Y18.07 I0 J16.452
X1.762 Y20.709 I16.382 J0
X5.034 Y23.859 I3.74 J-0.611
G3 X9.056 Y25.97 I-0.797 J6.405
G2 X26.944 Y10.03 I8.944 J-7.97
X18 Y6.02 I-8.944 J7.97
G1 X17.93
G2 X6.02 Y18 I0.07 J11.98
X9.056 Y25.97 I11.98 J0
G3 X8.982 Y26.343 I-0.178 J0.158
G1 X-2.728 Y31.998
G2 X-2.815 Y32.354 I0.103 J0.214
G1 X-2.767 Y32.419 Z-5.407 F50
X-2.72 Y32.482 Z-5.427
X-2.676 Y32.541 Z-5.461
X-2.636 Y32.595 Z-5.506
X-2.602 Y32.641 Z-5.562
X-2.573 Y32.68 Z-5.628
X-2.551 Y32.709 Z-5.7
X-2.53 Y32.738 Z-5.772
X-2.501 Y32.776 Z-5.838
X-2.466 Y32.823 Z-5.894
X-2.426 Y32.877 Z-5.939
X-2.382 Y32.936 Z-5.973
X-2.335 Y32.999 Z-5.993
X-2.287 Y33.064 Z-6
X-2.276 Y33.079
G2 X2.925 Y38.279 I20.346 J-15.148 F150
G3 X3.137 Y39.846 I-0.66 J0.887
X1.565 Y40.021 I-0.871 J-0.68
G1 X-1.128 Y37.817
G3 X-1.428 Y37.432 I0.7 J-0.855
G1 X-3.163 Y33.739
G3 X-3.26 Y33.399 I1.001 J-0.47
G1 X-4.45 Y23.407
G3 X-2.278 Y23.014 I1.098 J-0.131
G2 X12.988 Y38.279 I20.208 J-4.944
G1 X13.044 Y38.285
X32.983 Y38.323
X33.033 Y38.318
X33.082 Y38.302
X33.125 Y38.276
G2 X38.274 Y33.128 I-15.125 J-20.276
G3 X39.841 Y32.918 I0.886 J0.661
X40.016 Y34.489 I-0.681 J0.871
G1 X37.837 Y37.15
G3 X37.449 Y37.452 I-0.855 J-0.7
G1 X33.786 Y39.162
G3 X33.448 Y39.258 I-0.468 J-1.002
G1 X23.336 Y40.452
G3 X22.944 Y38.28 I-0.13 J-1.098
G2 X38.28 Y22.945 I-4.944 J-20.28
G1 X38.287 Y22.889
X38.323 Y3.017
X38.318 Y2.967
X38.302 Y2.918
X38.276 Y2.875
G2 X33.128 Y-2.274 I-20.276 J15.125
G3 X32.918 Y-3.841 I0.661 J-0.886
X34.489 Y-4.016 I0.871 J0.681
G1 X37.15 Y-1.837
G3 X37.452 Y-1.449 I-0.7 J0.855
G1 X39.162 Y2.214
G3 X39.258 Y2.553 I-1.002 J0.468
G1 X40.451 Y12.724
G3 X38.279 Y13.115 I-1.098 J0.129
G2 X22.889 Y-2.279 I-20.349 J4.955
G1 X22.833 Y-2.285
X2.971 Y-2.323
X2.92 Y-2.318
X2.872 Y-2.302
X2.828 Y-2.276
G2 X-2.276 Y2.828 I15.102 J20.206
G3 X-3.842 Y3.037 I-0.885 J-0.662
X-4.017 Y1.466 I0.681 J-0.871
G1 X-1.86 Y-1.169
G3 X-1.471 Y-1.471 I0.855 J0.7
G1 X2.166 Y-3.161
G3 X2.502 Y-3.257 I0.466 J1.003
G1 X12.604 Y-4.449
G3 X12.997 Y-2.278 I0.13 J1.098
G2 X3.19 Y3.289 I4.933 J20.111
X-2.279 Y13.1 I14.98 J14.781
X-0.64 Y17.108 I3.587 J0.872
G3 X1.762 Y20.709 I-2.763 J4.445
G2 X18 Y34.452 I16.168 J-2.639
X18 Y1.548 I0 J-16.452
X1.548 Y18.07 I0 J16.452
X1.762 Y20.709 I16.382 J0
X5.034 Y23.859 I3.74 J-0.611
G3 X9.056 Y25.97 I-0.797 J6.405
G2 X26.944 Y10.03 I8.944 J-7.97
X18 Y6.02 I-8.944 J7.97
G1 X17.93
G2 X6.02 Y18 I0.07 J11.98
X9.056 Y25.97 I11.98 J0
G3 X8.982 Y26.343 I-0.178 J0.158
G1 X-2.728 Y31.998
G2 X-2.815 Y32.354 I0.103 J0.214
G1 X-2.767 Y32.419 Z-6.007 F50
X-2.72 Y32.482 Z-6.027
X-2.676 Y32.541 Z-6.061
X-2.636 Y32.595 Z-6.106
X-2.602 Y32.641 Z-6.162
X-2.573 Y32.68 Z-6.228
X-2.551 Y32.709 Z-6.3
X-2.53 Y32.738 Z-6.372
X-2.501 Y32.776 Z-6.438
X-2.466 Y32.823 Z-6.494
X-2.426 Y32.877 Z-6.539
X-2.382 Y32.936 Z-6.573
X-2.335 Y32.999 Z-6.593
X-2.287 Y33.064 Z-6.6
X-2.276 Y33.079
G2 X2.925 Y38.279 I20.346 J-15.148 F150
G3 X3.137 Y39.846 I-0.66 J0.887
X1.565 Y40.021 I-0.871 J-0.68
G1 X-1.128 Y37.817
G3 X-1.428 Y37.432 I0.7 J-0.855
G1 X-3.163 Y33.739
G3 X-3.26 Y33.399 I1.001 J-0.47
G1 X-4.45 Y23.407
G3 X-2.278 Y23.014 I1.098 J-0.131
G2 X12.988 Y38.279 I20.208 J-4.944
G1 X13.044 Y38.285
X32.983 Y38.323
X33.033 Y38.318
X33.082 Y38.302
X33.125 Y38.276
G2 X38.274 Y33.128 I-15.125 J-20.276
G3 X39.841 Y32.918 I0.886 J0.661
X40.016 Y34.489 I-0.681 J0.871
G1 X37.837 Y37.15
G3 X37.449 Y37.452 I-0.855 J-0.7
G1 X33.786 Y39.162
G3 X33.448 Y39.258 I-0.468 J-1.002
G1 X23.336 Y40.452
G3 X22.944 Y38.28 I-0.13 J-1.098
G2 X38.28 Y22.945 I-4.944 J-20.28
G1 X38.287 Y22.889
X38.323 Y3.017
X38.318 Y2.967
X38.302 Y2.918
X38.276 Y2.875
G2 X33.128 Y-2.274 I-20.276 J15.125
G3 X32.918 Y-3.841 I0.661 J-0.886
X34.489 Y-4.016 I0.871 J0.681
G1 X37.15 Y-1.837
G3 X37.452 Y-1.449 I-0.7 J0.855
G1 X39.162 Y2.214
G3 X39.258 Y2.553 I-1.002 J0.468
G1 X40.451 Y12.724
G3 X38.279 Y13.115 I-1.098 J0.129
G2 X22.889 Y-2.279 I-20.349 J4.955
G1 X22.833 Y-2.285
X2.971 Y-2.323
X2.92 Y-2.318
X2.872 Y-2.302
X2.828 Y-2.276
G2 X-2.276 Y2.828 I15.102 J20.206
G3 X-3.842 Y3.037 I-0.885 J-0.662
X-4.017 Y1.466 I0.681 J-0.871
G1 X-1.86 Y-1.169
G3 X-1.471 Y-1.471 I0.855 J0.7
G1 X2.166 Y-3.161
G3 X2.502 Y-3.257 I0.466 J1.003
G1 X12.604 Y-4.449
G3 X12.997 Y-2.278 I0.13 J1.098
G2 X3.19 Y3.289 I4.933 J20.111
X-2.279 Y13.1 I14.98 J14.781
X-0.64 Y17.108 I3.587 J0.872
G3 X1.762 Y20.709 I-2.763 J4.445
G2 X18 Y34.452 I16.168 J-2.639
X18 Y1.548 I0 J-16.452
X1.548 Y18.07 I0 J16.452
X1.762 Y20.709 I16.382 J0
X5.034 Y23.859 I3.74 J-0.611
G3 X9.056 Y25.97 I-0.797 J6.405
G2 X26.944 Y10.03 I8.944 J-7.97
X18 Y6.02 I-8.944 J7.97
G1 X17.93
G2 X6.02 Y18 I0.07 J11.98
X9.056 Y25.97 I11.98 J0
G3 X8.982 Y26.343 I-0.178 J0.158
G1 X-2.728 Y31.998
G2 X-2.815 Y32.354 I0.103 J0.214
G1 X-2.767 Y32.419 Z-6.607 F50
X-2.72 Y32.482 Z-6.627
X-2.676 Y32.541 Z-6.661
X-2.636 Y32.595 Z-6.706
X-2.602 Y32.641 Z-6.762
X-2.573 Y32.68 Z-6.828
X-2.551 Y32.709 Z-6.9
X-2.53 Y32.738 Z-6.972
X-2.501 Y32.776 Z-7.038
X-2.466 Y32.823 Z-7.094
X-2.426 Y32.877 Z-7.139
X-2.382 Y32.936 Z-7.173
X-2.335 Y32.999 Z-7.193
X-2.287 Y33.064 Z-7.2
X-2.276 Y33.079
G2 X2.925 Y38.279 I20.346 J-15.148 F150
G3 X3.137 Y39.846 I-0.66 J0.887
X1.565 Y40.021 I-0.871 J-0.68
G1 X-1.128 Y37.817
G3 X-1.428 Y37.432 I0.7 J-0.855
G1 X-3.163 Y33.739
G3 X-3.26 Y33.399 I1.001 J-0.47
G1 X-4.45 Y23.407
G3 X-2.278 Y23.014 I1.098 J-0.131
G2 X12.988 Y38.279 I20.208 J-4.944
G1 X13.044 Y38.285
X32.983 Y38.323
X33.033 Y38.318
X33.082 Y38.302
X33.125 Y38.276
G2 X38.274 Y33.128 I-15.125 J-20.276
G3 X39.841 Y32.918 I0.886 J0.661
X40.016 Y34.489 I-0.681 J0.871
G1 X37.837 Y37.15
G3 X37.449 Y37.452 I-0.855 J-0.7
G1 X33.786 Y39.162
G3 X33.448 Y39.258 I-0.468 J-1.002
G1 X23.336 Y40.452
G3 X22.944 Y38.28 I-0.13 J-1.098
G2 X38.28 Y22.945 I-4.944 J-20.28
G1 X38.287 Y22.889
X38.323 Y3.017
X38.318 Y2.967
X38.302 Y2.918
X38.276 Y2.875
G2 X33.128 Y-2.274 I-20.276 J15.125
G3 X32.918 Y-3.841 I0.661 J-0.886
X34.489 Y-4.016 I0.871 J0.681
G1 X37.15 Y-1.837
G3 X37.452 Y-1.449 I-0.7 J0.855
G1 X39.162 Y2.214
G3 X39.258 Y2.553 I-1.002 J0.468
G1 X40.451 Y12.724
G3 X38.279 Y13.115 I-1.098 J0.129
G2 X22.889 Y-2.279 I-20.349 J4.955
G1 X22.833 Y-2.285
X2.971 Y-2.323
X2.92 Y-2.318
X2.872 Y-2.302
X2.828 Y-2.276
G2 X-2.276 Y2.828 I15.102 J20.206
G3 X-3.842 Y3.037 I-0.885 J-0.662
X-4.017 Y1.466 I0.681 J-0.871
G1 X-1.86 Y-1.169
G3 X-1.471 Y-1.471 I0.855 J0.7
G1 X2.166 Y-3.161
G3 X2.502 Y-3.257 I0.466 J1.003
G1 X12.604 Y-4.449
G3 X12.997 Y-2.278 I0.13 J1.098
G2 X3.19 Y3.289 I4.933 J20.111
X-2.279 Y13.1 I14.98 J14.781
X-0.64 Y17.108 I3.587 J0.872
G3 X1.762 Y20.709 I-2.763 J4.445
G2 X18 Y34.452 I16.168 J-2.639
X18 Y1.548 I0 J-16.452
X1.548 Y18.07 I0 J16.452
X1.762 Y20.709 I16.382 J0
X5.034 Y23.859 I3.74 J-0.611
G3 X9.056 Y25.97 I-0.797 J6.405
G2 X26.944 Y10.03 I8.944 J-7.97
X18 Y6.02 I-8.944 J7.97
G1 X17.93
G2 X6.02 Y18 I0.07 J11.98
X9.056 Y25.97 I11.98 J0
G3 X8.982 Y26.343 I-0.178 J0.158
G1 X-2.728 Y31.998
G2 X-2.815 Y32.354 I0.103 J0.214
G1 X-2.767 Y32.419 Z-7.207 F50
X-2.72 Y32.482 Z-7.227
X-2.676 Y32.541 Z-7.261
X-2.636 Y32.595 Z-7.306
X-2.602 Y32.641 Z-7.362
X-2.573 Y32.68 Z-7.428
X-2.551 Y32.709 Z-7.5
X-2.53 Y32.738 Z-7.572
X-2.501 Y32.776 Z-7.638
X-2.466 Y32.823 Z-7.694
X-2.426 Y32.877 Z-7.739
X-2.382 Y32.936 Z-7.773
X-2.335 Y32.999 Z-7.793
X-2.287 Y33.064 Z-7.8
X-2.276 Y33.079
G2 X2.925 Y38.279 I20.346 J-15.148 F150
G3 X3.137 Y39.846 I-0.66 J0.887
X1.565 Y40.021 I-0.871 J-0.68
G1 X-1.128 Y37.817
G3 X-1.428 Y37.432 I0.7 J-0.855
G1 X-3.163 Y33.739
G3 X-3.26 Y33.399 I1.001 J-0.47
G1 X-4.45 Y23.407
G3 X-2.278 Y23.014 I1.098 J-0.131
G2 X12.988 Y38.279 I20.208 J-4.944
G1 X13.044 Y38.285
X32.983 Y38.323
X33.033 Y38.318
X33.082 Y38.302
X33.125 Y38.276
G2 X38.274 Y33.128 I-15.125 J-20.276
G3 X39.841 Y32.918 I0.886 J0.661
X40.016 Y34.489 I-0.681 J0.871
G1 X37.837 Y37.15
G3 X37.449 Y37.452 I-0.855 J-0.7
G1 X33.786 Y39.162
G3 X33.448 Y39.258 I-0.468 J-1.002
G1 X23.336 Y40.452
G3 X22.944 Y38.28 I-0.13 J-1.098
G2 X38.28 Y22.945 I-4.944 J-20.28
G1 X38.287 Y22.889
X38.323 Y3.017
X38.318 Y2.967
X38.302 Y2.918
X38.276 Y2.875
G2 X33.128 Y-2.274 I-20.276 J15.125
G3 X32.918 Y-3.841 I0.661 J-0.886
X34.489 Y-4.016 I0.871 J0.681
G1 X37.15 Y-1.837
G3 X37.452 Y-1.449 I-0.7 J0.855
G1 X39.162 Y2.214
G3 X39.258 Y2.553 I-1.002 J0.468
G1 X40.451 Y12.724
G3 X38.279 Y13.115 I-1.098 J0.129
G2 X22.889 Y-2.279 I-20.349 J4.955
G1 X22.833 Y-2.285
X2.971 Y-2.323
X2.92 Y-2.318
X2.872 Y-2.302
X2.828 Y-2.276
G2 X-2.276 Y2.828 I15.102 J20.206
G3 X-3.842 Y3.037 I-0.885 J-0.662
X-4.017 Y1.466 I0.681 J-0.871
G1 X-1.86 Y-1.169
G3 X-1.471 Y-1.471 I0.855 J0.7
G1 X2.166 Y-3.161
G3 X2.502 Y-3.257 I0.466 J1.003
G1 X12.604 Y-4.449
G3 X12.997 Y-2.278 I0.13 J1.098
G2 X3.19 Y3.289 I4.933 J20.111
X-2.279 Y13.1 I14.98 J14.781
X-0.64 Y17.108 I3.587 J0.872
G3 X1.762 Y20.709 I-2.763 J4.445
G2 X18 Y34.452 I16.168 J-2.639
X18 Y1.548 I0 J-16.452
X1.548 Y18.07 I0 J16.452
X1.762 Y20.709 I16.382 J0
X5.034 Y23.859 I3.74 J-0.611
G3 X9.056 Y25.97 I-0.797 J6.405
G2 X26.944 Y10.03 I8.944 J-7.97
X18 Y6.02 I-8.944 J7.97
G1 X17.93
G2 X6.02 Y18 I0.07 J11.98
X9.056 Y25.97 I11.98 J0
G3 X8.982 Y26.343 I-0.178 J0.158
G1 X-2.728 Y31.998
G2 X-2.815 Y32.354 I0.103 J0.214
G1 X-2.767 Y32.419 Z-7.807 F50
X-2.72 Y32.482 Z-7.827
X-2.676 Y32.541 Z-7.861
X-2.636 Y32.595 Z-7.906
X-2.602 Y32.641 Z-7.962
X-2.573 Y32.68 Z-8.028
X-2.551 Y32.709 Z-8.1
X-2.53 Y32.738 Z-8.172
X-2.501 Y32.776 Z-8.238
X-2.466 Y32.823 Z-8.294
X-2.426 Y32.877 Z-8.339
X-2.382 Y32.936 Z-8.373
X-2.335 Y32.999 Z-8.393
X-2.287 Y33.064 Z-8.4
X-2.276 Y33.079
G2 X2.925 Y38.279 I20.346 J-15.148 F150
G3 X3.137 Y39.846 I-0.66 J0.887
X1.565 Y40.021 I-0.871 J-0.68
G1 X-1.128 Y37.817
G3 X-1.428 Y37.432 I0.7 J-0.855
G1 X-3.163 Y33.739
G3 X-3.26 Y33.399 I1.001 J-0.47
G1 X-4.45 Y23.407
G3 X-2.278 Y23.014 I1.098 J-0.131
G2 X12.988 Y38.279 I20.208 J-4.944
G1 X13.044 Y38.285
X32.983 Y38.323
X33.033 Y38.318
X33.082 Y38.302
X33.125 Y38.276
G2 X38.274 Y33.128 I-15.125 J-20.276
G3 X39.841 Y32.918 I0.886 J0.661
X40.016 Y34.489 I-0.681 J0.871
G1 X37.837 Y37.15
G3 X37.449 Y37.452 I-0.855 J-0.7
G1 X33.786 Y39.162
G3 X33.448 Y39.258 I-0.468 J-1.002
G1 X23.336 Y40.452
G3 X22.944 Y38.28 I-0.13 J-1.098
G2 X38.28 Y22.945 I-4.944 J-20.28
G1 X38.287 Y22.889
X38.323 Y3.017
X38.318 Y2.967
X38.302 Y2.918
X38.276 Y2.875
G2 X33.128 Y-2.274 I-20.276 J15.125
G3 X32.918 Y-3.841 I0.661 J-0.886
X34.489 Y-4.016 I0.871 J0.681
G1 X37.15 Y-1.837
G3 X37.452 Y-1.449 I-0.7 J0.855
G1 X39.162 Y2.214
G3 X39.258 Y2.553 I-1.002 J0.468
G1 X40.451 Y12.724
G3 X38.279 Y13.115 I-1.098 J0.129
G2 X22.889 Y-2.279 I-20.349 J4.955
G1 X22.833 Y-2.285
X2.971 Y-2.323
X2.92 Y-2.318
X2.872 Y-2.302
X2.828 Y-2.276
G2 X-2.276 Y2.828 I15.102 J20.206
G3 X-3.842 Y3.037 I-0.885 J-0.662
X-4.017 Y1.466 I0.681 J-0.871
G1 X-1.86 Y-1.169
G3 X-1.471 Y-1.471 I0.855 J0.7
G1 X2.166 Y-3.161
G3 X2.502 Y-3.257 I0.466 J1.003
G1 X12.604 Y-4.449
G3 X12.997 Y-2.278 I0.13 J1.098
G2 X3.19 Y3.289 I4.933 J20.111
X-2.279 Y13.1 I14.98 J14.781
X-0.64 Y17.108 I3.587 J0.872
G3 X1.762 Y20.709 I-2.763 J4.445
G2 X18 Y34.452 I16.168 J-2.639
X18 Y1.548 I0 J-16.452
X1.548 Y18.07 I0 J16.452
X1.762 Y20.709 I16.382 J0
X5.034 Y23.859 I3.74 J-0.611
G3 X9.056 Y25.97 I-0.797 J6.405
G2 X26.944 Y10.03 I8.944 J-7.97
X18 Y6.02 I-8.944 J7.97
G1 X17.93
G2 X6.02 Y18 I0.07 J11.98
X9.056 Y25.97 I11.98 J0
G3 X8.982 Y26.343 I-0.178 J0.158
G1 X-2.728 Y31.998
G2 X-2.815 Y32.354 I0.103 J0.214
G1 X-2.767 Y32.419 Z-8.407 F50
X-2.72 Y32.482 Z-8.427
X-2.676 Y32.541 Z-8.461
X-2.636 Y32.595 Z-8.506
X-2.602 Y32.641 Z-8.562
X-2.573 Y32.68 Z-8.628
X-2.551 Y32.709 Z-8.7
X-2.53 Y32.738 Z-8.772
X-2.501 Y32.776 Z-8.838
X-2.466 Y32.823 Z-8.894
X-2.426 Y32.877 Z-8.939
X-2.382 Y32.936 Z-8.973
X-2.335 Y32.999 Z-8.993
X-2.287 Y33.064 Z-9
X-2.276 Y33.079
G2 X2.925 Y38.279 I20.346 J-15.148 F150
G3 X3.137 Y39.846 I-0.66 J0.887
X1.565 Y40.021 I-0.871 J-0.68
G1 X-1.128 Y37.817
G3 X-1.428 Y37.432 I0.7 J-0.855
G1 X-3.163 Y33.739
G3 X-3.26 Y33.399 I1.001 J-0.47
G1 X-4.45 Y23.407
G3 X-2.278 Y23.014 I1.098 J-0.131
G2 X12.988 Y38.279 I20.208 J-4.944
G1 X13.044 Y38.285
X32.983 Y38.323
X33.033 Y38.318
X33.082 Y38.302
X33.125 Y38.276
G2 X38.274 Y33.128 I-15.125 J-20.276
G3 X39.841 Y32.918 I0.886 J0.661
X40.016 Y34.489 I-0.681 J0.871
G1 X37.837 Y37.15
G3 X37.449 Y37.452 I-0.855 J-0.7
G1 X33.786 Y39.162
G3 X33.448 Y39.258 I-0.468 J-1.002
G1 X23.336 Y40.452
G3 X22.944 Y38.28 I-0.13 J-1.098
G2 X38.28 Y22.945 I-4.944 J-20.28
G1 X38.287 Y22.889
X38.323 Y3.017
X38.318 Y2.967
X38.302 Y2.918
X38.276 Y2.875
G2 X33.128 Y-2.274 I-20.276 J15.125
G3 X32.918 Y-3.841 I0.661 J-0.886
X34.489 Y-4.016 I0.871 J0.681
G1 X37.15 Y-1.837
G3 X37.452 Y-1.449 I-0.7 J0.855
G1 X39.162 Y2.214
G3 X39.258 Y2.553 I-1.002 J0.468
G1 X40.451 Y12.724
G3 X38.279 Y13.115 I-1.098 J0.129
G2 X22.889 Y-2.279 I-20.349 J4.955
G1 X22.833 Y-2.285
X2.971 Y-2.323
X2.92 Y-2.318
X2.872 Y-2.302
X2.828 Y-2.276
G2 X-2.276 Y2.828 I15.102 J20.206
G3 X-3.842 Y3.037 I-0.885 J-0.662
X-4.017 Y1.466 I0.681 J-0.871
G1 X-1.86 Y-1.169
G3 X-1.471 Y-1.471 I0.855 J0.7
G1 X2.166 Y-3.161
G3 X2.502 Y-3.257 I0.466 J1.003
G1 X12.604 Y-4.449
G3 X12.997 Y-2.278 I0.13 J1.098
G2 X3.19 Y3.289 I4.933 J20.111
X-2.279 Y13.1 I14.98 J14.781
X-0.64 Y17.108 I3.587 J0.872
G3 X1.762 Y20.709 I-2.763 J4.445
G2 X18 Y34.452 I16.168 J-2.639
X18 Y1.548 I0 J-16.452
X1.548 Y18.07 I0 J16.452
X1.762 Y20.709 I16.382 J0
X5.034 Y23.859 I3.74 J-0.611
G3 X9.056 Y25.97 I-0.797 J6.405
G2 X26.944 Y10.03 I8.944 J-7.97
X18 Y6.02 I-8.944 J7.97
G1 X17.93
G2 X6.02 Y18 I0.07 J11.98
X9.056 Y25.97 I11.98 J0
G1 X9.093 Y26.018 Z-8.988
X9.124 Y26.07 Z-8.976
X9.148 Y26.126 Z-8.964
X9.169 Y26.2 Z-8.912
X9.176 Y26.277 Z-8.861
X9.175 Y26.328 Z-8.783
X9.167 Y26.379 Z-8.706
X9.159 Y26.415 Z-8.524
Z10
(When using Fusion 360 for Personal Use, the feedrate of)
(rapid moves is reduced to match the feedrate of cutting)
(moves, which can increase machining time. Unrestricted rapid)
(moves are available with a Fusion 360 Subscription.)

(2D Contour5)
G0 X18.476 Y-2.808
G1 Z10 F150
Z5
Z1.6 F25
Z-0.124
G19 G3 Y-2.332 Z-0.6 J0.476 K0 F150
G1 Y-1.856
G17 G3 X18 Y-1.38 I-0.476 J0
G2 X18 Y37.38 I0 J19.38
X18 Y-1.38 I0 J-19.38
G3 X17.524 Y-1.856 I0 J-0.476
G1 Y-2.332
G19 G2 Y-2.808 Z-0.124 J0 K0.476
G1 Z5
X18.476
Z1 F25
Z-0.724
G3 Y-2.332 Z-1.2 J0.476 K0 F150
G1 Y-1.856
G17 G3 X18 Y-1.38 I-0.476 J0
G2 X18 Y37.38 I0 J19.38
X18 Y-1.38 I0 J-19.38
G3 X17.524 Y-1.856 I0 J-0.476
G1 Y-2.332
G19 G2 Y-2.808 Z-0.724 J0 K0.476
G1 Z5
X18.476
Z0.4 F25
Z-1.324
G3 Y-2.332 Z-1.8 J0.476 K0 F150
G1 Y-1.856
G17 G3 X18 Y-1.38 I-0.476 J0
G2 X18 Y37.38 I0 J19.38
X18 Y-1.38 I0 J-19.38
G3 X17.524 Y-1.856 I0 J-0.476
G1 Y-2.332
G19 G2 Y-2.808 Z-1.324 J0 K0.476
G1 Z5
X18.476
Z-0.2 F25
Z-1.924
G3 Y-2.332 Z-2.4 J0.476 K0 F150
G1 Y-1.856
G17 G3 X18 Y-1.38 I-0.476 J0
G2 X18 Y37.38 I0 J19.38
X18 Y-1.38 I0 J-19.38
G3 X17.524 Y-1.856 I0 J-0.476
G1 Y-2.332
G19 G2 Y-2.808 Z-1.924 J0 K0.476
G1 Z5
X18.476
Z-0.8 F25
Z-2.524
G3 Y-2.332 Z-3 J0.476 K0 F150
G1 Y-1.856
G17 G3 X18 Y-1.38 I-0.476 J0
G2 X18 Y37.38 I0 J19.38
X18 Y-1.38 I0 J-19.38
G3 X17.524 Y-1.856 I0 J-0.476
G1 Y-2.332
G19 G2 Y-2.808 Z-2.524 J0 K0.476
G1 Z5
X18.476
Z-1.4 F25
Z-3.124
G3 Y-2.332 Z-3.6 J0.476 K0 F150
G1 Y-1.856
G17 G3 X18 Y-1.38 I-0.476 J0
G2 X18 Y37.38 I0 J19.38
X18 Y-1.38 I0 J-19.38
G3 X17.524 Y-1.856 I0 J-0.476
G1 Y-2.332
G19 G2 Y-2.808 Z-3.124 J0 K0.476
G1 Z5
X18.476
Z-2 F25
Z-3.724
G3 Y-2.332 Z-4.2 J0.476 K0 F150
G1 Y-1.856
G17 G3 X18 Y-1.38 I-0.476 J0
G2 X18 Y37.38 I0 J19.38
X18 Y-1.38 I0 J-19.38
G3 X17.524 Y-1.856 I0 J-0.476
G1 Y-2.332
G19 G2 Y-2.808 Z-3.724 J0 K0.476
G1 Z5
X18.476
Z-2.6 F25
Z-4.324
G3 Y-2.332 Z-4.8 J0.476 K0 F150
G1 Y-1.856
G17 G3 X18 Y-1.38 I-0.476 J0
G2 X18 Y37.38 I0 J19.38
X18 Y-1.38 I0 J-19.38
G3 X17.524 Y-1.856 I0 J-0.476
G1 Y-2.332
G19 G2 Y-2.808 Z-4.324 J0 K0.476
G1 Z5
X18.476
Z-3.2 F25
Z-4.924
G3 Y-2.332 Z-5.4 J0.476 K0 F150
G1 Y-1.856
G17 G3 X18 Y-1.38 I-0.476 J0
G2 X18 Y37.38 I0 J19.38
X18 Y-1.38 I0 J-19.38
G3 X17.524 Y-1.856 I0 J-0.476
G1 Y-2.332
G19 G2 Y-2.808 Z-4.924 J0 K0.476
G1 Z5
X18.476
Z-3.8 F25
Z-5.524
G3 Y-2.332 Z-6 J0.476 K0 F150
G1 Y-1.856
G17 G3 X18 Y-1.38 I-0.476 J0
G2 X18 Y37.38 I0 J19.38
X18 Y-1.38 I0 J-19.38
G3 X17.524 Y-1.856 I0 J-0.476
G1 Y-2.332
G19 G2 Y-2.808 Z-5.524 J0 K0.476
G1 Z5
X18.476
Z-4.4 F25
Z-6.124
G3 Y-2.332 Z-6.6 J0.476 K0 F150
G1 Y-1.856
G17 G3 X18 Y-1.38 I-0.476 J0
G2 X18 Y37.38 I0 J19.38
X18 Y-1.38 I0 J-19.38
G3 X17.524 Y-1.856 I0 J-0.476
G1 Y-2.332
G19 G2 Y-2.808 Z-6.124 J0 K0.476
G1 Z5
X18.476
Z-5 F25
Z-6.724
G3 Y-2.332 Z-7.2 J0.476 K0 F150
G1 Y-1.856
G17 G3 X18 Y-1.38 I-0.476 J0
G2 X18 Y37.38 I0 J19.38
X18 Y-1.38 I0 J-19.38
G3 X17.524 Y-1.856 I0 J-0.476
G1 Y-2.332
G19 G2 Y-2.808 Z-6.724 J0 K0.476
G1 Z5
X18.476
Z-5.6 F25
Z-7.324
G3 Y-2.332 Z-7.8 J0.476 K0 F150
G1 Y-1.856
G17 G3 X18 Y-1.38 I-0.476 J0
G2 X18 Y37.38 I0 J19.38
X18 Y-1.38 I0 J-19.38
G3 X17.524 Y-1.856 I0 J-0.476
G1 Y-2.332
G19 G2 Y-2.808 Z-7.324 J0 K0.476
G1 Z5
X18.476
Z-6.2 F25
Z-7.924
G3 Y-2.332 Z-8.4 J0.476 K0 F150
G1 Y-1.856
G17 G3 X18 Y-1.38 I-0.476 J0
G2 X18 Y37.38 I0 J19.38
X18 Y-1.38 I0 J-19.38
G3 X17.524 Y-1.856 I0 J-0.476
G1 Y-2.332
G19 G2 Y-2.808 Z-7.924 J0 K0.476
G1 Z5
X18.476
Z-6.8 F25
Z-8.524
G3 Y-2.332 Z-9 J0.476 K0 F150
G1 Y-1.856
G17 G3 X18 Y-1.38 I-0.476 J0
G2 X18 Y37.38 I0 J19.38
X18 Y-1.38 I0 J-19.38
G3 X17.524 Y-1.856 I0 J-0.476
G1 Y-2.332
G19 G2 Y-2.808 Z-8.524 J0 K0.476
G1 Z5
X18.476
Z-7.4 F25
Z-9.124
G3 Y-2.332 Z-9.6 J0.476 K0 F150
G1 Y-1.856
G17 G3 X18 Y-1.38 I-0.476 J0
G2 X18 Y37.38 I0 J19.38
X18 Y-1.38 I0 J-19.38
G3 X17.524 Y-1.856 I0 J-0.476
G1 Y-2.332
G19 G2 Y-2.808 Z-9.124 J0 K0.476
G1 Z5
X18.476
Z-8 F25
Z-9.724
G3 Y-2.332 Z-10.2 J0.476 K0 F150
G1 Y-1.856
G17 G3 X18 Y-1.38 I-0.476 J0
G2 X18 Y37.38 I0 J19.38
X18 Y-1.38 I0 J-19.38
G3 X17.524 Y-1.856 I0 J-0.476
G1 Y-2.332
G19 G2 Y-2.808 Z-9.724 J0 K0.476
G1 Z5
X18.476
Z-8.6 F25
Z-10.324
G3 Y-2.332 Z-10.8 J0.476 K0 F150
G1 Y-1.856
G17 G3 X18 Y-1.38 I-0.476 J0
G2 X18 Y37.38 I0 J19.38
X18 Y-1.38 I0 J-19.38
G3 X17.524 Y-1.856 I0 J-0.476
G1 Y-2.332
G19 G2 Y-2.808 Z-10.324 J0 K0.476
G1 Z5
X18.476
Z-9.2 F25
Z-10.924
G3 Y-2.332 Z-11.4 J0.476 K0 F150
G1 Y-1.856
G17 G3 X18 Y-1.38 I-0.476 J0
G2 X18 Y37.38 I0 J19.38
X18 Y-1.38 I0 J-19.38
G3 X17.524 Y-1.856 I0 J-0.476
G1 Y-2.332
G19 G2 Y-2.808 Z-10.924 J0 K0.476
G1 Z5
X18.476
Z-9.8 F25
Z-11.524
G3 Y-2.332 Z-12 J0.476 K0 F150
G1 Y-1.856
G17 G3 X18 Y-1.38 I-0.476 J0
G2 X18 Y37.38 I0 J19.38
X18 Y-1.38 I0 J-19.38
G3 X17.524 Y-1.856 I0 J-0.476
G1 Y-2.332
G19 G2 Y-2.808 Z-11.524 J0 K0.476
G1 Z5
X18.476
Z-10.4 F25
Z-12.124
G3 Y-2.332 Z-12.6 J0.476 K0 F150
G1 Y-1.856
G17 G3 X18 Y-1.38 I-0.476 J0
G2 X18 Y37.38 I0 J19.38
X18 Y-1.38 I0 J-19.38
G3 X17.524 Y-1.856 I0 J-0.476
G1 Y-2.332
G19 G2 Y-2.808 Z-12.124 J0 K0.476
G1 Z5
X18.476
Z-11 F25
Z-12.724
G3 Y-2.332 Z-13.2 J0.476 K0 F150
G1 Y-1.856
G17 G3 X18 Y-1.38 I-0.476 J0
G2 X18 Y37.38 I0 J19.38
X18 Y-1.38 I0 J-19.38
G3 X17.524 Y-1.856 I0 J-0.476
G1 Y-2.332
G19 G2 Y-2.808 Z-12.724 J0 K0.476
G1 Z5
X18.476
Z-11.6 F25
Z-13.324
G3 Y-2.332 Z-13.8 J0.476 K0 F150
G1 Y-1.856
G17 G3 X18 Y-1.38 I-0.476 J0
G2 X18 Y37.38 I0 J19.38
X18 Y-1.38 I0 J-19.38
G3 X17.524 Y-1.856 I0 J-0.476
G1 Y-2.332
G19 G2 Y-2.808 Z-13.324 J0 K0.476
G1 Z5
X18.476
Z-12.2 F25
Z-13.524
G3 Y-2.332 Z-14 J0.476 K0 F150
G1 Y-1.856
G17 G3 X18 Y-1.38 I-0.476 J0
G2 X18 Y37.38 I0 J19.38
X18 Y-1.38 I0 J-19.38
G3 X17.524 Y-1.856 I0 J-0.476
G1 Y-2.332
G19 G2 Y-2.808 Z-13.524 J0 K0.476
G1 Z10
G17
M9
G28 G91 Z0
G90
G28 G91 X0 Y0
G90
M5
M30
