(metal_coupler_14mm_wdrill)
(Machine)
(  vendor: Autodesk)
(  model: GARAGE CNC)
(  description: GARAGE CNC)
(T3  D=3.1 CR=0 - ZMIN=-14 - flat end mill)
G90 G94
G17
G21
(When using Fusion 360 for Personal Use, the feedrate of)
(rapid moves is reduced to match the feedrate of cutting)
(moves, which can increase machining time. Unrestricted rapid)
(moves are available with a Fusion 360 Subscription.)

(2D Pocket3)
T3
S24000 M3
G54
M8
G0 X16.102 Y16.659
Z10
G1 Z5 F200
Z2.81 F100
X16.123 Y16.65 Z2.694 F150
X16.183 Y16.625 Z2.594
X16.274 Y16.594 Z2.527
X16.386 Y16.564 Z2.5
G3 X17.036 Y19.436 Z2.338 I0.325 J1.436
X16.386 Y16.564 Z2.177 I-0.325 J-1.436
X17.036 Y19.436 Z2.015 I0.325 J1.436
X16.386 Y16.564 Z1.854 I-0.325 J-1.436
X17.036 Y19.436 Z1.692 I0.325 J1.436
X16.386 Y16.564 Z1.531 I-0.325 J-1.436
X17.036 Y19.436 Z1.369 I0.325 J1.436
X16.386 Y16.564 Z1.208 I-0.325 J-1.436
X17.036 Y19.436 Z1.046 I0.325 J1.436
X16.386 Y16.564 Z0.885 I-0.325 J-1.436
X17.036 Y19.436 Z0.723 I0.325 J1.436
X16.386 Y16.564 Z0.561 I-0.325 J-1.436
X17.036 Y19.436 Z0.4 I0.325 J1.436
X16.386 Y16.564 Z0.238 I-0.325 J-1.436
X17.036 Y19.436 Z0.077 I0.325 J1.436
X16.386 Y16.564 Z-0.085 I-0.325 J-1.436
X17.036 Y19.436 Z-0.246 I0.325 J1.436
X16.386 Y16.564 Z-0.408 I-0.325 J-1.436
X18.183 Y18 Z-0.5 I0.325 J1.436
X17.817 Y18 I-0.183 J0 F200
X18.183 Y18 I0.183 J0
G2 X18.749 Y19.509 I2.294 J0
G3 X18.107 Y20.987 I-0.672 J0.587
X15.022 Y18 I-0.099 J-2.984
X20.799 Y16.938 I2.986 J0
G2 X20.994 Y17.344 I2.433 J-0.923
X21.234 Y17.725 I7.824 J-4.643
G3 X21.234 Y18.275 I-0.415 J0.275
G2 X20.994 Y18.656 I7.584 J5.024
X20.799 Y19.062 I2.237 J1.328
G3 X18.107 Y20.987 I-2.791 J-1.059
G2 X16.509 Y21.979 I0.063 J1.885
G3 X14.67 Y22.378 I-1.09 J-0.586
X21.33 Y13.622 I3.33 J-4.378
X23.143 Y16.05 I-3.33 J4.378
G2 X24.592 Y17.05 I1.449 J-0.55
G1 X26.95
Y18.95
X24.592
G2 X23.143 Y19.95 I0 J1.55
G3 X14.67 Y22.378 I-5.143 J-1.95
G1 X14.631 Y22.338
X14.604 Y22.29
X14.592 Y22.235
X14.595 Y22.18
X15.309 Y18.531
X15.312 Y18.482
X15.304 Y18.434
G3 X18.118 Y17.566 Z-0.662 I1.407 J-0.434 F150
X15.304 Y18.434 Z-0.823 I-1.407 J0.434
X16.491 Y16.544 Z-0.912 I1.407 J-0.434
X18.183 Y18 Z-1 I0.219 J1.456
X17.817 Y18 I-0.183 J0 F200
X18.183 Y18 I0.183 J0
G2 X18.749 Y19.509 I2.294 J0
G3 X18.107 Y20.987 I-0.672 J0.587
X15.022 Y18 I-0.099 J-2.984
X20.799 Y16.938 I2.986 J0
G2 X20.994 Y17.344 I2.433 J-0.923
X21.234 Y17.725 I7.824 J-4.643
G3 X21.234 Y18.275 I-0.415 J0.275
G2 X20.994 Y18.656 I7.584 J5.024
X20.799 Y19.062 I2.237 J1.328
G3 X18.107 Y20.987 I-2.791 J-1.059
G2 X16.509 Y21.979 I0.063 J1.885
G3 X14.67 Y22.378 I-1.09 J-0.586
X21.33 Y13.622 I3.33 J-4.378
X23.143 Y16.05 I-3.33 J4.378
G2 X24.592 Y17.05 I1.449 J-0.55
G1 X26.95
Y18.95
X24.592
G2 X23.143 Y19.95 I0 J1.55
G3 X14.67 Y22.378 I-5.143 J-1.95
G1 X14.631 Y22.338
X14.604 Y22.29
X14.592 Y22.235
X14.595 Y22.18
X15.309 Y18.531
X15.312 Y18.482
X15.304 Y18.434
G3 X18.118 Y17.566 Z-1.162 I1.407 J-0.434 F150
X15.304 Y18.434 Z-1.323 I-1.407 J0.434
X16.491 Y16.544 Z-1.412 I1.407 J-0.434
X18.183 Y18 Z-1.5 I0.219 J1.456
X17.817 Y18 I-0.183 J0 F200
X18.183 Y18 I0.183 J0
G2 X18.749 Y19.509 I2.294 J0
G3 X18.107 Y20.987 I-0.672 J0.587
X15.022 Y18 I-0.099 J-2.984
X20.799 Y16.938 I2.986 J0
G2 X20.994 Y17.344 I2.433 J-0.923
X21.234 Y17.725 I7.824 J-4.643
G3 X21.234 Y18.275 I-0.415 J0.275
G2 X20.994 Y18.656 I7.584 J5.024
X20.799 Y19.062 I2.237 J1.328
G3 X18.107 Y20.987 I-2.791 J-1.059
G2 X16.509 Y21.979 I0.063 J1.885
G3 X14.67 Y22.378 I-1.09 J-0.586
X21.33 Y13.622 I3.33 J-4.378
X23.143 Y16.05 I-3.33 J4.378
G2 X24.592 Y17.05 I1.449 J-0.55
G1 X26.95
Y18.95
X24.592
G2 X23.143 Y19.95 I0 J1.55
G3 X14.67 Y22.378 I-5.143 J-1.95
G1 X14.631 Y22.338
X14.604 Y22.29
X14.592 Y22.235
X14.595 Y22.18
X15.309 Y18.531
X15.312 Y18.482
X15.304 Y18.434
G3 X18.118 Y17.566 Z-1.662 I1.407 J-0.434 F150
X15.304 Y18.434 Z-1.823 I-1.407 J0.434
X16.491 Y16.544 Z-1.912 I1.407 J-0.434
X18.183 Y18 Z-2 I0.219 J1.456
X17.817 Y18 I-0.183 J0 F200
X18.183 Y18 I0.183 J0
G2 X18.749 Y19.509 I2.294 J0
G3 X18.107 Y20.987 I-0.672 J0.587
X15.022 Y18 I-0.099 J-2.984
X20.799 Y16.938 I2.986 J0
G2 X20.994 Y17.344 I2.433 J-0.923
X21.234 Y17.725 I7.824 J-4.643
G3 X21.234 Y18.275 I-0.415 J0.275
G2 X20.994 Y18.656 I7.584 J5.024
X20.799 Y19.062 I2.237 J1.328
G3 X18.107 Y20.987 I-2.791 J-1.059
G2 X16.509 Y21.979 I0.063 J1.885
G3 X14.67 Y22.378 I-1.09 J-0.586
X21.33 Y13.622 I3.33 J-4.378
X23.143 Y16.05 I-3.33 J4.378
G2 X24.592 Y17.05 I1.449 J-0.55
G1 X26.95
Y18.95
X24.592
G2 X23.143 Y19.95 I0 J1.55
G3 X14.67 Y22.378 I-5.143 J-1.95
G1 X14.631 Y22.338
X14.604 Y22.29
X14.592 Y22.235
X14.595 Y22.18
X15.309 Y18.531
X15.312 Y18.482
X15.304 Y18.434
G3 X18.118 Y17.566 Z-2.162 I1.407 J-0.434 F150
X15.304 Y18.434 Z-2.323 I-1.407 J0.434
X16.491 Y16.544 Z-2.412 I1.407 J-0.434
X18.183 Y18 Z-2.5 I0.219 J1.456
X17.817 Y18 I-0.183 J0 F200
X18.183 Y18 I0.183 J0
G2 X18.749 Y19.509 I2.294 J0
G3 X18.107 Y20.987 I-0.672 J0.587
X15.022 Y18 I-0.099 J-2.984
X20.799 Y16.938 I2.986 J0
G2 X20.994 Y17.344 I2.433 J-0.923
X21.234 Y17.725 I7.824 J-4.643
G3 X21.234 Y18.275 I-0.415 J0.275
G2 X20.994 Y18.656 I7.584 J5.024
X20.799 Y19.062 I2.237 J1.328
G3 X18.107 Y20.987 I-2.791 J-1.059
G2 X16.509 Y21.979 I0.063 J1.885
G3 X14.67 Y22.378 I-1.09 J-0.586
X21.33 Y13.622 I3.33 J-4.378
X23.143 Y16.05 I-3.33 J4.378
G2 X24.592 Y17.05 I1.449 J-0.55
G1 X26.95
Y18.95
X24.592
G2 X23.143 Y19.95 I0 J1.55
G3 X14.67 Y22.378 I-5.143 J-1.95
G1 X14.631 Y22.338
X14.604 Y22.29
X14.592 Y22.235
X14.595 Y22.18
X15.309 Y18.531
X15.312 Y18.482
X15.304 Y18.434
G3 X18.118 Y17.566 Z-2.662 I1.407 J-0.434 F150
X15.304 Y18.434 Z-2.823 I-1.407 J0.434
X16.491 Y16.544 Z-2.912 I1.407 J-0.434
X18.183 Y18 Z-3 I0.219 J1.456
X17.817 Y18 I-0.183 J0 F200
X18.183 Y18 I0.183 J0
G2 X18.749 Y19.509 I2.294 J0
G3 X18.107 Y20.987 I-0.672 J0.587
X15.022 Y18 I-0.099 J-2.984
X20.799 Y16.938 I2.986 J0
G2 X20.994 Y17.344 I2.433 J-0.923
X21.234 Y17.725 I7.824 J-4.643
G3 X21.234 Y18.275 I-0.415 J0.275
G2 X20.994 Y18.656 I7.584 J5.024
X20.799 Y19.062 I2.237 J1.328
G3 X18.107 Y20.987 I-2.791 J-1.059
G2 X16.509 Y21.979 I0.063 J1.885
G3 X14.67 Y22.378 I-1.09 J-0.586
X21.33 Y13.622 I3.33 J-4.378
X23.143 Y16.05 I-3.33 J4.378
G2 X24.592 Y17.05 I1.449 J-0.55
G1 X26.95
Y18.95
X24.592
G2 X23.143 Y19.95 I0 J1.55
G3 X14.67 Y22.378 I-5.143 J-1.95
G1 X14.631 Y22.338
X14.604 Y22.29
X14.592 Y22.235
X14.595 Y22.18
X15.309 Y18.531
X15.312 Y18.482
X15.304 Y18.434
G3 X18.118 Y17.566 Z-3.162 I1.407 J-0.434 F150
X15.304 Y18.434 Z-3.323 I-1.407 J0.434
X16.491 Y16.544 Z-3.412 I1.407 J-0.434
X18.183 Y18 Z-3.5 I0.219 J1.456
X17.817 Y18 I-0.183 J0 F200
X18.183 Y18 I0.183 J0
G2 X18.749 Y19.509 I2.294 J0
G3 X18.107 Y20.987 I-0.672 J0.587
X15.022 Y18 I-0.099 J-2.984
X20.799 Y16.938 I2.986 J0
G2 X20.994 Y17.344 I2.433 J-0.923
X21.234 Y17.725 I7.824 J-4.643
G3 X21.234 Y18.275 I-0.415 J0.275
G2 X20.994 Y18.656 I7.584 J5.024
X20.799 Y19.062 I2.237 J1.328
G3 X18.107 Y20.987 I-2.791 J-1.059
G2 X16.509 Y21.979 I0.063 J1.885
G3 X14.67 Y22.378 I-1.09 J-0.586
X21.33 Y13.622 I3.33 J-4.378
X23.143 Y16.05 I-3.33 J4.378
G2 X24.592 Y17.05 I1.449 J-0.55
G1 X26.95
Y18.95
X24.592
G2 X23.143 Y19.95 I0 J1.55
G3 X14.67 Y22.378 I-5.143 J-1.95
G1 X14.631 Y22.338
X14.604 Y22.29
X14.592 Y22.235
X14.595 Y22.18
X15.309 Y18.531
X15.312 Y18.482
X15.304 Y18.434
G3 X18.118 Y17.566 Z-3.662 I1.407 J-0.434 F150
X15.304 Y18.434 Z-3.823 I-1.407 J0.434
X16.491 Y16.544 Z-3.912 I1.407 J-0.434
X18.183 Y18 Z-4 I0.219 J1.456
X17.817 Y18 I-0.183 J0 F200
X18.183 Y18 I0.183 J0
G2 X18.749 Y19.509 I2.294 J0
G3 X18.107 Y20.987 I-0.672 J0.587
X15.022 Y18 I-0.099 J-2.984
X20.799 Y16.938 I2.986 J0
G2 X20.994 Y17.344 I2.433 J-0.923
X21.234 Y17.725 I7.824 J-4.643
G3 X21.234 Y18.275 I-0.415 J0.275
G2 X20.994 Y18.656 I7.584 J5.024
X20.799 Y19.062 I2.237 J1.328
G3 X18.107 Y20.987 I-2.791 J-1.059
G2 X16.509 Y21.979 I0.063 J1.885
G3 X14.67 Y22.378 I-1.09 J-0.586
X21.33 Y13.622 I3.33 J-4.378
X23.143 Y16.05 I-3.33 J4.378
G2 X24.592 Y17.05 I1.449 J-0.55
G1 X26.95
Y18.95
X24.592
G2 X23.143 Y19.95 I0 J1.55
G3 X14.67 Y22.378 I-5.143 J-1.95
G1 X14.631 Y22.338
X14.604 Y22.29
X14.592 Y22.235
X14.595 Y22.18
X15.309 Y18.531
X15.312 Y18.482
X15.304 Y18.434
G3 X18.118 Y17.566 Z-4.162 I1.407 J-0.434 F150
X15.304 Y18.434 Z-4.323 I-1.407 J0.434
X16.491 Y16.544 Z-4.412 I1.407 J-0.434
X18.183 Y18 Z-4.5 I0.219 J1.456
X17.817 Y18 I-0.183 J0 F200
X18.183 Y18 I0.183 J0
G2 X18.749 Y19.509 I2.294 J0
G3 X18.107 Y20.987 I-0.672 J0.587
X15.022 Y18 I-0.099 J-2.984
X20.799 Y16.938 I2.986 J0
G2 X20.994 Y17.344 I2.433 J-0.923
X21.234 Y17.725 I7.824 J-4.643
G3 X21.234 Y18.275 I-0.415 J0.275
G2 X20.994 Y18.656 I7.584 J5.024
X20.799 Y19.062 I2.237 J1.328
G3 X18.107 Y20.987 I-2.791 J-1.059
G2 X16.509 Y21.979 I0.063 J1.885
G3 X14.67 Y22.378 I-1.09 J-0.586
X21.33 Y13.622 I3.33 J-4.378
X23.143 Y16.05 I-3.33 J4.378
G2 X24.592 Y17.05 I1.449 J-0.55
G1 X26.95
Y18.95
X24.592
G2 X23.143 Y19.95 I0 J1.55
G3 X14.67 Y22.378 I-5.143 J-1.95
G1 X14.631 Y22.338
X14.604 Y22.29
X14.592 Y22.235
X14.595 Y22.18
X15.309 Y18.531
X15.312 Y18.482
X15.304 Y18.434
G3 X18.118 Y17.566 Z-4.662 I1.407 J-0.434 F150
X15.304 Y18.434 Z-4.823 I-1.407 J0.434
X16.491 Y16.544 Z-4.912 I1.407 J-0.434
X18.183 Y18 Z-5 I0.219 J1.456
X17.817 Y18 I-0.183 J0 F200
X18.183 Y18 I0.183 J0
G2 X18.749 Y19.509 I2.294 J0
G3 X18.107 Y20.987 I-0.672 J0.587
X15.022 Y18 I-0.099 J-2.984
X20.799 Y16.938 I2.986 J0
G2 X20.994 Y17.344 I2.433 J-0.923
X21.234 Y17.725 I7.824 J-4.643
G3 X21.234 Y18.275 I-0.415 J0.275
G2 X20.994 Y18.656 I7.584 J5.024
X20.799 Y19.062 I2.237 J1.328
G3 X18.107 Y20.987 I-2.791 J-1.059
G2 X16.509 Y21.979 I0.063 J1.885
G3 X14.67 Y22.378 I-1.09 J-0.586
X21.33 Y13.622 I3.33 J-4.378
X23.143 Y16.05 I-3.33 J4.378
G2 X24.592 Y17.05 I1.449 J-0.55
G1 X26.95
Y18.95
X24.592
G2 X23.143 Y19.95 I0 J1.55
G3 X14.67 Y22.378 I-5.143 J-1.95
G1 X14.631 Y22.338
X14.604 Y22.29
X14.592 Y22.235
X14.595 Y22.18
X15.309 Y18.531
X15.312 Y18.482
X15.304 Y18.434
G3 X18.118 Y17.566 Z-5.162 I1.407 J-0.434 F150
X15.304 Y18.434 Z-5.323 I-1.407 J0.434
X16.491 Y16.544 Z-5.412 I1.407 J-0.434
X18.183 Y18 Z-5.5 I0.219 J1.456
X17.817 Y18 I-0.183 J0 F200
X18.183 Y18 I0.183 J0
G2 X18.749 Y19.509 I2.294 J0
G3 X18.107 Y20.987 I-0.672 J0.587
X15.022 Y18 I-0.099 J-2.984
X20.799 Y16.938 I2.986 J0
G2 X20.994 Y17.344 I2.433 J-0.923
X21.234 Y17.725 I7.824 J-4.643
G3 X21.234 Y18.275 I-0.415 J0.275
G2 X20.994 Y18.656 I7.584 J5.024
X20.799 Y19.062 I2.237 J1.328
G3 X18.107 Y20.987 I-2.791 J-1.059
G2 X16.509 Y21.979 I0.063 J1.885
G3 X14.67 Y22.378 I-1.09 J-0.586
X21.33 Y13.622 I3.33 J-4.378
X23.143 Y16.05 I-3.33 J4.378
G2 X24.592 Y17.05 I1.449 J-0.55
G1 X26.95
Y18.95
X24.592
G2 X23.143 Y19.95 I0 J1.55
G3 X14.67 Y22.378 I-5.143 J-1.95
G1 X14.631 Y22.338
X14.604 Y22.29
X14.592 Y22.235
X14.595 Y22.18
X15.309 Y18.531
X15.312 Y18.482
X15.304 Y18.434
G3 X18.118 Y17.566 Z-5.662 I1.407 J-0.434 F150
X15.304 Y18.434 Z-5.823 I-1.407 J0.434
X16.491 Y16.544 Z-5.912 I1.407 J-0.434
X18.183 Y18 Z-6 I0.219 J1.456
X17.817 Y18 I-0.183 J0 F200
X18.183 Y18 I0.183 J0
G2 X18.749 Y19.509 I2.294 J0
G3 X18.107 Y20.987 I-0.672 J0.587
X15.022 Y18 I-0.099 J-2.984
X20.799 Y16.938 I2.986 J0
G2 X20.994 Y17.344 I2.433 J-0.923
X21.234 Y17.725 I7.824 J-4.643
G3 X21.234 Y18.275 I-0.415 J0.275
G2 X20.994 Y18.656 I7.584 J5.024
X20.799 Y19.062 I2.237 J1.328
G3 X18.107 Y20.987 I-2.791 J-1.059
G2 X16.509 Y21.979 I0.063 J1.885
G3 X14.67 Y22.378 I-1.09 J-0.586
X21.33 Y13.622 I3.33 J-4.378
X23.143 Y16.05 I-3.33 J4.378
G2 X24.592 Y17.05 I1.449 J-0.55
G1 X26.95
Y18.95
X24.592
G2 X23.143 Y19.95 I0 J1.55
G3 X14.67 Y22.378 I-5.143 J-1.95
G1 X14.631 Y22.338
X14.604 Y22.29
X14.592 Y22.235
X14.595 Y22.18
X15.309 Y18.531
X15.312 Y18.482
X15.304 Y18.434
G3 X18.118 Y17.566 Z-6.162 I1.407 J-0.434 F150
X15.304 Y18.434 Z-6.323 I-1.407 J0.434
X16.491 Y16.544 Z-6.412 I1.407 J-0.434
X18.183 Y18 Z-6.5 I0.219 J1.456
X17.817 Y18 I-0.183 J0 F200
X18.183 Y18 I0.183 J0
G2 X18.749 Y19.509 I2.294 J0
G3 X18.107 Y20.987 I-0.672 J0.587
X15.022 Y18 I-0.099 J-2.984
X20.799 Y16.938 I2.986 J0
G2 X20.994 Y17.344 I2.433 J-0.923
X21.234 Y17.725 I7.824 J-4.643
G3 X21.234 Y18.275 I-0.415 J0.275
G2 X20.994 Y18.656 I7.584 J5.024
X20.799 Y19.062 I2.237 J1.328
G3 X18.107 Y20.987 I-2.791 J-1.059
G2 X16.509 Y21.979 I0.063 J1.885
G3 X14.67 Y22.378 I-1.09 J-0.586
X21.33 Y13.622 I3.33 J-4.378
X23.143 Y16.05 I-3.33 J4.378
G2 X24.592 Y17.05 I1.449 J-0.55
G1 X26.95
Y18.95
X24.592
G2 X23.143 Y19.95 I0 J1.55
G3 X14.67 Y22.378 I-5.143 J-1.95
G1 X14.631 Y22.338
X14.604 Y22.29
X14.592 Y22.235
X14.595 Y22.18
X15.309 Y18.531
X15.312 Y18.482
X15.304 Y18.434
G3 X18.118 Y17.566 Z-6.662 I1.407 J-0.434 F150
X15.304 Y18.434 Z-6.823 I-1.407 J0.434
X16.491 Y16.544 Z-6.912 I1.407 J-0.434
X18.183 Y18 Z-7 I0.219 J1.456
X17.817 Y18 I-0.183 J0 F200
X18.183 Y18 I0.183 J0
G2 X18.749 Y19.509 I2.294 J0
G3 X18.107 Y20.987 I-0.672 J0.587
X15.022 Y18 I-0.099 J-2.984
X20.799 Y16.938 I2.986 J0
G2 X20.994 Y17.344 I2.433 J-0.923
X21.234 Y17.725 I7.824 J-4.643
G3 X21.234 Y18.275 I-0.415 J0.275
G2 X20.994 Y18.656 I7.584 J5.024
X20.799 Y19.062 I2.237 J1.328
G3 X18.107 Y20.987 I-2.791 J-1.059
G2 X16.509 Y21.979 I0.063 J1.885
G3 X14.67 Y22.378 I-1.09 J-0.586
X21.33 Y13.622 I3.33 J-4.378
X23.143 Y16.05 I-3.33 J4.378
G2 X24.592 Y17.05 I1.449 J-0.55
G1 X26.95
Y18.95
X24.592
G2 X23.143 Y19.95 I0 J1.55
G3 X14.67 Y22.378 I-5.143 J-1.95
G1 X14.631 Y22.338
X14.604 Y22.29
X14.592 Y22.235
X14.595 Y22.18
X15.309 Y18.531
X15.312 Y18.482
X15.304 Y18.434
G3 X18.118 Y17.566 Z-7.162 I1.407 J-0.434 F150
X15.304 Y18.434 Z-7.323 I-1.407 J0.434
X16.491 Y16.544 Z-7.412 I1.407 J-0.434
X18.183 Y18 Z-7.5 I0.219 J1.456
X17.817 Y18 I-0.183 J0 F200
X18.183 Y18 I0.183 J0
G2 X18.749 Y19.509 I2.294 J0
G3 X18.107 Y20.987 I-0.672 J0.587
X15.022 Y18 I-0.099 J-2.984
X20.799 Y16.938 I2.986 J0
G2 X20.994 Y17.344 I2.433 J-0.923
X21.234 Y17.725 I7.824 J-4.643
G3 X21.234 Y18.275 I-0.415 J0.275
G2 X20.994 Y18.656 I7.584 J5.024
X20.799 Y19.062 I2.237 J1.328
G3 X18.107 Y20.987 I-2.791 J-1.059
G2 X16.509 Y21.979 I0.063 J1.885
G3 X14.67 Y22.378 I-1.09 J-0.586
X21.33 Y13.622 I3.33 J-4.378
X23.143 Y16.05 I-3.33 J4.378
G2 X24.592 Y17.05 I1.449 J-0.55
G1 X26.95
Y18.95
X24.592
G2 X23.143 Y19.95 I0 J1.55
G3 X14.67 Y22.378 I-5.143 J-1.95
G1 X14.631 Y22.338
X14.604 Y22.29
X14.592 Y22.235
X14.595 Y22.18
X15.309 Y18.531
X15.312 Y18.482
X15.304 Y18.434
G3 X18.118 Y17.566 Z-7.662 I1.407 J-0.434 F150
X15.304 Y18.434 Z-7.823 I-1.407 J0.434
X16.491 Y16.544 Z-7.912 I1.407 J-0.434
X18.183 Y18 Z-8 I0.219 J1.456
X17.817 Y18 I-0.183 J0 F200
X18.183 Y18 I0.183 J0
G2 X18.749 Y19.509 I2.294 J0
G3 X18.107 Y20.987 I-0.672 J0.587
X15.022 Y18 I-0.099 J-2.984
X20.799 Y16.938 I2.986 J0
G2 X20.994 Y17.344 I2.433 J-0.923
X21.234 Y17.725 I7.824 J-4.643
G3 X21.234 Y18.275 I-0.415 J0.275
G2 X20.994 Y18.656 I7.584 J5.024
X20.799 Y19.062 I2.237 J1.328
G3 X18.107 Y20.987 I-2.791 J-1.059
G2 X16.509 Y21.979 I0.063 J1.885
G3 X14.67 Y22.378 I-1.09 J-0.586
X21.33 Y13.622 I3.33 J-4.378
X23.143 Y16.05 I-3.33 J4.378
G2 X24.592 Y17.05 I1.449 J-0.55
G1 X26.95
Y18.95
X24.592
G2 X23.143 Y19.95 I0 J1.55
G3 X14.67 Y22.378 I-5.143 J-1.95
G1 X14.631 Y22.338
X14.604 Y22.29
X14.592 Y22.235
X14.595 Y22.18
X15.309 Y18.531
X15.312 Y18.482
X15.304 Y18.434
G3 X18.118 Y17.566 Z-8.162 I1.407 J-0.434 F150
X15.304 Y18.434 Z-8.323 I-1.407 J0.434
X16.491 Y16.544 Z-8.412 I1.407 J-0.434
X18.183 Y18 Z-8.5 I0.219 J1.456
X17.817 Y18 I-0.183 J0 F200
X18.183 Y18 I0.183 J0
G2 X18.749 Y19.509 I2.294 J0
G3 X18.107 Y20.987 I-0.672 J0.587
X15.022 Y18 I-0.099 J-2.984
X20.799 Y16.938 I2.986 J0
G2 X20.994 Y17.344 I2.433 J-0.923
X21.234 Y17.725 I7.824 J-4.643
G3 X21.234 Y18.275 I-0.415 J0.275
G2 X20.994 Y18.656 I7.584 J5.024
X20.799 Y19.062 I2.237 J1.328
G3 X18.107 Y20.987 I-2.791 J-1.059
G2 X16.509 Y21.979 I0.063 J1.885
G3 X14.67 Y22.378 I-1.09 J-0.586
X21.33 Y13.622 I3.33 J-4.378
X23.143 Y16.05 I-3.33 J4.378
G2 X24.592 Y17.05 I1.449 J-0.55
G1 X26.95
Y18.95
X24.592
G2 X23.143 Y19.95 I0 J1.55
G3 X14.67 Y22.378 I-5.143 J-1.95
G1 X14.631 Y22.338
X14.604 Y22.29
X14.592 Y22.235
X14.595 Y22.18
X15.309 Y18.531
X15.312 Y18.482
X15.304 Y18.434
G3 X18.118 Y17.566 Z-8.662 I1.407 J-0.434 F150
X15.304 Y18.434 Z-8.823 I-1.407 J0.434
X16.491 Y16.544 Z-8.912 I1.407 J-0.434
X18.183 Y18 Z-9 I0.219 J1.456
X17.817 Y18 I-0.183 J0 F200
X18.183 Y18 I0.183 J0
G2 X18.749 Y19.509 I2.294 J0
G3 X18.107 Y20.987 I-0.672 J0.587
X15.022 Y18 I-0.099 J-2.984
X20.799 Y16.938 I2.986 J0
G2 X20.994 Y17.344 I2.433 J-0.923
X21.234 Y17.725 I7.824 J-4.643
G3 X21.234 Y18.275 I-0.415 J0.275
G2 X20.994 Y18.656 I7.584 J5.024
X20.799 Y19.062 I2.237 J1.328
G3 X18.107 Y20.987 I-2.791 J-1.059
G2 X16.509 Y21.979 I0.063 J1.885
G3 X14.67 Y22.378 I-1.09 J-0.586
X21.33 Y13.622 I3.33 J-4.378
X23.143 Y16.05 I-3.33 J4.378
G2 X24.592 Y17.05 I1.449 J-0.55
G1 X26.95
Y18.95
X24.592
G2 X23.143 Y19.95 I0 J1.55
G3 X14.67 Y22.378 I-5.143 J-1.95
G1 X14.631 Y22.338
X14.604 Y22.29
X14.592 Y22.235
X14.595 Y22.18
X15.309 Y18.531
X15.312 Y18.482
X15.304 Y18.434
G3 X18.118 Y17.566 Z-9.162 I1.407 J-0.434 F150
X15.304 Y18.434 Z-9.323 I-1.407 J0.434
X16.491 Y16.544 Z-9.412 I1.407 J-0.434
X18.183 Y18 Z-9.5 I0.219 J1.456
X17.817 Y18 I-0.183 J0 F200
X18.183 Y18 I0.183 J0
G2 X18.749 Y19.509 I2.294 J0
G3 X18.107 Y20.987 I-0.672 J0.587
X15.022 Y18 I-0.099 J-2.984
X20.799 Y16.938 I2.986 J0
G2 X20.994 Y17.344 I2.433 J-0.923
X21.234 Y17.725 I7.824 J-4.643
G3 X21.234 Y18.275 I-0.415 J0.275
G2 X20.994 Y18.656 I7.584 J5.024
X20.799 Y19.062 I2.237 J1.328
G3 X18.107 Y20.987 I-2.791 J-1.059
G2 X16.509 Y21.979 I0.063 J1.885
G3 X14.67 Y22.378 I-1.09 J-0.586
X21.33 Y13.622 I3.33 J-4.378
X23.143 Y16.05 I-3.33 J4.378
G2 X24.592 Y17.05 I1.449 J-0.55
G1 X26.95
Y18.95
X24.592
G2 X23.143 Y19.95 I0 J1.55
G3 X14.67 Y22.378 I-5.143 J-1.95
G1 X14.631 Y22.338
X14.604 Y22.29
X14.592 Y22.235
X14.595 Y22.18
X15.309 Y18.531
X15.312 Y18.482
X15.304 Y18.434
G3 X18.118 Y17.566 Z-9.662 I1.407 J-0.434 F150
X15.304 Y18.434 Z-9.823 I-1.407 J0.434
X16.491 Y16.544 Z-9.912 I1.407 J-0.434
X18.183 Y18 Z-10 I0.219 J1.456
X17.817 Y18 I-0.183 J0 F200
X18.183 Y18 I0.183 J0
G2 X18.749 Y19.509 I2.294 J0
G3 X18.107 Y20.987 I-0.672 J0.587
X15.022 Y18 I-0.099 J-2.984
X20.799 Y16.938 I2.986 J0
G2 X20.994 Y17.344 I2.433 J-0.923
X21.234 Y17.725 I7.824 J-4.643
G3 X21.234 Y18.275 I-0.415 J0.275
G2 X20.994 Y18.656 I7.584 J5.024
X20.799 Y19.062 I2.237 J1.328
G3 X18.107 Y20.987 I-2.791 J-1.059
G2 X16.509 Y21.979 I0.063 J1.885
G3 X14.67 Y22.378 I-1.09 J-0.586
X21.33 Y13.622 I3.33 J-4.378
X23.143 Y16.05 I-3.33 J4.378
G2 X24.592 Y17.05 I1.449 J-0.55
G1 X26.95
Y18.95
X24.592
G2 X23.143 Y19.95 I0 J1.55
G3 X14.67 Y22.378 I-5.143 J-1.95
G1 X14.631 Y22.338
X14.604 Y22.29
X14.592 Y22.235
X14.595 Y22.18
X15.309 Y18.531
X15.312 Y18.482
X15.304 Y18.434
G3 X18.118 Y17.566 Z-10.162 I1.407 J-0.434 F150
X15.304 Y18.434 Z-10.323 I-1.407 J0.434
X16.491 Y16.544 Z-10.412 I1.407 J-0.434
X18.183 Y18 Z-10.5 I0.219 J1.456
X17.817 Y18 I-0.183 J0 F200
X18.183 Y18 I0.183 J0
G2 X18.749 Y19.509 I2.294 J0
G3 X18.107 Y20.987 I-0.672 J0.587
X15.022 Y18 I-0.099 J-2.984
X20.799 Y16.938 I2.986 J0
G2 X20.994 Y17.344 I2.433 J-0.923
X21.234 Y17.725 I7.824 J-4.643
G3 X21.234 Y18.275 I-0.415 J0.275
G2 X20.994 Y18.656 I7.584 J5.024
X20.799 Y19.062 I2.237 J1.328
G3 X18.107 Y20.987 I-2.791 J-1.059
G2 X16.509 Y21.979 I0.063 J1.885
G3 X14.67 Y22.378 I-1.09 J-0.586
X21.33 Y13.622 I3.33 J-4.378
X23.143 Y16.05 I-3.33 J4.378
G2 X24.592 Y17.05 I1.449 J-0.55
G1 X26.95
Y18.95
X24.592
G2 X23.143 Y19.95 I0 J1.55
G3 X14.67 Y22.378 I-5.143 J-1.95
G1 X14.631 Y22.338
X14.604 Y22.29
X14.592 Y22.235
X14.595 Y22.18
X15.309 Y18.531
X15.312 Y18.482
X15.304 Y18.434
G3 X18.118 Y17.566 Z-10.662 I1.407 J-0.434 F150
X15.304 Y18.434 Z-10.823 I-1.407 J0.434
X16.491 Y16.544 Z-10.912 I1.407 J-0.434
X18.183 Y18 Z-11 I0.219 J1.456
X17.817 Y18 I-0.183 J0 F200
X18.183 Y18 I0.183 J0
G2 X18.749 Y19.509 I2.294 J0
G3 X18.107 Y20.987 I-0.672 J0.587
X15.022 Y18 I-0.099 J-2.984
X20.799 Y16.938 I2.986 J0
G2 X20.994 Y17.344 I2.433 J-0.923
X21.234 Y17.725 I7.824 J-4.643
G3 X21.234 Y18.275 I-0.415 J0.275
G2 X20.994 Y18.656 I7.584 J5.024
X20.799 Y19.062 I2.237 J1.328
G3 X18.107 Y20.987 I-2.791 J-1.059
G2 X16.509 Y21.979 I0.063 J1.885
G3 X14.67 Y22.378 I-1.09 J-0.586
X21.33 Y13.622 I3.33 J-4.378
X23.143 Y16.05 I-3.33 J4.378
G2 X24.592 Y17.05 I1.449 J-0.55
G1 X26.95
Y18.95
X24.592
G2 X23.143 Y19.95 I0 J1.55
G3 X14.67 Y22.378 I-5.143 J-1.95
G1 X14.631 Y22.338
X14.604 Y22.29
X14.592 Y22.235
X14.595 Y22.18
X15.309 Y18.531
X15.312 Y18.482
X15.304 Y18.434
G3 X18.118 Y17.566 Z-11.162 I1.407 J-0.434 F150
X15.304 Y18.434 Z-11.323 I-1.407 J0.434
X16.491 Y16.544 Z-11.412 I1.407 J-0.434
X18.183 Y18 Z-11.5 I0.219 J1.456
X17.817 Y18 I-0.183 J0 F200
X18.183 Y18 I0.183 J0
G2 X18.749 Y19.509 I2.294 J0
G3 X18.107 Y20.987 I-0.672 J0.587
X15.022 Y18 I-0.099 J-2.984
X20.799 Y16.938 I2.986 J0
G2 X20.994 Y17.344 I2.433 J-0.923
X21.234 Y17.725 I7.824 J-4.643
G3 X21.234 Y18.275 I-0.415 J0.275
G2 X20.994 Y18.656 I7.584 J5.024
X20.799 Y19.062 I2.237 J1.328
G3 X18.107 Y20.987 I-2.791 J-1.059
G2 X16.509 Y21.979 I0.063 J1.885
G3 X14.67 Y22.378 I-1.09 J-0.586
X21.33 Y13.622 I3.33 J-4.378
X23.143 Y16.05 I-3.33 J4.378
G2 X24.592 Y17.05 I1.449 J-0.55
G1 X26.95
Y18.95
X24.592
G2 X23.143 Y19.95 I0 J1.55
G3 X14.67 Y22.378 I-5.143 J-1.95
G1 X14.631 Y22.338
X14.604 Y22.29
X14.592 Y22.235
X14.595 Y22.18
X15.309 Y18.531
X15.312 Y18.482
X15.304 Y18.434
G3 X18.118 Y17.566 Z-11.662 I1.407 J-0.434 F150
X15.304 Y18.434 Z-11.823 I-1.407 J0.434
X16.491 Y16.544 Z-11.912 I1.407 J-0.434
X18.183 Y18 Z-12 I0.219 J1.456
X17.817 Y18 I-0.183 J0 F200
X18.183 Y18 I0.183 J0
G2 X18.749 Y19.509 I2.294 J0
G3 X18.107 Y20.987 I-0.672 J0.587
X15.022 Y18 I-0.099 J-2.984
X20.799 Y16.938 I2.986 J0
G2 X20.994 Y17.344 I2.433 J-0.923
X21.234 Y17.725 I7.824 J-4.643
G3 X21.234 Y18.275 I-0.415 J0.275
G2 X20.994 Y18.656 I7.584 J5.024
X20.799 Y19.062 I2.237 J1.328
G3 X18.107 Y20.987 I-2.791 J-1.059
G2 X16.509 Y21.979 I0.063 J1.885
G3 X14.67 Y22.378 I-1.09 J-0.586
X21.33 Y13.622 I3.33 J-4.378
X23.143 Y16.05 I-3.33 J4.378
G2 X24.592 Y17.05 I1.449 J-0.55
G1 X26.95
Y18.95
X24.592
G2 X23.143 Y19.95 I0 J1.55
G3 X14.67 Y22.378 I-5.143 J-1.95
G1 X14.631 Y22.338
X14.604 Y22.29
X14.592 Y22.235
X14.595 Y22.18
X15.309 Y18.531
X15.312 Y18.482
X15.304 Y18.434
G3 X18.118 Y17.566 Z-12.162 I1.407 J-0.434 F150
X15.304 Y18.434 Z-12.323 I-1.407 J0.434
X16.491 Y16.544 Z-12.412 I1.407 J-0.434
X18.183 Y18 Z-12.5 I0.219 J1.456
X17.817 Y18 I-0.183 J0 F200
X18.183 Y18 I0.183 J0
G2 X18.749 Y19.509 I2.294 J0
G3 X18.107 Y20.987 I-0.672 J0.587
X15.022 Y18 I-0.099 J-2.984
X20.799 Y16.938 I2.986 J0
G2 X20.994 Y17.344 I2.433 J-0.923
X21.234 Y17.725 I7.824 J-4.643
G3 X21.234 Y18.275 I-0.415 J0.275
G2 X20.994 Y18.656 I7.584 J5.024
X20.799 Y19.062 I2.237 J1.328
G3 X18.107 Y20.987 I-2.791 J-1.059
G2 X16.509 Y21.979 I0.063 J1.885
G3 X14.67 Y22.378 I-1.09 J-0.586
X21.33 Y13.622 I3.33 J-4.378
X23.143 Y16.05 I-3.33 J4.378
G2 X24.592 Y17.05 I1.449 J-0.55
G1 X26.95
Y18.95
X24.592
G2 X23.143 Y19.95 I0 J1.55
G3 X14.67 Y22.378 I-5.143 J-1.95
G1 X14.631 Y22.338
X14.604 Y22.29
X14.592 Y22.235
X14.595 Y22.18
X15.309 Y18.531
X15.312 Y18.482
X15.304 Y18.434
G3 X18.118 Y17.566 Z-12.662 I1.407 J-0.434 F150
X15.304 Y18.434 Z-12.823 I-1.407 J0.434
X16.491 Y16.544 Z-12.912 I1.407 J-0.434
X18.183 Y18 Z-13 I0.219 J1.456
X17.817 Y18 I-0.183 J0 F200
X18.183 Y18 I0.183 J0
G2 X18.749 Y19.509 I2.294 J0
G3 X18.107 Y20.987 I-0.672 J0.587
X15.022 Y18 I-0.099 J-2.984
X20.799 Y16.938 I2.986 J0
G2 X20.994 Y17.344 I2.433 J-0.923
X21.234 Y17.725 I7.824 J-4.643
G3 X21.234 Y18.275 I-0.415 J0.275
G2 X20.994 Y18.656 I7.584 J5.024
X20.799 Y19.062 I2.237 J1.328
G3 X18.107 Y20.987 I-2.791 J-1.059
G2 X16.509 Y21.979 I0.063 J1.885
G3 X14.67 Y22.378 I-1.09 J-0.586
X21.33 Y13.622 I3.33 J-4.378
X23.143 Y16.05 I-3.33 J4.378
G2 X24.592 Y17.05 I1.449 J-0.55
G1 X26.95
Y18.95
X24.592
G2 X23.143 Y19.95 I0 J1.55
G3 X14.67 Y22.378 I-5.143 J-1.95
G1 X14.631 Y22.338
X14.604 Y22.29
X14.592 Y22.235
X14.595 Y22.18
X15.309 Y18.531
X15.312 Y18.482
X15.304 Y18.434
G3 X18.118 Y17.566 Z-13.162 I1.407 J-0.434 F150
X15.304 Y18.434 Z-13.323 I-1.407 J0.434
X16.491 Y16.544 Z-13.412 I1.407 J-0.434
X18.183 Y18 Z-13.5 I0.219 J1.456
X17.817 Y18 I-0.183 J0 F200
X18.183 Y18 I0.183 J0
G2 X18.749 Y19.509 I2.294 J0
G3 X18.107 Y20.987 I-0.672 J0.587
X15.022 Y18 I-0.099 J-2.984
X20.799 Y16.938 I2.986 J0
G2 X20.994 Y17.344 I2.433 J-0.923
X21.234 Y17.725 I7.824 J-4.643
G3 X21.234 Y18.275 I-0.415 J0.275
G2 X20.994 Y18.656 I7.584 J5.024
X20.799 Y19.062 I2.237 J1.328
G3 X18.107 Y20.987 I-2.791 J-1.059
G2 X16.509 Y21.979 I0.063 J1.885
G3 X14.67 Y22.378 I-1.09 J-0.586
X21.33 Y13.622 I3.33 J-4.378
X23.143 Y16.05 I-3.33 J4.378
G2 X24.592 Y17.05 I1.449 J-0.55
G1 X26.95
Y18.95
X24.592
G2 X23.143 Y19.95 I0 J1.55
G3 X14.67 Y22.378 I-5.143 J-1.95
G1 X14.631 Y22.338
X14.604 Y22.29
X14.592 Y22.235
X14.595 Y22.18
X15.309 Y18.531
X15.312 Y18.482
X15.304 Y18.434
G3 X18.118 Y17.566 Z-13.662 I1.407 J-0.434 F150
X15.304 Y18.434 Z-13.823 I-1.407 J0.434
X16.491 Y16.544 Z-13.912 I1.407 J-0.434
X18.183 Y18 Z-14 I0.219 J1.456
X17.817 Y18 I-0.183 J0 F200
X18.183 Y18 I0.183 J0
G2 X18.749 Y19.509 I2.294 J0
G3 X18.107 Y20.987 I-0.672 J0.587
X15.022 Y18 I-0.099 J-2.984
X20.799 Y16.938 I2.986 J0
G2 X20.994 Y17.344 I2.433 J-0.923
X21.234 Y17.725 I7.824 J-4.643
G3 X21.234 Y18.275 I-0.415 J0.275
G2 X20.994 Y18.656 I7.584 J5.024
X20.799 Y19.062 I2.237 J1.328
G3 X18.107 Y20.987 I-2.791 J-1.059
G2 X16.509 Y21.979 I0.063 J1.885
G3 X14.67 Y22.378 I-1.09 J-0.586
X21.33 Y13.622 I3.33 J-4.378
X23.143 Y16.05 I-3.33 J4.378
G2 X24.592 Y17.05 I1.449 J-0.55
G1 X26.95
Y18.95
X24.592
G2 X23.143 Y19.95 I0 J1.55
G3 X14.67 Y22.378 I-5.143 J-1.95
G1 X14.627 Y22.337 Z-13.988
X14.592 Y22.29 Z-13.976
X14.57 Y22.245 Z-13.943
X14.555 Y22.197 Z-13.909
X14.548 Y22.13 Z-13.809
X14.549 Y22.106 Z-13.69
Z10
(When using Fusion 360 for Personal Use, the feedrate of)
(rapid moves is reduced to match the feedrate of cutting)
(moves, which can increase machining time. Unrestricted rapid)
(moves are available with a Fusion 360 Subscription.)

(2D Pocket2)
G0 X32.067 Y38.952
G1 Z10 F200
Z5
Z-0.19 F100
X32.073 Y38.948 Z-0.259
X32.09 Y38.933 Z-0.325
X32.119 Y38.91 Z-0.383
X32.157 Y38.879 Z-0.432
X32.202 Y38.841 Z-0.469
X32.253 Y38.8 Z-0.492
X32.307 Y38.756 Z-0.5
X33.909 Y37.446
G2 X34.283 Y37.135 I-15.909 J-19.467 F200
G3 X35.642 Y36.392 I2.483 J2.925
G2 X37.436 Y35.719 I-4.582 J-14.953
G3 X38.383 Y36.096 I0.29 J0.649
X37.98 Y37.033 I-0.657 J0.272
G1 X36.175 Y37.724
X36.099 Y37.748
X36.02 Y37.764
X34.36 Y37.997
X29.347 Y38.773
G3 X28.89 Y37.45 I-0.109 J-0.703
G2 X33 Y34.474 I-10.89 J-19.372
G3 X34.162 Y33.851 I1.813 J1.985
G2 X37.438 Y32.53 I-3.098 J-12.409
G1 X37.479 Y32.499
X37.511 Y32.457
X37.531 Y32.409
X37.538 Y32.357
X37.556 Y0.457
X37.551 Y0.411
X37.535 Y0.368
X37.51 Y0.329
X37.477 Y0.297
X37.437 Y0.274
G2 X35.642 Y-0.392 I-6.295 J14.226
G3 X34.283 Y-1.135 I1.124 J-3.669
G2 X33.915 Y-1.441 I-16.438 J19.366
G3 X34.751 Y-2.59 I0.45 J-0.551
G1 X35.959 Y-1.809
X36.022 Y-1.763
X37.725 Y-0.376
G3 X37.974 Y0.041 I-0.449 J0.552
G1 X38.486 Y2.701
G3 X37.436 Y3.453 I-0.698 J0.134
G2 X34.162 Y2.149 I-6.298 J11.047
G3 X33 Y1.526 I0.651 J-2.608
G2 X28.89 Y-1.447 I-15 J16.417
G3 X28.638 Y-2.449 I0.348 J-0.62
X29.654 Y-2.644 I0.599 J0.383
G1 X33.875 Y0.398
X37.788 Y2.836
G3 X38.113 Y3.322 I-0.376 J0.604
G1 X38.605 Y6.26
G3 X37.448 Y6.924 I-0.702 J0.117
G2 X32.697 Y4.748 I-6.386 J7.671
G3 X31.741 Y4.255 I0.288 J-1.732
G2 X18.259 Y-1.45 I-13.741 J13.688
G1 X2.212 Y-1.487
X2.166 Y-1.482
X2.123 Y-1.466
X2.085 Y-1.442
G2 X1.694 Y-1.115 I16.251 J19.857
G3 X0.321 Y-0.356 I-2.557 J-3
G2 X-1.436 Y0.316 I4.698 J14.917
G3 X-2.385 Y-0.056 I-0.294 J-0.648
X-1.988 Y-0.994 I0.656 J-0.276
G1 X-0.193 Y-1.693
X-0.12 Y-1.717
X-0.044 Y-1.733
X1.634 Y-1.992
X6.649 Y-2.767
G3 X7.106 Y-1.444 I0.109 J0.703
G2 X2.986 Y1.538 I10.894 J19.387
G3 X1.812 Y2.175 I-1.865 J-2.035
G2 X-1.437 Y3.515 I3.203 J12.383
G3 X-2.43 Y3.223 I-0.359 J-0.614
X-2.082 Y2.249 I0.634 J-0.323
G1 X2.064 Y0.433
X2.113 Y0.409
X6.757 Y-2.064
G3 X7.043 Y-2.146 I0.334 J0.628
G1 X17.67 Y-2.871
G3 X18.429 Y-2.19 I0.048 J0.71
X17.729 Y-1.45 I-0.711 J0.029
G2 X4.253 Y4.261 I0.271 J19.394
G3 X3.289 Y4.764 I-1.277 J-1.272
G2 X-1.443 Y6.985 I1.728 J9.831
G1 X-1.473 Y7.017
X-1.495 Y7.054
X-1.509 Y7.095
X-1.514 Y7.138
X-1.555 Y35.508
X-1.55 Y35.554
X-1.534 Y35.597
X-1.509 Y35.635
X-1.476 Y35.667
X-1.437 Y35.691
G2 X0.321 Y36.356 I6.373 J-14.191
G3 X1.694 Y37.115 I-1.184 J3.76
G2 X2.088 Y37.444 I16.306 J-19.136
G3 X1.246 Y38.589 I-0.45 J0.551
G1 X0.02 Y37.779
X-0.042 Y37.734
X-1.728 Y36.34
G3 X-1.973 Y35.929 I0.453 J-0.548
G1 X-2.501 Y33.248
G3 X-1.446 Y32.495 I0.698 J-0.138
G2 X1.812 Y33.825 I6.386 J-10.995
G3 X2.986 Y34.462 I-0.691 J2.672
G2 X7.107 Y37.448 I15.014 J-16.384
G3 X7.358 Y38.451 I-0.349 J0.62
X6.342 Y38.645 I-0.599 J-0.383
G1 X2.112 Y35.59
X-1.803 Y33.11
G3 X-2.125 Y32.624 I0.381 J-0.601
G1 X-2.607 Y29.67
G3 X-1.445 Y29.013 I0.702 J-0.115
G2 X3.289 Y31.236 I6.462 J-7.608
G3 X4.253 Y31.739 I-0.312 J1.775
G2 X31.741 Y31.745 I13.747 J-13.694
G3 X32.697 Y31.252 I1.244 J1.239
G2 X37.45 Y29.075 I-1.635 J-9.846
G1 X37.48 Y29.043
X37.503 Y29.006
X37.517 Y28.964
X37.522 Y28.921
X37.464 Y11.436
X37.459 Y11.391
X37.443 Y11.347
G2 X36.168 Y9.566 I-6.286 J3.153
X31.28 Y7.437 I-5.092 J5.014
G3 X30.524 Y7.079 I0.03 J-1.041
G2 X5.478 Y7.077 I-12.524 J10.898
G3 X4.722 Y7.439 I-0.797 J-0.694
G2 X-0.116 Y9.594 I0.281 J7.142
X-1.445 Y11.513 I5.036 J4.906
G1 X-1.459 Y11.554
X-1.464 Y11.597
X-1.466 Y24.398
X-1.461 Y24.442
X-1.447 Y24.483
G2 X-0.116 Y26.406 I6.367 J-2.983
X4.722 Y28.561 I5.119 J-4.988
G3 X5.478 Y28.923 I-0.042 J1.056
G2 X30.524 Y28.921 I12.522 J-10.906
G3 X31.28 Y28.563 I0.785 J0.683
G2 X36.168 Y26.434 I-0.204 J-7.143
X37.447 Y24.645 I-5.011 J-4.934
X36.742 Y21.867 I-1.962 J-0.981
G3 X35.417 Y19.325 I1.777 J-2.542
G1 Y14.5
G2 X31.078 Y10.169 I-4.331 J0
X30.479 Y10.187 I0 J9.6
G3 X29.879 Y10.206 I-0.599 J-9.581
X29.196 Y9.856 I0 J-0.843
G2 X6.804 Y9.856 I-11.196 J8.086
G3 X6.121 Y10.206 I-0.684 J-0.494
X5.56 Y10.189 I0 J-8.973
G2 X5 Y10.171 I-0.56 J8.956
X0.661 Y14.5 I0 J4.339
G1 Y21.5
G2 X5 Y25.829 I4.329 J0
X5.56 Y25.811 I0 J-8.973
G3 X6.121 Y25.794 I0.56 J8.956
X6.804 Y26.144 I0 J0.843
G2 X29.196 Y26.144 I11.196 J-8.086
G3 X29.879 Y25.794 I0.684 J0.494
X30.479 Y25.813 I0 J9.6
G2 X31.078 Y25.831 I0.599 J-9.581
X35.417 Y21.5 I0 J-4.339
G1 Y19.325
G2 X34.023 Y17.233 I-2.266 J0
G3 X32.628 Y15.141 I0.872 J-2.092
G1 Y14.5
G2 X31.078 Y12.95 I-1.55 J0
G1 X27.885
G2 X8.115 Y12.95 I-9.885 J5.05
G1 X5
G2 X3.45 Y14.5 I0 J1.55
G1 Y21.5
G2 X5 Y23.05 I1.55 J0
G1 X8.115
G2 X27.885 Y23.05 I9.885 J-5.05
G1 X31.078
G2 X32.628 Y21.5 I0 J-1.55
G1 Y15.141
X32.632 Y15.105
X32.641 Y15.07
X38.121 Y0.785
G2 X38.016 Y0.53 I-0.187 J-0.072
G1 X37.96 Y0.506 Z-0.506 F100
X37.907 Y0.482 Z-0.524
X37.858 Y0.46 Z-0.552
X37.815 Y0.441 Z-0.591
X37.78 Y0.426 Z-0.638
X37.753 Y0.414 Z-0.692
X37.737 Y0.407 Z-0.75
X37.721 Y0.4 Z-0.808
X37.695 Y0.388 Z-0.862
X37.66 Y0.373 Z-0.909
X37.617 Y0.354 Z-0.948
X37.568 Y0.332 Z-0.976
X37.515 Y0.308 Z-0.994
X37.459 Y0.284 Z-1
X37.437 Y0.274
G2 X35.642 Y-0.392 I-6.295 J14.226 F200
G3 X34.283 Y-1.135 I1.124 J-3.669
G2 X33.915 Y-1.441 I-16.438 J19.366
G3 X34.751 Y-2.59 I0.45 J-0.551
G1 X35.959 Y-1.809
X36.022 Y-1.763
X37.725 Y-0.376
G3 X37.974 Y0.041 I-0.449 J0.552
G1 X38.486 Y2.701
G3 X37.436 Y3.453 I-0.698 J0.134
G2 X34.162 Y2.149 I-6.298 J11.047
G3 X33 Y1.526 I0.651 J-2.608
G2 X28.89 Y-1.447 I-15 J16.417
G3 X28.638 Y-2.449 I0.348 J-0.62
X29.654 Y-2.644 I0.599 J0.383
G1 X33.875 Y0.398
X37.788 Y2.836
G3 X38.113 Y3.322 I-0.376 J0.604
G1 X38.605 Y6.26
G3 X37.448 Y6.924 I-0.702 J0.117
G2 X32.697 Y4.748 I-6.386 J7.671
G3 X31.741 Y4.255 I0.288 J-1.732
G2 X18.259 Y-1.45 I-13.741 J13.688
G1 X2.212 Y-1.487
X2.166 Y-1.482
X2.123 Y-1.466
X2.085 Y-1.442
G2 X1.694 Y-1.115 I16.251 J19.857
G3 X0.321 Y-0.356 I-2.557 J-3
G2 X-1.436 Y0.316 I4.698 J14.917
G3 X-2.385 Y-0.056 I-0.294 J-0.648
X-1.988 Y-0.994 I0.656 J-0.276
G1 X-0.193 Y-1.693
X-0.12 Y-1.717
X-0.044 Y-1.733
X1.634 Y-1.992
X6.649 Y-2.767
G3 X7.106 Y-1.444 I0.109 J0.703
G2 X2.986 Y1.538 I10.894 J19.387
G3 X1.812 Y2.175 I-1.865 J-2.035
G2 X-1.437 Y3.515 I3.203 J12.383
G3 X-2.43 Y3.223 I-0.359 J-0.614
X-2.082 Y2.249 I0.634 J-0.323
G1 X2.064 Y0.433
X2.113 Y0.409
X6.757 Y-2.064
G3 X7.043 Y-2.146 I0.334 J0.628
G1 X17.67 Y-2.871
G3 X18.429 Y-2.19 I0.048 J0.71
X17.729 Y-1.45 I-0.711 J0.029
G2 X4.253 Y4.261 I0.271 J19.394
G3 X3.289 Y4.764 I-1.277 J-1.272
G2 X-1.443 Y6.985 I1.728 J9.831
G1 X-1.473 Y7.017
X-1.495 Y7.054
X-1.509 Y7.095
X-1.514 Y7.138
X-1.555 Y35.508
X-1.55 Y35.554
X-1.534 Y35.597
X-1.509 Y35.635
X-1.476 Y35.667
X-1.437 Y35.691
G2 X0.321 Y36.356 I6.373 J-14.191
G3 X1.694 Y37.115 I-1.184 J3.76
G2 X2.088 Y37.444 I16.306 J-19.136
G3 X1.246 Y38.589 I-0.45 J0.551
G1 X0.02 Y37.779
X-0.042 Y37.734
X-1.728 Y36.34
G3 X-1.973 Y35.929 I0.453 J-0.548
G1 X-2.501 Y33.248
G3 X-1.446 Y32.495 I0.698 J-0.138
G2 X1.812 Y33.825 I6.386 J-10.995
G3 X2.986 Y34.462 I-0.691 J2.672
G2 X7.107 Y37.448 I15.014 J-16.384
G1 X7.155 Y37.467
X7.205 Y37.474
X33.783 Y37.491
X33.828 Y37.486
X33.871 Y37.471
X33.909 Y37.446
G2 X34.283 Y37.135 I-15.909 J-19.467
G3 X35.642 Y36.392 I2.483 J2.925
G2 X37.436 Y35.719 I-4.582 J-14.953
G3 X38.383 Y36.096 I0.29 J0.649
X37.98 Y37.033 I-0.657 J0.272
G1 X36.175 Y37.724
X36.099 Y37.748
X36.02 Y37.764
X34.36 Y37.997
X29.347 Y38.773
G3 X28.89 Y37.45 I-0.109 J-0.703
G2 X33 Y34.474 I-10.89 J-19.372
G3 X34.162 Y33.851 I1.813 J1.985
G2 X37.438 Y32.53 I-3.098 J-12.409
G1 X37.479 Y32.499
X37.511 Y32.457
X37.531 Y32.408
X37.538 Y32.356
X37.464 Y11.436
X37.459 Y11.391
X37.443 Y11.347
G2 X36.168 Y9.566 I-6.286 J3.153
X31.28 Y7.437 I-5.092 J5.014
G3 X30.524 Y7.079 I0.03 J-1.041
G2 X5.478 Y7.077 I-12.524 J10.898
G3 X4.722 Y7.439 I-0.797 J-0.694
G2 X-0.116 Y9.594 I0.281 J7.142
X-1.445 Y11.513 I5.036 J4.906
G1 X-1.459 Y11.554
X-1.464 Y11.597
X-1.515 Y28.86
X-1.511 Y28.903
X-1.497 Y28.944
X-1.475 Y28.981
X-1.445 Y29.013
G2 X3.289 Y31.236 I6.462 J-7.608
G3 X4.253 Y31.739 I-0.312 J1.775
G2 X31.741 Y31.745 I13.747 J-13.694
G3 X32.697 Y31.252 I1.244 J1.239
G2 X37.45 Y29.075 I-1.635 J-9.846
G1 X37.459 Y29.067
X37.512 Y29.023 Z-0.992
X37.562 Y28.981 Z-0.969
X37.608 Y28.944 Z-0.932
X37.645 Y28.912 Z-0.883
X37.674 Y28.889 Z-0.825
X37.691 Y28.874 Z-0.759
X37.697 Y28.869 Z-0.69
Z5
X-1.592 Y24.175
Z1 F100
Z-0.69
X-1.588 Y24.182 Z-0.759
X-1.579 Y24.202 Z-0.825
X-1.563 Y24.236 Z-0.883
X-1.542 Y24.28 Z-0.932
X-1.517 Y24.333 Z-0.969
X-1.489 Y24.393 Z-0.992
X-1.46 Y24.455 Z-1
X-1.447 Y24.483
G2 X-0.116 Y26.406 I6.367 J-2.983 F200
X4.722 Y28.561 I5.119 J-4.988
G3 X5.478 Y28.923 I-0.042 J1.056
G2 X30.524 Y28.921 I12.522 J-10.906
G3 X31.28 Y28.563 I0.785 J0.683
G2 X36.168 Y26.434 I-0.204 J-7.143
X37.447 Y24.645 I-5.011 J-4.934
X36.742 Y21.867 I-1.962 J-0.981
G3 X35.417 Y19.325 I1.777 J-2.542
G1 Y14.5
G2 X31.078 Y10.169 I-4.331 J0
X30.479 Y10.187 I0 J9.6
G3 X29.879 Y10.206 I-0.599 J-9.581
X29.196 Y9.856 I0 J-0.843
G2 X6.804 Y9.856 I-11.196 J8.086
G3 X6.121 Y10.206 I-0.684 J-0.494
X5.56 Y10.189 I0 J-8.973
G2 X5 Y10.171 I-0.56 J8.956
X0.661 Y14.5 I0 J4.339
G1 Y21.5
G2 X5 Y25.829 I4.329 J0
X5.56 Y25.811 I0 J-8.973
G3 X6.121 Y25.794 I0.56 J8.956
X6.804 Y26.144 I0 J0.843
G2 X29.196 Y26.144 I11.196 J-8.086
G3 X29.879 Y25.794 I0.684 J0.494
X30.479 Y25.813 I0 J9.6
G2 X31.078 Y25.831 I0.599 J-9.581
X35.417 Y21.5 I0 J-4.339
G1 Y19.325
G2 X34.023 Y17.233 I-2.266 J0
G3 X32.628 Y15.141 I0.872 J-2.092
G1 Y14.5
G2 X31.078 Y12.95 I-1.55 J0
G1 X27.885
G2 X8.115 Y12.95 I-9.885 J5.05
G1 X5
G2 X3.45 Y14.5 I0 J1.55
G1 Y21.5
G2 X5 Y23.05 I1.55 J0
G1 X8.115
G2 X27.885 Y23.05 I9.885 J-5.05
G1 X31.078
G2 X32.628 Y21.5 I0 J-1.55
G1 Y15.141
X32.632 Y15.105
X32.641 Y15.07
X38.121 Y0.785
G2 X38.016 Y0.53 I-0.187 J-0.072
G1 X37.96 Y0.506 Z-1.006 F100
X37.907 Y0.482 Z-1.024
X37.858 Y0.46 Z-1.052
X37.815 Y0.441 Z-1.091
X37.78 Y0.426 Z-1.138
X37.753 Y0.414 Z-1.192
X37.737 Y0.407 Z-1.25
X37.721 Y0.4 Z-1.308
X37.695 Y0.388 Z-1.362
X37.66 Y0.373 Z-1.409
X37.617 Y0.354 Z-1.448
X37.568 Y0.332 Z-1.476
X37.515 Y0.308 Z-1.494
X37.459 Y0.284 Z-1.5
X37.437 Y0.274
G2 X35.642 Y-0.392 I-6.295 J14.226 F200
G3 X34.283 Y-1.135 I1.124 J-3.669
G2 X33.915 Y-1.441 I-16.438 J19.366
G3 X34.751 Y-2.59 I0.45 J-0.551
G1 X35.959 Y-1.809
X36.022 Y-1.763
X37.725 Y-0.376
G3 X37.974 Y0.041 I-0.449 J0.552
G1 X38.486 Y2.701
G3 X37.436 Y3.453 I-0.698 J0.134
G2 X34.162 Y2.149 I-6.298 J11.047
G3 X33 Y1.526 I0.651 J-2.608
G2 X28.89 Y-1.447 I-15 J16.417
G3 X28.638 Y-2.449 I0.348 J-0.62
X29.654 Y-2.644 I0.599 J0.383
G1 X33.875 Y0.398
X37.788 Y2.836
G3 X38.113 Y3.322 I-0.376 J0.604
G1 X38.605 Y6.26
G3 X37.448 Y6.924 I-0.702 J0.117
G2 X32.697 Y4.748 I-6.386 J7.671
G3 X31.741 Y4.255 I0.288 J-1.732
G2 X18.259 Y-1.45 I-13.741 J13.688
G1 X2.212 Y-1.487
X2.166 Y-1.482
X2.123 Y-1.466
X2.085 Y-1.442
G2 X1.694 Y-1.115 I16.251 J19.857
G3 X0.321 Y-0.356 I-2.557 J-3
G2 X-1.436 Y0.316 I4.698 J14.917
G3 X-2.385 Y-0.056 I-0.294 J-0.648
X-1.988 Y-0.994 I0.656 J-0.276
G1 X-0.193 Y-1.693
X-0.12 Y-1.717
X-0.044 Y-1.733
X1.634 Y-1.992
X6.649 Y-2.767
G3 X7.106 Y-1.444 I0.109 J0.703
G2 X2.986 Y1.538 I10.894 J19.387
G3 X1.812 Y2.175 I-1.865 J-2.035
G2 X-1.437 Y3.515 I3.203 J12.383
G3 X-2.43 Y3.223 I-0.359 J-0.614
X-2.082 Y2.249 I0.634 J-0.323
G1 X2.064 Y0.433
X2.113 Y0.409
X6.757 Y-2.064
G3 X7.043 Y-2.146 I0.334 J0.628
G1 X17.67 Y-2.871
G3 X18.429 Y-2.19 I0.048 J0.71
X17.729 Y-1.45 I-0.711 J0.029
G2 X4.253 Y4.261 I0.271 J19.394
G3 X3.289 Y4.764 I-1.277 J-1.272
G2 X-1.443 Y6.985 I1.728 J9.831
G1 X-1.473 Y7.017
X-1.495 Y7.054
X-1.509 Y7.095
X-1.514 Y7.138
X-1.555 Y35.508
X-1.55 Y35.554
X-1.534 Y35.597
X-1.509 Y35.635
X-1.476 Y35.667
X-1.437 Y35.691
G2 X0.321 Y36.356 I6.373 J-14.191
G3 X1.694 Y37.115 I-1.184 J3.76
G2 X2.088 Y37.444 I16.306 J-19.136
G3 X1.246 Y38.589 I-0.45 J0.551
G1 X0.02 Y37.779
X-0.042 Y37.734
X-1.728 Y36.34
G3 X-1.973 Y35.929 I0.453 J-0.548
G1 X-2.501 Y33.248
G3 X-1.446 Y32.495 I0.698 J-0.138
G2 X1.812 Y33.825 I6.386 J-10.995
G3 X2.986 Y34.462 I-0.691 J2.672
G2 X7.107 Y37.448 I15.014 J-16.384
G1 X7.155 Y37.467
X7.205 Y37.474
X33.783 Y37.491
X33.828 Y37.486
X33.871 Y37.471
X33.909 Y37.446
G2 X34.283 Y37.135 I-15.909 J-19.467
G3 X35.642 Y36.392 I2.483 J2.925
G2 X37.436 Y35.719 I-4.582 J-14.953
G3 X38.383 Y36.096 I0.29 J0.649
X37.98 Y37.033 I-0.657 J0.272
G1 X36.175 Y37.724
X36.099 Y37.748
X36.02 Y37.764
X34.36 Y37.997
X29.347 Y38.773
G3 X28.89 Y37.45 I-0.109 J-0.703
G2 X33 Y34.474 I-10.89 J-19.372
G3 X34.162 Y33.851 I1.813 J1.985
G2 X37.438 Y32.53 I-3.098 J-12.409
G1 X37.479 Y32.499
X37.511 Y32.457
X37.531 Y32.408
X37.538 Y32.356
X37.464 Y11.436
X37.459 Y11.391
X37.443 Y11.347
G2 X36.168 Y9.566 I-6.286 J3.153
X31.28 Y7.437 I-5.092 J5.014
G3 X30.524 Y7.079 I0.03 J-1.041
G2 X5.478 Y7.077 I-12.524 J10.898
G3 X4.722 Y7.439 I-0.797 J-0.694
G2 X-0.116 Y9.594 I0.281 J7.142
X-1.445 Y11.513 I5.036 J4.906
G1 X-1.459 Y11.554
X-1.464 Y11.597
X-1.515 Y28.86
X-1.511 Y28.903
X-1.497 Y28.944
X-1.475 Y28.981
X-1.445 Y29.013
G2 X3.289 Y31.236 I6.462 J-7.608
G3 X4.253 Y31.739 I-0.312 J1.775
G2 X31.741 Y31.745 I13.747 J-13.694
G3 X32.697 Y31.252 I1.244 J1.239
G2 X37.45 Y29.075 I-1.635 J-9.846
G1 X37.459 Y29.067
X37.512 Y29.023 Z-1.492
X37.562 Y28.981 Z-1.469
X37.608 Y28.944 Z-1.432
X37.645 Y28.912 Z-1.383
X37.674 Y28.889 Z-1.325
X37.691 Y28.874 Z-1.259
X37.697 Y28.869 Z-1.19
Z5
X-1.592 Y24.175
Z0.5 F100
Z-1.19
X-1.588 Y24.182 Z-1.259
X-1.579 Y24.202 Z-1.325
X-1.563 Y24.236 Z-1.383
X-1.542 Y24.28 Z-1.432
X-1.517 Y24.333 Z-1.469
X-1.489 Y24.393 Z-1.492
X-1.46 Y24.455 Z-1.5
X-1.447 Y24.483
G2 X-0.116 Y26.406 I6.367 J-2.983 F200
X4.722 Y28.561 I5.119 J-4.988
G3 X5.478 Y28.923 I-0.042 J1.056
G2 X30.524 Y28.921 I12.522 J-10.906
G3 X31.28 Y28.563 I0.785 J0.683
G2 X36.168 Y26.434 I-0.204 J-7.143
X37.447 Y24.645 I-5.011 J-4.934
X36.742 Y21.867 I-1.962 J-0.981
G3 X35.417 Y19.325 I1.777 J-2.542
G1 Y14.5
G2 X31.078 Y10.169 I-4.331 J0
X30.479 Y10.187 I0 J9.6
G3 X29.879 Y10.206 I-0.599 J-9.581
X29.196 Y9.856 I0 J-0.843
G2 X6.804 Y9.856 I-11.196 J8.086
G3 X6.121 Y10.206 I-0.684 J-0.494
X5.56 Y10.189 I0 J-8.973
G2 X5 Y10.171 I-0.56 J8.956
X0.661 Y14.5 I0 J4.339
G1 Y21.5
G2 X5 Y25.829 I4.329 J0
X5.56 Y25.811 I0 J-8.973
G3 X6.121 Y25.794 I0.56 J8.956
X6.804 Y26.144 I0 J0.843
G2 X29.196 Y26.144 I11.196 J-8.086
G3 X29.879 Y25.794 I0.684 J0.494
X30.479 Y25.813 I0 J9.6
G2 X31.078 Y25.831 I0.599 J-9.581
X35.417 Y21.5 I0 J-4.339
G1 Y19.325
G2 X34.023 Y17.233 I-2.266 J0
G3 X32.628 Y15.141 I0.872 J-2.092
G1 Y14.5
G2 X31.078 Y12.95 I-1.55 J0
G1 X27.885
G2 X8.115 Y12.95 I-9.885 J5.05
G1 X5
G2 X3.45 Y14.5 I0 J1.55
G1 Y21.5
G2 X5 Y23.05 I1.55 J0
G1 X8.115
G2 X27.885 Y23.05 I9.885 J-5.05
G1 X31.078
G2 X32.628 Y21.5 I0 J-1.55
G1 Y15.141
X32.632 Y15.105
X32.641 Y15.07
X38.121 Y0.785
G2 X38.016 Y0.53 I-0.187 J-0.072
G1 X37.96 Y0.506 Z-1.506 F100
X37.907 Y0.482 Z-1.524
X37.858 Y0.46 Z-1.552
X37.815 Y0.441 Z-1.591
X37.78 Y0.426 Z-1.638
X37.753 Y0.414 Z-1.692
X37.737 Y0.407 Z-1.75
X37.721 Y0.4 Z-1.808
X37.695 Y0.388 Z-1.862
X37.66 Y0.373 Z-1.909
X37.617 Y0.354 Z-1.948
X37.568 Y0.332 Z-1.976
X37.515 Y0.308 Z-1.994
X37.459 Y0.284 Z-2
X37.437 Y0.274
G2 X35.642 Y-0.392 I-6.295 J14.226 F200
G3 X34.283 Y-1.135 I1.124 J-3.669
G2 X33.915 Y-1.441 I-16.438 J19.366
G3 X34.751 Y-2.59 I0.45 J-0.551
G1 X35.959 Y-1.809
X36.022 Y-1.763
X37.725 Y-0.376
G3 X37.974 Y0.041 I-0.449 J0.552
G1 X38.486 Y2.701
G3 X37.436 Y3.453 I-0.698 J0.134
G2 X34.162 Y2.149 I-6.298 J11.047
G3 X33 Y1.526 I0.651 J-2.608
G2 X28.89 Y-1.447 I-15 J16.417
G3 X28.638 Y-2.449 I0.348 J-0.62
X29.654 Y-2.644 I0.599 J0.383
G1 X33.875 Y0.398
X37.788 Y2.836
G3 X38.113 Y3.322 I-0.376 J0.604
G1 X38.605 Y6.26
G3 X37.448 Y6.924 I-0.702 J0.117
G2 X32.697 Y4.748 I-6.386 J7.671
G3 X31.741 Y4.255 I0.288 J-1.732
G2 X18.259 Y-1.45 I-13.741 J13.688
G1 X2.212 Y-1.487
X2.166 Y-1.482
X2.123 Y-1.466
X2.085 Y-1.442
G2 X1.694 Y-1.115 I16.251 J19.857
G3 X0.321 Y-0.356 I-2.557 J-3
G2 X-1.436 Y0.316 I4.698 J14.917
G3 X-2.385 Y-0.056 I-0.294 J-0.648
X-1.988 Y-0.994 I0.656 J-0.276
G1 X-0.193 Y-1.693
X-0.12 Y-1.717
X-0.044 Y-1.733
X1.634 Y-1.992
X6.649 Y-2.767
G3 X7.106 Y-1.444 I0.109 J0.703
G2 X2.986 Y1.538 I10.894 J19.387
G3 X1.812 Y2.175 I-1.865 J-2.035
G2 X-1.437 Y3.515 I3.203 J12.383
G3 X-2.43 Y3.223 I-0.359 J-0.614
X-2.082 Y2.249 I0.634 J-0.323
G1 X2.064 Y0.433
X2.113 Y0.409
X6.757 Y-2.064
G3 X7.043 Y-2.146 I0.334 J0.628
G1 X17.67 Y-2.871
G3 X18.429 Y-2.19 I0.048 J0.71
X17.729 Y-1.45 I-0.711 J0.029
G2 X4.253 Y4.261 I0.271 J19.394
G3 X3.289 Y4.764 I-1.277 J-1.272
G2 X-1.443 Y6.985 I1.728 J9.831
G1 X-1.473 Y7.017
X-1.495 Y7.054
X-1.509 Y7.095
X-1.514 Y7.138
X-1.555 Y35.508
X-1.55 Y35.554
X-1.534 Y35.597
X-1.509 Y35.635
X-1.476 Y35.667
X-1.437 Y35.691
G2 X0.321 Y36.356 I6.373 J-14.191
G3 X1.694 Y37.115 I-1.184 J3.76
G2 X2.088 Y37.444 I16.306 J-19.136
G3 X1.246 Y38.589 I-0.45 J0.551
G1 X0.02 Y37.779
X-0.042 Y37.734
X-1.728 Y36.34
G3 X-1.973 Y35.929 I0.453 J-0.548
G1 X-2.501 Y33.248
G3 X-1.446 Y32.495 I0.698 J-0.138
G2 X1.812 Y33.825 I6.386 J-10.995
G3 X2.986 Y34.462 I-0.691 J2.672
G2 X7.107 Y37.448 I15.014 J-16.384
G1 X7.155 Y37.467
X7.205 Y37.474
X33.783 Y37.491
X33.828 Y37.486
X33.871 Y37.471
X33.909 Y37.446
G2 X34.283 Y37.135 I-15.909 J-19.467
G3 X35.642 Y36.392 I2.483 J2.925
G2 X37.436 Y35.719 I-4.582 J-14.953
G3 X38.383 Y36.096 I0.29 J0.649
X37.98 Y37.033 I-0.657 J0.272
G1 X36.175 Y37.724
X36.099 Y37.748
X36.02 Y37.764
X34.36 Y37.997
X29.347 Y38.773
G3 X28.89 Y37.45 I-0.109 J-0.703
G2 X33 Y34.474 I-10.89 J-19.372
G3 X34.162 Y33.851 I1.813 J1.985
G2 X37.438 Y32.53 I-3.098 J-12.409
G1 X37.479 Y32.499
X37.511 Y32.457
X37.531 Y32.408
X37.538 Y32.356
X37.464 Y11.436
X37.459 Y11.391
X37.443 Y11.347
G2 X36.168 Y9.566 I-6.286 J3.153
X31.28 Y7.437 I-5.092 J5.014
G3 X30.524 Y7.079 I0.03 J-1.041
G2 X5.478 Y7.077 I-12.524 J10.898
G3 X4.722 Y7.439 I-0.797 J-0.694
G2 X-0.116 Y9.594 I0.281 J7.142
X-1.445 Y11.513 I5.036 J4.906
G1 X-1.459 Y11.554
X-1.464 Y11.597
X-1.515 Y28.86
X-1.511 Y28.903
X-1.497 Y28.944
X-1.475 Y28.981
X-1.445 Y29.013
G2 X3.289 Y31.236 I6.462 J-7.608
G3 X4.253 Y31.739 I-0.312 J1.775
G2 X31.741 Y31.745 I13.747 J-13.694
G3 X32.697 Y31.252 I1.244 J1.239
G2 X37.45 Y29.075 I-1.635 J-9.846
G1 X37.459 Y29.067
X37.512 Y29.023 Z-1.992
X37.562 Y28.981 Z-1.969
X37.608 Y28.944 Z-1.932
X37.645 Y28.912 Z-1.883
X37.674 Y28.889 Z-1.825
X37.691 Y28.874 Z-1.759
X37.697 Y28.869 Z-1.69
Z5
X-1.592 Y24.175
Z0 F100
Z-1.69
X-1.588 Y24.182 Z-1.759
X-1.579 Y24.202 Z-1.825
X-1.563 Y24.236 Z-1.883
X-1.542 Y24.28 Z-1.932
X-1.517 Y24.333 Z-1.969
X-1.489 Y24.393 Z-1.992
X-1.46 Y24.455 Z-2
X-1.447 Y24.483
G2 X-0.116 Y26.406 I6.367 J-2.983 F200
X4.722 Y28.561 I5.119 J-4.988
G3 X5.478 Y28.923 I-0.042 J1.056
G2 X30.524 Y28.921 I12.522 J-10.906
G3 X31.28 Y28.563 I0.785 J0.683
G2 X36.168 Y26.434 I-0.204 J-7.143
X37.447 Y24.645 I-5.011 J-4.934
X36.742 Y21.867 I-1.962 J-0.981
G3 X35.417 Y19.325 I1.777 J-2.542
G1 Y14.5
G2 X31.078 Y10.169 I-4.331 J0
X30.479 Y10.187 I0 J9.6
G3 X29.879 Y10.206 I-0.599 J-9.581
X29.196 Y9.856 I0 J-0.843
G2 X6.804 Y9.856 I-11.196 J8.086
G3 X6.121 Y10.206 I-0.684 J-0.494
X5.56 Y10.189 I0 J-8.973
G2 X5 Y10.171 I-0.56 J8.956
X0.661 Y14.5 I0 J4.339
G1 Y21.5
G2 X5 Y25.829 I4.329 J0
X5.56 Y25.811 I0 J-8.973
G3 X6.121 Y25.794 I0.56 J8.956
X6.804 Y26.144 I0 J0.843
G2 X29.196 Y26.144 I11.196 J-8.086
G3 X29.879 Y25.794 I0.684 J0.494
X30.479 Y25.813 I0 J9.6
G2 X31.078 Y25.831 I0.599 J-9.581
X35.417 Y21.5 I0 J-4.339
G1 Y19.325
G2 X34.023 Y17.233 I-2.266 J0
G3 X32.628 Y15.141 I0.872 J-2.092
G1 Y14.5
G2 X31.078 Y12.95 I-1.55 J0
G1 X27.885
G2 X8.115 Y12.95 I-9.885 J5.05
G1 X5
G2 X3.45 Y14.5 I0 J1.55
G1 Y21.5
G2 X5 Y23.05 I1.55 J0
G1 X8.115
G2 X27.885 Y23.05 I9.885 J-5.05
G1 X31.078
G2 X32.628 Y21.5 I0 J-1.55
G1 Y15.141
X32.632 Y15.105
X32.641 Y15.07
X38.121 Y0.785
G2 X38.016 Y0.53 I-0.187 J-0.072
G1 X37.96 Y0.506 Z-2.006 F100
X37.907 Y0.482 Z-2.024
X37.858 Y0.46 Z-2.052
X37.815 Y0.441 Z-2.091
X37.78 Y0.426 Z-2.138
X37.753 Y0.414 Z-2.192
X37.737 Y0.407 Z-2.25
X37.721 Y0.4 Z-2.308
X37.695 Y0.388 Z-2.362
X37.66 Y0.373 Z-2.409
X37.617 Y0.354 Z-2.448
X37.568 Y0.332 Z-2.476
X37.515 Y0.308 Z-2.494
X37.459 Y0.284 Z-2.5
X37.437 Y0.274
G2 X35.642 Y-0.392 I-6.295 J14.226 F200
G3 X34.283 Y-1.135 I1.124 J-3.669
G2 X33.915 Y-1.441 I-16.438 J19.366
G3 X34.751 Y-2.59 I0.45 J-0.551
G1 X35.959 Y-1.809
X36.022 Y-1.763
X37.725 Y-0.376
G3 X37.974 Y0.041 I-0.449 J0.552
G1 X38.486 Y2.701
G3 X37.436 Y3.453 I-0.698 J0.134
G2 X34.162 Y2.149 I-6.298 J11.047
G3 X33 Y1.526 I0.651 J-2.608
G2 X28.89 Y-1.447 I-15 J16.417
G3 X28.638 Y-2.449 I0.348 J-0.62
X29.654 Y-2.644 I0.599 J0.383
G1 X33.875 Y0.398
X37.788 Y2.836
G3 X38.113 Y3.322 I-0.376 J0.604
G1 X38.605 Y6.26
G3 X37.448 Y6.924 I-0.702 J0.117
G2 X32.697 Y4.748 I-6.386 J7.671
G3 X31.741 Y4.255 I0.288 J-1.732
G2 X18.259 Y-1.45 I-13.741 J13.688
G1 X2.212 Y-1.487
X2.166 Y-1.482
X2.123 Y-1.466
X2.085 Y-1.442
G2 X1.694 Y-1.115 I16.251 J19.857
G3 X0.321 Y-0.356 I-2.557 J-3
G2 X-1.436 Y0.316 I4.698 J14.917
G3 X-2.385 Y-0.056 I-0.294 J-0.648
X-1.988 Y-0.994 I0.656 J-0.276
G1 X-0.193 Y-1.693
X-0.12 Y-1.717
X-0.044 Y-1.733
X1.634 Y-1.992
X6.649 Y-2.767
G3 X7.106 Y-1.444 I0.109 J0.703
G2 X2.986 Y1.538 I10.894 J19.387
G3 X1.812 Y2.175 I-1.865 J-2.035
G2 X-1.437 Y3.515 I3.203 J12.383
G3 X-2.43 Y3.223 I-0.359 J-0.614
X-2.082 Y2.249 I0.634 J-0.323
G1 X2.064 Y0.433
X2.113 Y0.409
X6.757 Y-2.064
G3 X7.043 Y-2.146 I0.334 J0.628
G1 X17.67 Y-2.871
G3 X18.429 Y-2.19 I0.048 J0.71
X17.729 Y-1.45 I-0.711 J0.029
G2 X4.253 Y4.261 I0.271 J19.394
G3 X3.289 Y4.764 I-1.277 J-1.272
G2 X-1.443 Y6.985 I1.728 J9.831
G1 X-1.473 Y7.017
X-1.495 Y7.054
X-1.509 Y7.095
X-1.514 Y7.138
X-1.555 Y35.508
X-1.55 Y35.554
X-1.534 Y35.597
X-1.509 Y35.635
X-1.476 Y35.667
X-1.437 Y35.691
G2 X0.321 Y36.356 I6.373 J-14.191
G3 X1.694 Y37.115 I-1.184 J3.76
G2 X2.088 Y37.444 I16.306 J-19.136
G3 X1.246 Y38.589 I-0.45 J0.551
G1 X0.02 Y37.779
X-0.042 Y37.734
X-1.728 Y36.34
G3 X-1.973 Y35.929 I0.453 J-0.548
G1 X-2.501 Y33.248
G3 X-1.446 Y32.495 I0.698 J-0.138
G2 X1.812 Y33.825 I6.386 J-10.995
G3 X2.986 Y34.462 I-0.691 J2.672
G2 X7.107 Y37.448 I15.014 J-16.384
G1 X7.155 Y37.467
X7.205 Y37.474
X33.783 Y37.491
X33.828 Y37.486
X33.871 Y37.471
X33.909 Y37.446
G2 X34.283 Y37.135 I-15.909 J-19.467
G3 X35.642 Y36.392 I2.483 J2.925
G2 X37.436 Y35.719 I-4.582 J-14.953
G3 X38.383 Y36.096 I0.29 J0.649
X37.98 Y37.033 I-0.657 J0.272
G1 X36.175 Y37.724
X36.099 Y37.748
X36.02 Y37.764
X34.36 Y37.997
X29.347 Y38.773
G3 X28.89 Y37.45 I-0.109 J-0.703
G2 X33 Y34.474 I-10.89 J-19.372
G3 X34.162 Y33.851 I1.813 J1.985
G2 X37.438 Y32.53 I-3.098 J-12.409
G1 X37.479 Y32.499
X37.511 Y32.457
X37.531 Y32.408
X37.538 Y32.356
X37.464 Y11.436
X37.459 Y11.391
X37.443 Y11.347
G2 X36.168 Y9.566 I-6.286 J3.153
X31.28 Y7.437 I-5.092 J5.014
G3 X30.524 Y7.079 I0.03 J-1.041
G2 X5.478 Y7.077 I-12.524 J10.898
G3 X4.722 Y7.439 I-0.797 J-0.694
G2 X-0.116 Y9.594 I0.281 J7.142
X-1.445 Y11.513 I5.036 J4.906
G1 X-1.459 Y11.554
X-1.464 Y11.597
X-1.515 Y28.86
X-1.511 Y28.903
X-1.497 Y28.944
X-1.475 Y28.981
X-1.445 Y29.013
G2 X3.289 Y31.236 I6.462 J-7.608
G3 X4.253 Y31.739 I-0.312 J1.775
G2 X31.741 Y31.745 I13.747 J-13.694
G3 X32.697 Y31.252 I1.244 J1.239
G2 X37.45 Y29.075 I-1.635 J-9.846
G1 X37.459 Y29.067
X37.512 Y29.023 Z-2.492
X37.562 Y28.981 Z-2.469
X37.608 Y28.944 Z-2.432
X37.645 Y28.912 Z-2.383
X37.674 Y28.889 Z-2.325
X37.691 Y28.874 Z-2.259
X37.697 Y28.869 Z-2.19
Z5
X-1.592 Y24.175
Z-0.5 F100
Z-2.19
X-1.588 Y24.182 Z-2.259
X-1.579 Y24.202 Z-2.325
X-1.563 Y24.236 Z-2.383
X-1.542 Y24.28 Z-2.432
X-1.517 Y24.333 Z-2.469
X-1.489 Y24.393 Z-2.492
X-1.46 Y24.455 Z-2.5
X-1.447 Y24.483
G2 X-0.116 Y26.406 I6.367 J-2.983 F200
X4.722 Y28.561 I5.119 J-4.988
G3 X5.478 Y28.923 I-0.042 J1.056
G2 X30.524 Y28.921 I12.522 J-10.906
G3 X31.28 Y28.563 I0.785 J0.683
G2 X36.168 Y26.434 I-0.204 J-7.143
X37.447 Y24.645 I-5.011 J-4.934
X36.742 Y21.867 I-1.962 J-0.981
G3 X35.417 Y19.325 I1.777 J-2.542
G1 Y14.5
G2 X31.078 Y10.169 I-4.331 J0
X30.479 Y10.187 I0 J9.6
G3 X29.879 Y10.206 I-0.599 J-9.581
X29.196 Y9.856 I0 J-0.843
G2 X6.804 Y9.856 I-11.196 J8.086
G3 X6.121 Y10.206 I-0.684 J-0.494
X5.56 Y10.189 I0 J-8.973
G2 X5 Y10.171 I-0.56 J8.956
X0.661 Y14.5 I0 J4.339
G1 Y21.5
G2 X5 Y25.829 I4.329 J0
X5.56 Y25.811 I0 J-8.973
G3 X6.121 Y25.794 I0.56 J8.956
X6.804 Y26.144 I0 J0.843
G2 X29.196 Y26.144 I11.196 J-8.086
G3 X29.879 Y25.794 I0.684 J0.494
X30.479 Y25.813 I0 J9.6
G2 X31.078 Y25.831 I0.599 J-9.581
X35.417 Y21.5 I0 J-4.339
G1 Y19.325
G2 X34.023 Y17.233 I-2.266 J0
G3 X32.628 Y15.141 I0.872 J-2.092
G1 Y14.5
G2 X31.078 Y12.95 I-1.55 J0
G1 X27.885
G2 X8.115 Y12.95 I-9.885 J5.05
G1 X5
G2 X3.45 Y14.5 I0 J1.55
G1 Y21.5
G2 X5 Y23.05 I1.55 J0
G1 X8.115
G2 X27.885 Y23.05 I9.885 J-5.05
G1 X31.078
G2 X32.628 Y21.5 I0 J-1.55
G1 Y15.141
X32.632 Y15.105
X32.641 Y15.07
X38.121 Y0.785
G2 X38.016 Y0.53 I-0.187 J-0.072
G1 X37.96 Y0.506 Z-2.506 F100
X37.907 Y0.482 Z-2.524
X37.858 Y0.46 Z-2.552
X37.815 Y0.441 Z-2.591
X37.78 Y0.426 Z-2.638
X37.753 Y0.414 Z-2.692
X37.737 Y0.407 Z-2.75
X37.721 Y0.4 Z-2.808
X37.695 Y0.388 Z-2.862
X37.66 Y0.373 Z-2.909
X37.617 Y0.354 Z-2.948
X37.568 Y0.332 Z-2.976
X37.515 Y0.308 Z-2.994
X37.459 Y0.284 Z-3
X37.437 Y0.274
G2 X35.642 Y-0.392 I-6.295 J14.226 F200
G3 X34.283 Y-1.135 I1.124 J-3.669
G2 X33.915 Y-1.441 I-16.438 J19.366
G3 X34.751 Y-2.59 I0.45 J-0.551
G1 X35.959 Y-1.809
X36.022 Y-1.763
X37.725 Y-0.376
G3 X37.974 Y0.041 I-0.449 J0.552
G1 X38.486 Y2.701
G3 X37.436 Y3.453 I-0.698 J0.134
G2 X34.162 Y2.149 I-6.298 J11.047
G3 X33 Y1.526 I0.651 J-2.608
G2 X28.89 Y-1.447 I-15 J16.417
G3 X28.638 Y-2.449 I0.348 J-0.62
X29.654 Y-2.644 I0.599 J0.383
G1 X33.875 Y0.398
X37.788 Y2.836
G3 X38.113 Y3.322 I-0.376 J0.604
G1 X38.605 Y6.26
G3 X37.448 Y6.924 I-0.702 J0.117
G2 X32.697 Y4.748 I-6.386 J7.671
G3 X31.741 Y4.255 I0.288 J-1.732
G2 X18.259 Y-1.45 I-13.741 J13.688
G1 X2.212 Y-1.487
X2.166 Y-1.482
X2.123 Y-1.466
X2.085 Y-1.442
G2 X1.694 Y-1.115 I16.251 J19.857
G3 X0.321 Y-0.356 I-2.557 J-3
G2 X-1.436 Y0.316 I4.698 J14.917
G3 X-2.385 Y-0.056 I-0.294 J-0.648
X-1.988 Y-0.994 I0.656 J-0.276
G1 X-0.193 Y-1.693
X-0.12 Y-1.717
X-0.044 Y-1.733
X1.634 Y-1.992
X6.649 Y-2.767
G3 X7.106 Y-1.444 I0.109 J0.703
G2 X2.986 Y1.538 I10.894 J19.387
G3 X1.812 Y2.175 I-1.865 J-2.035
G2 X-1.437 Y3.515 I3.203 J12.383
G3 X-2.43 Y3.223 I-0.359 J-0.614
X-2.082 Y2.249 I0.634 J-0.323
G1 X2.064 Y0.433
X2.113 Y0.409
X6.757 Y-2.064
G3 X7.043 Y-2.146 I0.334 J0.628
G1 X17.67 Y-2.871
G3 X18.429 Y-2.19 I0.048 J0.71
X17.729 Y-1.45 I-0.711 J0.029
G2 X4.253 Y4.261 I0.271 J19.394
G3 X3.289 Y4.764 I-1.277 J-1.272
G2 X-1.443 Y6.985 I1.728 J9.831
G1 X-1.473 Y7.017
X-1.495 Y7.054
X-1.509 Y7.095
X-1.514 Y7.138
X-1.555 Y35.508
X-1.55 Y35.554
X-1.534 Y35.597
X-1.509 Y35.635
X-1.476 Y35.667
X-1.437 Y35.691
G2 X0.321 Y36.356 I6.373 J-14.191
G3 X1.694 Y37.115 I-1.184 J3.76
G2 X2.088 Y37.444 I16.306 J-19.136
G3 X1.246 Y38.589 I-0.45 J0.551
G1 X0.02 Y37.779
X-0.042 Y37.734
X-1.728 Y36.34
G3 X-1.973 Y35.929 I0.453 J-0.548
G1 X-2.501 Y33.248
G3 X-1.446 Y32.495 I0.698 J-0.138
G2 X1.812 Y33.825 I6.386 J-10.995
G3 X2.986 Y34.462 I-0.691 J2.672
G2 X7.107 Y37.448 I15.014 J-16.384
G1 X7.155 Y37.467
X7.205 Y37.474
X33.783 Y37.491
X33.828 Y37.486
X33.871 Y37.471
X33.909 Y37.446
G2 X34.283 Y37.135 I-15.909 J-19.467
G3 X35.642 Y36.392 I2.483 J2.925
G2 X37.436 Y35.719 I-4.582 J-14.953
G3 X38.383 Y36.096 I0.29 J0.649
X37.98 Y37.033 I-0.657 J0.272
G1 X36.175 Y37.724
X36.099 Y37.748
X36.02 Y37.764
X34.36 Y37.997
X29.347 Y38.773
G3 X28.89 Y37.45 I-0.109 J-0.703
G2 X33 Y34.474 I-10.89 J-19.372
G3 X34.162 Y33.851 I1.813 J1.985
G2 X37.438 Y32.53 I-3.098 J-12.409
G1 X37.479 Y32.499
X37.511 Y32.457
X37.531 Y32.408
X37.538 Y32.356
X37.464 Y11.436
X37.459 Y11.391
X37.443 Y11.347
G2 X36.168 Y9.566 I-6.286 J3.153
X31.28 Y7.437 I-5.092 J5.014
G3 X30.524 Y7.079 I0.03 J-1.041
G2 X5.478 Y7.077 I-12.524 J10.898
G3 X4.722 Y7.439 I-0.797 J-0.694
G2 X-0.116 Y9.594 I0.281 J7.142
X-1.445 Y11.513 I5.036 J4.906
G1 X-1.459 Y11.554
X-1.464 Y11.597
X-1.515 Y28.86
X-1.511 Y28.903
X-1.497 Y28.944
X-1.475 Y28.981
X-1.445 Y29.013
G2 X3.289 Y31.236 I6.462 J-7.608
G3 X4.253 Y31.739 I-0.312 J1.775
G2 X31.741 Y31.745 I13.747 J-13.694
G3 X32.697 Y31.252 I1.244 J1.239
G2 X37.45 Y29.075 I-1.635 J-9.846
G1 X37.459 Y29.067
X37.512 Y29.023 Z-2.992
X37.562 Y28.981 Z-2.969
X37.608 Y28.944 Z-2.932
X37.645 Y28.912 Z-2.883
X37.674 Y28.889 Z-2.825
X37.691 Y28.874 Z-2.759
X37.697 Y28.869 Z-2.69
Z5
X-1.592 Y24.175
Z-1 F100
Z-2.69
X-1.588 Y24.182 Z-2.759
X-1.579 Y24.202 Z-2.825
X-1.563 Y24.236 Z-2.883
X-1.542 Y24.28 Z-2.932
X-1.517 Y24.333 Z-2.969
X-1.489 Y24.393 Z-2.992
X-1.46 Y24.455 Z-3
X-1.447 Y24.483
G2 X-0.116 Y26.406 I6.367 J-2.983 F200
X4.722 Y28.561 I5.119 J-4.988
G3 X5.478 Y28.923 I-0.042 J1.056
G2 X30.524 Y28.921 I12.522 J-10.906
G3 X31.28 Y28.563 I0.785 J0.683
G2 X36.168 Y26.434 I-0.204 J-7.143
X37.447 Y24.645 I-5.011 J-4.934
X36.742 Y21.867 I-1.962 J-0.981
G3 X35.417 Y19.325 I1.777 J-2.542
G1 Y14.5
G2 X31.078 Y10.169 I-4.331 J0
X30.479 Y10.187 I0 J9.6
G3 X29.879 Y10.206 I-0.599 J-9.581
X29.196 Y9.856 I0 J-0.843
G2 X6.804 Y9.856 I-11.196 J8.086
G3 X6.121 Y10.206 I-0.684 J-0.494
X5.56 Y10.189 I0 J-8.973
G2 X5 Y10.171 I-0.56 J8.956
X0.661 Y14.5 I0 J4.339
G1 Y21.5
G2 X5 Y25.829 I4.329 J0
X5.56 Y25.811 I0 J-8.973
G3 X6.121 Y25.794 I0.56 J8.956
X6.804 Y26.144 I0 J0.843
G2 X29.196 Y26.144 I11.196 J-8.086
G3 X29.879 Y25.794 I0.684 J0.494
X30.479 Y25.813 I0 J9.6
G2 X31.078 Y25.831 I0.599 J-9.581
X35.417 Y21.5 I0 J-4.339
G1 Y19.325
G2 X34.023 Y17.233 I-2.266 J0
G3 X32.628 Y15.141 I0.872 J-2.092
G1 Y14.5
G2 X31.078 Y12.95 I-1.55 J0
G1 X27.885
G2 X8.115 Y12.95 I-9.885 J5.05
G1 X5
G2 X3.45 Y14.5 I0 J1.55
G1 Y21.5
G2 X5 Y23.05 I1.55 J0
G1 X8.115
G2 X27.885 Y23.05 I9.885 J-5.05
G1 X31.078
G2 X32.628 Y21.5 I0 J-1.55
G1 Y15.141
X32.632 Y15.105
X32.641 Y15.07
X38.121 Y0.785
G2 X38.016 Y0.53 I-0.187 J-0.072
G1 X37.96 Y0.506 Z-3.006 F100
X37.907 Y0.482 Z-3.024
X37.858 Y0.46 Z-3.052
X37.815 Y0.441 Z-3.091
X37.78 Y0.426 Z-3.138
X37.753 Y0.414 Z-3.192
X37.737 Y0.407 Z-3.25
X37.721 Y0.4 Z-3.308
X37.695 Y0.388 Z-3.362
X37.66 Y0.373 Z-3.409
X37.617 Y0.354 Z-3.448
X37.568 Y0.332 Z-3.476
X37.515 Y0.308 Z-3.494
X37.459 Y0.284 Z-3.5
X37.437 Y0.274
G2 X35.642 Y-0.392 I-6.295 J14.226 F200
G3 X34.283 Y-1.135 I1.124 J-3.669
G2 X33.915 Y-1.441 I-16.438 J19.366
G3 X34.751 Y-2.59 I0.45 J-0.551
G1 X35.959 Y-1.809
X36.022 Y-1.763
X37.725 Y-0.376
G3 X37.974 Y0.041 I-0.449 J0.552
G1 X38.486 Y2.701
G3 X37.436 Y3.453 I-0.698 J0.134
G2 X34.162 Y2.149 I-6.298 J11.047
G3 X33 Y1.526 I0.651 J-2.608
G2 X28.89 Y-1.447 I-15 J16.417
G3 X28.638 Y-2.449 I0.348 J-0.62
X29.654 Y-2.644 I0.599 J0.383
G1 X33.875 Y0.398
X37.788 Y2.836
G3 X38.113 Y3.322 I-0.376 J0.604
G1 X38.605 Y6.26
G3 X37.448 Y6.924 I-0.702 J0.117
G2 X32.697 Y4.748 I-6.386 J7.671
G3 X31.741 Y4.255 I0.288 J-1.732
G2 X18.259 Y-1.45 I-13.741 J13.688
G1 X2.212 Y-1.487
X2.166 Y-1.482
X2.123 Y-1.466
X2.085 Y-1.442
G2 X1.694 Y-1.115 I16.251 J19.857
G3 X0.321 Y-0.356 I-2.557 J-3
G2 X-1.436 Y0.316 I4.698 J14.917
G3 X-2.385 Y-0.056 I-0.294 J-0.648
X-1.988 Y-0.994 I0.656 J-0.276
G1 X-0.193 Y-1.693
X-0.12 Y-1.717
X-0.044 Y-1.733
X1.634 Y-1.992
X6.649 Y-2.767
G3 X7.106 Y-1.444 I0.109 J0.703
G2 X2.986 Y1.538 I10.894 J19.387
G3 X1.812 Y2.175 I-1.865 J-2.035
G2 X-1.437 Y3.515 I3.203 J12.383
G3 X-2.43 Y3.223 I-0.359 J-0.614
X-2.082 Y2.249 I0.634 J-0.323
G1 X2.064 Y0.433
X2.113 Y0.409
X6.757 Y-2.064
G3 X7.043 Y-2.146 I0.334 J0.628
G1 X17.67 Y-2.871
G3 X18.429 Y-2.19 I0.048 J0.71
X17.729 Y-1.45 I-0.711 J0.029
G2 X4.253 Y4.261 I0.271 J19.394
G3 X3.289 Y4.764 I-1.277 J-1.272
G2 X-1.443 Y6.985 I1.728 J9.831
G1 X-1.473 Y7.017
X-1.495 Y7.054
X-1.509 Y7.095
X-1.514 Y7.138
X-1.555 Y35.508
X-1.55 Y35.554
X-1.534 Y35.597
X-1.509 Y35.635
X-1.476 Y35.667
X-1.437 Y35.691
G2 X0.321 Y36.356 I6.373 J-14.191
G3 X1.694 Y37.115 I-1.184 J3.76
G2 X2.088 Y37.444 I16.306 J-19.136
G3 X1.246 Y38.589 I-0.45 J0.551
G1 X0.02 Y37.779
X-0.042 Y37.734
X-1.728 Y36.34
G3 X-1.973 Y35.929 I0.453 J-0.548
G1 X-2.501 Y33.248
G3 X-1.446 Y32.495 I0.698 J-0.138
G2 X1.812 Y33.825 I6.386 J-10.995
G3 X2.986 Y34.462 I-0.691 J2.672
G2 X7.107 Y37.448 I15.014 J-16.384
G1 X7.155 Y37.467
X7.205 Y37.474
X33.783 Y37.491
X33.828 Y37.486
X33.871 Y37.471
X33.909 Y37.446
G2 X34.283 Y37.135 I-15.909 J-19.467
G3 X35.642 Y36.392 I2.483 J2.925
G2 X37.436 Y35.719 I-4.582 J-14.953
G3 X38.383 Y36.096 I0.29 J0.649
X37.98 Y37.033 I-0.657 J0.272
G1 X36.175 Y37.724
X36.099 Y37.748
X36.02 Y37.764
X34.36 Y37.997
X29.347 Y38.773
G3 X28.89 Y37.45 I-0.109 J-0.703
G2 X33 Y34.474 I-10.89 J-19.372
G3 X34.162 Y33.851 I1.813 J1.985
G2 X37.438 Y32.53 I-3.098 J-12.409
G1 X37.479 Y32.499
X37.511 Y32.457
X37.531 Y32.408
X37.538 Y32.356
X37.464 Y11.436
X37.459 Y11.391
X37.443 Y11.347
G2 X36.168 Y9.566 I-6.286 J3.153
X31.28 Y7.437 I-5.092 J5.014
G3 X30.524 Y7.079 I0.03 J-1.041
G2 X5.478 Y7.077 I-12.524 J10.898
G3 X4.722 Y7.439 I-0.797 J-0.694
G2 X-0.116 Y9.594 I0.281 J7.142
X-1.445 Y11.513 I5.036 J4.906
G1 X-1.459 Y11.554
X-1.464 Y11.597
X-1.515 Y28.86
X-1.511 Y28.903
X-1.497 Y28.944
X-1.475 Y28.981
X-1.445 Y29.013
G2 X3.289 Y31.236 I6.462 J-7.608
G3 X4.253 Y31.739 I-0.312 J1.775
G2 X31.741 Y31.745 I13.747 J-13.694
G3 X32.697 Y31.252 I1.244 J1.239
G2 X37.45 Y29.075 I-1.635 J-9.846
G1 X37.459 Y29.067
X37.512 Y29.023 Z-3.492
X37.562 Y28.981 Z-3.469
X37.608 Y28.944 Z-3.432
X37.645 Y28.912 Z-3.383
X37.674 Y28.889 Z-3.325
X37.691 Y28.874 Z-3.259
X37.697 Y28.869 Z-3.19
Z5
X-1.592 Y24.175
Z-1.5 F100
Z-3.19
X-1.588 Y24.182 Z-3.259
X-1.579 Y24.202 Z-3.325
X-1.563 Y24.236 Z-3.383
X-1.542 Y24.28 Z-3.432
X-1.517 Y24.333 Z-3.469
X-1.489 Y24.393 Z-3.492
X-1.46 Y24.455 Z-3.5
X-1.447 Y24.483
G2 X-0.116 Y26.406 I6.367 J-2.983 F200
X4.722 Y28.561 I5.119 J-4.988
G3 X5.478 Y28.923 I-0.042 J1.056
G2 X30.524 Y28.921 I12.522 J-10.906
G3 X31.28 Y28.563 I0.785 J0.683
G2 X36.168 Y26.434 I-0.204 J-7.143
X37.447 Y24.645 I-5.011 J-4.934
X36.742 Y21.867 I-1.962 J-0.981
G3 X35.417 Y19.325 I1.777 J-2.542
G1 Y14.5
G2 X31.078 Y10.169 I-4.331 J0
X30.479 Y10.187 I0 J9.6
G3 X29.879 Y10.206 I-0.599 J-9.581
X29.196 Y9.856 I0 J-0.843
G2 X6.804 Y9.856 I-11.196 J8.086
G3 X6.121 Y10.206 I-0.684 J-0.494
X5.56 Y10.189 I0 J-8.973
G2 X5 Y10.171 I-0.56 J8.956
X0.661 Y14.5 I0 J4.339
G1 Y21.5
G2 X5 Y25.829 I4.329 J0
X5.56 Y25.811 I0 J-8.973
G3 X6.121 Y25.794 I0.56 J8.956
X6.804 Y26.144 I0 J0.843
G2 X29.196 Y26.144 I11.196 J-8.086
G3 X29.879 Y25.794 I0.684 J0.494
X30.479 Y25.813 I0 J9.6
G2 X31.078 Y25.831 I0.599 J-9.581
X35.417 Y21.5 I0 J-4.339
G1 Y19.325
G2 X34.023 Y17.233 I-2.266 J0
G3 X32.628 Y15.141 I0.872 J-2.092
G1 Y14.5
G2 X31.078 Y12.95 I-1.55 J0
G1 X27.885
G2 X8.115 Y12.95 I-9.885 J5.05
G1 X5
G2 X3.45 Y14.5 I0 J1.55
G1 Y21.5
G2 X5 Y23.05 I1.55 J0
G1 X8.115
G2 X27.885 Y23.05 I9.885 J-5.05
G1 X31.078
G2 X32.628 Y21.5 I0 J-1.55
G1 Y15.141
X32.632 Y15.105
X32.641 Y15.07
X38.121 Y0.785
G2 X38.016 Y0.53 I-0.187 J-0.072
G1 X37.96 Y0.506 Z-3.506 F100
X37.907 Y0.482 Z-3.524
X37.858 Y0.46 Z-3.552
X37.815 Y0.441 Z-3.591
X37.78 Y0.426 Z-3.638
X37.753 Y0.414 Z-3.692
X37.737 Y0.407 Z-3.75
X37.721 Y0.4 Z-3.808
X37.695 Y0.388 Z-3.862
X37.66 Y0.373 Z-3.909
X37.617 Y0.354 Z-3.948
X37.568 Y0.332 Z-3.976
X37.515 Y0.308 Z-3.994
X37.459 Y0.284 Z-4
X37.437 Y0.274
G2 X35.642 Y-0.392 I-6.295 J14.226 F200
G3 X34.283 Y-1.135 I1.124 J-3.669
G2 X33.915 Y-1.441 I-16.438 J19.366
G3 X34.751 Y-2.59 I0.45 J-0.551
G1 X35.959 Y-1.809
X36.022 Y-1.763
X37.725 Y-0.376
G3 X37.974 Y0.041 I-0.449 J0.552
G1 X38.486 Y2.701
G3 X37.436 Y3.453 I-0.698 J0.134
G2 X34.162 Y2.149 I-6.298 J11.047
G3 X33 Y1.526 I0.651 J-2.608
G2 X28.89 Y-1.447 I-15 J16.417
G3 X28.638 Y-2.449 I0.348 J-0.62
X29.654 Y-2.644 I0.599 J0.383
G1 X33.875 Y0.398
X37.788 Y2.836
G3 X38.113 Y3.322 I-0.376 J0.604
G1 X38.605 Y6.26
G3 X37.448 Y6.924 I-0.702 J0.117
G2 X32.697 Y4.748 I-6.386 J7.671
G3 X31.741 Y4.255 I0.288 J-1.732
G2 X18.259 Y-1.45 I-13.741 J13.688
G1 X2.212 Y-1.487
X2.166 Y-1.482
X2.123 Y-1.466
X2.085 Y-1.442
G2 X1.694 Y-1.115 I16.251 J19.857
G3 X0.321 Y-0.356 I-2.557 J-3
G2 X-1.436 Y0.316 I4.698 J14.917
G3 X-2.385 Y-0.056 I-0.294 J-0.648
X-1.988 Y-0.994 I0.656 J-0.276
G1 X-0.193 Y-1.693
X-0.12 Y-1.717
X-0.044 Y-1.733
X1.634 Y-1.992
X6.649 Y-2.767
G3 X7.106 Y-1.444 I0.109 J0.703
G2 X2.986 Y1.538 I10.894 J19.387
G3 X1.812 Y2.175 I-1.865 J-2.035
G2 X-1.437 Y3.515 I3.203 J12.383
G3 X-2.43 Y3.223 I-0.359 J-0.614
X-2.082 Y2.249 I0.634 J-0.323
G1 X2.064 Y0.433
X2.113 Y0.409
X6.757 Y-2.064
G3 X7.043 Y-2.146 I0.334 J0.628
G1 X17.67 Y-2.871
G3 X18.429 Y-2.19 I0.048 J0.71
X17.729 Y-1.45 I-0.711 J0.029
G2 X4.253 Y4.261 I0.271 J19.394
G3 X3.289 Y4.764 I-1.277 J-1.272
G2 X-1.443 Y6.985 I1.728 J9.831
G1 X-1.473 Y7.017
X-1.495 Y7.054
X-1.509 Y7.095
X-1.514 Y7.138
X-1.555 Y35.508
X-1.55 Y35.554
X-1.534 Y35.597
X-1.509 Y35.635
X-1.476 Y35.667
X-1.437 Y35.691
G2 X0.321 Y36.356 I6.373 J-14.191
G3 X1.694 Y37.115 I-1.184 J3.76
G2 X2.088 Y37.444 I16.306 J-19.136
G3 X1.246 Y38.589 I-0.45 J0.551
G1 X0.02 Y37.779
X-0.042 Y37.734
X-1.728 Y36.34
G3 X-1.973 Y35.929 I0.453 J-0.548
G1 X-2.501 Y33.248
G3 X-1.446 Y32.495 I0.698 J-0.138
G2 X1.812 Y33.825 I6.386 J-10.995
G3 X2.986 Y34.462 I-0.691 J2.672
G2 X7.107 Y37.448 I15.014 J-16.384
G1 X7.155 Y37.467
X7.205 Y37.474
X33.783 Y37.491
X33.828 Y37.486
X33.871 Y37.471
X33.909 Y37.446
G2 X34.283 Y37.135 I-15.909 J-19.467
G3 X35.642 Y36.392 I2.483 J2.925
G2 X37.436 Y35.719 I-4.582 J-14.953
G3 X38.383 Y36.096 I0.29 J0.649
X37.98 Y37.033 I-0.657 J0.272
G1 X36.175 Y37.724
X36.099 Y37.748
X36.02 Y37.764
X34.36 Y37.997
X29.347 Y38.773
G3 X28.89 Y37.45 I-0.109 J-0.703
G2 X33 Y34.474 I-10.89 J-19.372
G3 X34.162 Y33.851 I1.813 J1.985
G2 X37.438 Y32.53 I-3.098 J-12.409
G1 X37.479 Y32.499
X37.511 Y32.457
X37.531 Y32.408
X37.538 Y32.356
X37.464 Y11.436
X37.459 Y11.391
X37.443 Y11.347
G2 X36.168 Y9.566 I-6.286 J3.153
X31.28 Y7.437 I-5.092 J5.014
G3 X30.524 Y7.079 I0.03 J-1.041
G2 X5.478 Y7.077 I-12.524 J10.898
G3 X4.722 Y7.439 I-0.797 J-0.694
G2 X-0.116 Y9.594 I0.281 J7.142
X-1.445 Y11.513 I5.036 J4.906
G1 X-1.459 Y11.554
X-1.464 Y11.597
X-1.515 Y28.86
X-1.511 Y28.903
X-1.497 Y28.944
X-1.475 Y28.981
X-1.445 Y29.013
G2 X3.289 Y31.236 I6.462 J-7.608
G3 X4.253 Y31.739 I-0.312 J1.775
G2 X31.741 Y31.745 I13.747 J-13.694
G3 X32.697 Y31.252 I1.244 J1.239
G2 X37.45 Y29.075 I-1.635 J-9.846
G1 X37.459 Y29.067
X37.512 Y29.023 Z-3.992
X37.562 Y28.981 Z-3.969
X37.608 Y28.944 Z-3.932
X37.645 Y28.912 Z-3.883
X37.674 Y28.889 Z-3.825
X37.691 Y28.874 Z-3.759
X37.697 Y28.869 Z-3.69
Z5
X-1.592 Y24.175
Z-2 F100
Z-3.69
X-1.588 Y24.182 Z-3.759
X-1.579 Y24.202 Z-3.825
X-1.563 Y24.236 Z-3.883
X-1.542 Y24.28 Z-3.932
X-1.517 Y24.333 Z-3.969
X-1.489 Y24.393 Z-3.992
X-1.46 Y24.455 Z-4
X-1.447 Y24.483
G2 X-0.116 Y26.406 I6.367 J-2.983 F200
X4.722 Y28.561 I5.119 J-4.988
G3 X5.478 Y28.923 I-0.042 J1.056
G2 X30.524 Y28.921 I12.522 J-10.906
G3 X31.28 Y28.563 I0.785 J0.683
G2 X36.168 Y26.434 I-0.204 J-7.143
X37.447 Y24.645 I-5.011 J-4.934
X36.742 Y21.867 I-1.962 J-0.981
G3 X35.417 Y19.325 I1.777 J-2.542
G1 Y14.5
G2 X31.078 Y10.169 I-4.331 J0
X30.479 Y10.187 I0 J9.6
G3 X29.879 Y10.206 I-0.599 J-9.581
X29.196 Y9.856 I0 J-0.843
G2 X6.804 Y9.856 I-11.196 J8.086
G3 X6.121 Y10.206 I-0.684 J-0.494
X5.56 Y10.189 I0 J-8.973
G2 X5 Y10.171 I-0.56 J8.956
X0.661 Y14.5 I0 J4.339
G1 Y21.5
G2 X5 Y25.829 I4.329 J0
X5.56 Y25.811 I0 J-8.973
G3 X6.121 Y25.794 I0.56 J8.956
X6.804 Y26.144 I0 J0.843
G2 X29.196 Y26.144 I11.196 J-8.086
G3 X29.879 Y25.794 I0.684 J0.494
X30.479 Y25.813 I0 J9.6
G2 X31.078 Y25.831 I0.599 J-9.581
X35.417 Y21.5 I0 J-4.339
G1 Y19.325
G2 X34.023 Y17.233 I-2.266 J0
G3 X32.628 Y15.141 I0.872 J-2.092
G1 Y14.5
G2 X31.078 Y12.95 I-1.55 J0
G1 X27.885
G2 X8.115 Y12.95 I-9.885 J5.05
G1 X5
G2 X3.45 Y14.5 I0 J1.55
G1 Y21.5
G2 X5 Y23.05 I1.55 J0
G1 X8.115
G2 X27.885 Y23.05 I9.885 J-5.05
G1 X31.078
G2 X32.628 Y21.5 I0 J-1.55
G1 Y15.141
X32.632 Y15.105
X32.641 Y15.07
X38.121 Y0.785
G2 X38.016 Y0.53 I-0.187 J-0.072
G1 X37.96 Y0.506 Z-4.006 F100
X37.907 Y0.482 Z-4.024
X37.858 Y0.46 Z-4.052
X37.815 Y0.441 Z-4.091
X37.78 Y0.426 Z-4.138
X37.753 Y0.414 Z-4.192
X37.737 Y0.407 Z-4.25
X37.721 Y0.4 Z-4.308
X37.695 Y0.388 Z-4.362
X37.66 Y0.373 Z-4.409
X37.617 Y0.354 Z-4.448
X37.568 Y0.332 Z-4.476
X37.515 Y0.308 Z-4.494
X37.459 Y0.284 Z-4.5
X37.437 Y0.274
G2 X35.642 Y-0.392 I-6.295 J14.226 F200
G3 X34.283 Y-1.135 I1.124 J-3.669
G2 X33.915 Y-1.441 I-16.438 J19.366
G3 X34.751 Y-2.59 I0.45 J-0.551
G1 X35.959 Y-1.809
X36.022 Y-1.763
X37.725 Y-0.376
G3 X37.974 Y0.041 I-0.449 J0.552
G1 X38.486 Y2.701
G3 X37.436 Y3.453 I-0.698 J0.134
G2 X34.162 Y2.149 I-6.298 J11.047
G3 X33 Y1.526 I0.651 J-2.608
G2 X28.89 Y-1.447 I-15 J16.417
G3 X28.638 Y-2.449 I0.348 J-0.62
X29.654 Y-2.644 I0.599 J0.383
G1 X33.875 Y0.398
X37.788 Y2.836
G3 X38.113 Y3.322 I-0.376 J0.604
G1 X38.605 Y6.26
G3 X37.448 Y6.924 I-0.702 J0.117
G2 X32.697 Y4.748 I-6.386 J7.671
G3 X31.741 Y4.255 I0.288 J-1.732
G2 X18.259 Y-1.45 I-13.741 J13.688
G1 X2.212 Y-1.487
X2.166 Y-1.482
X2.123 Y-1.466
X2.085 Y-1.442
G2 X1.694 Y-1.115 I16.251 J19.857
G3 X0.321 Y-0.356 I-2.557 J-3
G2 X-1.436 Y0.316 I4.698 J14.917
G3 X-2.385 Y-0.056 I-0.294 J-0.648
X-1.988 Y-0.994 I0.656 J-0.276
G1 X-0.193 Y-1.693
X-0.12 Y-1.717
X-0.044 Y-1.733
X1.634 Y-1.992
X6.649 Y-2.767
G3 X7.106 Y-1.444 I0.109 J0.703
G2 X2.986 Y1.538 I10.894 J19.387
G3 X1.812 Y2.175 I-1.865 J-2.035
G2 X-1.437 Y3.515 I3.203 J12.383
G3 X-2.43 Y3.223 I-0.359 J-0.614
X-2.082 Y2.249 I0.634 J-0.323
G1 X2.064 Y0.433
X2.113 Y0.409
X6.757 Y-2.064
G3 X7.043 Y-2.146 I0.334 J0.628
G1 X17.67 Y-2.871
G3 X18.429 Y-2.19 I0.048 J0.71
X17.729 Y-1.45 I-0.711 J0.029
G2 X4.253 Y4.261 I0.271 J19.394
G3 X3.289 Y4.764 I-1.277 J-1.272
G2 X-1.443 Y6.985 I1.728 J9.831
G1 X-1.473 Y7.017
X-1.495 Y7.054
X-1.509 Y7.095
X-1.514 Y7.138
X-1.555 Y35.508
X-1.55 Y35.554
X-1.534 Y35.597
X-1.509 Y35.635
X-1.476 Y35.667
X-1.437 Y35.691
G2 X0.321 Y36.356 I6.373 J-14.191
G3 X1.694 Y37.115 I-1.184 J3.76
G2 X2.088 Y37.444 I16.306 J-19.136
G3 X1.246 Y38.589 I-0.45 J0.551
G1 X0.02 Y37.779
X-0.042 Y37.734
X-1.728 Y36.34
G3 X-1.973 Y35.929 I0.453 J-0.548
G1 X-2.501 Y33.248
G3 X-1.446 Y32.495 I0.698 J-0.138
G2 X1.812 Y33.825 I6.386 J-10.995
G3 X2.986 Y34.462 I-0.691 J2.672
G2 X7.107 Y37.448 I15.014 J-16.384
G1 X7.155 Y37.467
X7.205 Y37.474
X33.783 Y37.491
X33.828 Y37.486
X33.871 Y37.471
X33.909 Y37.446
G2 X34.283 Y37.135 I-15.909 J-19.467
G3 X35.642 Y36.392 I2.483 J2.925
G2 X37.436 Y35.719 I-4.582 J-14.953
G3 X38.383 Y36.096 I0.29 J0.649
X37.98 Y37.033 I-0.657 J0.272
G1 X36.175 Y37.724
X36.099 Y37.748
X36.02 Y37.764
X34.36 Y37.997
X29.347 Y38.773
G3 X28.89 Y37.45 I-0.109 J-0.703
G2 X33 Y34.474 I-10.89 J-19.372
G3 X34.162 Y33.851 I1.813 J1.985
G2 X37.438 Y32.53 I-3.098 J-12.409
G1 X37.479 Y32.499
X37.511 Y32.457
X37.531 Y32.408
X37.538 Y32.356
X37.464 Y11.436
X37.459 Y11.391
X37.443 Y11.347
G2 X36.168 Y9.566 I-6.286 J3.153
X31.28 Y7.437 I-5.092 J5.014
G3 X30.524 Y7.079 I0.03 J-1.041
G2 X5.478 Y7.077 I-12.524 J10.898
G3 X4.722 Y7.439 I-0.797 J-0.694
G2 X-0.116 Y9.594 I0.281 J7.142
X-1.445 Y11.513 I5.036 J4.906
G1 X-1.459 Y11.554
X-1.464 Y11.597
X-1.515 Y28.86
X-1.511 Y28.903
X-1.497 Y28.944
X-1.475 Y28.981
X-1.445 Y29.013
G2 X3.289 Y31.236 I6.462 J-7.608
G3 X4.253 Y31.739 I-0.312 J1.775
G2 X31.741 Y31.745 I13.747 J-13.694
G3 X32.697 Y31.252 I1.244 J1.239
G2 X37.45 Y29.075 I-1.635 J-9.846
G1 X37.459 Y29.067
X37.512 Y29.023 Z-4.492
X37.562 Y28.981 Z-4.469
X37.608 Y28.944 Z-4.432
X37.645 Y28.912 Z-4.383
X37.674 Y28.889 Z-4.325
X37.691 Y28.874 Z-4.259
X37.697 Y28.869 Z-4.19
Z5
X-1.592 Y24.175
Z-2.5 F100
Z-4.19
X-1.588 Y24.182 Z-4.259
X-1.579 Y24.202 Z-4.325
X-1.563 Y24.236 Z-4.383
X-1.542 Y24.28 Z-4.432
X-1.517 Y24.333 Z-4.469
X-1.489 Y24.393 Z-4.492
X-1.46 Y24.455 Z-4.5
X-1.447 Y24.483
G2 X-0.116 Y26.406 I6.367 J-2.983 F200
X4.722 Y28.561 I5.119 J-4.988
G3 X5.478 Y28.923 I-0.042 J1.056
G2 X30.524 Y28.921 I12.522 J-10.906
G3 X31.28 Y28.563 I0.785 J0.683
G2 X36.168 Y26.434 I-0.204 J-7.143
X37.447 Y24.645 I-5.011 J-4.934
X36.742 Y21.867 I-1.962 J-0.981
G3 X35.417 Y19.325 I1.777 J-2.542
G1 Y14.5
G2 X31.078 Y10.169 I-4.331 J0
X30.479 Y10.187 I0 J9.6
G3 X29.879 Y10.206 I-0.599 J-9.581
X29.196 Y9.856 I0 J-0.843
G2 X6.804 Y9.856 I-11.196 J8.086
G3 X6.121 Y10.206 I-0.684 J-0.494
X5.56 Y10.189 I0 J-8.973
G2 X5 Y10.171 I-0.56 J8.956
X0.661 Y14.5 I0 J4.339
G1 Y21.5
G2 X5 Y25.829 I4.329 J0
X5.56 Y25.811 I0 J-8.973
G3 X6.121 Y25.794 I0.56 J8.956
X6.804 Y26.144 I0 J0.843
G2 X29.196 Y26.144 I11.196 J-8.086
G3 X29.879 Y25.794 I0.684 J0.494
X30.479 Y25.813 I0 J9.6
G2 X31.078 Y25.831 I0.599 J-9.581
X35.417 Y21.5 I0 J-4.339
G1 Y19.325
G2 X34.023 Y17.233 I-2.266 J0
G3 X32.628 Y15.141 I0.872 J-2.092
G1 Y14.5
G2 X31.078 Y12.95 I-1.55 J0
G1 X27.885
G2 X8.115 Y12.95 I-9.885 J5.05
G1 X5
G2 X3.45 Y14.5 I0 J1.55
G1 Y21.5
G2 X5 Y23.05 I1.55 J0
G1 X8.115
G2 X27.885 Y23.05 I9.885 J-5.05
G1 X31.078
G2 X32.628 Y21.5 I0 J-1.55
G1 Y15.141
X32.632 Y15.105
X32.641 Y15.07
X38.121 Y0.785
G2 X38.016 Y0.53 I-0.187 J-0.072
G1 X37.96 Y0.506 Z-4.506 F100
X37.907 Y0.482 Z-4.524
X37.858 Y0.46 Z-4.552
X37.815 Y0.441 Z-4.591
X37.78 Y0.426 Z-4.638
X37.753 Y0.414 Z-4.692
X37.737 Y0.407 Z-4.75
X37.721 Y0.4 Z-4.808
X37.695 Y0.388 Z-4.862
X37.66 Y0.373 Z-4.909
X37.617 Y0.354 Z-4.948
X37.568 Y0.332 Z-4.976
X37.515 Y0.308 Z-4.994
X37.459 Y0.284 Z-5
X37.437 Y0.274
G2 X35.642 Y-0.392 I-6.295 J14.226 F200
G3 X34.283 Y-1.135 I1.124 J-3.669
G2 X33.915 Y-1.441 I-16.438 J19.366
G3 X34.751 Y-2.59 I0.45 J-0.551
G1 X35.959 Y-1.809
X36.022 Y-1.763
X37.725 Y-0.376
G3 X37.974 Y0.041 I-0.449 J0.552
G1 X38.486 Y2.701
G3 X37.436 Y3.453 I-0.698 J0.134
G2 X34.162 Y2.149 I-6.298 J11.047
G3 X33 Y1.526 I0.651 J-2.608
G2 X28.89 Y-1.447 I-15 J16.417
G3 X28.638 Y-2.449 I0.348 J-0.62
X29.654 Y-2.644 I0.599 J0.383
G1 X33.875 Y0.398
X37.788 Y2.836
G3 X38.113 Y3.322 I-0.376 J0.604
G1 X38.605 Y6.26
G3 X37.448 Y6.924 I-0.702 J0.117
G2 X32.697 Y4.748 I-6.386 J7.671
G3 X31.741 Y4.255 I0.288 J-1.732
G2 X18.259 Y-1.45 I-13.741 J13.688
G1 X2.212 Y-1.487
X2.166 Y-1.482
X2.123 Y-1.466
X2.085 Y-1.442
G2 X1.694 Y-1.115 I16.251 J19.857
G3 X0.321 Y-0.356 I-2.557 J-3
G2 X-1.436 Y0.316 I4.698 J14.917
G3 X-2.385 Y-0.056 I-0.294 J-0.648
X-1.988 Y-0.994 I0.656 J-0.276
G1 X-0.193 Y-1.693
X-0.12 Y-1.717
X-0.044 Y-1.733
X1.634 Y-1.992
X6.649 Y-2.767
G3 X7.106 Y-1.444 I0.109 J0.703
G2 X2.986 Y1.538 I10.894 J19.387
G3 X1.812 Y2.175 I-1.865 J-2.035
G2 X-1.437 Y3.515 I3.203 J12.383
G3 X-2.43 Y3.223 I-0.359 J-0.614
X-2.082 Y2.249 I0.634 J-0.323
G1 X2.064 Y0.433
X2.113 Y0.409
X6.757 Y-2.064
G3 X7.043 Y-2.146 I0.334 J0.628
G1 X17.67 Y-2.871
G3 X18.429 Y-2.19 I0.048 J0.71
X17.729 Y-1.45 I-0.711 J0.029
G2 X4.253 Y4.261 I0.271 J19.394
G3 X3.289 Y4.764 I-1.277 J-1.272
G2 X-1.443 Y6.985 I1.728 J9.831
G1 X-1.473 Y7.017
X-1.495 Y7.054
X-1.509 Y7.095
X-1.514 Y7.138
X-1.555 Y35.508
X-1.55 Y35.554
X-1.534 Y35.597
X-1.509 Y35.635
X-1.476 Y35.667
X-1.437 Y35.691
G2 X0.321 Y36.356 I6.373 J-14.191
G3 X1.694 Y37.115 I-1.184 J3.76
G2 X2.088 Y37.444 I16.306 J-19.136
G3 X1.246 Y38.589 I-0.45 J0.551
G1 X0.02 Y37.779
X-0.042 Y37.734
X-1.728 Y36.34
G3 X-1.973 Y35.929 I0.453 J-0.548
G1 X-2.501 Y33.248
G3 X-1.446 Y32.495 I0.698 J-0.138
G2 X1.812 Y33.825 I6.386 J-10.995
G3 X2.986 Y34.462 I-0.691 J2.672
G2 X7.107 Y37.448 I15.014 J-16.384
G1 X7.155 Y37.467
X7.205 Y37.474
X33.783 Y37.491
X33.828 Y37.486
X33.871 Y37.471
X33.909 Y37.446
G2 X34.283 Y37.135 I-15.909 J-19.467
G3 X35.642 Y36.392 I2.483 J2.925
G2 X37.436 Y35.719 I-4.582 J-14.953
G3 X38.383 Y36.096 I0.29 J0.649
X37.98 Y37.033 I-0.657 J0.272
G1 X36.175 Y37.724
X36.099 Y37.748
X36.02 Y37.764
X34.36 Y37.997
X29.347 Y38.773
G3 X28.89 Y37.45 I-0.109 J-0.703
G2 X33 Y34.474 I-10.89 J-19.372
G3 X34.162 Y33.851 I1.813 J1.985
G2 X37.438 Y32.53 I-3.098 J-12.409
G1 X37.479 Y32.499
X37.511 Y32.457
X37.531 Y32.408
X37.538 Y32.356
X37.464 Y11.436
X37.459 Y11.391
X37.443 Y11.347
G2 X36.168 Y9.566 I-6.286 J3.153
X31.28 Y7.437 I-5.092 J5.014
G3 X30.524 Y7.079 I0.03 J-1.041
G2 X5.478 Y7.077 I-12.524 J10.898
G3 X4.722 Y7.439 I-0.797 J-0.694
G2 X-0.116 Y9.594 I0.281 J7.142
X-1.445 Y11.513 I5.036 J4.906
G1 X-1.459 Y11.554
X-1.464 Y11.597
X-1.515 Y28.86
X-1.511 Y28.903
X-1.497 Y28.944
X-1.475 Y28.981
X-1.445 Y29.013
G2 X3.289 Y31.236 I6.462 J-7.608
G3 X4.253 Y31.739 I-0.312 J1.775
G2 X31.741 Y31.745 I13.747 J-13.694
G3 X32.697 Y31.252 I1.244 J1.239
G2 X37.45 Y29.075 I-1.635 J-9.846
G1 X37.459 Y29.067
X37.512 Y29.023 Z-4.992
X37.562 Y28.981 Z-4.969
X37.608 Y28.944 Z-4.932
X37.645 Y28.912 Z-4.883
X37.674 Y28.889 Z-4.825
X37.691 Y28.874 Z-4.759
X37.697 Y28.869 Z-4.69
Z5
X-1.592 Y24.175
Z-3 F100
Z-4.69
X-1.588 Y24.182 Z-4.759
X-1.579 Y24.202 Z-4.825
X-1.563 Y24.236 Z-4.883
X-1.542 Y24.28 Z-4.932
X-1.517 Y24.333 Z-4.969
X-1.489 Y24.393 Z-4.992
X-1.46 Y24.455 Z-5
X-1.447 Y24.483
G2 X-0.116 Y26.406 I6.367 J-2.983 F200
X4.722 Y28.561 I5.119 J-4.988
G3 X5.478 Y28.923 I-0.042 J1.056
G2 X30.524 Y28.921 I12.522 J-10.906
G3 X31.28 Y28.563 I0.785 J0.683
G2 X36.168 Y26.434 I-0.204 J-7.143
X37.447 Y24.645 I-5.011 J-4.934
X36.742 Y21.867 I-1.962 J-0.981
G3 X35.417 Y19.325 I1.777 J-2.542
G1 Y14.5
G2 X31.078 Y10.169 I-4.331 J0
X30.479 Y10.187 I0 J9.6
G3 X29.879 Y10.206 I-0.599 J-9.581
X29.196 Y9.856 I0 J-0.843
G2 X6.804 Y9.856 I-11.196 J8.086
G3 X6.121 Y10.206 I-0.684 J-0.494
X5.56 Y10.189 I0 J-8.973
G2 X5 Y10.171 I-0.56 J8.956
X0.661 Y14.5 I0 J4.339
G1 Y21.5
G2 X5 Y25.829 I4.329 J0
X5.56 Y25.811 I0 J-8.973
G3 X6.121 Y25.794 I0.56 J8.956
X6.804 Y26.144 I0 J0.843
G2 X29.196 Y26.144 I11.196 J-8.086
G3 X29.879 Y25.794 I0.684 J0.494
X30.479 Y25.813 I0 J9.6
G2 X31.078 Y25.831 I0.599 J-9.581
X35.417 Y21.5 I0 J-4.339
G1 Y19.325
G2 X34.023 Y17.233 I-2.266 J0
G3 X32.628 Y15.141 I0.872 J-2.092
G1 Y14.5
G2 X31.078 Y12.95 I-1.55 J0
G1 X27.885
G2 X8.115 Y12.95 I-9.885 J5.05
G1 X5
G2 X3.45 Y14.5 I0 J1.55
G1 Y21.5
G2 X5 Y23.05 I1.55 J0
G1 X8.115
G2 X27.885 Y23.05 I9.885 J-5.05
G1 X31.078
G2 X32.628 Y21.5 I0 J-1.55
G1 Y15.141
X32.632 Y15.105
X32.641 Y15.07
X38.121 Y0.785
G2 X38.016 Y0.53 I-0.187 J-0.072
G1 X37.96 Y0.506 Z-5.006 F100
X37.907 Y0.482 Z-5.024
X37.858 Y0.46 Z-5.052
X37.815 Y0.441 Z-5.091
X37.78 Y0.426 Z-5.138
X37.753 Y0.414 Z-5.192
X37.737 Y0.407 Z-5.25
X37.721 Y0.4 Z-5.308
X37.695 Y0.388 Z-5.362
X37.66 Y0.373 Z-5.409
X37.617 Y0.354 Z-5.448
X37.568 Y0.332 Z-5.476
X37.515 Y0.308 Z-5.494
X37.459 Y0.284 Z-5.5
X37.437 Y0.274
G2 X35.642 Y-0.392 I-6.295 J14.226 F200
G3 X34.283 Y-1.135 I1.124 J-3.669
G2 X33.915 Y-1.441 I-16.438 J19.366
G3 X34.751 Y-2.59 I0.45 J-0.551
G1 X35.959 Y-1.809
X36.022 Y-1.763
X37.725 Y-0.376
G3 X37.974 Y0.041 I-0.449 J0.552
G1 X38.486 Y2.701
G3 X37.436 Y3.453 I-0.698 J0.134
G2 X34.162 Y2.149 I-6.298 J11.047
G3 X33 Y1.526 I0.651 J-2.608
G2 X28.89 Y-1.447 I-15 J16.417
G3 X28.638 Y-2.449 I0.348 J-0.62
X29.654 Y-2.644 I0.599 J0.383
G1 X33.875 Y0.398
X37.788 Y2.836
G3 X38.113 Y3.322 I-0.376 J0.604
G1 X38.605 Y6.26
G3 X37.448 Y6.924 I-0.702 J0.117
G2 X32.697 Y4.748 I-6.386 J7.671
G3 X31.741 Y4.255 I0.288 J-1.732
G2 X18.259 Y-1.45 I-13.741 J13.688
G1 X2.212 Y-1.487
X2.166 Y-1.482
X2.123 Y-1.466
X2.085 Y-1.442
G2 X1.694 Y-1.115 I16.251 J19.857
G3 X0.321 Y-0.356 I-2.557 J-3
G2 X-1.436 Y0.316 I4.698 J14.917
G3 X-2.385 Y-0.056 I-0.294 J-0.648
X-1.988 Y-0.994 I0.656 J-0.276
G1 X-0.193 Y-1.693
X-0.12 Y-1.717
X-0.044 Y-1.733
X1.634 Y-1.992
X6.649 Y-2.767
G3 X7.106 Y-1.444 I0.109 J0.703
G2 X2.986 Y1.538 I10.894 J19.387
G3 X1.812 Y2.175 I-1.865 J-2.035
G2 X-1.437 Y3.515 I3.203 J12.383
G3 X-2.43 Y3.223 I-0.359 J-0.614
X-2.082 Y2.249 I0.634 J-0.323
G1 X2.064 Y0.433
X2.113 Y0.409
X6.757 Y-2.064
G3 X7.043 Y-2.146 I0.334 J0.628
G1 X17.67 Y-2.871
G3 X18.429 Y-2.19 I0.048 J0.71
X17.729 Y-1.45 I-0.711 J0.029
G2 X4.253 Y4.261 I0.271 J19.394
G3 X3.289 Y4.764 I-1.277 J-1.272
G2 X-1.443 Y6.985 I1.728 J9.831
G1 X-1.473 Y7.017
X-1.495 Y7.054
X-1.509 Y7.095
X-1.514 Y7.138
X-1.555 Y35.508
X-1.55 Y35.554
X-1.534 Y35.597
X-1.509 Y35.635
X-1.476 Y35.667
X-1.437 Y35.691
G2 X0.321 Y36.356 I6.373 J-14.191
G3 X1.694 Y37.115 I-1.184 J3.76
G2 X2.088 Y37.444 I16.306 J-19.136
G3 X1.246 Y38.589 I-0.45 J0.551
G1 X0.02 Y37.779
X-0.042 Y37.734
X-1.728 Y36.34
G3 X-1.973 Y35.929 I0.453 J-0.548
G1 X-2.501 Y33.248
G3 X-1.446 Y32.495 I0.698 J-0.138
G2 X1.812 Y33.825 I6.386 J-10.995
G3 X2.986 Y34.462 I-0.691 J2.672
G2 X7.107 Y37.448 I15.014 J-16.384
G1 X7.155 Y37.467
X7.205 Y37.474
X33.783 Y37.491
X33.828 Y37.486
X33.871 Y37.471
X33.909 Y37.446
G2 X34.283 Y37.135 I-15.909 J-19.467
G3 X35.642 Y36.392 I2.483 J2.925
G2 X37.436 Y35.719 I-4.582 J-14.953
G3 X38.383 Y36.096 I0.29 J0.649
X37.98 Y37.033 I-0.657 J0.272
G1 X36.175 Y37.724
X36.099 Y37.748
X36.02 Y37.764
X34.36 Y37.997
X29.347 Y38.773
G3 X28.89 Y37.45 I-0.109 J-0.703
G2 X33 Y34.474 I-10.89 J-19.372
G3 X34.162 Y33.851 I1.813 J1.985
G2 X37.438 Y32.53 I-3.098 J-12.409
G1 X37.479 Y32.499
X37.511 Y32.457
X37.531 Y32.408
X37.538 Y32.356
X37.464 Y11.436
X37.459 Y11.391
X37.443 Y11.347
G2 X36.168 Y9.566 I-6.286 J3.153
X31.28 Y7.437 I-5.092 J5.014
G3 X30.524 Y7.079 I0.03 J-1.041
G2 X5.478 Y7.077 I-12.524 J10.898
G3 X4.722 Y7.439 I-0.797 J-0.694
G2 X-0.116 Y9.594 I0.281 J7.142
X-1.445 Y11.513 I5.036 J4.906
G1 X-1.459 Y11.554
X-1.464 Y11.597
X-1.515 Y28.86
X-1.511 Y28.903
X-1.497 Y28.944
X-1.475 Y28.981
X-1.445 Y29.013
G2 X3.289 Y31.236 I6.462 J-7.608
G3 X4.253 Y31.739 I-0.312 J1.775
G2 X31.741 Y31.745 I13.747 J-13.694
G3 X32.697 Y31.252 I1.244 J1.239
G2 X37.45 Y29.075 I-1.635 J-9.846
G1 X37.459 Y29.067
X37.512 Y29.023 Z-5.492
X37.562 Y28.981 Z-5.469
X37.608 Y28.944 Z-5.432
X37.645 Y28.912 Z-5.383
X37.674 Y28.889 Z-5.325
X37.691 Y28.874 Z-5.259
X37.697 Y28.869 Z-5.19
Z5
X-1.592 Y24.175
Z-3.5 F100
Z-5.19
X-1.588 Y24.182 Z-5.259
X-1.579 Y24.202 Z-5.325
X-1.563 Y24.236 Z-5.383
X-1.542 Y24.28 Z-5.432
X-1.517 Y24.333 Z-5.469
X-1.489 Y24.393 Z-5.492
X-1.46 Y24.455 Z-5.5
X-1.447 Y24.483
G2 X-0.116 Y26.406 I6.367 J-2.983 F200
X4.722 Y28.561 I5.119 J-4.988
G3 X5.478 Y28.923 I-0.042 J1.056
G2 X30.524 Y28.921 I12.522 J-10.906
G3 X31.28 Y28.563 I0.785 J0.683
G2 X36.168 Y26.434 I-0.204 J-7.143
X37.447 Y24.645 I-5.011 J-4.934
X36.742 Y21.867 I-1.962 J-0.981
G3 X35.417 Y19.325 I1.777 J-2.542
G1 Y14.5
G2 X31.078 Y10.169 I-4.331 J0
X30.479 Y10.187 I0 J9.6
G3 X29.879 Y10.206 I-0.599 J-9.581
X29.196 Y9.856 I0 J-0.843
G2 X6.804 Y9.856 I-11.196 J8.086
G3 X6.121 Y10.206 I-0.684 J-0.494
X5.56 Y10.189 I0 J-8.973
G2 X5 Y10.171 I-0.56 J8.956
X0.661 Y14.5 I0 J4.339
G1 Y21.5
G2 X5 Y25.829 I4.329 J0
X5.56 Y25.811 I0 J-8.973
G3 X6.121 Y25.794 I0.56 J8.956
X6.804 Y26.144 I0 J0.843
G2 X29.196 Y26.144 I11.196 J-8.086
G3 X29.879 Y25.794 I0.684 J0.494
X30.479 Y25.813 I0 J9.6
G2 X31.078 Y25.831 I0.599 J-9.581
X35.417 Y21.5 I0 J-4.339
G1 Y19.325
G2 X34.023 Y17.233 I-2.266 J0
G3 X32.628 Y15.141 I0.872 J-2.092
G1 Y14.5
G2 X31.078 Y12.95 I-1.55 J0
G1 X27.885
G2 X8.115 Y12.95 I-9.885 J5.05
G1 X5
G2 X3.45 Y14.5 I0 J1.55
G1 Y21.5
G2 X5 Y23.05 I1.55 J0
G1 X8.115
G2 X27.885 Y23.05 I9.885 J-5.05
G1 X31.078
G2 X32.628 Y21.5 I0 J-1.55
G1 Y15.141
X32.632 Y15.105
X32.641 Y15.07
X38.121 Y0.785
G2 X38.016 Y0.53 I-0.187 J-0.072
G1 X37.96 Y0.506 Z-5.506 F100
X37.907 Y0.482 Z-5.524
X37.858 Y0.46 Z-5.552
X37.815 Y0.441 Z-5.591
X37.78 Y0.426 Z-5.638
X37.753 Y0.414 Z-5.692
X37.737 Y0.407 Z-5.75
X37.721 Y0.4 Z-5.808
X37.695 Y0.388 Z-5.862
X37.66 Y0.373 Z-5.909
X37.617 Y0.354 Z-5.948
X37.568 Y0.332 Z-5.976
X37.515 Y0.308 Z-5.994
X37.459 Y0.284 Z-6
X37.437 Y0.274
G2 X35.642 Y-0.392 I-6.295 J14.226 F200
G3 X34.283 Y-1.135 I1.124 J-3.669
G2 X33.915 Y-1.441 I-16.438 J19.366
G3 X34.751 Y-2.59 I0.45 J-0.551
G1 X35.959 Y-1.809
X36.022 Y-1.763
X37.725 Y-0.376
G3 X37.974 Y0.041 I-0.449 J0.552
G1 X38.486 Y2.701
G3 X37.436 Y3.453 I-0.698 J0.134
G2 X34.162 Y2.149 I-6.298 J11.047
G3 X33 Y1.526 I0.651 J-2.608
G2 X28.89 Y-1.447 I-15 J16.417
G3 X28.638 Y-2.449 I0.348 J-0.62
X29.654 Y-2.644 I0.599 J0.383
G1 X33.875 Y0.398
X37.788 Y2.836
G3 X38.113 Y3.322 I-0.376 J0.604
G1 X38.605 Y6.26
G3 X37.448 Y6.924 I-0.702 J0.117
G2 X32.697 Y4.748 I-6.386 J7.671
G3 X31.741 Y4.255 I0.288 J-1.732
G2 X18.259 Y-1.45 I-13.741 J13.688
G1 X2.212 Y-1.487
X2.166 Y-1.482
X2.123 Y-1.466
X2.085 Y-1.442
G2 X1.694 Y-1.115 I16.251 J19.857
G3 X0.321 Y-0.356 I-2.557 J-3
G2 X-1.436 Y0.316 I4.698 J14.917
G3 X-2.385 Y-0.056 I-0.294 J-0.648
X-1.988 Y-0.994 I0.656 J-0.276
G1 X-0.193 Y-1.693
X-0.12 Y-1.717
X-0.044 Y-1.733
X1.634 Y-1.992
X6.649 Y-2.767
G3 X7.106 Y-1.444 I0.109 J0.703
G2 X2.986 Y1.538 I10.894 J19.387
G3 X1.812 Y2.175 I-1.865 J-2.035
G2 X-1.437 Y3.515 I3.203 J12.383
G3 X-2.43 Y3.223 I-0.359 J-0.614
X-2.082 Y2.249 I0.634 J-0.323
G1 X2.064 Y0.433
X2.113 Y0.409
X6.757 Y-2.064
G3 X7.043 Y-2.146 I0.334 J0.628
G1 X17.67 Y-2.871
G3 X18.429 Y-2.19 I0.048 J0.71
X17.729 Y-1.45 I-0.711 J0.029
G2 X4.253 Y4.261 I0.271 J19.394
G3 X3.289 Y4.764 I-1.277 J-1.272
G2 X-1.443 Y6.985 I1.728 J9.831
G1 X-1.473 Y7.017
X-1.495 Y7.054
X-1.509 Y7.095
X-1.514 Y7.138
X-1.555 Y35.508
X-1.55 Y35.554
X-1.534 Y35.597
X-1.509 Y35.635
X-1.476 Y35.667
X-1.437 Y35.691
G2 X0.321 Y36.356 I6.373 J-14.191
G3 X1.694 Y37.115 I-1.184 J3.76
G2 X2.088 Y37.444 I16.306 J-19.136
G3 X1.246 Y38.589 I-0.45 J0.551
G1 X0.02 Y37.779
X-0.042 Y37.734
X-1.728 Y36.34
G3 X-1.973 Y35.929 I0.453 J-0.548
G1 X-2.501 Y33.248
G3 X-1.446 Y32.495 I0.698 J-0.138
G2 X1.812 Y33.825 I6.386 J-10.995
G3 X2.986 Y34.462 I-0.691 J2.672
G2 X7.107 Y37.448 I15.014 J-16.384
G1 X7.155 Y37.467
X7.205 Y37.474
X33.783 Y37.491
X33.828 Y37.486
X33.871 Y37.471
X33.909 Y37.446
G2 X34.283 Y37.135 I-15.909 J-19.467
G3 X35.642 Y36.392 I2.483 J2.925
G2 X37.436 Y35.719 I-4.582 J-14.953
G3 X38.383 Y36.096 I0.29 J0.649
X37.98 Y37.033 I-0.657 J0.272
G1 X36.175 Y37.724
X36.099 Y37.748
X36.02 Y37.764
X34.36 Y37.997
X29.347 Y38.773
G3 X28.89 Y37.45 I-0.109 J-0.703
G2 X33 Y34.474 I-10.89 J-19.372
G3 X34.162 Y33.851 I1.813 J1.985
G2 X37.438 Y32.53 I-3.098 J-12.409
G1 X37.479 Y32.499
X37.511 Y32.457
X37.531 Y32.408
X37.538 Y32.356
X37.464 Y11.436
X37.459 Y11.391
X37.443 Y11.347
G2 X36.168 Y9.566 I-6.286 J3.153
X31.28 Y7.437 I-5.092 J5.014
G3 X30.524 Y7.079 I0.03 J-1.041
G2 X5.478 Y7.077 I-12.524 J10.898
G3 X4.722 Y7.439 I-0.797 J-0.694
G2 X-0.116 Y9.594 I0.281 J7.142
X-1.445 Y11.513 I5.036 J4.906
G1 X-1.459 Y11.554
X-1.464 Y11.597
X-1.515 Y28.86
X-1.511 Y28.903
X-1.497 Y28.944
X-1.475 Y28.981
X-1.445 Y29.013
G2 X3.289 Y31.236 I6.462 J-7.608
G3 X4.253 Y31.739 I-0.312 J1.775
G2 X31.741 Y31.745 I13.747 J-13.694
G3 X32.697 Y31.252 I1.244 J1.239
G2 X37.45 Y29.075 I-1.635 J-9.846
G1 X37.459 Y29.067
X37.512 Y29.023 Z-5.992
X37.562 Y28.981 Z-5.969
X37.608 Y28.944 Z-5.932
X37.645 Y28.912 Z-5.883
X37.674 Y28.889 Z-5.825
X37.691 Y28.874 Z-5.759
X37.697 Y28.869 Z-5.69
Z5
X-1.592 Y24.175
Z-4 F100
Z-5.69
X-1.588 Y24.182 Z-5.759
X-1.579 Y24.202 Z-5.825
X-1.563 Y24.236 Z-5.883
X-1.542 Y24.28 Z-5.932
X-1.517 Y24.333 Z-5.969
X-1.489 Y24.393 Z-5.992
X-1.46 Y24.455 Z-6
X-1.447 Y24.483
G2 X-0.116 Y26.406 I6.367 J-2.983 F200
X4.722 Y28.561 I5.119 J-4.988
G3 X5.478 Y28.923 I-0.042 J1.056
G2 X30.524 Y28.921 I12.522 J-10.906
G3 X31.28 Y28.563 I0.785 J0.683
G2 X36.168 Y26.434 I-0.204 J-7.143
X37.447 Y24.645 I-5.011 J-4.934
X36.742 Y21.867 I-1.962 J-0.981
G3 X35.417 Y19.325 I1.777 J-2.542
G1 Y14.5
G2 X31.078 Y10.169 I-4.331 J0
X30.479 Y10.187 I0 J9.6
G3 X29.879 Y10.206 I-0.599 J-9.581
X29.196 Y9.856 I0 J-0.843
G2 X6.804 Y9.856 I-11.196 J8.086
G3 X6.121 Y10.206 I-0.684 J-0.494
X5.56 Y10.189 I0 J-8.973
G2 X5 Y10.171 I-0.56 J8.956
X0.661 Y14.5 I0 J4.339
G1 Y21.5
G2 X5 Y25.829 I4.329 J0
X5.56 Y25.811 I0 J-8.973
G3 X6.121 Y25.794 I0.56 J8.956
X6.804 Y26.144 I0 J0.843
G2 X29.196 Y26.144 I11.196 J-8.086
G3 X29.879 Y25.794 I0.684 J0.494
X30.479 Y25.813 I0 J9.6
G2 X31.078 Y25.831 I0.599 J-9.581
X35.417 Y21.5 I0 J-4.339
G1 Y19.325
G2 X34.023 Y17.233 I-2.266 J0
G3 X32.628 Y15.141 I0.872 J-2.092
G1 Y14.5
G2 X31.078 Y12.95 I-1.55 J0
G1 X27.885
G2 X8.115 Y12.95 I-9.885 J5.05
G1 X5
G2 X3.45 Y14.5 I0 J1.55
G1 Y21.5
G2 X5 Y23.05 I1.55 J0
G1 X8.115
G2 X27.885 Y23.05 I9.885 J-5.05
G1 X31.078
G2 X32.628 Y21.5 I0 J-1.55
G1 Y15.141
X32.632 Y15.105
X32.641 Y15.07
X38.121 Y0.785
G2 X38.016 Y0.53 I-0.187 J-0.072
G1 X37.96 Y0.506 Z-6.006 F100
X37.907 Y0.482 Z-6.024
X37.858 Y0.46 Z-6.052
X37.815 Y0.441 Z-6.091
X37.78 Y0.426 Z-6.138
X37.753 Y0.414 Z-6.192
X37.737 Y0.407 Z-6.25
X37.721 Y0.4 Z-6.308
X37.695 Y0.388 Z-6.362
X37.66 Y0.373 Z-6.409
X37.617 Y0.354 Z-6.448
X37.568 Y0.332 Z-6.476
X37.515 Y0.308 Z-6.494
X37.459 Y0.284 Z-6.5
X37.437 Y0.274
G2 X35.642 Y-0.392 I-6.295 J14.226 F200
G3 X34.283 Y-1.135 I1.124 J-3.669
G2 X33.915 Y-1.441 I-16.438 J19.366
G3 X34.751 Y-2.59 I0.45 J-0.551
G1 X35.959 Y-1.809
X36.022 Y-1.763
X37.725 Y-0.376
G3 X37.974 Y0.041 I-0.449 J0.552
G1 X38.486 Y2.701
G3 X37.436 Y3.453 I-0.698 J0.134
G2 X34.162 Y2.149 I-6.298 J11.047
G3 X33 Y1.526 I0.651 J-2.608
G2 X28.89 Y-1.447 I-15 J16.417
G3 X28.638 Y-2.449 I0.348 J-0.62
X29.654 Y-2.644 I0.599 J0.383
G1 X33.875 Y0.398
X37.788 Y2.836
G3 X38.113 Y3.322 I-0.376 J0.604
G1 X38.605 Y6.26
G3 X37.448 Y6.924 I-0.702 J0.117
G2 X32.697 Y4.748 I-6.386 J7.671
G3 X31.741 Y4.255 I0.288 J-1.732
G2 X18.259 Y-1.45 I-13.741 J13.688
G1 X2.212 Y-1.487
X2.166 Y-1.482
X2.123 Y-1.466
X2.085 Y-1.442
G2 X1.694 Y-1.115 I16.251 J19.857
G3 X0.321 Y-0.356 I-2.557 J-3
G2 X-1.436 Y0.316 I4.698 J14.917
G3 X-2.385 Y-0.056 I-0.294 J-0.648
X-1.988 Y-0.994 I0.656 J-0.276
G1 X-0.193 Y-1.693
X-0.12 Y-1.717
X-0.044 Y-1.733
X1.634 Y-1.992
X6.649 Y-2.767
G3 X7.106 Y-1.444 I0.109 J0.703
G2 X2.986 Y1.538 I10.894 J19.387
G3 X1.812 Y2.175 I-1.865 J-2.035
G2 X-1.437 Y3.515 I3.203 J12.383
G3 X-2.43 Y3.223 I-0.359 J-0.614
X-2.082 Y2.249 I0.634 J-0.323
G1 X2.064 Y0.433
X2.113 Y0.409
X6.757 Y-2.064
G3 X7.043 Y-2.146 I0.334 J0.628
G1 X17.67 Y-2.871
G3 X18.429 Y-2.19 I0.048 J0.71
X17.729 Y-1.45 I-0.711 J0.029
G2 X4.253 Y4.261 I0.271 J19.394
G3 X3.289 Y4.764 I-1.277 J-1.272
G2 X-1.443 Y6.985 I1.728 J9.831
G1 X-1.473 Y7.017
X-1.495 Y7.054
X-1.509 Y7.095
X-1.514 Y7.138
X-1.555 Y35.508
X-1.55 Y35.554
X-1.534 Y35.597
X-1.509 Y35.635
X-1.476 Y35.667
X-1.437 Y35.691
G2 X0.321 Y36.356 I6.373 J-14.191
G3 X1.694 Y37.115 I-1.184 J3.76
G2 X2.088 Y37.444 I16.306 J-19.136
G3 X1.246 Y38.589 I-0.45 J0.551
G1 X0.02 Y37.779
X-0.042 Y37.734
X-1.728 Y36.34
G3 X-1.973 Y35.929 I0.453 J-0.548
G1 X-2.501 Y33.248
G3 X-1.446 Y32.495 I0.698 J-0.138
G2 X1.812 Y33.825 I6.386 J-10.995
G3 X2.986 Y34.462 I-0.691 J2.672
G2 X7.107 Y37.448 I15.014 J-16.384
G1 X7.155 Y37.467
X7.205 Y37.474
X33.783 Y37.491
X33.828 Y37.486
X33.871 Y37.471
X33.909 Y37.446
G2 X34.283 Y37.135 I-15.909 J-19.467
G3 X35.642 Y36.392 I2.483 J2.925
G2 X37.436 Y35.719 I-4.582 J-14.953
G3 X38.383 Y36.096 I0.29 J0.649
X37.98 Y37.033 I-0.657 J0.272
G1 X36.175 Y37.724
X36.099 Y37.748
X36.02 Y37.764
X34.36 Y37.997
X29.347 Y38.773
G3 X28.89 Y37.45 I-0.109 J-0.703
G2 X33 Y34.474 I-10.89 J-19.372
G3 X34.162 Y33.851 I1.813 J1.985
G2 X37.438 Y32.53 I-3.098 J-12.409
G1 X37.479 Y32.499
X37.511 Y32.457
X37.531 Y32.408
X37.538 Y32.356
X37.464 Y11.436
X37.459 Y11.391
X37.443 Y11.347
G2 X36.168 Y9.566 I-6.286 J3.153
X31.28 Y7.437 I-5.092 J5.014
G3 X30.524 Y7.079 I0.03 J-1.041
G2 X5.478 Y7.077 I-12.524 J10.898
G3 X4.722 Y7.439 I-0.797 J-0.694
G2 X-0.116 Y9.594 I0.281 J7.142
X-1.445 Y11.513 I5.036 J4.906
G1 X-1.459 Y11.554
X-1.464 Y11.597
X-1.515 Y28.86
X-1.511 Y28.903
X-1.497 Y28.944
X-1.475 Y28.981
X-1.445 Y29.013
G2 X3.289 Y31.236 I6.462 J-7.608
G3 X4.253 Y31.739 I-0.312 J1.775
G2 X31.741 Y31.745 I13.747 J-13.694
G3 X32.697 Y31.252 I1.244 J1.239
G2 X37.45 Y29.075 I-1.635 J-9.846
G1 X37.459 Y29.067
X37.512 Y29.023 Z-6.492
X37.562 Y28.981 Z-6.469
X37.608 Y28.944 Z-6.432
X37.645 Y28.912 Z-6.383
X37.674 Y28.889 Z-6.325
X37.691 Y28.874 Z-6.259
X37.697 Y28.869 Z-6.19
Z5
X-1.592 Y24.175
Z-4.5 F100
Z-6.19
X-1.588 Y24.182 Z-6.259
X-1.579 Y24.202 Z-6.325
X-1.563 Y24.236 Z-6.383
X-1.542 Y24.28 Z-6.432
X-1.517 Y24.333 Z-6.469
X-1.489 Y24.393 Z-6.492
X-1.46 Y24.455 Z-6.5
X-1.447 Y24.483
G2 X-0.116 Y26.406 I6.367 J-2.983 F200
X4.722 Y28.561 I5.119 J-4.988
G3 X5.478 Y28.923 I-0.042 J1.056
G2 X30.524 Y28.921 I12.522 J-10.906
G3 X31.28 Y28.563 I0.785 J0.683
G2 X36.168 Y26.434 I-0.204 J-7.143
X37.447 Y24.645 I-5.011 J-4.934
X36.742 Y21.867 I-1.962 J-0.981
G3 X35.417 Y19.325 I1.777 J-2.542
G1 Y14.5
G2 X31.078 Y10.169 I-4.331 J0
X30.479 Y10.187 I0 J9.6
G3 X29.879 Y10.206 I-0.599 J-9.581
X29.196 Y9.856 I0 J-0.843
G2 X6.804 Y9.856 I-11.196 J8.086
G3 X6.121 Y10.206 I-0.684 J-0.494
X5.56 Y10.189 I0 J-8.973
G2 X5 Y10.171 I-0.56 J8.956
X0.661 Y14.5 I0 J4.339
G1 Y21.5
G2 X5 Y25.829 I4.329 J0
X5.56 Y25.811 I0 J-8.973
G3 X6.121 Y25.794 I0.56 J8.956
X6.804 Y26.144 I0 J0.843
G2 X29.196 Y26.144 I11.196 J-8.086
G3 X29.879 Y25.794 I0.684 J0.494
X30.479 Y25.813 I0 J9.6
G2 X31.078 Y25.831 I0.599 J-9.581
X35.417 Y21.5 I0 J-4.339
G1 Y19.325
G2 X34.023 Y17.233 I-2.266 J0
G3 X32.628 Y15.141 I0.872 J-2.092
G1 Y14.5
G2 X31.078 Y12.95 I-1.55 J0
G1 X27.885
G2 X8.115 Y12.95 I-9.885 J5.05
G1 X5
G2 X3.45 Y14.5 I0 J1.55
G1 Y21.5
G2 X5 Y23.05 I1.55 J0
G1 X8.115
G2 X27.885 Y23.05 I9.885 J-5.05
G1 X31.078
G2 X32.628 Y21.5 I0 J-1.55
G1 Y15.141
X32.632 Y15.105
X32.641 Y15.07
X38.121 Y0.785
G2 X38.016 Y0.53 I-0.187 J-0.072
G1 X37.96 Y0.506 Z-6.506 F100
X37.907 Y0.482 Z-6.524
X37.858 Y0.46 Z-6.552
X37.815 Y0.441 Z-6.591
X37.78 Y0.426 Z-6.638
X37.753 Y0.414 Z-6.692
X37.737 Y0.407 Z-6.75
X37.721 Y0.4 Z-6.808
X37.695 Y0.388 Z-6.862
X37.66 Y0.373 Z-6.909
X37.617 Y0.354 Z-6.948
X37.568 Y0.332 Z-6.976
X37.515 Y0.308 Z-6.994
X37.459 Y0.284 Z-7
X37.437 Y0.274
G2 X35.642 Y-0.392 I-6.295 J14.226 F200
G3 X34.283 Y-1.135 I1.124 J-3.669
G2 X33.915 Y-1.441 I-16.438 J19.366
G3 X34.751 Y-2.59 I0.45 J-0.551
G1 X35.959 Y-1.809
X36.022 Y-1.763
X37.725 Y-0.376
G3 X37.974 Y0.041 I-0.449 J0.552
G1 X38.486 Y2.701
G3 X37.436 Y3.453 I-0.698 J0.134
G2 X34.162 Y2.149 I-6.298 J11.047
G3 X33 Y1.526 I0.651 J-2.608
G2 X28.89 Y-1.447 I-15 J16.417
G3 X28.638 Y-2.449 I0.348 J-0.62
X29.654 Y-2.644 I0.599 J0.383
G1 X33.875 Y0.398
X37.788 Y2.836
G3 X38.113 Y3.322 I-0.376 J0.604
G1 X38.605 Y6.26
G3 X37.448 Y6.924 I-0.702 J0.117
G2 X32.697 Y4.748 I-6.386 J7.671
G3 X31.741 Y4.255 I0.288 J-1.732
G2 X18.259 Y-1.45 I-13.741 J13.688
G1 X2.212 Y-1.487
X2.166 Y-1.482
X2.123 Y-1.466
X2.085 Y-1.442
G2 X1.694 Y-1.115 I16.251 J19.857
G3 X0.321 Y-0.356 I-2.557 J-3
G2 X-1.436 Y0.316 I4.698 J14.917
G3 X-2.385 Y-0.056 I-0.294 J-0.648
X-1.988 Y-0.994 I0.656 J-0.276
G1 X-0.193 Y-1.693
X-0.12 Y-1.717
X-0.044 Y-1.733
X1.634 Y-1.992
X6.649 Y-2.767
G3 X7.106 Y-1.444 I0.109 J0.703
G2 X2.986 Y1.538 I10.894 J19.387
G3 X1.812 Y2.175 I-1.865 J-2.035
G2 X-1.437 Y3.515 I3.203 J12.383
G3 X-2.43 Y3.223 I-0.359 J-0.614
X-2.082 Y2.249 I0.634 J-0.323
G1 X2.064 Y0.433
X2.113 Y0.409
X6.757 Y-2.064
G3 X7.043 Y-2.146 I0.334 J0.628
G1 X17.67 Y-2.871
G3 X18.429 Y-2.19 I0.048 J0.71
X17.729 Y-1.45 I-0.711 J0.029
G2 X4.253 Y4.261 I0.271 J19.394
G3 X3.289 Y4.764 I-1.277 J-1.272
G2 X-1.443 Y6.985 I1.728 J9.831
G1 X-1.473 Y7.017
X-1.495 Y7.054
X-1.509 Y7.095
X-1.514 Y7.138
X-1.555 Y35.508
X-1.55 Y35.554
X-1.534 Y35.597
X-1.509 Y35.635
X-1.476 Y35.667
X-1.437 Y35.691
G2 X0.321 Y36.356 I6.373 J-14.191
G3 X1.694 Y37.115 I-1.184 J3.76
G2 X2.088 Y37.444 I16.306 J-19.136
G3 X1.246 Y38.589 I-0.45 J0.551
G1 X0.02 Y37.779
X-0.042 Y37.734
X-1.728 Y36.34
G3 X-1.973 Y35.929 I0.453 J-0.548
G1 X-2.501 Y33.248
G3 X-1.446 Y32.495 I0.698 J-0.138
G2 X1.812 Y33.825 I6.386 J-10.995
G3 X2.986 Y34.462 I-0.691 J2.672
G2 X7.107 Y37.448 I15.014 J-16.384
G1 X7.155 Y37.467
X7.205 Y37.474
X33.783 Y37.491
X33.828 Y37.486
X33.871 Y37.471
X33.909 Y37.446
G2 X34.283 Y37.135 I-15.909 J-19.467
G3 X35.642 Y36.392 I2.483 J2.925
G2 X37.436 Y35.719 I-4.582 J-14.953
G3 X38.383 Y36.096 I0.29 J0.649
X37.98 Y37.033 I-0.657 J0.272
G1 X36.175 Y37.724
X36.099 Y37.748
X36.02 Y37.764
X34.36 Y37.997
X29.347 Y38.773
G3 X28.89 Y37.45 I-0.109 J-0.703
G2 X33 Y34.474 I-10.89 J-19.372
G3 X34.162 Y33.851 I1.813 J1.985
G2 X37.438 Y32.53 I-3.098 J-12.409
G1 X37.479 Y32.499
X37.511 Y32.457
X37.531 Y32.408
X37.538 Y32.356
X37.464 Y11.436
X37.459 Y11.391
X37.443 Y11.347
G2 X36.168 Y9.566 I-6.286 J3.153
X31.28 Y7.437 I-5.092 J5.014
G3 X30.524 Y7.079 I0.03 J-1.041
G2 X5.478 Y7.077 I-12.524 J10.898
G3 X4.722 Y7.439 I-0.797 J-0.694
G2 X-0.116 Y9.594 I0.281 J7.142
X-1.445 Y11.513 I5.036 J4.906
G1 X-1.459 Y11.554
X-1.464 Y11.597
X-1.515 Y28.86
X-1.511 Y28.903
X-1.497 Y28.944
X-1.475 Y28.981
X-1.445 Y29.013
G2 X3.289 Y31.236 I6.462 J-7.608
G3 X4.253 Y31.739 I-0.312 J1.775
G2 X31.741 Y31.745 I13.747 J-13.694
G3 X32.697 Y31.252 I1.244 J1.239
G2 X37.45 Y29.075 I-1.635 J-9.846
G1 X37.459 Y29.067
X37.512 Y29.023 Z-6.992
X37.562 Y28.981 Z-6.969
X37.608 Y28.944 Z-6.932
X37.645 Y28.912 Z-6.883
X37.674 Y28.889 Z-6.825
X37.691 Y28.874 Z-6.759
X37.697 Y28.869 Z-6.69
Z5
X-1.592 Y24.175
Z-5 F100
Z-6.69
X-1.588 Y24.182 Z-6.759
X-1.579 Y24.202 Z-6.825
X-1.563 Y24.236 Z-6.883
X-1.542 Y24.28 Z-6.932
X-1.517 Y24.333 Z-6.969
X-1.489 Y24.393 Z-6.992
X-1.46 Y24.455 Z-7
X-1.447 Y24.483
G2 X-0.116 Y26.406 I6.367 J-2.983 F200
X4.722 Y28.561 I5.119 J-4.988
G3 X5.478 Y28.923 I-0.042 J1.056
G2 X30.524 Y28.921 I12.522 J-10.906
G3 X31.28 Y28.563 I0.785 J0.683
G2 X36.168 Y26.434 I-0.204 J-7.143
X37.447 Y24.645 I-5.011 J-4.934
X36.742 Y21.867 I-1.962 J-0.981
G3 X35.417 Y19.325 I1.777 J-2.542
G1 Y14.5
G2 X31.078 Y10.169 I-4.331 J0
X30.479 Y10.187 I0 J9.6
G3 X29.879 Y10.206 I-0.599 J-9.581
X29.196 Y9.856 I0 J-0.843
G2 X6.804 Y9.856 I-11.196 J8.086
G3 X6.121 Y10.206 I-0.684 J-0.494
X5.56 Y10.189 I0 J-8.973
G2 X5 Y10.171 I-0.56 J8.956
X0.661 Y14.5 I0 J4.339
G1 Y21.5
G2 X5 Y25.829 I4.329 J0
X5.56 Y25.811 I0 J-8.973
G3 X6.121 Y25.794 I0.56 J8.956
X6.804 Y26.144 I0 J0.843
G2 X29.196 Y26.144 I11.196 J-8.086
G3 X29.879 Y25.794 I0.684 J0.494
X30.479 Y25.813 I0 J9.6
G2 X31.078 Y25.831 I0.599 J-9.581
X35.417 Y21.5 I0 J-4.339
G1 Y19.325
G2 X34.023 Y17.233 I-2.266 J0
G3 X32.628 Y15.141 I0.872 J-2.092
G1 Y14.5
G2 X31.078 Y12.95 I-1.55 J0
G1 X27.885
G2 X8.115 Y12.95 I-9.885 J5.05
G1 X5
G2 X3.45 Y14.5 I0 J1.55
G1 Y21.5
G2 X5 Y23.05 I1.55 J0
G1 X8.115
G2 X27.885 Y23.05 I9.885 J-5.05
G1 X31.078
G2 X32.628 Y21.5 I0 J-1.55
G1 Y15.141
X32.632 Y15.105
X32.641 Y15.07
X38.121 Y0.785
G2 X38.016 Y0.53 I-0.187 J-0.072
G1 X37.96 Y0.506 Z-7.006 F100
X37.907 Y0.482 Z-7.024
X37.858 Y0.46 Z-7.052
X37.815 Y0.441 Z-7.091
X37.78 Y0.426 Z-7.138
X37.753 Y0.414 Z-7.192
X37.737 Y0.407 Z-7.25
X37.721 Y0.4 Z-7.308
X37.695 Y0.388 Z-7.362
X37.66 Y0.373 Z-7.409
X37.617 Y0.354 Z-7.448
X37.568 Y0.332 Z-7.476
X37.515 Y0.308 Z-7.494
X37.459 Y0.284 Z-7.5
X37.437 Y0.274
G2 X35.642 Y-0.392 I-6.295 J14.226 F200
G3 X34.283 Y-1.135 I1.124 J-3.669
G2 X33.915 Y-1.441 I-16.438 J19.366
G3 X34.751 Y-2.59 I0.45 J-0.551
G1 X35.959 Y-1.809
X36.022 Y-1.763
X37.725 Y-0.376
G3 X37.974 Y0.041 I-0.449 J0.552
G1 X38.486 Y2.701
G3 X37.436 Y3.453 I-0.698 J0.134
G2 X34.162 Y2.149 I-6.298 J11.047
G3 X33 Y1.526 I0.651 J-2.608
G2 X28.89 Y-1.447 I-15 J16.417
G3 X28.638 Y-2.449 I0.348 J-0.62
X29.654 Y-2.644 I0.599 J0.383
G1 X33.875 Y0.398
X37.788 Y2.836
G3 X38.113 Y3.322 I-0.376 J0.604
G1 X38.605 Y6.26
G3 X37.448 Y6.924 I-0.702 J0.117
G2 X32.697 Y4.748 I-6.386 J7.671
G3 X31.741 Y4.255 I0.288 J-1.732
G2 X18.259 Y-1.45 I-13.741 J13.688
G1 X2.212 Y-1.487
X2.166 Y-1.482
X2.123 Y-1.466
X2.085 Y-1.442
G2 X1.694 Y-1.115 I16.251 J19.857
G3 X0.321 Y-0.356 I-2.557 J-3
G2 X-1.436 Y0.316 I4.698 J14.917
G3 X-2.385 Y-0.056 I-0.294 J-0.648
X-1.988 Y-0.994 I0.656 J-0.276
G1 X-0.193 Y-1.693
X-0.12 Y-1.717
X-0.044 Y-1.733
X1.634 Y-1.992
X6.649 Y-2.767
G3 X7.106 Y-1.444 I0.109 J0.703
G2 X2.986 Y1.538 I10.894 J19.387
G3 X1.812 Y2.175 I-1.865 J-2.035
G2 X-1.437 Y3.515 I3.203 J12.383
G3 X-2.43 Y3.223 I-0.359 J-0.614
X-2.082 Y2.249 I0.634 J-0.323
G1 X2.064 Y0.433
X2.113 Y0.409
X6.757 Y-2.064
G3 X7.043 Y-2.146 I0.334 J0.628
G1 X17.67 Y-2.871
G3 X18.429 Y-2.19 I0.048 J0.71
X17.729 Y-1.45 I-0.711 J0.029
G2 X4.253 Y4.261 I0.271 J19.394
G3 X3.289 Y4.764 I-1.277 J-1.272
G2 X-1.443 Y6.985 I1.728 J9.831
G1 X-1.473 Y7.017
X-1.495 Y7.054
X-1.509 Y7.095
X-1.514 Y7.138
X-1.555 Y35.508
X-1.55 Y35.554
X-1.534 Y35.597
X-1.509 Y35.635
X-1.476 Y35.667
X-1.437 Y35.691
G2 X0.321 Y36.356 I6.373 J-14.191
G3 X1.694 Y37.115 I-1.184 J3.76
G2 X2.088 Y37.444 I16.306 J-19.136
G3 X1.246 Y38.589 I-0.45 J0.551
G1 X0.02 Y37.779
X-0.042 Y37.734
X-1.728 Y36.34
G3 X-1.973 Y35.929 I0.453 J-0.548
G1 X-2.501 Y33.248
G3 X-1.446 Y32.495 I0.698 J-0.138
G2 X1.812 Y33.825 I6.386 J-10.995
G3 X2.986 Y34.462 I-0.691 J2.672
G2 X7.107 Y37.448 I15.014 J-16.384
G1 X7.155 Y37.467
X7.205 Y37.474
X33.783 Y37.491
X33.828 Y37.486
X33.871 Y37.471
X33.909 Y37.446
G2 X34.283 Y37.135 I-15.909 J-19.467
G3 X35.642 Y36.392 I2.483 J2.925
G2 X37.436 Y35.719 I-4.582 J-14.953
G3 X38.383 Y36.096 I0.29 J0.649
X37.98 Y37.033 I-0.657 J0.272
G1 X36.175 Y37.724
X36.099 Y37.748
X36.02 Y37.764
X34.36 Y37.997
X29.347 Y38.773
G3 X28.89 Y37.45 I-0.109 J-0.703
G2 X33 Y34.474 I-10.89 J-19.372
G3 X34.162 Y33.851 I1.813 J1.985
G2 X37.438 Y32.53 I-3.098 J-12.409
G1 X37.479 Y32.499
X37.511 Y32.457
X37.531 Y32.408
X37.538 Y32.356
X37.464 Y11.436
X37.459 Y11.391
X37.443 Y11.347
G2 X36.168 Y9.566 I-6.286 J3.153
X31.28 Y7.437 I-5.092 J5.014
G3 X30.524 Y7.079 I0.03 J-1.041
G2 X5.478 Y7.077 I-12.524 J10.898
G3 X4.722 Y7.439 I-0.797 J-0.694
G2 X-0.116 Y9.594 I0.281 J7.142
X-1.445 Y11.513 I5.036 J4.906
G1 X-1.459 Y11.554
X-1.464 Y11.597
X-1.515 Y28.86
X-1.511 Y28.903
X-1.497 Y28.944
X-1.475 Y28.981
X-1.445 Y29.013
G2 X3.289 Y31.236 I6.462 J-7.608
G3 X4.253 Y31.739 I-0.312 J1.775
G2 X31.741 Y31.745 I13.747 J-13.694
G3 X32.697 Y31.252 I1.244 J1.239
G2 X37.45 Y29.075 I-1.635 J-9.846
G1 X37.459 Y29.067
X37.512 Y29.023 Z-7.492
X37.562 Y28.981 Z-7.469
X37.608 Y28.944 Z-7.432
X37.645 Y28.912 Z-7.383
X37.674 Y28.889 Z-7.325
X37.691 Y28.874 Z-7.259
X37.697 Y28.869 Z-7.19
Z5
X-1.592 Y24.175
Z-5.5 F100
Z-7.19
X-1.588 Y24.182 Z-7.259
X-1.579 Y24.202 Z-7.325
X-1.563 Y24.236 Z-7.383
X-1.542 Y24.28 Z-7.432
X-1.517 Y24.333 Z-7.469
X-1.489 Y24.393 Z-7.492
X-1.46 Y24.455 Z-7.5
X-1.447 Y24.483
G2 X-0.116 Y26.406 I6.367 J-2.983 F200
X4.722 Y28.561 I5.119 J-4.988
G3 X5.478 Y28.923 I-0.042 J1.056
G2 X30.524 Y28.921 I12.522 J-10.906
G3 X31.28 Y28.563 I0.785 J0.683
G2 X36.168 Y26.434 I-0.204 J-7.143
X37.447 Y24.645 I-5.011 J-4.934
X36.742 Y21.867 I-1.962 J-0.981
G3 X35.417 Y19.325 I1.777 J-2.542
G1 Y14.5
G2 X31.078 Y10.169 I-4.331 J0
X30.479 Y10.187 I0 J9.6
G3 X29.879 Y10.206 I-0.599 J-9.581
X29.196 Y9.856 I0 J-0.843
G2 X6.804 Y9.856 I-11.196 J8.086
G3 X6.121 Y10.206 I-0.684 J-0.494
X5.56 Y10.189 I0 J-8.973
G2 X5 Y10.171 I-0.56 J8.956
X0.661 Y14.5 I0 J4.339
G1 Y21.5
G2 X5 Y25.829 I4.329 J0
X5.56 Y25.811 I0 J-8.973
G3 X6.121 Y25.794 I0.56 J8.956
X6.804 Y26.144 I0 J0.843
G2 X29.196 Y26.144 I11.196 J-8.086
G3 X29.879 Y25.794 I0.684 J0.494
