(metal_coupler_12mm)
(Machine)
(  vendor: Autodesk)
(  model: GARAGE CNC)
(  description: GARAGE CNC)
(T3  D=3.1 CR=0 - ZMIN=-14 - flat end mill)
G90 G94
G17
G21
(When using Fusion 360 for Personal Use, the feedrate of)
(rapid moves is reduced to match the feedrate of cutting)
(moves, which can increase machining time. Unrestricted rapid)
(moves are available with a Fusion 360 Subscription.)

(2D Pocket3)
T3
S24000 M3
G54
M8
G0 X16.556 Y19.397
Z10
G1 Z5 F300
Z2.81 F150
X16.535 Y19.389 Z2.694
X16.474 Y19.367 Z2.594
X16.386 Y19.328 Z2.527
X16.284 Y19.274 Z2.5
G3 X17.76 Y16.726 Z2.338 I0.738 J-1.274
X16.284 Y19.274 Z2.177 I-0.738 J1.274
X17.76 Y16.726 Z2.015 I0.738 J-1.274
X16.284 Y19.274 Z1.854 I-0.738 J1.274
X17.76 Y16.726 Z1.692 I0.738 J-1.274
X16.284 Y19.274 Z1.531 I-0.738 J1.274
X17.76 Y16.726 Z1.369 I0.738 J-1.274
X16.284 Y19.274 Z1.208 I-0.738 J1.274
X17.76 Y16.726 Z1.046 I0.738 J-1.274
X16.284 Y19.274 Z0.885 I-0.738 J1.274
X17.76 Y16.726 Z0.723 I0.738 J-1.274
X16.284 Y19.274 Z0.561 I-0.738 J1.274
X17.76 Y16.726 Z0.4 I0.738 J-1.274
X16.284 Y19.274 Z0.238 I-0.738 J1.274
X17.76 Y16.726 Z0.077 I0.738 J-1.274
X16.284 Y19.274 Z-0.085 I-0.738 J1.274
X17.76 Y16.726 Z-0.246 I0.738 J-1.274
X18.495 Y18 Z-0.3 I-0.738 J1.274
X17.505 Y18 I-0.495 J0 F300
X18.495 Y18 I0.495 J0
G2 X18.836 Y18.68 I0.848 J0
G3 X18.778 Y19.439 I-0.269 J0.361
X16.399 Y18 I-0.759 J-1.432
X19.554 Y17.471 I1.622 J0
G1 X19.578 Y17.533
X19.602 Y17.594
G3 X19.602 Y18.406 I-1.082 J0.406
G1 X19.578 Y18.467
X19.554 Y18.529
G3 X18.778 Y19.439 I-1.535 J-0.522
G2 X17.747 Y20.997 I0.914 J1.725
G3 X16.125 Y21.925 I-1.132 J-0.097
X19.875 Y14.075 I1.875 J-3.925
X22.118 Y16.599 I-1.875 J3.925
G2 X23.586 Y17.65 I1.467 J-0.499
G1 X24.95
Y18.35
X23.586
G2 X22.118 Y19.401 I0 J1.55
G3 X16.125 Y21.925 I-4.118 J-1.401
X15.295 Y20.448 Z-0.361 I0.635 J-1.329 F150
G1 X15.557 Y17.852 Z-0.449
G3 X18.495 Y18 Z-0.6 I1.465 J0.148
X17.505 Y18 I-0.495 J0 F300
X18.495 Y18 I0.495 J0
G2 X18.836 Y18.68 I0.848 J0
G3 X18.778 Y19.439 I-0.269 J0.361
X16.399 Y18 I-0.759 J-1.432
X19.554 Y17.471 I1.622 J0
G1 X19.578 Y17.533
X19.602 Y17.594
G3 X19.602 Y18.406 I-1.082 J0.406
G1 X19.578 Y18.467
X19.554 Y18.529
G3 X18.778 Y19.439 I-1.535 J-0.522
G2 X17.747 Y20.997 I0.914 J1.725
G3 X16.125 Y21.925 I-1.132 J-0.097
X19.875 Y14.075 I1.875 J-3.925
X22.118 Y16.599 I-1.875 J3.925
G2 X23.586 Y17.65 I1.467 J-0.499
G1 X24.95
Y18.35
X23.586
G2 X22.118 Y19.401 I0 J1.55
G3 X16.125 Y21.925 I-4.118 J-1.401
X15.295 Y20.448 Z-0.661 I0.635 J-1.329 F150
G1 X15.557 Y17.852 Z-0.749
G3 X18.495 Y18 Z-0.9 I1.465 J0.148
X17.505 Y18 I-0.495 J0 F300
X18.495 Y18 I0.495 J0
G2 X18.836 Y18.68 I0.848 J0
G3 X18.778 Y19.439 I-0.269 J0.361
X16.399 Y18 I-0.759 J-1.432
X19.554 Y17.471 I1.622 J0
G1 X19.578 Y17.533
X19.602 Y17.594
G3 X19.602 Y18.406 I-1.082 J0.406
G1 X19.578 Y18.467
X19.554 Y18.529
G3 X18.778 Y19.439 I-1.535 J-0.522
G2 X17.747 Y20.997 I0.914 J1.725
G3 X16.125 Y21.925 I-1.132 J-0.097
X19.875 Y14.075 I1.875 J-3.925
X22.118 Y16.599 I-1.875 J3.925
G2 X23.586 Y17.65 I1.467 J-0.499
G1 X24.95
Y18.35
X23.586
G2 X22.118 Y19.401 I0 J1.55
G3 X16.125 Y21.925 I-4.118 J-1.401
X15.295 Y20.448 Z-0.961 I0.635 J-1.329 F150
G1 X15.557 Y17.852 Z-1.049
G3 X18.495 Y18 Z-1.2 I1.465 J0.148
X17.505 Y18 I-0.495 J0 F300
X18.495 Y18 I0.495 J0
G2 X18.836 Y18.68 I0.848 J0
G3 X18.778 Y19.439 I-0.269 J0.361
X16.399 Y18 I-0.759 J-1.432
X19.554 Y17.471 I1.622 J0
G1 X19.578 Y17.533
X19.602 Y17.594
G3 X19.602 Y18.406 I-1.082 J0.406
G1 X19.578 Y18.467
X19.554 Y18.529
G3 X18.778 Y19.439 I-1.535 J-0.522
G2 X17.747 Y20.997 I0.914 J1.725
G3 X16.125 Y21.925 I-1.132 J-0.097
X19.875 Y14.075 I1.875 J-3.925
X22.118 Y16.599 I-1.875 J3.925
G2 X23.586 Y17.65 I1.467 J-0.499
G1 X24.95
Y18.35
X23.586
G2 X22.118 Y19.401 I0 J1.55
G3 X16.125 Y21.925 I-4.118 J-1.401
X15.295 Y20.448 Z-1.261 I0.635 J-1.329 F150
G1 X15.557 Y17.852 Z-1.349
G3 X18.495 Y18 Z-1.5 I1.465 J0.148
X17.505 Y18 I-0.495 J0 F300
X18.495 Y18 I0.495 J0
G2 X18.836 Y18.68 I0.848 J0
G3 X18.778 Y19.439 I-0.269 J0.361
X16.399 Y18 I-0.759 J-1.432
X19.554 Y17.471 I1.622 J0
G1 X19.578 Y17.533
X19.602 Y17.594
G3 X19.602 Y18.406 I-1.082 J0.406
G1 X19.578 Y18.467
X19.554 Y18.529
G3 X18.778 Y19.439 I-1.535 J-0.522
G2 X17.747 Y20.997 I0.914 J1.725
G3 X16.125 Y21.925 I-1.132 J-0.097
X19.875 Y14.075 I1.875 J-3.925
X22.118 Y16.599 I-1.875 J3.925
G2 X23.586 Y17.65 I1.467 J-0.499
G1 X24.95
Y18.35
X23.586
G2 X22.118 Y19.401 I0 J1.55
G3 X16.125 Y21.925 I-4.118 J-1.401
X15.295 Y20.448 Z-1.561 I0.635 J-1.329 F150
G1 X15.557 Y17.852 Z-1.649
G3 X18.495 Y18 Z-1.8 I1.465 J0.148
X17.505 Y18 I-0.495 J0 F300
X18.495 Y18 I0.495 J0
G2 X18.836 Y18.68 I0.848 J0
G3 X18.778 Y19.439 I-0.269 J0.361
X16.399 Y18 I-0.759 J-1.432
X19.554 Y17.471 I1.622 J0
G1 X19.578 Y17.533
X19.602 Y17.594
G3 X19.602 Y18.406 I-1.082 J0.406
G1 X19.578 Y18.467
X19.554 Y18.529
G3 X18.778 Y19.439 I-1.535 J-0.522
G2 X17.747 Y20.997 I0.914 J1.725
G3 X16.125 Y21.925 I-1.132 J-0.097
X19.875 Y14.075 I1.875 J-3.925
X22.118 Y16.599 I-1.875 J3.925
G2 X23.586 Y17.65 I1.467 J-0.499
G1 X24.95
Y18.35
X23.586
G2 X22.118 Y19.401 I0 J1.55
G3 X16.125 Y21.925 I-4.118 J-1.401
X15.295 Y20.448 Z-1.861 I0.635 J-1.329 F150
G1 X15.557 Y17.852 Z-1.949
G3 X18.495 Y18 Z-2.1 I1.465 J0.148
X17.505 Y18 I-0.495 J0 F300
X18.495 Y18 I0.495 J0
G2 X18.836 Y18.68 I0.848 J0
G3 X18.778 Y19.439 I-0.269 J0.361
X16.399 Y18 I-0.759 J-1.432
X19.554 Y17.471 I1.622 J0
G1 X19.578 Y17.533
X19.602 Y17.594
G3 X19.602 Y18.406 I-1.082 J0.406
G1 X19.578 Y18.467
X19.554 Y18.529
G3 X18.778 Y19.439 I-1.535 J-0.522
G2 X17.747 Y20.997 I0.914 J1.725
G3 X16.125 Y21.925 I-1.132 J-0.097
X19.875 Y14.075 I1.875 J-3.925
X22.118 Y16.599 I-1.875 J3.925
G2 X23.586 Y17.65 I1.467 J-0.499
G1 X24.95
Y18.35
X23.586
G2 X22.118 Y19.401 I0 J1.55
G3 X16.125 Y21.925 I-4.118 J-1.401
X15.295 Y20.448 Z-2.161 I0.635 J-1.329 F150
G1 X15.557 Y17.852 Z-2.249
G3 X18.495 Y18 Z-2.4 I1.465 J0.148
X17.505 Y18 I-0.495 J0 F300
X18.495 Y18 I0.495 J0
G2 X18.836 Y18.68 I0.848 J0
G3 X18.778 Y19.439 I-0.269 J0.361
X16.399 Y18 I-0.759 J-1.432
X19.554 Y17.471 I1.622 J0
G1 X19.578 Y17.533
X19.602 Y17.594
G3 X19.602 Y18.406 I-1.082 J0.406
G1 X19.578 Y18.467
X19.554 Y18.529
G3 X18.778 Y19.439 I-1.535 J-0.522
G2 X17.747 Y20.997 I0.914 J1.725
G3 X16.125 Y21.925 I-1.132 J-0.097
X19.875 Y14.075 I1.875 J-3.925
X22.118 Y16.599 I-1.875 J3.925
G2 X23.586 Y17.65 I1.467 J-0.499
G1 X24.95
Y18.35
X23.586
G2 X22.118 Y19.401 I0 J1.55
G3 X16.125 Y21.925 I-4.118 J-1.401
X15.295 Y20.448 Z-2.461 I0.635 J-1.329 F150
G1 X15.557 Y17.852 Z-2.549
G3 X18.495 Y18 Z-2.7 I1.465 J0.148
X17.505 Y18 I-0.495 J0 F300
X18.495 Y18 I0.495 J0
G2 X18.836 Y18.68 I0.848 J0
G3 X18.778 Y19.439 I-0.269 J0.361
X16.399 Y18 I-0.759 J-1.432
X19.554 Y17.471 I1.622 J0
G1 X19.578 Y17.533
X19.602 Y17.594
G3 X19.602 Y18.406 I-1.082 J0.406
G1 X19.578 Y18.467
X19.554 Y18.529
G3 X18.778 Y19.439 I-1.535 J-0.522
G2 X17.747 Y20.997 I0.914 J1.725
G3 X16.125 Y21.925 I-1.132 J-0.097
X19.875 Y14.075 I1.875 J-3.925
X22.118 Y16.599 I-1.875 J3.925
G2 X23.586 Y17.65 I1.467 J-0.499
G1 X24.95
Y18.35
X23.586
G2 X22.118 Y19.401 I0 J1.55
G3 X16.125 Y21.925 I-4.118 J-1.401
X15.295 Y20.448 Z-2.761 I0.635 J-1.329 F150
G1 X15.557 Y17.852 Z-2.849
G3 X18.495 Y18 Z-3 I1.465 J0.148
X17.505 Y18 I-0.495 J0 F300
X18.495 Y18 I0.495 J0
G2 X18.836 Y18.68 I0.848 J0
G3 X18.778 Y19.439 I-0.269 J0.361
X16.399 Y18 I-0.759 J-1.432
X19.554 Y17.471 I1.622 J0
G1 X19.578 Y17.533
X19.602 Y17.594
G3 X19.602 Y18.406 I-1.082 J0.406
G1 X19.578 Y18.467
X19.554 Y18.529
G3 X18.778 Y19.439 I-1.535 J-0.522
G2 X17.747 Y20.997 I0.914 J1.725
G3 X16.125 Y21.925 I-1.132 J-0.097
X19.875 Y14.075 I1.875 J-3.925
X22.118 Y16.599 I-1.875 J3.925
G2 X23.586 Y17.65 I1.467 J-0.499
G1 X24.95
Y18.35
X23.586
G2 X22.118 Y19.401 I0 J1.55
G3 X16.125 Y21.925 I-4.118 J-1.401
X15.295 Y20.448 Z-3.061 I0.635 J-1.329 F150
G1 X15.557 Y17.852 Z-3.149
G3 X18.495 Y18 Z-3.3 I1.465 J0.148
X17.505 Y18 I-0.495 J0 F300
X18.495 Y18 I0.495 J0
G2 X18.836 Y18.68 I0.848 J0
G3 X18.778 Y19.439 I-0.269 J0.361
X16.399 Y18 I-0.759 J-1.432
X19.554 Y17.471 I1.622 J0
G1 X19.578 Y17.533
X19.602 Y17.594
G3 X19.602 Y18.406 I-1.082 J0.406
G1 X19.578 Y18.467
X19.554 Y18.529
G3 X18.778 Y19.439 I-1.535 J-0.522
G2 X17.747 Y20.997 I0.914 J1.725
G3 X16.125 Y21.925 I-1.132 J-0.097
X19.875 Y14.075 I1.875 J-3.925
X22.118 Y16.599 I-1.875 J3.925
G2 X23.586 Y17.65 I1.467 J-0.499
G1 X24.95
Y18.35
X23.586
G2 X22.118 Y19.401 I0 J1.55
G3 X16.125 Y21.925 I-4.118 J-1.401
X15.295 Y20.448 Z-3.361 I0.635 J-1.329 F150
G1 X15.557 Y17.852 Z-3.449
G3 X18.495 Y18 Z-3.6 I1.465 J0.148
X17.505 Y18 I-0.495 J0 F300
X18.495 Y18 I0.495 J0
G2 X18.836 Y18.68 I0.848 J0
G3 X18.778 Y19.439 I-0.269 J0.361
X16.399 Y18 I-0.759 J-1.432
X19.554 Y17.471 I1.622 J0
G1 X19.578 Y17.533
X19.602 Y17.594
G3 X19.602 Y18.406 I-1.082 J0.406
G1 X19.578 Y18.467
X19.554 Y18.529
G3 X18.778 Y19.439 I-1.535 J-0.522
G2 X17.747 Y20.997 I0.914 J1.725
G3 X16.125 Y21.925 I-1.132 J-0.097
X19.875 Y14.075 I1.875 J-3.925
X22.118 Y16.599 I-1.875 J3.925
G2 X23.586 Y17.65 I1.467 J-0.499
G1 X24.95
Y18.35
X23.586
G2 X22.118 Y19.401 I0 J1.55
G3 X16.125 Y21.925 I-4.118 J-1.401
X15.295 Y20.448 Z-3.661 I0.635 J-1.329 F150
G1 X15.557 Y17.852 Z-3.749
G3 X18.495 Y18 Z-3.9 I1.465 J0.148
X17.505 Y18 I-0.495 J0 F300
X18.495 Y18 I0.495 J0
G2 X18.836 Y18.68 I0.848 J0
G3 X18.778 Y19.439 I-0.269 J0.361
X16.399 Y18 I-0.759 J-1.432
X19.554 Y17.471 I1.622 J0
G1 X19.578 Y17.533
X19.602 Y17.594
G3 X19.602 Y18.406 I-1.082 J0.406
G1 X19.578 Y18.467
X19.554 Y18.529
G3 X18.778 Y19.439 I-1.535 J-0.522
G2 X17.747 Y20.997 I0.914 J1.725
G3 X16.125 Y21.925 I-1.132 J-0.097
X19.875 Y14.075 I1.875 J-3.925
X22.118 Y16.599 I-1.875 J3.925
G2 X23.586 Y17.65 I1.467 J-0.499
G1 X24.95
Y18.35
X23.586
G2 X22.118 Y19.401 I0 J1.55
G3 X16.125 Y21.925 I-4.118 J-1.401
X15.295 Y20.448 Z-3.961 I0.635 J-1.329 F150
G1 X15.557 Y17.852 Z-4.049
G3 X18.495 Y18 Z-4.2 I1.465 J0.148
X17.505 Y18 I-0.495 J0 F300
X18.495 Y18 I0.495 J0
G2 X18.836 Y18.68 I0.848 J0
G3 X18.778 Y19.439 I-0.269 J0.361
X16.399 Y18 I-0.759 J-1.432
X19.554 Y17.471 I1.622 J0
G1 X19.578 Y17.533
X19.602 Y17.594
G3 X19.602 Y18.406 I-1.082 J0.406
G1 X19.578 Y18.467
X19.554 Y18.529
G3 X18.778 Y19.439 I-1.535 J-0.522
G2 X17.747 Y20.997 I0.914 J1.725
G3 X16.125 Y21.925 I-1.132 J-0.097
X19.875 Y14.075 I1.875 J-3.925
X22.118 Y16.599 I-1.875 J3.925
G2 X23.586 Y17.65 I1.467 J-0.499
G1 X24.95
Y18.35
X23.586
G2 X22.118 Y19.401 I0 J1.55
G3 X16.125 Y21.925 I-4.118 J-1.401
X15.295 Y20.448 Z-4.261 I0.635 J-1.329 F150
G1 X15.557 Y17.852 Z-4.349
G3 X18.495 Y18 Z-4.5 I1.465 J0.148
X17.505 Y18 I-0.495 J0 F300
X18.495 Y18 I0.495 J0
G2 X18.836 Y18.68 I0.848 J0
G3 X18.778 Y19.439 I-0.269 J0.361
X16.399 Y18 I-0.759 J-1.432
X19.554 Y17.471 I1.622 J0
G1 X19.578 Y17.533
X19.602 Y17.594
G3 X19.602 Y18.406 I-1.082 J0.406
G1 X19.578 Y18.467
X19.554 Y18.529
G3 X18.778 Y19.439 I-1.535 J-0.522
G2 X17.747 Y20.997 I0.914 J1.725
G3 X16.125 Y21.925 I-1.132 J-0.097
X19.875 Y14.075 I1.875 J-3.925
X22.118 Y16.599 I-1.875 J3.925
G2 X23.586 Y17.65 I1.467 J-0.499
G1 X24.95
Y18.35
X23.586
G2 X22.118 Y19.401 I0 J1.55
G3 X16.125 Y21.925 I-4.118 J-1.401
X15.295 Y20.448 Z-4.561 I0.635 J-1.329 F150
G1 X15.557 Y17.852 Z-4.649
G3 X18.495 Y18 Z-4.8 I1.465 J0.148
X17.505 Y18 I-0.495 J0 F300
X18.495 Y18 I0.495 J0
G2 X18.836 Y18.68 I0.848 J0
G3 X18.778 Y19.439 I-0.269 J0.361
X16.399 Y18 I-0.759 J-1.432
X19.554 Y17.471 I1.622 J0
G1 X19.578 Y17.533
X19.602 Y17.594
G3 X19.602 Y18.406 I-1.082 J0.406
G1 X19.578 Y18.467
X19.554 Y18.529
G3 X18.778 Y19.439 I-1.535 J-0.522
G2 X17.747 Y20.997 I0.914 J1.725
G3 X16.125 Y21.925 I-1.132 J-0.097
X19.875 Y14.075 I1.875 J-3.925
X22.118 Y16.599 I-1.875 J3.925
G2 X23.586 Y17.65 I1.467 J-0.499
G1 X24.95
Y18.35
X23.586
G2 X22.118 Y19.401 I0 J1.55
G3 X16.125 Y21.925 I-4.118 J-1.401
X15.295 Y20.448 Z-4.861 I0.635 J-1.329 F150
G1 X15.557 Y17.852 Z-4.949
G3 X18.495 Y18 Z-5.1 I1.465 J0.148
X17.505 Y18 I-0.495 J0 F300
X18.495 Y18 I0.495 J0
G2 X18.836 Y18.68 I0.848 J0
G3 X18.778 Y19.439 I-0.269 J0.361
X16.399 Y18 I-0.759 J-1.432
X19.554 Y17.471 I1.622 J0
G1 X19.578 Y17.533
X19.602 Y17.594
G3 X19.602 Y18.406 I-1.082 J0.406
G1 X19.578 Y18.467
X19.554 Y18.529
G3 X18.778 Y19.439 I-1.535 J-0.522
G2 X17.747 Y20.997 I0.914 J1.725
G3 X16.125 Y21.925 I-1.132 J-0.097
X19.875 Y14.075 I1.875 J-3.925
X22.118 Y16.599 I-1.875 J3.925
G2 X23.586 Y17.65 I1.467 J-0.499
G1 X24.95
Y18.35
X23.586
G2 X22.118 Y19.401 I0 J1.55
G3 X16.125 Y21.925 I-4.118 J-1.401
X15.295 Y20.448 Z-5.161 I0.635 J-1.329 F150
G1 X15.557 Y17.852 Z-5.249
G3 X18.495 Y18 Z-5.4 I1.465 J0.148
X17.505 Y18 I-0.495 J0 F300
X18.495 Y18 I0.495 J0
G2 X18.836 Y18.68 I0.848 J0
G3 X18.778 Y19.439 I-0.269 J0.361
X16.399 Y18 I-0.759 J-1.432
X19.554 Y17.471 I1.622 J0
G1 X19.578 Y17.533
X19.602 Y17.594
G3 X19.602 Y18.406 I-1.082 J0.406
G1 X19.578 Y18.467
X19.554 Y18.529
G3 X18.778 Y19.439 I-1.535 J-0.522
G2 X17.747 Y20.997 I0.914 J1.725
G3 X16.125 Y21.925 I-1.132 J-0.097
X19.875 Y14.075 I1.875 J-3.925
X22.118 Y16.599 I-1.875 J3.925
G2 X23.586 Y17.65 I1.467 J-0.499
G1 X24.95
Y18.35
X23.586
G2 X22.118 Y19.401 I0 J1.55
G3 X16.125 Y21.925 I-4.118 J-1.401
X15.295 Y20.448 Z-5.461 I0.635 J-1.329 F150
G1 X15.557 Y17.852 Z-5.549
G3 X18.495 Y18 Z-5.7 I1.465 J0.148
X17.505 Y18 I-0.495 J0 F300
X18.495 Y18 I0.495 J0
G2 X18.836 Y18.68 I0.848 J0
G3 X18.778 Y19.439 I-0.269 J0.361
X16.399 Y18 I-0.759 J-1.432
X19.554 Y17.471 I1.622 J0
G1 X19.578 Y17.533
X19.602 Y17.594
G3 X19.602 Y18.406 I-1.082 J0.406
G1 X19.578 Y18.467
X19.554 Y18.529
G3 X18.778 Y19.439 I-1.535 J-0.522
G2 X17.747 Y20.997 I0.914 J1.725
G3 X16.125 Y21.925 I-1.132 J-0.097
X19.875 Y14.075 I1.875 J-3.925
X22.118 Y16.599 I-1.875 J3.925
G2 X23.586 Y17.65 I1.467 J-0.499
G1 X24.95
Y18.35
X23.586
G2 X22.118 Y19.401 I0 J1.55
G3 X16.125 Y21.925 I-4.118 J-1.401
X15.295 Y20.448 Z-5.761 I0.635 J-1.329 F150
G1 X15.557 Y17.852 Z-5.849
G3 X18.495 Y18 Z-6 I1.465 J0.148
X17.505 Y18 I-0.495 J0 F300
X18.495 Y18 I0.495 J0
G2 X18.836 Y18.68 I0.848 J0
G3 X18.778 Y19.439 I-0.269 J0.361
X16.399 Y18 I-0.759 J-1.432
X19.554 Y17.471 I1.622 J0
G1 X19.578 Y17.533
X19.602 Y17.594
G3 X19.602 Y18.406 I-1.082 J0.406
G1 X19.578 Y18.467
X19.554 Y18.529
G3 X18.778 Y19.439 I-1.535 J-0.522
G2 X17.747 Y20.997 I0.914 J1.725
G3 X16.125 Y21.925 I-1.132 J-0.097
X19.875 Y14.075 I1.875 J-3.925
X22.118 Y16.599 I-1.875 J3.925
G2 X23.586 Y17.65 I1.467 J-0.499
G1 X24.95
Y18.35
X23.586
G2 X22.118 Y19.401 I0 J1.55
G3 X16.125 Y21.925 I-4.118 J-1.401
X15.295 Y20.448 Z-6.061 I0.635 J-1.329 F150
G1 X15.557 Y17.852 Z-6.149
G3 X18.495 Y18 Z-6.3 I1.465 J0.148
X17.505 Y18 I-0.495 J0 F300
X18.495 Y18 I0.495 J0
G2 X18.836 Y18.68 I0.848 J0
G3 X18.778 Y19.439 I-0.269 J0.361
X16.399 Y18 I-0.759 J-1.432
X19.554 Y17.471 I1.622 J0
G1 X19.578 Y17.533
X19.602 Y17.594
G3 X19.602 Y18.406 I-1.082 J0.406
G1 X19.578 Y18.467
X19.554 Y18.529
G3 X18.778 Y19.439 I-1.535 J-0.522
G2 X17.747 Y20.997 I0.914 J1.725
G3 X16.125 Y21.925 I-1.132 J-0.097
X19.875 Y14.075 I1.875 J-3.925
X22.118 Y16.599 I-1.875 J3.925
G2 X23.586 Y17.65 I1.467 J-0.499
G1 X24.95
Y18.35
X23.586
G2 X22.118 Y19.401 I0 J1.55
G3 X16.125 Y21.925 I-4.118 J-1.401
X15.295 Y20.448 Z-6.361 I0.635 J-1.329 F150
G1 X15.557 Y17.852 Z-6.449
G3 X18.495 Y18 Z-6.6 I1.465 J0.148
X17.505 Y18 I-0.495 J0 F300
X18.495 Y18 I0.495 J0
G2 X18.836 Y18.68 I0.848 J0
G3 X18.778 Y19.439 I-0.269 J0.361
X16.399 Y18 I-0.759 J-1.432
X19.554 Y17.471 I1.622 J0
G1 X19.578 Y17.533
X19.602 Y17.594
G3 X19.602 Y18.406 I-1.082 J0.406
G1 X19.578 Y18.467
X19.554 Y18.529
G3 X18.778 Y19.439 I-1.535 J-0.522
G2 X17.747 Y20.997 I0.914 J1.725
G3 X16.125 Y21.925 I-1.132 J-0.097
X19.875 Y14.075 I1.875 J-3.925
X22.118 Y16.599 I-1.875 J3.925
G2 X23.586 Y17.65 I1.467 J-0.499
G1 X24.95
Y18.35
X23.586
G2 X22.118 Y19.401 I0 J1.55
G3 X16.125 Y21.925 I-4.118 J-1.401
X15.295 Y20.448 Z-6.661 I0.635 J-1.329 F150
G1 X15.557 Y17.852 Z-6.749
G3 X18.495 Y18 Z-6.9 I1.465 J0.148
X17.505 Y18 I-0.495 J0 F300
X18.495 Y18 I0.495 J0
G2 X18.836 Y18.68 I0.848 J0
G3 X18.778 Y19.439 I-0.269 J0.361
X16.399 Y18 I-0.759 J-1.432
X19.554 Y17.471 I1.622 J0
G1 X19.578 Y17.533
X19.602 Y17.594
G3 X19.602 Y18.406 I-1.082 J0.406
G1 X19.578 Y18.467
X19.554 Y18.529
G3 X18.778 Y19.439 I-1.535 J-0.522
G2 X17.747 Y20.997 I0.914 J1.725
G3 X16.125 Y21.925 I-1.132 J-0.097
X19.875 Y14.075 I1.875 J-3.925
X22.118 Y16.599 I-1.875 J3.925
G2 X23.586 Y17.65 I1.467 J-0.499
G1 X24.95
Y18.35
X23.586
G2 X22.118 Y19.401 I0 J1.55
G3 X16.125 Y21.925 I-4.118 J-1.401
X15.295 Y20.448 Z-6.961 I0.635 J-1.329 F150
G1 X15.557 Y17.852 Z-7.049
G3 X18.495 Y18 Z-7.2 I1.465 J0.148
X17.505 Y18 I-0.495 J0 F300
X18.495 Y18 I0.495 J0
G2 X18.836 Y18.68 I0.848 J0
G3 X18.778 Y19.439 I-0.269 J0.361
X16.399 Y18 I-0.759 J-1.432
X19.554 Y17.471 I1.622 J0
G1 X19.578 Y17.533
X19.602 Y17.594
G3 X19.602 Y18.406 I-1.082 J0.406
G1 X19.578 Y18.467
X19.554 Y18.529
G3 X18.778 Y19.439 I-1.535 J-0.522
G2 X17.747 Y20.997 I0.914 J1.725
G3 X16.125 Y21.925 I-1.132 J-0.097
X19.875 Y14.075 I1.875 J-3.925
X22.118 Y16.599 I-1.875 J3.925
G2 X23.586 Y17.65 I1.467 J-0.499
G1 X24.95
Y18.35
X23.586
G2 X22.118 Y19.401 I0 J1.55
G3 X16.125 Y21.925 I-4.118 J-1.401
X15.295 Y20.448 Z-7.261 I0.635 J-1.329 F150
G1 X15.557 Y17.852 Z-7.349
G3 X18.495 Y18 Z-7.5 I1.465 J0.148
X17.505 Y18 I-0.495 J0 F300
X18.495 Y18 I0.495 J0
G2 X18.836 Y18.68 I0.848 J0
G3 X18.778 Y19.439 I-0.269 J0.361
X16.399 Y18 I-0.759 J-1.432
X19.554 Y17.471 I1.622 J0
G1 X19.578 Y17.533
X19.602 Y17.594
G3 X19.602 Y18.406 I-1.082 J0.406
G1 X19.578 Y18.467
X19.554 Y18.529
G3 X18.778 Y19.439 I-1.535 J-0.522
G2 X17.747 Y20.997 I0.914 J1.725
G3 X16.125 Y21.925 I-1.132 J-0.097
X19.875 Y14.075 I1.875 J-3.925
X22.118 Y16.599 I-1.875 J3.925
G2 X23.586 Y17.65 I1.467 J-0.499
G1 X24.95
Y18.35
X23.586
G2 X22.118 Y19.401 I0 J1.55
G3 X16.125 Y21.925 I-4.118 J-1.401
X15.295 Y20.448 Z-7.561 I0.635 J-1.329 F150
G1 X15.557 Y17.852 Z-7.649
G3 X18.495 Y18 Z-7.8 I1.465 J0.148
X17.505 Y18 I-0.495 J0 F300
X18.495 Y18 I0.495 J0
G2 X18.836 Y18.68 I0.848 J0
G3 X18.778 Y19.439 I-0.269 J0.361
X16.399 Y18 I-0.759 J-1.432
X19.554 Y17.471 I1.622 J0
G1 X19.578 Y17.533
X19.602 Y17.594
G3 X19.602 Y18.406 I-1.082 J0.406
G1 X19.578 Y18.467
X19.554 Y18.529
G3 X18.778 Y19.439 I-1.535 J-0.522
G2 X17.747 Y20.997 I0.914 J1.725
G3 X16.125 Y21.925 I-1.132 J-0.097
X19.875 Y14.075 I1.875 J-3.925
X22.118 Y16.599 I-1.875 J3.925
G2 X23.586 Y17.65 I1.467 J-0.499
G1 X24.95
Y18.35
X23.586
G2 X22.118 Y19.401 I0 J1.55
G3 X16.125 Y21.925 I-4.118 J-1.401
X15.295 Y20.448 Z-7.861 I0.635 J-1.329 F150
G1 X15.557 Y17.852 Z-7.949
G3 X18.495 Y18 Z-8.1 I1.465 J0.148
X17.505 Y18 I-0.495 J0 F300
X18.495 Y18 I0.495 J0
G2 X18.836 Y18.68 I0.848 J0
G3 X18.778 Y19.439 I-0.269 J0.361
X16.399 Y18 I-0.759 J-1.432
X19.554 Y17.471 I1.622 J0
G1 X19.578 Y17.533
X19.602 Y17.594
G3 X19.602 Y18.406 I-1.082 J0.406
G1 X19.578 Y18.467
X19.554 Y18.529
G3 X18.778 Y19.439 I-1.535 J-0.522
G2 X17.747 Y20.997 I0.914 J1.725
G3 X16.125 Y21.925 I-1.132 J-0.097
X19.875 Y14.075 I1.875 J-3.925
X22.118 Y16.599 I-1.875 J3.925
G2 X23.586 Y17.65 I1.467 J-0.499
G1 X24.95
Y18.35
X23.586
G2 X22.118 Y19.401 I0 J1.55
G3 X16.125 Y21.925 I-4.118 J-1.401
X15.295 Y20.448 Z-8.161 I0.635 J-1.329 F150
G1 X15.557 Y17.852 Z-8.249
G3 X18.495 Y18 Z-8.4 I1.465 J0.148
X17.505 Y18 I-0.495 J0 F300
X18.495 Y18 I0.495 J0
G2 X18.836 Y18.68 I0.848 J0
G3 X18.778 Y19.439 I-0.269 J0.361
X16.399 Y18 I-0.759 J-1.432
X19.554 Y17.471 I1.622 J0
G1 X19.578 Y17.533
X19.602 Y17.594
G3 X19.602 Y18.406 I-1.082 J0.406
G1 X19.578 Y18.467
X19.554 Y18.529
G3 X18.778 Y19.439 I-1.535 J-0.522
G2 X17.747 Y20.997 I0.914 J1.725
G3 X16.125 Y21.925 I-1.132 J-0.097
X19.875 Y14.075 I1.875 J-3.925
X22.118 Y16.599 I-1.875 J3.925
G2 X23.586 Y17.65 I1.467 J-0.499
G1 X24.95
Y18.35
X23.586
G2 X22.118 Y19.401 I0 J1.55
G3 X16.125 Y21.925 I-4.118 J-1.401
X15.295 Y20.448 Z-8.461 I0.635 J-1.329 F150
G1 X15.557 Y17.852 Z-8.549
G3 X18.495 Y18 Z-8.7 I1.465 J0.148
X17.505 Y18 I-0.495 J0 F300
X18.495 Y18 I0.495 J0
G2 X18.836 Y18.68 I0.848 J0
G3 X18.778 Y19.439 I-0.269 J0.361
X16.399 Y18 I-0.759 J-1.432
X19.554 Y17.471 I1.622 J0
G1 X19.578 Y17.533
X19.602 Y17.594
G3 X19.602 Y18.406 I-1.082 J0.406
G1 X19.578 Y18.467
X19.554 Y18.529
G3 X18.778 Y19.439 I-1.535 J-0.522
G2 X17.747 Y20.997 I0.914 J1.725
G3 X16.125 Y21.925 I-1.132 J-0.097
X19.875 Y14.075 I1.875 J-3.925
X22.118 Y16.599 I-1.875 J3.925
G2 X23.586 Y17.65 I1.467 J-0.499
G1 X24.95
Y18.35
X23.586
G2 X22.118 Y19.401 I0 J1.55
G3 X16.125 Y21.925 I-4.118 J-1.401
X15.295 Y20.448 Z-8.761 I0.635 J-1.329 F150
G1 X15.557 Y17.852 Z-8.849
G3 X18.495 Y18 Z-9 I1.465 J0.148
X17.505 Y18 I-0.495 J0 F300
X18.495 Y18 I0.495 J0
G2 X18.836 Y18.68 I0.848 J0
G3 X18.778 Y19.439 I-0.269 J0.361
X16.399 Y18 I-0.759 J-1.432
X19.554 Y17.471 I1.622 J0
G1 X19.578 Y17.533
X19.602 Y17.594
G3 X19.602 Y18.406 I-1.082 J0.406
G1 X19.578 Y18.467
X19.554 Y18.529
G3 X18.778 Y19.439 I-1.535 J-0.522
G2 X17.747 Y20.997 I0.914 J1.725
G3 X16.125 Y21.925 I-1.132 J-0.097
X19.875 Y14.075 I1.875 J-3.925
X22.118 Y16.599 I-1.875 J3.925
G2 X23.586 Y17.65 I1.467 J-0.499
G1 X24.95
Y18.35
X23.586
G2 X22.118 Y19.401 I0 J1.55
G3 X16.125 Y21.925 I-4.118 J-1.401
X15.295 Y20.448 Z-9.061 I0.635 J-1.329 F150
G1 X15.557 Y17.852 Z-9.149
G3 X18.495 Y18 Z-9.3 I1.465 J0.148
X17.505 Y18 I-0.495 J0 F300
X18.495 Y18 I0.495 J0
G2 X18.836 Y18.68 I0.848 J0
G3 X18.778 Y19.439 I-0.269 J0.361
X16.399 Y18 I-0.759 J-1.432
X19.554 Y17.471 I1.622 J0
G1 X19.578 Y17.533
X19.602 Y17.594
G3 X19.602 Y18.406 I-1.082 J0.406
G1 X19.578 Y18.467
X19.554 Y18.529
G3 X18.778 Y19.439 I-1.535 J-0.522
G2 X17.747 Y20.997 I0.914 J1.725
G3 X16.125 Y21.925 I-1.132 J-0.097
X19.875 Y14.075 I1.875 J-3.925
X22.118 Y16.599 I-1.875 J3.925
G2 X23.586 Y17.65 I1.467 J-0.499
G1 X24.95
Y18.35
X23.586
G2 X22.118 Y19.401 I0 J1.55
G3 X16.125 Y21.925 I-4.118 J-1.401
X15.295 Y20.448 Z-9.361 I0.635 J-1.329 F150
G1 X15.557 Y17.852 Z-9.449
G3 X18.495 Y18 Z-9.6 I1.465 J0.148
X17.505 Y18 I-0.495 J0 F300
X18.495 Y18 I0.495 J0
G2 X18.836 Y18.68 I0.848 J0
G3 X18.778 Y19.439 I-0.269 J0.361
X16.399 Y18 I-0.759 J-1.432
X19.554 Y17.471 I1.622 J0
G1 X19.578 Y17.533
X19.602 Y17.594
G3 X19.602 Y18.406 I-1.082 J0.406
G1 X19.578 Y18.467
X19.554 Y18.529
G3 X18.778 Y19.439 I-1.535 J-0.522
G2 X17.747 Y20.997 I0.914 J1.725
G3 X16.125 Y21.925 I-1.132 J-0.097
X19.875 Y14.075 I1.875 J-3.925
X22.118 Y16.599 I-1.875 J3.925
G2 X23.586 Y17.65 I1.467 J-0.499
G1 X24.95
Y18.35
X23.586
G2 X22.118 Y19.401 I0 J1.55
G3 X16.125 Y21.925 I-4.118 J-1.401
X15.295 Y20.448 Z-9.661 I0.635 J-1.329 F150
G1 X15.557 Y17.852 Z-9.749
G3 X18.495 Y18 Z-9.9 I1.465 J0.148
X17.505 Y18 I-0.495 J0 F300
X18.495 Y18 I0.495 J0
G2 X18.836 Y18.68 I0.848 J0
G3 X18.778 Y19.439 I-0.269 J0.361
X16.399 Y18 I-0.759 J-1.432
X19.554 Y17.471 I1.622 J0
G1 X19.578 Y17.533
X19.602 Y17.594
G3 X19.602 Y18.406 I-1.082 J0.406
G1 X19.578 Y18.467
X19.554 Y18.529
G3 X18.778 Y19.439 I-1.535 J-0.522
G2 X17.747 Y20.997 I0.914 J1.725
G3 X16.125 Y21.925 I-1.132 J-0.097
X19.875 Y14.075 I1.875 J-3.925
X22.118 Y16.599 I-1.875 J3.925
G2 X23.586 Y17.65 I1.467 J-0.499
G1 X24.95
Y18.35
X23.586
G2 X22.118 Y19.401 I0 J1.55
G3 X16.125 Y21.925 I-4.118 J-1.401
X15.295 Y20.448 Z-9.961 I0.635 J-1.329 F150
G1 X15.557 Y17.852 Z-10.049
G3 X18.495 Y18 Z-10.2 I1.465 J0.148
X17.505 Y18 I-0.495 J0 F300
X18.495 Y18 I0.495 J0
G2 X18.836 Y18.68 I0.848 J0
G3 X18.778 Y19.439 I-0.269 J0.361
X16.399 Y18 I-0.759 J-1.432
X19.554 Y17.471 I1.622 J0
G1 X19.578 Y17.533
X19.602 Y17.594
G3 X19.602 Y18.406 I-1.082 J0.406
G1 X19.578 Y18.467
X19.554 Y18.529
G3 X18.778 Y19.439 I-1.535 J-0.522
G2 X17.747 Y20.997 I0.914 J1.725
G3 X16.125 Y21.925 I-1.132 J-0.097
X19.875 Y14.075 I1.875 J-3.925
X22.118 Y16.599 I-1.875 J3.925
G2 X23.586 Y17.65 I1.467 J-0.499
G1 X24.95
Y18.35
X23.586
G2 X22.118 Y19.401 I0 J1.55
G3 X16.125 Y21.925 I-4.118 J-1.401
X15.295 Y20.448 Z-10.261 I0.635 J-1.329 F150
G1 X15.557 Y17.852 Z-10.349
G3 X18.495 Y18 Z-10.5 I1.465 J0.148
X17.505 Y18 I-0.495 J0 F300
X18.495 Y18 I0.495 J0
G2 X18.836 Y18.68 I0.848 J0
G3 X18.778 Y19.439 I-0.269 J0.361
X16.399 Y18 I-0.759 J-1.432
X19.554 Y17.471 I1.622 J0
G1 X19.578 Y17.533
X19.602 Y17.594
G3 X19.602 Y18.406 I-1.082 J0.406
G1 X19.578 Y18.467
X19.554 Y18.529
G3 X18.778 Y19.439 I-1.535 J-0.522
G2 X17.747 Y20.997 I0.914 J1.725
G3 X16.125 Y21.925 I-1.132 J-0.097
X19.875 Y14.075 I1.875 J-3.925
X22.118 Y16.599 I-1.875 J3.925
G2 X23.586 Y17.65 I1.467 J-0.499
G1 X24.95
Y18.35
X23.586
G2 X22.118 Y19.401 I0 J1.55
G3 X16.125 Y21.925 I-4.118 J-1.401
X15.295 Y20.448 Z-10.561 I0.635 J-1.329 F150
G1 X15.557 Y17.852 Z-10.649
G3 X18.495 Y18 Z-10.8 I1.465 J0.148
X17.505 Y18 I-0.495 J0 F300
X18.495 Y18 I0.495 J0
G2 X18.836 Y18.68 I0.848 J0
G3 X18.778 Y19.439 I-0.269 J0.361
X16.399 Y18 I-0.759 J-1.432
X19.554 Y17.471 I1.622 J0
G1 X19.578 Y17.533
X19.602 Y17.594
G3 X19.602 Y18.406 I-1.082 J0.406
G1 X19.578 Y18.467
X19.554 Y18.529
G3 X18.778 Y19.439 I-1.535 J-0.522
G2 X17.747 Y20.997 I0.914 J1.725
G3 X16.125 Y21.925 I-1.132 J-0.097
X19.875 Y14.075 I1.875 J-3.925
X22.118 Y16.599 I-1.875 J3.925
G2 X23.586 Y17.65 I1.467 J-0.499
G1 X24.95
Y18.35
X23.586
G2 X22.118 Y19.401 I0 J1.55
G3 X16.125 Y21.925 I-4.118 J-1.401
X15.295 Y20.448 Z-10.861 I0.635 J-1.329 F150
G1 X15.557 Y17.852 Z-10.949
G3 X18.495 Y18 Z-11.1 I1.465 J0.148
X17.505 Y18 I-0.495 J0 F300
X18.495 Y18 I0.495 J0
G2 X18.836 Y18.68 I0.848 J0
G3 X18.778 Y19.439 I-0.269 J0.361
X16.399 Y18 I-0.759 J-1.432
X19.554 Y17.471 I1.622 J0
G1 X19.578 Y17.533
X19.602 Y17.594
G3 X19.602 Y18.406 I-1.082 J0.406
G1 X19.578 Y18.467
X19.554 Y18.529
G3 X18.778 Y19.439 I-1.535 J-0.522
G2 X17.747 Y20.997 I0.914 J1.725
G3 X16.125 Y21.925 I-1.132 J-0.097
X19.875 Y14.075 I1.875 J-3.925
X22.118 Y16.599 I-1.875 J3.925
G2 X23.586 Y17.65 I1.467 J-0.499
G1 X24.95
Y18.35
X23.586
G2 X22.118 Y19.401 I0 J1.55
G3 X16.125 Y21.925 I-4.118 J-1.401
X15.295 Y20.448 Z-11.161 I0.635 J-1.329 F150
G1 X15.557 Y17.852 Z-11.249
G3 X18.495 Y18 Z-11.4 I1.465 J0.148
X17.505 Y18 I-0.495 J0 F300
X18.495 Y18 I0.495 J0
G2 X18.836 Y18.68 I0.848 J0
G3 X18.778 Y19.439 I-0.269 J0.361
X16.399 Y18 I-0.759 J-1.432
X19.554 Y17.471 I1.622 J0
G1 X19.578 Y17.533
X19.602 Y17.594
G3 X19.602 Y18.406 I-1.082 J0.406
G1 X19.578 Y18.467
X19.554 Y18.529
G3 X18.778 Y19.439 I-1.535 J-0.522
G2 X17.747 Y20.997 I0.914 J1.725
G3 X16.125 Y21.925 I-1.132 J-0.097
X19.875 Y14.075 I1.875 J-3.925
X22.118 Y16.599 I-1.875 J3.925
G2 X23.586 Y17.65 I1.467 J-0.499
G1 X24.95
Y18.35
X23.586
G2 X22.118 Y19.401 I0 J1.55
G3 X16.125 Y21.925 I-4.118 J-1.401
X15.295 Y20.448 Z-11.461 I0.635 J-1.329 F150
G1 X15.557 Y17.852 Z-11.549
G3 X18.495 Y18 Z-11.7 I1.465 J0.148
X17.505 Y18 I-0.495 J0 F300
X18.495 Y18 I0.495 J0
G2 X18.836 Y18.68 I0.848 J0
G3 X18.778 Y19.439 I-0.269 J0.361
X16.399 Y18 I-0.759 J-1.432
X19.554 Y17.471 I1.622 J0
G1 X19.578 Y17.533
X19.602 Y17.594
G3 X19.602 Y18.406 I-1.082 J0.406
G1 X19.578 Y18.467
X19.554 Y18.529
G3 X18.778 Y19.439 I-1.535 J-0.522
G2 X17.747 Y20.997 I0.914 J1.725
G3 X16.125 Y21.925 I-1.132 J-0.097
X19.875 Y14.075 I1.875 J-3.925
X22.118 Y16.599 I-1.875 J3.925
G2 X23.586 Y17.65 I1.467 J-0.499
G1 X24.95
Y18.35
X23.586
G2 X22.118 Y19.401 I0 J1.55
G3 X16.125 Y21.925 I-4.118 J-1.401
X15.295 Y20.448 Z-11.761 I0.635 J-1.329 F150
G1 X15.557 Y17.852 Z-11.849
G3 X18.495 Y18 Z-12 I1.465 J0.148
X17.505 Y18 I-0.495 J0 F300
X18.495 Y18 I0.495 J0
G2 X18.836 Y18.68 I0.848 J0
G3 X18.778 Y19.439 I-0.269 J0.361
X16.399 Y18 I-0.759 J-1.432
X19.554 Y17.471 I1.622 J0
G1 X19.578 Y17.533
X19.602 Y17.594
G3 X19.602 Y18.406 I-1.082 J0.406
G1 X19.578 Y18.467
X19.554 Y18.529
G3 X18.778 Y19.439 I-1.535 J-0.522
G2 X17.747 Y20.997 I0.914 J1.725
G3 X16.125 Y21.925 I-1.132 J-0.097
X19.875 Y14.075 I1.875 J-3.925
X22.118 Y16.599 I-1.875 J3.925
G2 X23.586 Y17.65 I1.467 J-0.499
G1 X24.95
Y18.35
X23.586
G2 X22.118 Y19.401 I0 J1.55
G3 X16.125 Y21.925 I-4.118 J-1.401
X15.295 Y20.448 Z-12.061 I0.635 J-1.329 F150
G1 X15.557 Y17.852 Z-12.149
G3 X18.495 Y18 Z-12.3 I1.465 J0.148
X17.505 Y18 I-0.495 J0 F300
X18.495 Y18 I0.495 J0
G2 X18.836 Y18.68 I0.848 J0
G3 X18.778 Y19.439 I-0.269 J0.361
X16.399 Y18 I-0.759 J-1.432
X19.554 Y17.471 I1.622 J0
G1 X19.578 Y17.533
X19.602 Y17.594
G3 X19.602 Y18.406 I-1.082 J0.406
G1 X19.578 Y18.467
X19.554 Y18.529
G3 X18.778 Y19.439 I-1.535 J-0.522
G2 X17.747 Y20.997 I0.914 J1.725
G3 X16.125 Y21.925 I-1.132 J-0.097
X19.875 Y14.075 I1.875 J-3.925
X22.118 Y16.599 I-1.875 J3.925
G2 X23.586 Y17.65 I1.467 J-0.499
G1 X24.95
Y18.35
X23.586
G2 X22.118 Y19.401 I0 J1.55
G3 X16.125 Y21.925 I-4.118 J-1.401
X15.295 Y20.448 Z-12.361 I0.635 J-1.329 F150
G1 X15.557 Y17.852 Z-12.449
G3 X18.495 Y18 Z-12.6 I1.465 J0.148
X17.505 Y18 I-0.495 J0 F300
X18.495 Y18 I0.495 J0
G2 X18.836 Y18.68 I0.848 J0
G3 X18.778 Y19.439 I-0.269 J0.361
X16.399 Y18 I-0.759 J-1.432
X19.554 Y17.471 I1.622 J0
G1 X19.578 Y17.533
X19.602 Y17.594
G3 X19.602 Y18.406 I-1.082 J0.406
G1 X19.578 Y18.467
X19.554 Y18.529
G3 X18.778 Y19.439 I-1.535 J-0.522
G2 X17.747 Y20.997 I0.914 J1.725
G3 X16.125 Y21.925 I-1.132 J-0.097
X19.875 Y14.075 I1.875 J-3.925
X22.118 Y16.599 I-1.875 J3.925
G2 X23.586 Y17.65 I1.467 J-0.499
G1 X24.95
Y18.35
X23.586
G2 X22.118 Y19.401 I0 J1.55
G3 X16.125 Y21.925 I-4.118 J-1.401
X15.295 Y20.448 Z-12.661 I0.635 J-1.329 F150
G1 X15.557 Y17.852 Z-12.749
G3 X18.495 Y18 Z-12.9 I1.465 J0.148
X17.505 Y18 I-0.495 J0 F300
X18.495 Y18 I0.495 J0
G2 X18.836 Y18.68 I0.848 J0
G3 X18.778 Y19.439 I-0.269 J0.361
X16.399 Y18 I-0.759 J-1.432
X19.554 Y17.471 I1.622 J0
G1 X19.578 Y17.533
X19.602 Y17.594
G3 X19.602 Y18.406 I-1.082 J0.406
G1 X19.578 Y18.467
X19.554 Y18.529
G3 X18.778 Y19.439 I-1.535 J-0.522
G2 X17.747 Y20.997 I0.914 J1.725
G3 X16.125 Y21.925 I-1.132 J-0.097
X19.875 Y14.075 I1.875 J-3.925
X22.118 Y16.599 I-1.875 J3.925
G2 X23.586 Y17.65 I1.467 J-0.499
G1 X24.95
Y18.35
X23.586
G2 X22.118 Y19.401 I0 J1.55
G3 X16.125 Y21.925 I-4.118 J-1.401
X15.295 Y20.448 Z-12.961 I0.635 J-1.329 F150
G1 X15.557 Y17.852 Z-13.049
G3 X18.495 Y18 Z-13.2 I1.465 J0.148
X17.505 Y18 I-0.495 J0 F300
X18.495 Y18 I0.495 J0
G2 X18.836 Y18.68 I0.848 J0
G3 X18.778 Y19.439 I-0.269 J0.361
X16.399 Y18 I-0.759 J-1.432
X19.554 Y17.471 I1.622 J0
G1 X19.578 Y17.533
X19.602 Y17.594
G3 X19.602 Y18.406 I-1.082 J0.406
G1 X19.578 Y18.467
X19.554 Y18.529
G3 X18.778 Y19.439 I-1.535 J-0.522
G2 X17.747 Y20.997 I0.914 J1.725
G3 X16.125 Y21.925 I-1.132 J-0.097
X19.875 Y14.075 I1.875 J-3.925
X22.118 Y16.599 I-1.875 J3.925
G2 X23.586 Y17.65 I1.467 J-0.499
G1 X24.95
Y18.35
X23.586
G2 X22.118 Y19.401 I0 J1.55
G3 X16.125 Y21.925 I-4.118 J-1.401
X15.295 Y20.448 Z-13.261 I0.635 J-1.329 F150
G1 X15.557 Y17.852 Z-13.349
G3 X18.495 Y18 Z-13.5 I1.465 J0.148
X17.505 Y18 I-0.495 J0 F300
X18.495 Y18 I0.495 J0
G2 X18.836 Y18.68 I0.848 J0
G3 X18.778 Y19.439 I-0.269 J0.361
X16.399 Y18 I-0.759 J-1.432
X19.554 Y17.471 I1.622 J0
G1 X19.578 Y17.533
X19.602 Y17.594
G3 X19.602 Y18.406 I-1.082 J0.406
G1 X19.578 Y18.467
X19.554 Y18.529
G3 X18.778 Y19.439 I-1.535 J-0.522
G2 X17.747 Y20.997 I0.914 J1.725
G3 X16.125 Y21.925 I-1.132 J-0.097
X19.875 Y14.075 I1.875 J-3.925
X22.118 Y16.599 I-1.875 J3.925
G2 X23.586 Y17.65 I1.467 J-0.499
G1 X24.95
Y18.35
X23.586
G2 X22.118 Y19.401 I0 J1.55
G3 X16.125 Y21.925 I-4.118 J-1.401
X15.295 Y20.448 Z-13.561 I0.635 J-1.329 F150
G1 X15.557 Y17.852 Z-13.649
G3 X18.495 Y18 Z-13.8 I1.465 J0.148
X17.505 Y18 I-0.495 J0 F300
X18.495 Y18 I0.495 J0
G2 X18.836 Y18.68 I0.848 J0
G3 X18.778 Y19.439 I-0.269 J0.361
X16.399 Y18 I-0.759 J-1.432
X19.554 Y17.471 I1.622 J0
G1 X19.578 Y17.533
X19.602 Y17.594
G3 X19.602 Y18.406 I-1.082 J0.406
G1 X19.578 Y18.467
X19.554 Y18.529
G3 X18.778 Y19.439 I-1.535 J-0.522
G2 X17.747 Y20.997 I0.914 J1.725
G3 X16.125 Y21.925 I-1.132 J-0.097
X19.875 Y14.075 I1.875 J-3.925
X22.118 Y16.599 I-1.875 J3.925
G2 X23.586 Y17.65 I1.467 J-0.499
G1 X24.95
Y18.35
X23.586
G2 X22.118 Y19.401 I0 J1.55
G3 X16.125 Y21.925 I-4.118 J-1.401
X15.295 Y20.448 Z-13.841 I0.635 J-1.329 F150
G1 X15.557 Y17.852 Z-13.899
G3 X18.495 Y18 Z-14 I1.465 J0.148
X17.505 Y18 I-0.495 J0 F300
X18.495 Y18 I0.495 J0
G2 X18.836 Y18.68 I0.848 J0
G3 X18.778 Y19.439 I-0.269 J0.361
X16.399 Y18 I-0.759 J-1.432
X19.554 Y17.471 I1.622 J0
G1 X19.578 Y17.533
X19.602 Y17.594
G3 X19.602 Y18.406 I-1.082 J0.406
G1 X19.578 Y18.467
X19.554 Y18.529
G3 X18.778 Y19.439 I-1.535 J-0.522
G2 X17.747 Y20.997 I0.914 J1.725
G3 X16.125 Y21.925 I-1.132 J-0.097
X19.875 Y14.075 I1.875 J-3.925
X22.118 Y16.599 I-1.875 J3.925
G2 X23.586 Y17.65 I1.467 J-0.499
G1 X24.95
Y18.35
X23.586
G2 X22.118 Y19.401 I0 J1.55
G3 X16.125 Y21.925 I-4.118 J-1.401
G1 X16.074 Y21.895 Z-13.988
X16.03 Y21.855 Z-13.976
X15.999 Y21.815 Z-13.943
X15.975 Y21.771 Z-13.909
X15.955 Y21.707 Z-13.809
X15.951 Y21.684 Z-13.69
Z10
(When using Fusion 360 for Personal Use, the feedrate of)
(rapid moves is reduced to match the feedrate of cutting)
(moves, which can increase machining time. Unrestricted rapid)
(moves are available with a Fusion 360 Subscription.)


(Drill1)
T3
S24000 M3
G54
M8
G0 X27.5 Y27.5
Z10
Z5
Z2
G1 Z-0.3 F50
G0 Z5
Z1.7
G1 Z-0.6 F50
G0 Z5
Z1.4
G1 Z-0.9 F50
G0 Z5
Z1.1
G1 Z-1.2 F50
G0 Z5
Z0.8
G1 Z-1.5 F50
G0 Z5
Z0.5
G1 Z-1.8 F50
G0 Z5
Z0.2
G1 Z-2.1 F50
G0 Z5
Z-0.1
G1 Z-2.4 F50
G0 Z5
Z-0.4
G1 Z-2.7 F50
G0 Z5
Z-0.7
G1 Z-3 F50
G0 Z5
Z-1
G1 Z-3.3 F50
G0 Z5
Z-1.3
G1 Z-3.6 F50
G0 Z5
Z-1.6
G1 Z-3.9 F50
G0 Z5
Z-1.9
G1 Z-4.2 F50
G0 Z5
Z-2.2
G1 Z-4.5 F50
G0 Z5
Z-2.5
G1 Z-4.8 F50
G0 Z5
Z-2.8
G1 Z-5.1 F50
G0 Z5
Z-3.1
G1 Z-5.4 F50
G0 Z5
Z-3.4
G1 Z-5.7 F50
G0 Z5
Z-3.7
G1 Z-6 F50
G0 Z5
Z-4
G1 Z-6.3 F50
G0 Z5
Z-4.3
G1 Z-6.6 F50
G0 Z5
Z-4.6
G1 Z-6.9 F50
G0 Z5
Z-4.9
G1 Z-7.2 F50
G0 Z5
Z-5.2
G1 Z-7.5 F50
G0 Z5
Z-5.5
G1 Z-7.8 F50
G0 Z5
Z-5.8
G1 Z-8.1 F50
G0 Z5
Z-6.1
G1 Z-8.4 F50
G0 Z5
Z-6.4
G1 Z-8.7 F50
G0 Z5
Z-6.7
G1 Z-9 F50
G0 Z5
Z-7
G1 Z-9.3 F50
G0 Z5
Z-7.3
G1 Z-9.6 F50
G0 Z5
Z-7.6
G1 Z-9.9 F50
G0 Z5
Z-7.9
G1 Z-10.2 F50
G0 Z5
Z-8.2
G1 Z-10.5 F50
G0 Z5
Z-8.5
G1 Z-10.8 F50
G0 Z5
Z-8.8
G1 Z-11.1 F50
G0 Z5
Z-9.1
G1 Z-11.4 F50
G0 Z5
Z-9.4
G1 Z-11.7 F50
G0 Z5
Z-9.7
G1 Z-12 F50
G0 Z5
Z-10
G1 Z-12.3 F50
G0 Z5
Z-10.3
G1 Z-12.6 F50
G0 Z5
Z-10.6
G1 Z-12.9 F50
G0 Z5
Z-10.9
G1 Z-13.2 F50
G0 Z5
Z-11.2
G1 Z-13.5 F50
G0 Z5
Z-11.5
G1 Z-13.8 F50
G0 Z5
Z-11.8
G1 Z-14 F50
G4 P1.
G0 Z5
X8.5
Z2
G1 Z-0.3 F50
G0 Z5
Z1.7
G1 Z-0.6 F50
G0 Z5
Z1.4
G1 Z-0.9 F50
G0 Z5
Z1.1
G1 Z-1.2 F50
G0 Z5
Z0.8
G1 Z-1.5 F50
G0 Z5
Z0.5
G1 Z-1.8 F50
G0 Z5
Z0.2
G1 Z-2.1 F50
G0 Z5
Z-0.1
G1 Z-2.4 F50
G0 Z5
Z-0.4
G1 Z-2.7 F50
G0 Z5
Z-0.7
G1 Z-3 F50
G0 Z5
Z-1
G1 Z-3.3 F50
G0 Z5
Z-1.3
G1 Z-3.6 F50
G0 Z5
Z-1.6
G1 Z-3.9 F50
G0 Z5
Z-1.9
G1 Z-4.2 F50
G0 Z5
Z-2.2
G1 Z-4.5 F50
G0 Z5
Z-2.5
G1 Z-4.8 F50
G0 Z5
Z-2.8
G1 Z-5.1 F50
G0 Z5
Z-3.1
G1 Z-5.4 F50
G0 Z5
Z-3.4
G1 Z-5.7 F50
G0 Z5
Z-3.7
G1 Z-6 F50
G0 Z5
Z-4
G1 Z-6.3 F50
G0 Z5
Z-4.3
G1 Z-6.6 F50
G0 Z5
Z-4.6
G1 Z-6.9 F50
G0 Z5
Z-4.9
G1 Z-7.2 F50
G0 Z5
Z-5.2
G1 Z-7.5 F50
G0 Z5
Z-5.5
G1 Z-7.8 F50
G0 Z5
Z-5.8
G1 Z-8.1 F50
G0 Z5
Z-6.1
G1 Z-8.4 F50
G0 Z5
Z-6.4
G1 Z-8.7 F50
G0 Z5
Z-6.7
G1 Z-9 F50
G0 Z5
Z-7
G1 Z-9.3 F50
G0 Z5
Z-7.3
G1 Z-9.6 F50
G0 Z5
Z-7.6
G1 Z-9.9 F50
G0 Z5
Z-7.9
G1 Z-10.2 F50
G0 Z5
Z-8.2
G1 Z-10.5 F50
G0 Z5
Z-8.5
G1 Z-10.8 F50
G0 Z5
Z-8.8
G1 Z-11.1 F50
G0 Z5
Z-9.1
G1 Z-11.4 F50
G0 Z5
Z-9.4
G1 Z-11.7 F50
G0 Z5
Z-9.7
G1 Z-12 F50
G0 Z5
Z-10
G1 Z-12.3 F50
G0 Z5
Z-10.3
G1 Z-12.6 F50
G0 Z5
Z-10.6
G1 Z-12.9 F50
G0 Z5
Z-10.9
G1 Z-13.2 F50
G0 Z5
Z-11.2
G1 Z-13.5 F50
G0 Z5
Z-11.5
G1 Z-13.8 F50
G0 Z5
Z-11.8
G1 Z-14 F50
G4 P1.
G0 Z5
Y8.5
Z2
G1 Z-0.3 F50
G0 Z5
Z1.7
G1 Z-0.6 F50
G0 Z5
Z1.4
G1 Z-0.9 F50
G0 Z5
Z1.1
G1 Z-1.2 F50
G0 Z5
Z0.8
G1 Z-1.5 F50
G0 Z5
Z0.5
G1 Z-1.8 F50
G0 Z5
Z0.2
G1 Z-2.1 F50
G0 Z5
Z-0.1
G1 Z-2.4 F50
G0 Z5
Z-0.4
G1 Z-2.7 F50
G0 Z5
Z-0.7
G1 Z-3 F50
G0 Z5
Z-1
G1 Z-3.3 F50
G0 Z5
Z-1.3
G1 Z-3.6 F50
G0 Z5
Z-1.6
G1 Z-3.9 F50
G0 Z5
Z-1.9
G1 Z-4.2 F50
G0 Z5
Z-2.2
G1 Z-4.5 F50
G0 Z5
Z-2.5
G1 Z-4.8 F50
G0 Z5
Z-2.8
G1 Z-5.1 F50
G0 Z5
Z-3.1
G1 Z-5.4 F50
G0 Z5
Z-3.4
G1 Z-5.7 F50
G0 Z5
Z-3.7
G1 Z-6 F50
G0 Z5
Z-4
G1 Z-6.3 F50
G0 Z5
Z-4.3
G1 Z-6.6 F50
G0 Z5
Z-4.6
G1 Z-6.9 F50
G0 Z5
Z-4.9
G1 Z-7.2 F50
G0 Z5
Z-5.2
G1 Z-7.5 F50
G0 Z5
Z-5.5
G1 Z-7.8 F50
G0 Z5
Z-5.8
G1 Z-8.1 F50
G0 Z5
Z-6.1
G1 Z-8.4 F50
G0 Z5
Z-6.4
G1 Z-8.7 F50
G0 Z5
Z-6.7
G1 Z-9 F50
G0 Z5
Z-7
G1 Z-9.3 F50
G0 Z5
Z-7.3
G1 Z-9.6 F50
G0 Z5
Z-7.6
G1 Z-9.9 F50
G0 Z5
Z-7.9
G1 Z-10.2 F50
G0 Z5
Z-8.2
G1 Z-10.5 F50
G0 Z5
Z-8.5
G1 Z-10.8 F50
G0 Z5
Z-8.8
G1 Z-11.1 F50
G0 Z5
Z-9.1
G1 Z-11.4 F50
G0 Z5
Z-9.4
G1 Z-11.7 F50
G0 Z5
Z-9.7
G1 Z-12 F50
G0 Z5
Z-10
G1 Z-12.3 F50
G0 Z5
Z-10.3
G1 Z-12.6 F50
G0 Z5
Z-10.6
G1 Z-12.9 F50
G0 Z5
Z-10.9
G1 Z-13.2 F50
G0 Z5
Z-11.2
G1 Z-13.5 F50
G0 Z5
Z-11.5
G1 Z-13.8 F50
G0 Z5
Z-11.8
G1 Z-14 F50
G4 P1.
G0 Z5
X27.5
Z2
G1 Z-0.3 F50
G0 Z5
Z1.7
G1 Z-0.6 F50
G0 Z5
Z1.4
G1 Z-0.9 F50
G0 Z5
Z1.1
G1 Z-1.2 F50
G0 Z5
Z0.8
G1 Z-1.5 F50
G0 Z5
Z0.5
G1 Z-1.8 F50
G0 Z5
Z0.2
G1 Z-2.1 F50
G0 Z5
Z-0.1
G1 Z-2.4 F50
G0 Z5
Z-0.4
G1 Z-2.7 F50
G0 Z5
Z-0.7
G1 Z-3 F50
G0 Z5
Z-1
G1 Z-3.3 F50
G0 Z5
Z-1.3
G1 Z-3.6 F50
G0 Z5
Z-1.6
G1 Z-3.9 F50
G0 Z5
Z-1.9
G1 Z-4.2 F50
G0 Z5
Z-2.2
G1 Z-4.5 F50
G0 Z5
Z-2.5
G1 Z-4.8 F50
G0 Z5
Z-2.8
G1 Z-5.1 F50
G0 Z5
Z-3.1
G1 Z-5.4 F50
G0 Z5
Z-3.4
G1 Z-5.7 F50
G0 Z5
Z-3.7
G1 Z-6 F50
G0 Z5
Z-4
G1 Z-6.3 F50
G0 Z5
Z-4.3
G1 Z-6.6 F50
G0 Z5
Z-4.6
G1 Z-6.9 F50
G0 Z5
Z-4.9
G1 Z-7.2 F50
G0 Z5
Z-5.2
G1 Z-7.5 F50
G0 Z5
Z-5.5
G1 Z-7.8 F50
G0 Z5
Z-5.8
G1 Z-8.1 F50
G0 Z5
Z-6.1
G1 Z-8.4 F50
G0 Z5
Z-6.4
G1 Z-8.7 F50
G0 Z5
Z-6.7
G1 Z-9 F50
G0 Z5
Z-7
G1 Z-9.3 F50
G0 Z5
Z-7.3
G1 Z-9.6 F50
G0 Z5
Z-7.6
G1 Z-9.9 F50
G0 Z5
Z-7.9
G1 Z-10.2 F50
G0 Z5
Z-8.2
G1 Z-10.5 F50
G0 Z5
Z-8.5
G1 Z-10.8 F50
G0 Z5
Z-8.8
G1 Z-11.1 F50
G0 Z5
Z-9.1
G1 Z-11.4 F50
G0 Z5
Z-9.4
G1 Z-11.7 F50
G0 Z5
Z-9.7
G1 Z-12 F50
G0 Z5
Z-10
G1 Z-12.3 F50
G0 Z5
Z-10.3
G1 Z-12.6 F50
G0 Z5
Z-10.6
G1 Z-12.9 F50
G0 Z5
Z-10.9
G1 Z-13.2 F50
G0 Z5
Z-11.2
G1 Z-13.5 F50
G0 Z5
Z-11.5
G1 Z-13.8 F50
G0 Z5
Z-11.8
G1 Z-14 F50
G4 P1.
G0 Z5
Z10

(2D Contour5)
G0 X17.69 Y37.48
G1 Z10 F300
Z5
Z1.3 F150
Z0.01
G19 G2 Y37.17 Z-0.3 J-0.31 K0
G1 Y36.86
G17 G3 X18 Y36.55 I0.31 J0
G2 X18 Y-0.55 I0 J-18.55 F300
X18 Y36.55 I0 J18.55
G3 X18.31 Y36.86 I0 J0.31
G1 Y37.17
G19 G3 Y37.48 Z0.01 J0 K0.31
G1 Z5
X17.69
Z1 F150
Z-0.29
G2 Y37.17 Z-0.6 J-0.31 K0
G1 Y36.86
G17 G3 X18 Y36.55 I0.31 J0
G2 X18 Y-0.55 I0 J-18.55 F300
X18 Y36.55 I0 J18.55
G3 X18.31 Y36.86 I0 J0.31
G1 Y37.17
G19 G3 Y37.48 Z-0.29 J0 K0.31
G1 Z5
X17.69
Z0.7 F150
Z-0.59
G2 Y37.17 Z-0.9 J-0.31 K0
G1 Y36.86
G17 G3 X18 Y36.55 I0.31 J0
G2 X18 Y-0.55 I0 J-18.55 F300
X18 Y36.55 I0 J18.55
G3 X18.31 Y36.86 I0 J0.31
G1 Y37.17
G19 G3 Y37.48 Z-0.59 J0 K0.31
G1 Z5
X17.69
Z0.4 F150
Z-0.89
G2 Y37.17 Z-1.2 J-0.31 K0
G1 Y36.86
G17 G3 X18 Y36.55 I0.31 J0
G2 X18 Y-0.55 I0 J-18.55 F300
X18 Y36.55 I0 J18.55
G3 X18.31 Y36.86 I0 J0.31
G1 Y37.17
G19 G3 Y37.48 Z-0.89 J0 K0.31
G1 Z5
X17.69
Z0.1 F150
Z-1.19
G2 Y37.17 Z-1.5 J-0.31 K0
G1 Y36.86
G17 G3 X18 Y36.55 I0.31 J0
G2 X18 Y-0.55 I0 J-18.55 F300
X18 Y36.55 I0 J18.55
G3 X18.31 Y36.86 I0 J0.31
G1 Y37.17
G19 G3 Y37.48 Z-1.19 J0 K0.31
G1 Z5
X17.69
Z-0.2 F150
Z-1.49
G2 Y37.17 Z-1.8 J-0.31 K0
G1 Y36.86
G17 G3 X18 Y36.55 I0.31 J0
G2 X18 Y-0.55 I0 J-18.55 F300
X18 Y36.55 I0 J18.55
G3 X18.31 Y36.86 I0 J0.31
G1 Y37.17
G19 G3 Y37.48 Z-1.49 J0 K0.31
G1 Z5
X17.69
Z-0.5 F150
Z-1.79
G2 Y37.17 Z-2.1 J-0.31 K0
G1 Y36.86
G17 G3 X18 Y36.55 I0.31 J0
G2 X18 Y-0.55 I0 J-18.55 F300
X18 Y36.55 I0 J18.55
G3 X18.31 Y36.86 I0 J0.31
G1 Y37.17
G19 G3 Y37.48 Z-1.79 J0 K0.31
G1 Z5
X17.69
Z-0.8 F150
Z-2.09
G2 Y37.17 Z-2.4 J-0.31 K0
G1 Y36.86
G17 G3 X18 Y36.55 I0.31 J0
G2 X18 Y-0.55 I0 J-18.55 F300
X18 Y36.55 I0 J18.55
G3 X18.31 Y36.86 I0 J0.31
G1 Y37.17
G19 G3 Y37.48 Z-2.09 J0 K0.31
G1 Z5
X17.69
Z-1.1 F150
Z-2.39
G2 Y37.17 Z-2.7 J-0.31 K0
G1 Y36.86
G17 G3 X18 Y36.55 I0.31 J0
G2 X18 Y-0.55 I0 J-18.55 F300
X18 Y36.55 I0 J18.55
G3 X18.31 Y36.86 I0 J0.31
G1 Y37.17
G19 G3 Y37.48 Z-2.39 J0 K0.31
G1 Z5
X17.69
Z-1.4 F150
Z-2.69
G2 Y37.17 Z-3 J-0.31 K0
G1 Y36.86
G17 G3 X18 Y36.55 I0.31 J0
G2 X18 Y-0.55 I0 J-18.55 F300
X18 Y36.55 I0 J18.55
G3 X18.31 Y36.86 I0 J0.31
G1 Y37.17
G19 G3 Y37.48 Z-2.69 J0 K0.31
G1 Z5
X17.69
Z-1.7 F150
Z-2.99
G2 Y37.17 Z-3.3 J-0.31 K0
G1 Y36.86
G17 G3 X18 Y36.55 I0.31 J0
G2 X18 Y-0.55 I0 J-18.55 F300
X18 Y36.55 I0 J18.55
G3 X18.31 Y36.86 I0 J0.31
G1 Y37.17
G19 G3 Y37.48 Z-2.99 J0 K0.31
G1 Z5
X17.69
Z-2 F150
Z-3.29
G2 Y37.17 Z-3.6 J-0.31 K0
G1 Y36.86
G17 G3 X18 Y36.55 I0.31 J0
G2 X18 Y-0.55 I0 J-18.55 F300
X18 Y36.55 I0 J18.55
G3 X18.31 Y36.86 I0 J0.31
G1 Y37.17
G19 G3 Y37.48 Z-3.29 J0 K0.31
G1 Z5
X17.69
Z-2.3 F150
Z-3.59
G2 Y37.17 Z-3.9 J-0.31 K0
G1 Y36.86
G17 G3 X18 Y36.55 I0.31 J0
G2 X18 Y-0.55 I0 J-18.55 F300
X18 Y36.55 I0 J18.55
G3 X18.31 Y36.86 I0 J0.31
G1 Y37.17
G19 G3 Y37.48 Z-3.59 J0 K0.31
G1 Z5
X17.69
Z-2.6 F150
Z-3.89
G2 Y37.17 Z-4.2 J-0.31 K0
G1 Y36.86
G17 G3 X18 Y36.55 I0.31 J0
G2 X18 Y-0.55 I0 J-18.55 F300
X18 Y36.55 I0 J18.55
G3 X18.31 Y36.86 I0 J0.31
G1 Y37.17
G19 G3 Y37.48 Z-3.89 J0 K0.31
G1 Z5
X17.69
Z-2.9 F150
Z-4.19
G2 Y37.17 Z-4.5 J-0.31 K0
G1 Y36.86
G17 G3 X18 Y36.55 I0.31 J0
G2 X18 Y-0.55 I0 J-18.55 F300
X18 Y36.55 I0 J18.55
G3 X18.31 Y36.86 I0 J0.31
G1 Y37.17
G19 G3 Y37.48 Z-4.19 J0 K0.31
G1 Z5
X17.69
Z-3.2 F150
Z-4.49
G2 Y37.17 Z-4.8 J-0.31 K0
G1 Y36.86
G17 G3 X18 Y36.55 I0.31 J0
G2 X18 Y-0.55 I0 J-18.55 F300
X18 Y36.55 I0 J18.55
G3 X18.31 Y36.86 I0 J0.31
G1 Y37.17
G19 G3 Y37.48 Z-4.49 J0 K0.31
G1 Z5
X17.69
Z-3.5 F150
Z-4.79
G2 Y37.17 Z-5.1 J-0.31 K0
G1 Y36.86
G17 G3 X18 Y36.55 I0.31 J0
G2 X18 Y-0.55 I0 J-18.55 F300
X18 Y36.55 I0 J18.55
G3 X18.31 Y36.86 I0 J0.31
G1 Y37.17
G19 G3 Y37.48 Z-4.79 J0 K0.31
G1 Z5
X17.69
Z-3.8 F150
Z-5.09
G2 Y37.17 Z-5.4 J-0.31 K0
G1 Y36.86
G17 G3 X18 Y36.55 I0.31 J0
G2 X18 Y-0.55 I0 J-18.55 F300
X18 Y36.55 I0 J18.55
G3 X18.31 Y36.86 I0 J0.31
G1 Y37.17
G19 G3 Y37.48 Z-5.09 J0 K0.31
G1 Z5
X17.69
Z-4.1 F150
Z-5.39
G2 Y37.17 Z-5.7 J-0.31 K0
G1 Y36.86
G17 G3 X18 Y36.55 I0.31 J0
G2 X18 Y-0.55 I0 J-18.55 F300
X18 Y36.55 I0 J18.55
G3 X18.31 Y36.86 I0 J0.31
G1 Y37.17
G19 G3 Y37.48 Z-5.39 J0 K0.31
G1 Z5
X17.69
Z-4.4 F150
Z-5.69
G2 Y37.17 Z-6 J-0.31 K0
G1 Y36.86
G17 G3 X18 Y36.55 I0.31 J0
G2 X18 Y-0.55 I0 J-18.55 F300
X18 Y36.55 I0 J18.55
G3 X18.31 Y36.86 I0 J0.31
G1 Y37.17
G19 G3 Y37.48 Z-5.69 J0 K0.31
G1 Z5
X17.69
Z-4.7 F150
Z-5.99
G2 Y37.17 Z-6.3 J-0.31 K0
G1 Y36.86
G17 G3 X18 Y36.55 I0.31 J0
G2 X18 Y-0.55 I0 J-18.55 F300
X18 Y36.55 I0 J18.55
G3 X18.31 Y36.86 I0 J0.31
G1 Y37.17
G19 G3 Y37.48 Z-5.99 J0 K0.31
G1 Z5
X17.69
Z-5 F150
Z-6.29
G2 Y37.17 Z-6.6 J-0.31 K0
G1 Y36.86
G17 G3 X18 Y36.55 I0.31 J0
G2 X18 Y-0.55 I0 J-18.55 F300
X18 Y36.55 I0 J18.55
G3 X18.31 Y36.86 I0 J0.31
G1 Y37.17
G19 G3 Y37.48 Z-6.29 J0 K0.31
G1 Z5
X17.69
Z-5.3 F150
Z-6.59
G2 Y37.17 Z-6.9 J-0.31 K0
G1 Y36.86
G17 G3 X18 Y36.55 I0.31 J0
G2 X18 Y-0.55 I0 J-18.55 F300
X18 Y36.55 I0 J18.55
G3 X18.31 Y36.86 I0 J0.31
G1 Y37.17
G19 G3 Y37.48 Z-6.59 J0 K0.31
G1 Z5
X17.69
Z-5.6 F150
Z-6.89
G2 Y37.17 Z-7.2 J-0.31 K0
G1 Y36.86
G17 G3 X18 Y36.55 I0.31 J0
G2 X18 Y-0.55 I0 J-18.55 F300
X18 Y36.55 I0 J18.55
G3 X18.31 Y36.86 I0 J0.31
G1 Y37.17
G19 G3 Y37.48 Z-6.89 J0 K0.31
G1 Z5
X17.69
Z-5.9 F150
Z-7.19
G2 Y37.17 Z-7.5 J-0.31 K0
G1 Y36.86
G17 G3 X18 Y36.55 I0.31 J0
G2 X18 Y-0.55 I0 J-18.55 F300
X18 Y36.55 I0 J18.55
G3 X18.31 Y36.86 I0 J0.31
G1 Y37.17
G19 G3 Y37.48 Z-7.19 J0 K0.31
G1 Z5
X17.69
Z-6.2 F150
Z-7.49
G2 Y37.17 Z-7.8 J-0.31 K0
G1 Y36.86
G17 G3 X18 Y36.55 I0.31 J0
G2 X18 Y-0.55 I0 J-18.55 F300
X18 Y36.55 I0 J18.55
G3 X18.31 Y36.86 I0 J0.31
G1 Y37.17
G19 G3 Y37.48 Z-7.49 J0 K0.31
G1 Z5
X17.69
Z-6.5 F150
Z-7.79
G2 Y37.17 Z-8.1 J-0.31 K0
G1 Y36.86
G17 G3 X18 Y36.55 I0.31 J0
G2 X18 Y-0.55 I0 J-18.55 F300
X18 Y36.55 I0 J18.55
G3 X18.31 Y36.86 I0 J0.31
G1 Y37.17
G19 G3 Y37.48 Z-7.79 J0 K0.31
G1 Z5
X17.69
Z-6.8 F150
Z-8.09
G2 Y37.17 Z-8.4 J-0.31 K0
G1 Y36.86
G17 G3 X18 Y36.55 I0.31 J0
G2 X18 Y-0.55 I0 J-18.55 F300
X18 Y36.55 I0 J18.55
G3 X18.31 Y36.86 I0 J0.31
G1 Y37.17
G19 G3 Y37.48 Z-8.09 J0 K0.31
G1 Z5
X17.69
Z-7.1 F150
Z-8.39
G2 Y37.17 Z-8.7 J-0.31 K0
G1 Y36.86
G17 G3 X18 Y36.55 I0.31 J0
G2 X18 Y-0.55 I0 J-18.55 F300
X18 Y36.55 I0 J18.55
G3 X18.31 Y36.86 I0 J0.31
G1 Y37.17
G19 G3 Y37.48 Z-8.39 J0 K0.31
G1 Z5
X17.69
Z-7.4 F150
Z-8.69
G2 Y37.17 Z-9 J-0.31 K0
G1 Y36.86
G17 G3 X18 Y36.55 I0.31 J0
G2 X18 Y-0.55 I0 J-18.55 F300
X18 Y36.55 I0 J18.55
G3 X18.31 Y36.86 I0 J0.31
G1 Y37.17
G19 G3 Y37.48 Z-8.69 J0 K0.31
G1 Z5
X17.69
Z-7.7 F150
Z-8.99
G2 Y37.17 Z-9.3 J-0.31 K0
G1 Y36.86
G17 G3 X18 Y36.55 I0.31 J0
G2 X18 Y-0.55 I0 J-18.55 F300
X18 Y36.55 I0 J18.55
G3 X18.31 Y36.86 I0 J0.31
G1 Y37.17
G19 G3 Y37.48 Z-8.99 J0 K0.31
G1 Z5
X17.69
Z-8 F150
Z-9.29
G2 Y37.17 Z-9.6 J-0.31 K0
G1 Y36.86
G17 G3 X18 Y36.55 I0.31 J0
G2 X18 Y-0.55 I0 J-18.55 F300
X18 Y36.55 I0 J18.55
G3 X18.31 Y36.86 I0 J0.31
G1 Y37.17
G19 G3 Y37.48 Z-9.29 J0 K0.31
G1 Z5
X17.69
Z-8.3 F150
Z-9.59
G2 Y37.17 Z-9.9 J-0.31 K0
G1 Y36.86
G17 G3 X18 Y36.55 I0.31 J0
G2 X18 Y-0.55 I0 J-18.55 F300
X18 Y36.55 I0 J18.55
G3 X18.31 Y36.86 I0 J0.31
G1 Y37.17
G19 G3 Y37.48 Z-9.59 J0 K0.31
G1 Z5
X17.69
Z-8.6 F150
Z-9.89
G2 Y37.17 Z-10.2 J-0.31 K0
G1 Y36.86
G17 G3 X18 Y36.55 I0.31 J0
G2 X18 Y-0.55 I0 J-18.55 F300
X18 Y36.55 I0 J18.55
G3 X18.31 Y36.86 I0 J0.31
G1 Y37.17
G19 G3 Y37.48 Z-9.89 J0 K0.31
G1 Z5
X17.69
Z-8.9 F150
Z-10.19
G2 Y37.17 Z-10.5 J-0.31 K0
G1 Y36.86
G17 G3 X18 Y36.55 I0.31 J0
G2 X18 Y-0.55 I0 J-18.55 F300
X18 Y36.55 I0 J18.55
G3 X18.31 Y36.86 I0 J0.31
G1 Y37.17
G19 G3 Y37.48 Z-10.19 J0 K0.31
G1 Z5
X17.69
Z-9.2 F150
Z-10.49
G2 Y37.17 Z-10.8 J-0.31 K0
G1 Y36.86
G17 G3 X18 Y36.55 I0.31 J0
G2 X18 Y-0.55 I0 J-18.55 F300
X18 Y36.55 I0 J18.55
G3 X18.31 Y36.86 I0 J0.31
G1 Y37.17
G19 G3 Y37.48 Z-10.49 J0 K0.31
G1 Z5
X17.69
Z-9.5 F150
Z-10.79
G2 Y37.17 Z-11.1 J-0.31 K0
G1 Y36.86
G17 G3 X18 Y36.55 I0.31 J0
G2 X18 Y-0.55 I0 J-18.55 F300
X18 Y36.55 I0 J18.55
G3 X18.31 Y36.86 I0 J0.31
G1 Y37.17
G19 G3 Y37.48 Z-10.79 J0 K0.31
G1 Z5
X17.69
Z-9.8 F150
Z-11.09
G2 Y37.17 Z-11.4 J-0.31 K0
G1 Y36.86
G17 G3 X18 Y36.55 I0.31 J0
G2 X18 Y-0.55 I0 J-18.55 F300
X18 Y36.55 I0 J18.55
G3 X18.31 Y36.86 I0 J0.31
G1 Y37.17
G19 G3 Y37.48 Z-11.09 J0 K0.31
G1 Z5
X17.69
Z-10.1 F150
Z-11.39
G2 Y37.17 Z-11.7 J-0.31 K0
G1 Y36.86
G17 G3 X18 Y36.55 I0.31 J0
G2 X18 Y-0.55 I0 J-18.55 F300
X18 Y36.55 I0 J18.55
G3 X18.31 Y36.86 I0 J0.31
G1 Y37.17
G19 G3 Y37.48 Z-11.39 J0 K0.31
G1 Z5
X17.69
Z-10.4 F150
Z-11.69
G2 Y37.17 Z-12 J-0.31 K0
G1 Y36.86
G17 G3 X18 Y36.55 I0.31 J0
G2 X18 Y-0.55 I0 J-18.55 F300
X18 Y36.55 I0 J18.55
G3 X18.31 Y36.86 I0 J0.31
G1 Y37.17
G19 G3 Y37.48 Z-11.69 J0 K0.31
G1 Z5
X17.69
Z-10.7 F150
Z-11.99
G2 Y37.17 Z-12.3 J-0.31 K0
G1 Y36.86
G17 G3 X18 Y36.55 I0.31 J0
G2 X18 Y-0.55 I0 J-18.55 F300
X18 Y36.55 I0 J18.55
G3 X18.31 Y36.86 I0 J0.31
G1 Y37.17
G19 G3 Y37.48 Z-11.99 J0 K0.31
G1 Z5
X17.69
Z-11 F150
Z-12.29
G2 Y37.17 Z-12.6 J-0.31 K0
G1 Y36.86
G17 G3 X18 Y36.55 I0.31 J0
G2 X18 Y-0.55 I0 J-18.55 F300
X18 Y36.55 I0 J18.55
G3 X18.31 Y36.86 I0 J0.31
G1 Y37.17
G19 G3 Y37.48 Z-12.29 J0 K0.31
G1 Z5
X17.69
Z-11.3 F150
Z-12.59
G2 Y37.17 Z-12.9 J-0.31 K0
G1 Y36.86
G17 G3 X18 Y36.55 I0.31 J0
G2 X18 Y-0.55 I0 J-18.55 F300
X18 Y36.55 I0 J18.55
G3 X18.31 Y36.86 I0 J0.31
G1 Y37.17
G19 G3 Y37.48 Z-12.59 J0 K0.31
G1 Z5
X17.69
Z-11.6 F150
Z-12.89
G2 Y37.17 Z-13.2 J-0.31 K0
G1 Y36.86
G17 G3 X18 Y36.55 I0.31 J0
G2 X18 Y-0.55 I0 J-18.55 F300
X18 Y36.55 I0 J18.55
G3 X18.31 Y36.86 I0 J0.31
G1 Y37.17
G19 G3 Y37.48 Z-12.89 J0 K0.31
G1 Z5
X17.69
Z-11.9 F150
Z-13.19
G2 Y37.17 Z-13.5 J-0.31 K0
G1 Y36.86
G17 G3 X18 Y36.55 I0.31 J0
G2 X18 Y-0.55 I0 J-18.55 F300
X18 Y36.55 I0 J18.55
G3 X18.31 Y36.86 I0 J0.31
G1 Y37.17
G19 G3 Y37.48 Z-13.19 J0 K0.31
G1 Z5
X17.69
Z-12.2 F150
Z-13.49
G2 Y37.17 Z-13.8 J-0.31 K0
G1 Y36.86
G17 G3 X18 Y36.55 I0.31 J0
G2 X18 Y-0.55 I0 J-18.55 F300
X18 Y36.55 I0 J18.55
G3 X18.31 Y36.86 I0 J0.31
G1 Y37.17
G19 G3 Y37.48 Z-13.49 J0 K0.31
G1 Z5
X17.69
Z-12.5 F150
Z-13.69
G2 Y37.17 Z-14 J-0.31 K0
G1 Y36.86
G17 G3 X18 Y36.55 I0.31 J0
G2 X18 Y-0.55 I0 J-18.55 F300
X18 Y36.55 I0 J18.55
G3 X18.31 Y36.86 I0 J0.31
G1 Y37.17
G19 G3 Y37.48 Z-13.69 J0 K0.31
G1 Z10
G17
M9
M5
M30
