(metal_coupler_14mm_6S)
(Machine)
(  vendor: Autodesk)
(  model: GARAGE CNC)
(  description: GARAGE CNC)
(T3  D=3.1 CR=0 - ZMIN=-7 - flat end mill)
G90 G94
G17
G21
(When using Fusion 360 for Personal Use, the feedrate of)
(rapid moves is reduced to match the feedrate of cutting)
(moves, which can increase machining time. Unrestricted rapid)
(moves are available with a Fusion 360 Subscription.)

(2D Pocket3)
T3
S24000 M3
G54
M8
G0 X18.056 Y19.341
Z10
G1 Z5 F300
Z2.81 F150
X18.036 Y19.35 Z2.694
X17.976 Y19.375 Z2.594
X17.885 Y19.406 Z2.527
X17.773 Y19.436 Z2.5
G3 X17.123 Y16.564 Z2.338 I-0.325 J-1.436
X17.773 Y19.436 Z2.177 I0.325 J1.436
X17.123 Y16.564 Z2.015 I-0.325 J-1.436
X17.773 Y19.436 Z1.854 I0.325 J1.436
X17.123 Y16.564 Z1.692 I-0.325 J-1.436
X17.773 Y19.436 Z1.531 I0.325 J1.436
X17.123 Y16.564 Z1.369 I-0.325 J-1.436
X17.773 Y19.436 Z1.208 I0.325 J1.436
X17.123 Y16.564 Z1.046 I-0.325 J-1.436
X17.773 Y19.436 Z0.885 I0.325 J1.436
X17.123 Y16.564 Z0.723 I-0.325 J-1.436
X17.773 Y19.436 Z0.561 I0.325 J1.436
X17.123 Y16.564 Z0.4 I-0.325 J-1.436
X17.773 Y19.436 Z0.238 I0.325 J1.436
X17.123 Y16.564 Z0.077 I-0.325 J-1.436
X17.773 Y19.436 Z-0.085 I0.325 J1.436
X17.123 Y16.564 Z-0.246 I-0.325 J-1.436
X17.773 Y19.436 Z-0.408 I0.325 J1.436
X15.976 Y18 Z-0.5 I-0.325 J-1.436
X16.154 Y17.114 I2.285 J0 F300
X16.697 Y16.392 I1.705 J0.717
X16.969 Y16.522 I0.105 J0.13
G1 Y19.478
G3 X16.697 Y19.608 I-0.167 J0
X16.154 Y18.886 I1.162 J-1.439
X15.976 Y18 I2.107 J-0.886
G2 X15.543 Y17.277 I-0.82 J0
G3 X15.304 Y16.47 I0.28 J-0.522
X15.723 Y15.879 I2.782 J1.53
X17.761 Y14.875 I2.27 J2.038
X18.048 Y15.165 I0.02 J0.267
G2 X17.979 Y17.832 I22.62 J1.917
G3 X18.024 Y20.5 I-80.709 J2.668
G1 X18.026 Y20.584
X18.032 Y20.668
X18.048 Y20.835
G3 X17.761 Y21.125 I-0.267 J0.023
X15.723 Y20.121 I0.233 J-3.042
X15.304 Y16.47 I2.362 J-2.121
G2 X15.273 Y14.631 I-1.622 J-0.892
G3 X15.848 Y12.884 I1.048 J-0.623
X21.127 Y13.415 I2.152 J5.116
G2 X22.63 Y13.55 I0.873 J-1.281
G1 X23.95
Y13.95
X22
G2 X20.45 Y15.5 I0 J1.55
G1 Y20.5
G2 X22 Y22.05 I1.55 J0
G1 X23.95
Y22.45
X22.63
G2 X21.127 Y22.585 I-0.63 J1.416
G3 X13.125 Y20.653 I-3.127 J-4.585
X15.848 Y12.884 I4.875 J-2.653
X16.097 Y12.965 I0.078 J0.184
G1 X18.855 Y17.566
G3 X16.041 Y18.434 Z-0.662 I-1.407 J0.434 F150
X18.855 Y17.566 Z-0.823 I1.407 J-0.434
X17.667 Y19.456 Z-0.912 I-1.407 J0.434
X15.976 Y18 Z-1 I-0.219 J-1.456
X16.154 Y17.114 I2.285 J0 F300
X16.697 Y16.392 I1.705 J0.717
X16.969 Y16.522 I0.105 J0.13
G1 Y19.478
G3 X16.697 Y19.608 I-0.167 J0
X16.154 Y18.886 I1.162 J-1.439
X15.976 Y18 I2.107 J-0.886
G2 X15.543 Y17.277 I-0.82 J0
G3 X15.304 Y16.47 I0.28 J-0.522
X15.723 Y15.879 I2.782 J1.53
X17.761 Y14.875 I2.27 J2.038
X18.048 Y15.165 I0.02 J0.267
G2 X17.979 Y17.832 I22.62 J1.917
G3 X18.024 Y20.5 I-80.709 J2.668
G1 X18.026 Y20.584
X18.032 Y20.668
X18.048 Y20.835
G3 X17.761 Y21.125 I-0.267 J0.023
X15.723 Y20.121 I0.233 J-3.042
X15.304 Y16.47 I2.362 J-2.121
G2 X15.273 Y14.631 I-1.622 J-0.892
G3 X15.848 Y12.884 I1.048 J-0.623
X21.127 Y13.415 I2.152 J5.116
G2 X22.63 Y13.55 I0.873 J-1.281
G1 X23.95
Y13.95
X22
G2 X20.45 Y15.5 I0 J1.55
G1 Y20.5
G2 X22 Y22.05 I1.55 J0
G1 X23.95
Y22.45
X22.63
G2 X21.127 Y22.585 I-0.63 J1.416
G3 X13.125 Y20.653 I-3.127 J-4.585
X15.848 Y12.884 I4.875 J-2.653
X16.097 Y12.965 I0.078 J0.184
G1 X18.855 Y17.566
G3 X16.041 Y18.434 Z-1.162 I-1.407 J0.434 F150
X18.855 Y17.566 Z-1.323 I1.407 J-0.434
X17.667 Y19.456 Z-1.412 I-1.407 J0.434
X15.976 Y18 Z-1.5 I-0.219 J-1.456
X16.154 Y17.114 I2.285 J0 F300
X16.697 Y16.392 I1.705 J0.717
X16.969 Y16.522 I0.105 J0.13
G1 Y19.478
G3 X16.697 Y19.608 I-0.167 J0
X16.154 Y18.886 I1.162 J-1.439
X15.976 Y18 I2.107 J-0.886
G2 X15.543 Y17.277 I-0.82 J0
G3 X15.304 Y16.47 I0.28 J-0.522
X15.723 Y15.879 I2.782 J1.53
X17.761 Y14.875 I2.27 J2.038
X18.048 Y15.165 I0.02 J0.267
G2 X17.979 Y17.832 I22.62 J1.917
G3 X18.024 Y20.5 I-80.709 J2.668
G1 X18.026 Y20.584
X18.032 Y20.668
X18.048 Y20.835
G3 X17.761 Y21.125 I-0.267 J0.023
X15.723 Y20.121 I0.233 J-3.042
X15.304 Y16.47 I2.362 J-2.121
G2 X15.273 Y14.631 I-1.622 J-0.892
G3 X15.848 Y12.884 I1.048 J-0.623
X21.127 Y13.415 I2.152 J5.116
G2 X22.63 Y13.55 I0.873 J-1.281
G1 X23.95
Y13.95
X22
G2 X20.45 Y15.5 I0 J1.55
G1 Y20.5
G2 X22 Y22.05 I1.55 J0
G1 X23.95
Y22.45
X22.63
G2 X21.127 Y22.585 I-0.63 J1.416
G3 X13.125 Y20.653 I-3.127 J-4.585
X15.848 Y12.884 I4.875 J-2.653
X16.097 Y12.965 I0.078 J0.184
G1 X18.855 Y17.566
G3 X16.041 Y18.434 Z-1.662 I-1.407 J0.434 F150
X18.855 Y17.566 Z-1.823 I1.407 J-0.434
X17.667 Y19.456 Z-1.912 I-1.407 J0.434
X15.976 Y18 Z-2 I-0.219 J-1.456
X16.154 Y17.114 I2.285 J0 F300
X16.697 Y16.392 I1.705 J0.717
X16.969 Y16.522 I0.105 J0.13
G1 Y19.478
G3 X16.697 Y19.608 I-0.167 J0
X16.154 Y18.886 I1.162 J-1.439
X15.976 Y18 I2.107 J-0.886
G2 X15.543 Y17.277 I-0.82 J0
G3 X15.304 Y16.47 I0.28 J-0.522
X15.723 Y15.879 I2.782 J1.53
X17.761 Y14.875 I2.27 J2.038
X18.048 Y15.165 I0.02 J0.267
G2 X17.979 Y17.832 I22.62 J1.917
G3 X18.024 Y20.5 I-80.709 J2.668
G1 X18.026 Y20.584
X18.032 Y20.668
X18.048 Y20.835
G3 X17.761 Y21.125 I-0.267 J0.023
X15.723 Y20.121 I0.233 J-3.042
X15.304 Y16.47 I2.362 J-2.121
G2 X15.273 Y14.631 I-1.622 J-0.892
G3 X15.848 Y12.884 I1.048 J-0.623
X21.127 Y13.415 I2.152 J5.116
G2 X22.63 Y13.55 I0.873 J-1.281
G1 X23.95
Y13.95
X22
G2 X20.45 Y15.5 I0 J1.55
G1 Y20.5
G2 X22 Y22.05 I1.55 J0
G1 X23.95
Y22.45
X22.63
G2 X21.127 Y22.585 I-0.63 J1.416
G3 X13.125 Y20.653 I-3.127 J-4.585
X15.848 Y12.884 I4.875 J-2.653
X16.097 Y12.965 I0.078 J0.184
G1 X18.855 Y17.566
G3 X16.041 Y18.434 Z-2.162 I-1.407 J0.434 F150
X18.855 Y17.566 Z-2.323 I1.407 J-0.434
X17.667 Y19.456 Z-2.412 I-1.407 J0.434
X15.976 Y18 Z-2.5 I-0.219 J-1.456
X16.154 Y17.114 I2.285 J0 F300
X16.697 Y16.392 I1.705 J0.717
X16.969 Y16.522 I0.105 J0.13
G1 Y19.478
G3 X16.697 Y19.608 I-0.167 J0
X16.154 Y18.886 I1.162 J-1.439
X15.976 Y18 I2.107 J-0.886
G2 X15.543 Y17.277 I-0.82 J0
G3 X15.304 Y16.47 I0.28 J-0.522
X15.723 Y15.879 I2.782 J1.53
X17.761 Y14.875 I2.27 J2.038
X18.048 Y15.165 I0.02 J0.267
G2 X17.979 Y17.832 I22.62 J1.917
G3 X18.024 Y20.5 I-80.709 J2.668
G1 X18.026 Y20.584
X18.032 Y20.668
X18.048 Y20.835
G3 X17.761 Y21.125 I-0.267 J0.023
X15.723 Y20.121 I0.233 J-3.042
X15.304 Y16.47 I2.362 J-2.121
G2 X15.273 Y14.631 I-1.622 J-0.892
G3 X15.848 Y12.884 I1.048 J-0.623
X21.127 Y13.415 I2.152 J5.116
G2 X22.63 Y13.55 I0.873 J-1.281
G1 X23.95
Y13.95
X22
G2 X20.45 Y15.5 I0 J1.55
G1 Y20.5
G2 X22 Y22.05 I1.55 J0
G1 X23.95
Y22.45
X22.63
G2 X21.127 Y22.585 I-0.63 J1.416
G3 X13.125 Y20.653 I-3.127 J-4.585
X15.848 Y12.884 I4.875 J-2.653
X16.097 Y12.965 I0.078 J0.184
G1 X18.855 Y17.566
G3 X16.041 Y18.434 Z-2.662 I-1.407 J0.434 F150
X18.855 Y17.566 Z-2.823 I1.407 J-0.434
X17.667 Y19.456 Z-2.912 I-1.407 J0.434
X15.976 Y18 Z-3 I-0.219 J-1.456
X16.154 Y17.114 I2.285 J0 F300
X16.697 Y16.392 I1.705 J0.717
X16.969 Y16.522 I0.105 J0.13
G1 Y19.478
G3 X16.697 Y19.608 I-0.167 J0
X16.154 Y18.886 I1.162 J-1.439
X15.976 Y18 I2.107 J-0.886
G2 X15.543 Y17.277 I-0.82 J0
G3 X15.304 Y16.47 I0.28 J-0.522
X15.723 Y15.879 I2.782 J1.53
X17.761 Y14.875 I2.27 J2.038
X18.048 Y15.165 I0.02 J0.267
G2 X17.979 Y17.832 I22.62 J1.917
G3 X18.024 Y20.5 I-80.709 J2.668
G1 X18.026 Y20.584
X18.032 Y20.668
X18.048 Y20.835
G3 X17.761 Y21.125 I-0.267 J0.023
X15.723 Y20.121 I0.233 J-3.042
X15.304 Y16.47 I2.362 J-2.121
G2 X15.273 Y14.631 I-1.622 J-0.892
G3 X15.848 Y12.884 I1.048 J-0.623
X21.127 Y13.415 I2.152 J5.116
G2 X22.63 Y13.55 I0.873 J-1.281
G1 X23.95
Y13.95
X22
G2 X20.45 Y15.5 I0 J1.55
G1 Y20.5
G2 X22 Y22.05 I1.55 J0
G1 X23.95
Y22.45
X22.63
G2 X21.127 Y22.585 I-0.63 J1.416
G3 X13.125 Y20.653 I-3.127 J-4.585
X15.848 Y12.884 I4.875 J-2.653
X16.097 Y12.965 I0.078 J0.184
G1 X18.855 Y17.566
G3 X16.041 Y18.434 Z-3.162 I-1.407 J0.434 F150
X18.855 Y17.566 Z-3.323 I1.407 J-0.434
X17.667 Y19.456 Z-3.412 I-1.407 J0.434
X15.976 Y18 Z-3.5 I-0.219 J-1.456
X16.154 Y17.114 I2.285 J0 F300
X16.697 Y16.392 I1.705 J0.717
X16.969 Y16.522 I0.105 J0.13
G1 Y19.478
G3 X16.697 Y19.608 I-0.167 J0
X16.154 Y18.886 I1.162 J-1.439
X15.976 Y18 I2.107 J-0.886
G2 X15.543 Y17.277 I-0.82 J0
G3 X15.304 Y16.47 I0.28 J-0.522
X15.723 Y15.879 I2.782 J1.53
X17.761 Y14.875 I2.27 J2.038
X18.048 Y15.165 I0.02 J0.267
G2 X17.979 Y17.832 I22.62 J1.917
G3 X18.024 Y20.5 I-80.709 J2.668
G1 X18.026 Y20.584
X18.032 Y20.668
X18.048 Y20.835
G3 X17.761 Y21.125 I-0.267 J0.023
X15.723 Y20.121 I0.233 J-3.042
X15.304 Y16.47 I2.362 J-2.121
G2 X15.273 Y14.631 I-1.622 J-0.892
G3 X15.848 Y12.884 I1.048 J-0.623
X21.127 Y13.415 I2.152 J5.116
G2 X22.63 Y13.55 I0.873 J-1.281
G1 X23.95
Y13.95
X22
G2 X20.45 Y15.5 I0 J1.55
G1 Y20.5
G2 X22 Y22.05 I1.55 J0
G1 X23.95
Y22.45
X22.63
G2 X21.127 Y22.585 I-0.63 J1.416
G3 X13.125 Y20.653 I-3.127 J-4.585
X15.848 Y12.884 I4.875 J-2.653
X16.097 Y12.965 I0.078 J0.184
G1 X18.855 Y17.566
G3 X16.041 Y18.434 Z-3.662 I-1.407 J0.434 F150
X18.855 Y17.566 Z-3.823 I1.407 J-0.434
X17.667 Y19.456 Z-3.912 I-1.407 J0.434
X15.976 Y18 Z-4 I-0.219 J-1.456
X16.154 Y17.114 I2.285 J0 F300
X16.697 Y16.392 I1.705 J0.717
X16.969 Y16.522 I0.105 J0.13
G1 Y19.478
G3 X16.697 Y19.608 I-0.167 J0
X16.154 Y18.886 I1.162 J-1.439
X15.976 Y18 I2.107 J-0.886
G2 X15.543 Y17.277 I-0.82 J0
G3 X15.304 Y16.47 I0.28 J-0.522
X15.723 Y15.879 I2.782 J1.53
X17.761 Y14.875 I2.27 J2.038
X18.048 Y15.165 I0.02 J0.267
G2 X17.979 Y17.832 I22.62 J1.917
G3 X18.024 Y20.5 I-80.709 J2.668
G1 X18.026 Y20.584
X18.032 Y20.668
X18.048 Y20.835
G3 X17.761 Y21.125 I-0.267 J0.023
X15.723 Y20.121 I0.233 J-3.042
X15.304 Y16.47 I2.362 J-2.121
G2 X15.273 Y14.631 I-1.622 J-0.892
G3 X15.848 Y12.884 I1.048 J-0.623
X21.127 Y13.415 I2.152 J5.116
G2 X22.63 Y13.55 I0.873 J-1.281
G1 X23.95
Y13.95
X22
G2 X20.45 Y15.5 I0 J1.55
G1 Y20.5
G2 X22 Y22.05 I1.55 J0
G1 X23.95
Y22.45
X22.63
G2 X21.127 Y22.585 I-0.63 J1.416
G3 X13.125 Y20.653 I-3.127 J-4.585
X15.848 Y12.884 I4.875 J-2.653
X16.097 Y12.965 I0.078 J0.184
G1 X18.855 Y17.566
G3 X16.041 Y18.434 Z-4.162 I-1.407 J0.434 F150
X18.855 Y17.566 Z-4.323 I1.407 J-0.434
X17.667 Y19.456 Z-4.412 I-1.407 J0.434
X15.976 Y18 Z-4.5 I-0.219 J-1.456
X16.154 Y17.114 I2.285 J0 F300
X16.697 Y16.392 I1.705 J0.717
X16.969 Y16.522 I0.105 J0.13
G1 Y19.478
G3 X16.697 Y19.608 I-0.167 J0
X16.154 Y18.886 I1.162 J-1.439
X15.976 Y18 I2.107 J-0.886
G2 X15.543 Y17.277 I-0.82 J0
G3 X15.304 Y16.47 I0.28 J-0.522
X15.723 Y15.879 I2.782 J1.53
X17.761 Y14.875 I2.27 J2.038
X18.048 Y15.165 I0.02 J0.267
G2 X17.979 Y17.832 I22.62 J1.917
G3 X18.024 Y20.5 I-80.709 J2.668
G1 X18.026 Y20.584
X18.032 Y20.668
X18.048 Y20.835
G3 X17.761 Y21.125 I-0.267 J0.023
X15.723 Y20.121 I0.233 J-3.042
X15.304 Y16.47 I2.362 J-2.121
G2 X15.273 Y14.631 I-1.622 J-0.892
G3 X15.848 Y12.884 I1.048 J-0.623
X21.127 Y13.415 I2.152 J5.116
G2 X22.63 Y13.55 I0.873 J-1.281
G1 X23.95
Y13.95
X22
G2 X20.45 Y15.5 I0 J1.55
G1 Y20.5
G2 X22 Y22.05 I1.55 J0
G1 X23.95
Y22.45
X22.63
G2 X21.127 Y22.585 I-0.63 J1.416
G3 X13.125 Y20.653 I-3.127 J-4.585
X15.848 Y12.884 I4.875 J-2.653
X16.097 Y12.965 I0.078 J0.184
G1 X18.855 Y17.566
G3 X16.041 Y18.434 Z-4.662 I-1.407 J0.434 F150
X18.855 Y17.566 Z-4.823 I1.407 J-0.434
X17.667 Y19.456 Z-4.912 I-1.407 J0.434
X15.976 Y18 Z-5 I-0.219 J-1.456
X16.154 Y17.114 I2.285 J0 F300
X16.697 Y16.392 I1.705 J0.717
X16.969 Y16.522 I0.105 J0.13
G1 Y19.478
G3 X16.697 Y19.608 I-0.167 J0
X16.154 Y18.886 I1.162 J-1.439
X15.976 Y18 I2.107 J-0.886
G2 X15.543 Y17.277 I-0.82 J0
G3 X15.304 Y16.47 I0.28 J-0.522
X15.723 Y15.879 I2.782 J1.53
X17.761 Y14.875 I2.27 J2.038
X18.048 Y15.165 I0.02 J0.267
G2 X17.979 Y17.832 I22.62 J1.917
G3 X18.024 Y20.5 I-80.709 J2.668
G1 X18.026 Y20.584
X18.032 Y20.668
X18.048 Y20.835
G3 X17.761 Y21.125 I-0.267 J0.023
X15.723 Y20.121 I0.233 J-3.042
X15.304 Y16.47 I2.362 J-2.121
G2 X15.273 Y14.631 I-1.622 J-0.892
G3 X15.848 Y12.884 I1.048 J-0.623
X21.127 Y13.415 I2.152 J5.116
G2 X22.63 Y13.55 I0.873 J-1.281
G1 X23.95
Y13.95
X22
G2 X20.45 Y15.5 I0 J1.55
G1 Y20.5
G2 X22 Y22.05 I1.55 J0
G1 X23.95
Y22.45
X22.63
G2 X21.127 Y22.585 I-0.63 J1.416
G3 X13.125 Y20.653 I-3.127 J-4.585
X15.848 Y12.884 I4.875 J-2.653
X16.097 Y12.965 I0.078 J0.184
G1 X18.855 Y17.566
G3 X16.041 Y18.434 Z-5.162 I-1.407 J0.434 F150
X18.855 Y17.566 Z-5.323 I1.407 J-0.434
X17.667 Y19.456 Z-5.412 I-1.407 J0.434
X15.976 Y18 Z-5.5 I-0.219 J-1.456
X16.154 Y17.114 I2.285 J0 F300
X16.697 Y16.392 I1.705 J0.717
X16.969 Y16.522 I0.105 J0.13
G1 Y19.478
G3 X16.697 Y19.608 I-0.167 J0
X16.154 Y18.886 I1.162 J-1.439
X15.976 Y18 I2.107 J-0.886
G2 X15.543 Y17.277 I-0.82 J0
G3 X15.304 Y16.47 I0.28 J-0.522
X15.723 Y15.879 I2.782 J1.53
X17.761 Y14.875 I2.27 J2.038
X18.048 Y15.165 I0.02 J0.267
G2 X17.979 Y17.832 I22.62 J1.917
G3 X18.024 Y20.5 I-80.709 J2.668
G1 X18.026 Y20.584
X18.032 Y20.668
X18.048 Y20.835
G3 X17.761 Y21.125 I-0.267 J0.023
X15.723 Y20.121 I0.233 J-3.042
X15.304 Y16.47 I2.362 J-2.121
G2 X15.273 Y14.631 I-1.622 J-0.892
G3 X15.848 Y12.884 I1.048 J-0.623
X21.127 Y13.415 I2.152 J5.116
G2 X22.63 Y13.55 I0.873 J-1.281
G1 X23.95
Y13.95
X22
G2 X20.45 Y15.5 I0 J1.55
G1 Y20.5
G2 X22 Y22.05 I1.55 J0
G1 X23.95
Y22.45
X22.63
G2 X21.127 Y22.585 I-0.63 J1.416
G3 X13.125 Y20.653 I-3.127 J-4.585
X15.848 Y12.884 I4.875 J-2.653
X16.097 Y12.965 I0.078 J0.184
G1 X18.855 Y17.566
G3 X16.041 Y18.434 Z-5.662 I-1.407 J0.434 F150
X18.855 Y17.566 Z-5.823 I1.407 J-0.434
X17.667 Y19.456 Z-5.912 I-1.407 J0.434
X15.976 Y18 Z-6 I-0.219 J-1.456
X16.154 Y17.114 I2.285 J0 F300
X16.697 Y16.392 I1.705 J0.717
X16.969 Y16.522 I0.105 J0.13
G1 Y19.478
G3 X16.697 Y19.608 I-0.167 J0
X16.154 Y18.886 I1.162 J-1.439
X15.976 Y18 I2.107 J-0.886
G2 X15.543 Y17.277 I-0.82 J0
G3 X15.304 Y16.47 I0.28 J-0.522
X15.723 Y15.879 I2.782 J1.53
X17.761 Y14.875 I2.27 J2.038
X18.048 Y15.165 I0.02 J0.267
G2 X17.979 Y17.832 I22.62 J1.917
G3 X18.024 Y20.5 I-80.709 J2.668
G1 X18.026 Y20.584
X18.032 Y20.668
X18.048 Y20.835
G3 X17.761 Y21.125 I-0.267 J0.023
X15.723 Y20.121 I0.233 J-3.042
X15.304 Y16.47 I2.362 J-2.121
G2 X15.273 Y14.631 I-1.622 J-0.892
G3 X15.848 Y12.884 I1.048 J-0.623
X21.127 Y13.415 I2.152 J5.116
G2 X22.63 Y13.55 I0.873 J-1.281
G1 X23.95
Y13.95
X22
G2 X20.45 Y15.5 I0 J1.55
G1 Y20.5
G2 X22 Y22.05 I1.55 J0
G1 X23.95
Y22.45
X22.63
G2 X21.127 Y22.585 I-0.63 J1.416
G3 X13.125 Y20.653 I-3.127 J-4.585
X15.848 Y12.884 I4.875 J-2.653
X16.097 Y12.965 I0.078 J0.184
G1 X18.855 Y17.566
G3 X16.041 Y18.434 Z-6.162 I-1.407 J0.434 F150
X18.855 Y17.566 Z-6.323 I1.407 J-0.434
X17.667 Y19.456 Z-6.412 I-1.407 J0.434
X15.976 Y18 Z-6.5 I-0.219 J-1.456
X16.154 Y17.114 I2.285 J0 F300
X16.697 Y16.392 I1.705 J0.717
X16.969 Y16.522 I0.105 J0.13
G1 Y19.478
G3 X16.697 Y19.608 I-0.167 J0
X16.154 Y18.886 I1.162 J-1.439
X15.976 Y18 I2.107 J-0.886
G2 X15.543 Y17.277 I-0.82 J0
G3 X15.304 Y16.47 I0.28 J-0.522
X15.723 Y15.879 I2.782 J1.53
X17.761 Y14.875 I2.27 J2.038
X18.048 Y15.165 I0.02 J0.267
G2 X17.979 Y17.832 I22.62 J1.917
G3 X18.024 Y20.5 I-80.709 J2.668
G1 X18.026 Y20.584
X18.032 Y20.668
X18.048 Y20.835
G3 X17.761 Y21.125 I-0.267 J0.023
X15.723 Y20.121 I0.233 J-3.042
X15.304 Y16.47 I2.362 J-2.121
G2 X15.273 Y14.631 I-1.622 J-0.892
G3 X15.848 Y12.884 I1.048 J-0.623
X21.127 Y13.415 I2.152 J5.116
G2 X22.63 Y13.55 I0.873 J-1.281
G1 X23.95
Y13.95
X22
G2 X20.45 Y15.5 I0 J1.55
G1 Y20.5
G2 X22 Y22.05 I1.55 J0
G1 X23.95
Y22.45
X22.63
G2 X21.127 Y22.585 I-0.63 J1.416
G3 X13.125 Y20.653 I-3.127 J-4.585
X15.848 Y12.884 I4.875 J-2.653
X16.097 Y12.965 I0.078 J0.184
G1 X18.855 Y17.566
G3 X16.041 Y18.434 Z-6.662 I-1.407 J0.434 F150
X18.855 Y17.566 Z-6.823 I1.407 J-0.434
X17.667 Y19.456 Z-6.912 I-1.407 J0.434
X15.976 Y18 Z-7 I-0.219 J-1.456
X16.154 Y17.114 I2.285 J0 F300
X16.697 Y16.392 I1.705 J0.717
X16.969 Y16.522 I0.105 J0.13
G1 Y19.478
G3 X16.697 Y19.608 I-0.167 J0
X16.154 Y18.886 I1.162 J-1.439
X15.976 Y18 I2.107 J-0.886
G2 X15.543 Y17.277 I-0.82 J0
G3 X15.304 Y16.47 I0.28 J-0.522
X15.723 Y15.879 I2.782 J1.53
X17.761 Y14.875 I2.27 J2.038
X18.048 Y15.165 I0.02 J0.267
G2 X17.979 Y17.832 I22.62 J1.917
G3 X18.024 Y20.5 I-80.709 J2.668
G1 X18.026 Y20.584
X18.032 Y20.668
X18.048 Y20.835
G3 X17.761 Y21.125 I-0.267 J0.023
X15.723 Y20.121 I0.233 J-3.042
X15.304 Y16.47 I2.362 J-2.121
G2 X15.273 Y14.631 I-1.622 J-0.892
G3 X15.848 Y12.884 I1.048 J-0.623
X21.127 Y13.415 I2.152 J5.116
G2 X22.63 Y13.55 I0.873 J-1.281
G1 X23.95
Y13.95
X22
G2 X20.45 Y15.5 I0 J1.55
G1 Y20.5
G2 X22 Y22.05 I1.55 J0
G1 X23.95
Y22.45
X22.63
G2 X21.127 Y22.585 I-0.63 J1.416
G3 X13.125 Y20.653 I-3.127 J-4.585
X15.848 Y12.884 I4.875 J-2.653
G1 X15.905 Y12.866 Z-6.988
X15.964 Y12.86 Z-6.976
X16.014 Y12.863 Z-6.943
X16.063 Y12.874 Z-6.909
X16.124 Y12.902 Z-6.809
X16.144 Y12.914 Z-6.69
Z10
(When using Fusion 360 for Personal Use, the feedrate of)
(rapid moves is reduced to match the feedrate of cutting)
(moves, which can increase machining time. Unrestricted rapid)
(moves are available with a Fusion 360 Subscription.)

(2D Pocket2)
G0 X23.12 Y35.825
G1 Z10 F300
Z5
Z1.5 F150
Z-0.19
X23.126 Y35.819 Z-0.259
X23.142 Y35.803 Z-0.325
X23.169 Y35.778 Z-0.383
X23.204 Y35.744 Z-0.432
X23.247 Y35.703 Z-0.469
X23.294 Y35.658 Z-0.492
X23.344 Y35.61 Z-0.5
G3 X24.588 Y34.813 I2.625 J2.728
G2 X11.412 Y1.187 I-6.588 J-16.813 F300
X24.588 Y34.813 I6.588 J16.813
X26.087 Y32.537 I-0.862 J-2.2
G3 X27.254 Y30.074 I2.982 J-0.096
G2 X8.746 Y5.926 I-9.254 J-12.074
X27.254 Y30.074 I9.254 J12.074
G1 X27.287 Y30.042
X27.312 Y30.003
X27.328 Y29.96
X27.333 Y29.914
X27.32 Y26.205
X27.326 Y26.158
X27.342 Y26.113
X27.369 Y26.074
G2 X27.368 Y9.926 I-9.369 J-8.074
G1 X26.074 Y8.632
G2 X9.926 Y8.632 I-8.074 J9.368
G1 X8.632 Y9.925
G2 X8.632 Y26.074 I9.368 J8.075
G1 X9.929 Y27.371
G2 X26.075 Y27.368 I8.071 J-9.371
X26.715 Y24.624 I-1.56 J-1.81
G3 X26.729 Y21.806 I3.282 J-1.392
G2 X9.271 Y14.194 I-8.729 J-3.806
X26.729 Y21.806 I8.729 J3.806
X26.497 Y21.532 I-0.183 J-0.08
G1 X23.595 Y22.261
G3 X23.385 Y21.949 I-0.049 J-0.194
G2 X23.393 Y14.063 I-5.385 J-3.949
G1 X22.881 Y13.443
G2 X13.119 Y22.557 I-4.881 J4.557
X22.883 Y22.555 I4.881 J-4.557
X22.83 Y22.242 I-0.146 J-0.136
G1 X20.681 Y21.103
G3 X20.637 Y20.781 I0.094 J-0.177
G2 X20.635 Y15.217 I-2.637 J-2.781
G1 X20.602 Y15.197
X20.565 Y15.191
X20.528 Y15.2
X20.497 Y15.222
X20.478 Y15.255
X20.473 Y15.293
X20.483 Y15.33
X20.507 Y15.36
X20.54 Y15.378
X20.578 Y15.382
X20.614 Y15.371
X20.644 Y15.346
X20.661 Y15.312
Y15.246
X31.972 Y6.163
X32.265 Y5.913
X32.287 Y5.885
X32.294 Y5.85
X32.287 Y5.816
X32.266 Y5.788
X32.235 Y5.771
X32.177 Y5.754 Z-0.506 F150
X32.121 Y5.737 Z-0.524
X32.07 Y5.722 Z-0.552
X32.025 Y5.709 Z-0.591
X31.988 Y5.698 Z-0.638
X31.96 Y5.69 Z-0.692
X31.943 Y5.685 Z-0.75
X31.927 Y5.68 Z-0.808
X31.899 Y5.672 Z-0.862
X31.862 Y5.661 Z-0.909
X31.817 Y5.648 Z-0.948
X31.766 Y5.632 Z-0.976
X31.71 Y5.616 Z-0.994
X31.652 Y5.599 Z-1
G3 X30.413 Y4.886 I0.866 J-2.936
G2 X5.587 Y31.114 I-12.413 J13.114 F300
X30.413 Y4.886 I12.413 J-13.114
X27.716 Y4.497 I-1.624 J1.716
G3 X24.99 Y4.489 I-1.355 J-2.658
G2 X11.01 Y31.511 I-6.99 J13.511
X24.99 Y4.489 I6.99 J-13.511
X24.716 Y4.749 I-0.092 J0.178
G1 X26.386 Y8.397
G3 X26.074 Y8.632 I-0.182 J0.083
G2 X9.926 Y8.632 I-8.074 J9.368
G1 X8.632 Y9.925
G2 X8.632 Y26.074 I9.368 J8.075
G1 X9.929 Y27.371
G2 X26.075 Y27.368 I8.071 J-9.371
G1 X27.369 Y26.074
G2 X27.368 Y9.926 I-9.369 J-8.074
X24.624 Y9.286 I-1.81 J1.56
G3 X21.807 Y9.272 I-1.392 J-3.282
G2 X14.193 Y26.728 I-3.807 J8.728
X21.807 Y9.272 I3.807 J-8.728
X21.545 Y9.537 I-0.08 J0.183
G1 X23.209 Y13.224
G3 X22.881 Y13.443 I-0.182 J0.082
G2 X13.119 Y22.557 I-4.881 J4.557
X22.883 Y22.555 I4.881 J-4.557
G1 X23.385 Y21.949
G2 X23.393 Y14.063 I-5.385 J-3.949
G1 X23.361 Y14.03
X23.32 Y14.008
X23.275 Y13.999
X23.229 Y14.004
X23.187 Y14.022
X23.152 Y14.052
X20.331 Y17.269
X20.311 Y17.311
X20.305 Y17.358
X20.375 Y20.672
G2 X20.637 Y20.781 I0.155 J-0.003
X20.635 Y15.217 I-2.637 J-2.781
G1 X20.602 Y15.197
X20.565 Y15.191
X20.528 Y15.2
X20.497 Y15.222
X20.478 Y15.255
X20.473 Y15.293
X20.483 Y15.33
X20.507 Y15.36
X20.54 Y15.378
X20.578 Y15.382
X20.614 Y15.371
X20.644 Y15.346
X20.661 Y15.312
Y15.246
X31.972 Y6.163
X32.265 Y5.913
X32.287 Y5.885
X32.294 Y5.85
X32.287 Y5.816
X32.266 Y5.788
X32.235 Y5.771
X32.177 Y5.754 Z-1.006 F150
X32.121 Y5.737 Z-1.024
X32.07 Y5.722 Z-1.052
X32.025 Y5.709 Z-1.091
X31.988 Y5.698 Z-1.138
X31.96 Y5.69 Z-1.192
X31.943 Y5.685 Z-1.25
X31.927 Y5.68 Z-1.308
X31.899 Y5.672 Z-1.362
X31.862 Y5.661 Z-1.409
X31.817 Y5.648 Z-1.448
X31.766 Y5.632 Z-1.476
X31.71 Y5.616 Z-1.494
X31.652 Y5.599 Z-1.5
G3 X30.413 Y4.886 I0.866 J-2.936
G2 X5.587 Y31.114 I-12.413 J13.114 F300
X30.413 Y4.886 I12.413 J-13.114
X27.716 Y4.497 I-1.624 J1.716
G3 X24.99 Y4.489 I-1.355 J-2.658
G2 X11.01 Y31.511 I-6.99 J13.511
X24.99 Y4.489 I6.99 J-13.511
X24.716 Y4.749 I-0.092 J0.178
G1 X26.386 Y8.397
G3 X26.074 Y8.632 I-0.182 J0.083
G2 X9.926 Y8.632 I-8.074 J9.368
G1 X8.632 Y9.925
G2 X8.632 Y26.074 I9.368 J8.075
G1 X9.929 Y27.371
G2 X26.075 Y27.368 I8.071 J-9.371
G1 X27.369 Y26.074
G2 X27.368 Y9.926 I-9.369 J-8.074
X24.624 Y9.286 I-1.81 J1.56
G3 X21.807 Y9.272 I-1.392 J-3.282
G2 X14.193 Y26.728 I-3.807 J8.728
X21.807 Y9.272 I3.807 J-8.728
X21.545 Y9.537 I-0.08 J0.183
G1 X23.209 Y13.224
G3 X22.881 Y13.443 I-0.182 J0.082
G2 X13.119 Y22.557 I-4.881 J4.557
X22.883 Y22.555 I4.881 J-4.557
G1 X23.385 Y21.949
G2 X23.393 Y14.063 I-5.385 J-3.949
G1 X23.361 Y14.03
X23.32 Y14.008
X23.275 Y13.999
X23.229 Y14.004
X23.187 Y14.022
X23.152 Y14.052
X20.331 Y17.269
X20.311 Y17.311
X20.305 Y17.358
X20.375 Y20.672
G2 X20.637 Y20.781 I0.155 J-0.003
X20.635 Y15.217 I-2.637 J-2.781
G1 X20.602 Y15.197
X20.565 Y15.191
X20.528 Y15.2
X20.497 Y15.222
X20.478 Y15.255
X20.473 Y15.293
X20.483 Y15.33
X20.507 Y15.36
X20.54 Y15.378
X20.578 Y15.382
X20.614 Y15.371
X20.644 Y15.346
X20.661 Y15.312
Y15.246
X31.972 Y6.163
X32.265 Y5.913
X32.287 Y5.885
X32.294 Y5.85
X32.287 Y5.816
X32.266 Y5.788
X32.235 Y5.771
X32.177 Y5.754 Z-1.506 F150
X32.121 Y5.737 Z-1.524
X32.07 Y5.722 Z-1.552
X32.025 Y5.709 Z-1.591
X31.988 Y5.698 Z-1.638
X31.96 Y5.69 Z-1.692
X31.943 Y5.685 Z-1.75
X31.927 Y5.68 Z-1.808
X31.899 Y5.672 Z-1.862
X31.862 Y5.661 Z-1.909
X31.817 Y5.648 Z-1.948
X31.766 Y5.632 Z-1.976
X31.71 Y5.616 Z-1.994
X31.652 Y5.599 Z-2
G3 X30.413 Y4.886 I0.866 J-2.936
G2 X5.587 Y31.114 I-12.413 J13.114 F300
X30.413 Y4.886 I12.413 J-13.114
X27.716 Y4.497 I-1.624 J1.716
G3 X24.99 Y4.489 I-1.355 J-2.658
G2 X11.01 Y31.511 I-6.99 J13.511
X24.99 Y4.489 I6.99 J-13.511
X24.716 Y4.749 I-0.092 J0.178
G1 X26.386 Y8.397
G3 X26.074 Y8.632 I-0.182 J0.083
G2 X9.926 Y8.632 I-8.074 J9.368
G1 X8.632 Y9.925
G2 X8.632 Y26.074 I9.368 J8.075
G1 X9.929 Y27.371
G2 X26.075 Y27.368 I8.071 J-9.371
G1 X27.369 Y26.074
G2 X27.368 Y9.926 I-9.369 J-8.074
X24.624 Y9.286 I-1.81 J1.56
G3 X21.807 Y9.272 I-1.392 J-3.282
G2 X14.193 Y26.728 I-3.807 J8.728
X21.807 Y9.272 I3.807 J-8.728
X21.545 Y9.537 I-0.08 J0.183
G1 X23.209 Y13.224
G3 X22.881 Y13.443 I-0.182 J0.082
G2 X13.119 Y22.557 I-4.881 J4.557
X22.883 Y22.555 I4.881 J-4.557
G1 X23.385 Y21.949
G2 X23.393 Y14.063 I-5.385 J-3.949
G1 X23.361 Y14.03
X23.32 Y14.008
X23.275 Y13.999
X23.229 Y14.004
X23.187 Y14.022
X23.152 Y14.052
X20.331 Y17.269
X20.311 Y17.311
X20.305 Y17.358
X20.375 Y20.672
G2 X20.637 Y20.781 I0.155 J-0.003
X20.635 Y15.217 I-2.637 J-2.781
G1 X20.602 Y15.197
X20.565 Y15.191
X20.528 Y15.2
X20.497 Y15.222
X20.478 Y15.255
X20.473 Y15.293
X20.483 Y15.33
X20.507 Y15.36
X20.54 Y15.378
X20.578 Y15.382
X20.614 Y15.371
X20.644 Y15.346
X20.661 Y15.312
Y15.246
X31.972 Y6.163
X32.265 Y5.913
X32.287 Y5.885
X32.294 Y5.85
X32.287 Y5.816
X32.266 Y5.788
X32.235 Y5.771
X32.177 Y5.754 Z-2.006 F150
X32.121 Y5.737 Z-2.024
X32.07 Y5.722 Z-2.052
X32.025 Y5.709 Z-2.091
X31.988 Y5.698 Z-2.138
X31.96 Y5.69 Z-2.192
X31.943 Y5.685 Z-2.25
X31.927 Y5.68 Z-2.308
X31.899 Y5.672 Z-2.362
X31.862 Y5.661 Z-2.409
X31.817 Y5.648 Z-2.448
X31.766 Y5.632 Z-2.476
X31.71 Y5.616 Z-2.494
X31.652 Y5.599 Z-2.5
G3 X30.413 Y4.886 I0.866 J-2.936
G2 X5.587 Y31.114 I-12.413 J13.114 F300
X30.413 Y4.886 I12.413 J-13.114
X27.716 Y4.497 I-1.624 J1.716
G3 X24.99 Y4.489 I-1.355 J-2.658
G2 X11.01 Y31.511 I-6.99 J13.511
X24.99 Y4.489 I6.99 J-13.511
X24.716 Y4.749 I-0.092 J0.178
G1 X26.386 Y8.397
G3 X26.074 Y8.632 I-0.182 J0.083
G2 X9.926 Y8.632 I-8.074 J9.368
G1 X8.632 Y9.925
G2 X8.632 Y26.074 I9.368 J8.075
G1 X9.929 Y27.371
G2 X26.075 Y27.368 I8.071 J-9.371
G1 X27.369 Y26.074
G2 X27.368 Y9.926 I-9.369 J-8.074
X24.624 Y9.286 I-1.81 J1.56
G3 X21.807 Y9.272 I-1.392 J-3.282
G2 X14.193 Y26.728 I-3.807 J8.728
X21.807 Y9.272 I3.807 J-8.728
X21.545 Y9.537 I-0.08 J0.183
G1 X23.209 Y13.224
G3 X22.881 Y13.443 I-0.182 J0.082
G2 X13.119 Y22.557 I-4.881 J4.557
X22.883 Y22.555 I4.881 J-4.557
G1 X23.385 Y21.949
G2 X23.393 Y14.063 I-5.385 J-3.949
G1 X23.361 Y14.03
X23.32 Y14.008
X23.275 Y13.999
X23.229 Y14.004
X23.187 Y14.022
X23.152 Y14.052
X20.331 Y17.269
X20.311 Y17.311
X20.305 Y17.358
X20.375 Y20.672
G2 X20.637 Y20.781 I0.155 J-0.003
X20.635 Y15.217 I-2.637 J-2.781
G1 X20.602 Y15.197
X20.565 Y15.191
X20.528 Y15.2
X20.497 Y15.222
X20.478 Y15.255
X20.473 Y15.293
X20.483 Y15.33
X20.507 Y15.36
X20.54 Y15.378
X20.578 Y15.382
X20.614 Y15.371
X20.644 Y15.346
X20.661 Y15.312
Y15.246
X31.972 Y6.163
X32.265 Y5.913
X32.287 Y5.885
X32.294 Y5.85
X32.287 Y5.816
X32.266 Y5.788
X32.235 Y5.771
X32.177 Y5.754 Z-2.506 F150
X32.121 Y5.737 Z-2.524
X32.07 Y5.722 Z-2.552
X32.025 Y5.709 Z-2.591
X31.988 Y5.698 Z-2.638
X31.96 Y5.69 Z-2.692
X31.943 Y5.685 Z-2.75
X31.927 Y5.68 Z-2.808
X31.899 Y5.672 Z-2.862
X31.862 Y5.661 Z-2.909
X31.817 Y5.648 Z-2.948
X31.766 Y5.632 Z-2.976
X31.71 Y5.616 Z-2.994
X31.652 Y5.599 Z-3
G3 X30.413 Y4.886 I0.866 J-2.936
G2 X5.587 Y31.114 I-12.413 J13.114 F300
X30.413 Y4.886 I12.413 J-13.114
X27.716 Y4.497 I-1.624 J1.716
G3 X24.99 Y4.489 I-1.355 J-2.658
G2 X11.01 Y31.511 I-6.99 J13.511
X24.99 Y4.489 I6.99 J-13.511
X24.716 Y4.749 I-0.092 J0.178
G1 X26.386 Y8.397
G3 X26.074 Y8.632 I-0.182 J0.083
G2 X9.926 Y8.632 I-8.074 J9.368
G1 X8.632 Y9.925
G2 X8.632 Y26.074 I9.368 J8.075
G1 X9.929 Y27.371
G2 X26.075 Y27.368 I8.071 J-9.371
G1 X27.369 Y26.074
G2 X27.368 Y9.926 I-9.369 J-8.074
X24.624 Y9.286 I-1.81 J1.56
G3 X21.807 Y9.272 I-1.392 J-3.282
G2 X14.193 Y26.728 I-3.807 J8.728
X21.807 Y9.272 I3.807 J-8.728
X21.545 Y9.537 I-0.08 J0.183
G1 X23.209 Y13.224
G3 X22.881 Y13.443 I-0.182 J0.082
G2 X13.119 Y22.557 I-4.881 J4.557
X22.883 Y22.555 I4.881 J-4.557
G1 X23.385 Y21.949
G2 X23.393 Y14.063 I-5.385 J-3.949
G1 X23.361 Y14.03
X23.32 Y14.008
X23.275 Y13.999
X23.229 Y14.004
X23.187 Y14.022
X23.152 Y14.052
X20.331 Y17.269
X20.311 Y17.311
X20.305 Y17.358
X20.375 Y20.672
G2 X20.637 Y20.781 I0.155 J-0.003
X20.635 Y15.217 I-2.637 J-2.781
G1 X20.626 Y15.208
X20.576 Y15.161 Z-2.992
X20.528 Y15.116 Z-2.969
X20.485 Y15.076 Z-2.932
X20.45 Y15.042 Z-2.883
X20.423 Y15.016 Z-2.825
X20.406 Y15.001 Z-2.759
X20.401 Y14.995 Z-2.69
Z10
(When using Fusion 360 for Personal Use, the feedrate of)
(rapid moves is reduced to match the feedrate of cutting)
(moves, which can increase machining time. Unrestricted rapid)
(moves are available with a Fusion 360 Subscription.)

(metal_coupler_14mm_6Sd)
(Machine)
(  vendor: Autodesk)
(  model: GARAGE CNC)
(  description: GARAGE CNC)
(T3  D=3.1 CR=0 - ZMIN=-7 - flat end mill)
G90 G94
G17
G21

(Drill1)
T3
S24000 M3
G54
M8
G0 X26.75 Y26.75
Z10
Z5
Z2
G1 Z-3 F150
Z-3.5
X26.757 Y26.775 F300
X26.775 Y26.793
X26.8 Y26.8
X26.825 Y26.793
X26.843 Y26.775
X26.85 Y26.75
G2 X26.65 Y26.75 I-0.1 J0
X26.85 Y26.75 I0.1 J0
G1 X26.75
Z-4 F150
X26.757 Y26.775 F300
X26.775 Y26.793
X26.8 Y26.8
X26.825 Y26.793
X26.843 Y26.775
X26.85 Y26.75
G2 X26.65 Y26.75 I-0.1 J0
X26.85 Y26.75 I0.1 J0
G1 X26.75
Z-4.5 F150
X26.757 Y26.775 F300
X26.775 Y26.793
X26.8 Y26.8
X26.825 Y26.793
X26.843 Y26.775
X26.85 Y26.75
G2 X26.65 Y26.75 I-0.1 J0
X26.85 Y26.75 I0.1 J0
G1 X26.75
Z-5 F150
X26.757 Y26.775 F300
X26.775 Y26.793
X26.8 Y26.8
X26.825 Y26.793
X26.843 Y26.775
X26.85 Y26.75
G2 X26.65 Y26.75 I-0.1 J0
X26.85 Y26.75 I0.1 J0
G1 X26.75
Z-5.5 F150
X26.757 Y26.775 F300
X26.775 Y26.793
X26.8 Y26.8
X26.825 Y26.793
X26.843 Y26.775
X26.85 Y26.75
G2 X26.65 Y26.75 I-0.1 J0
X26.85 Y26.75 I0.1 J0
G1 X26.75
Z-6 F150
X26.757 Y26.775 F300
X26.775 Y26.793
X26.8 Y26.8
X26.825 Y26.793
X26.843 Y26.775
X26.85 Y26.75
G2 X26.65 Y26.75 I-0.1 J0
X26.85 Y26.75 I0.1 J0
G1 X26.75
Z-6.5 F150
X26.757 Y26.775 F300
X26.775 Y26.793
X26.8 Y26.8
X26.825 Y26.793
X26.843 Y26.775
X26.85 Y26.75
G2 X26.65 Y26.75 I-0.1 J0
X26.85 Y26.75 I0.1 J0
G1 X26.75
Z-7 F150
X26.757 Y26.775 F300
X26.775 Y26.793
X26.8 Y26.8
X26.825 Y26.793
X26.843 Y26.775
X26.85 Y26.75
G2 X26.65 Y26.75 I-0.1 J0
X26.85 Y26.75 I0.1 J0
G1 X26.75
G0 Z5
X9.25
Z2
G1 Z-3 F150
Z-3.5
X9.257 Y26.775 F300
X9.275 Y26.793
X9.3 Y26.8
X9.325 Y26.793
X9.343 Y26.775
X9.35 Y26.75
G2 X9.15 Y26.75 I-0.1 J0
X9.35 Y26.75 I0.1 J0
G1 X9.25
Z-4 F150
X9.257 Y26.775 F300
X9.275 Y26.793
X9.3 Y26.8
X9.325 Y26.793
X9.343 Y26.775
X9.35 Y26.75
G2 X9.15 Y26.75 I-0.1 J0
X9.35 Y26.75 I0.1 J0
G1 X9.25
Z-4.5 F150
X9.257 Y26.775 F300
X9.275 Y26.793
X9.3 Y26.8
X9.325 Y26.793
X9.343 Y26.775
X9.35 Y26.75
G2 X9.15 Y26.75 I-0.1 J0
X9.35 Y26.75 I0.1 J0
G1 X9.25
Z-5 F150
X9.257 Y26.775 F300
X9.275 Y26.793
X9.3 Y26.8
X9.325 Y26.793
X9.343 Y26.775
X9.35 Y26.75
G2 X9.15 Y26.75 I-0.1 J0
X9.35 Y26.75 I0.1 J0
G1 X9.25
Z-5.5 F150
X9.257 Y26.775 F300
X9.275 Y26.793
X9.3 Y26.8
X9.325 Y26.793
X9.343 Y26.775
X9.35 Y26.75
G2 X9.15 Y26.75 I-0.1 J0
X9.35 Y26.75 I0.1 J0
G1 X9.25
Z-6 F150
X9.257 Y26.775 F300
X9.275 Y26.793
X9.3 Y26.8
X9.325 Y26.793
X9.343 Y26.775
X9.35 Y26.75
G2 X9.15 Y26.75 I-0.1 J0
X9.35 Y26.75 I0.1 J0
G1 X9.25
Z-6.5 F150
X9.257 Y26.775 F300
X9.275 Y26.793
X9.3 Y26.8
X9.325 Y26.793
X9.343 Y26.775
X9.35 Y26.75
G2 X9.15 Y26.75 I-0.1 J0
X9.35 Y26.75 I0.1 J0
G1 X9.25
Z-7 F150
X9.257 Y26.775 F300
X9.275 Y26.793
X9.3 Y26.8
X9.325 Y26.793
X9.343 Y26.775
X9.35 Y26.75
G2 X9.15 Y26.75 I-0.1 J0
X9.35 Y26.75 I0.1 J0
G1 X9.25
G0 Z5
Y9.25
Z2
G1 Z-3 F150
Z-3.5
X9.257 Y9.275 F300
X9.275 Y9.293
X9.3 Y9.3
X9.325 Y9.293
X9.343 Y9.275
X9.35 Y9.25
G2 X9.15 Y9.25 I-0.1 J0
X9.35 Y9.25 I0.1 J0
G1 X9.25
Z-4 F150
X9.257 Y9.275 F300
X9.275 Y9.293
X9.3 Y9.3
X9.325 Y9.293
X9.343 Y9.275
X9.35 Y9.25
G2 X9.15 Y9.25 I-0.1 J0
X9.35 Y9.25 I0.1 J0
G1 X9.25
Z-4.5 F150
X9.257 Y9.275 F300
X9.275 Y9.293
X9.3 Y9.3
X9.325 Y9.293
X9.343 Y9.275
X9.35 Y9.25
G2 X9.15 Y9.25 I-0.1 J0
X9.35 Y9.25 I0.1 J0
G1 X9.25
Z-5 F150
X9.257 Y9.275 F300
X9.275 Y9.293
X9.3 Y9.3
X9.325 Y9.293
X9.343 Y9.275
X9.35 Y9.25
G2 X9.15 Y9.25 I-0.1 J0
X9.35 Y9.25 I0.1 J0
G1 X9.25
Z-5.5 F150
X9.257 Y9.275 F300
X9.275 Y9.293
X9.3 Y9.3
X9.325 Y9.293
X9.343 Y9.275
X9.35 Y9.25
G2 X9.15 Y9.25 I-0.1 J0
X9.35 Y9.25 I0.1 J0
G1 X9.25
Z-6 F150
X9.257 Y9.275 F300
X9.275 Y9.293
X9.3 Y9.3
X9.325 Y9.293
X9.343 Y9.275
X9.35 Y9.25
G2 X9.15 Y9.25 I-0.1 J0
X9.35 Y9.25 I0.1 J0
G1 X9.25
Z-6.5 F150
X9.257 Y9.275 F300
X9.275 Y9.293
X9.3 Y9.3
X9.325 Y9.293
X9.343 Y9.275
X9.35 Y9.25
G2 X9.15 Y9.25 I-0.1 J0
X9.35 Y9.25 I0.1 J0
G1 X9.25
Z-7 F150
X9.257 Y9.275 F300
X9.275 Y9.293
X9.3 Y9.3
X9.325 Y9.293
X9.343 Y9.275
X9.35 Y9.25
G2 X9.15 Y9.25 I-0.1 J0
X9.35 Y9.25 I0.1 J0
G1 X9.25
G0 Z5
X26.75
Z2
G1 Z-3 F150
Z-3.5
X26.757 Y9.275 F300
X26.775 Y9.293
X26.8 Y9.3
X26.825 Y9.293
X26.843 Y9.275
X26.85 Y9.25
G2 X26.65 Y9.25 I-0.1 J0
X26.85 Y9.25 I0.1 J0
G1 X26.75
Z-4 F150
X26.757 Y9.275 F300
X26.775 Y9.293
X26.8 Y9.3
X26.825 Y9.293
X26.843 Y9.275
X26.85 Y9.25
G2 X26.65 Y9.25 I-0.1 J0
X26.85 Y9.25 I0.1 J0
G1 X26.75
Z-4.5 F150
X26.757 Y9.275 F300
X26.775 Y9.293
X26.8 Y9.3
X26.825 Y9.293
X26.843 Y9.275
X26.85 Y9.25
G2 X26.65 Y9.25 I-0.1 J0
X26.85 Y9.25 I0.1 J0
G1 X26.75
Z-5 F150
X26.757 Y9.275 F300
X26.775 Y9.293
X26.8 Y9.3
X26.825 Y9.293
X26.843 Y9.275
X26.85 Y9.25
G2 X26.65 Y9.25 I-0.1 J0
X26.85 Y9.25 I0.1 J0
G1 X26.75
Z-5.5 F150
X26.757 Y9.275 F300
X26.775 Y9.293
X26.8 Y9.3
X26.825 Y9.293
X26.843 Y9.275
X26.85 Y9.25
G2 X26.65 Y9.25 I-0.1 J0
X26.85 Y9.25 I0.1 J0
G1 X26.75
Z-6 F150
X26.757 Y9.275 F300
X26.775 Y9.293
X26.8 Y9.3
X26.825 Y9.293
X26.843 Y9.275
X26.85 Y9.25
G2 X26.65 Y9.25 I-0.1 J0
X26.85 Y9.25 I0.1 J0
G1 X26.75
Z-6.5 F150
X26.757 Y9.275 F300
X26.775 Y9.293
X26.8 Y9.3
X26.825 Y9.293
X26.843 Y9.275
X26.85 Y9.25
G2 X26.65 Y9.25 I-0.1 J0
X26.85 Y9.25 I0.1 J0
G1 X26.75
Z-7 F150
X26.757 Y9.275 F300
X26.775 Y9.293
X26.8 Y9.3
X26.825 Y9.293
X26.843 Y9.275
X26.85 Y9.25
G2 X26.65 Y9.25 I-0.1 J0
X26.85 Y9.25 I0.1 J0
G1 X26.75
G0 Z5
Z10

(2D Contour5)
G0 X18.31 Y-1.48
G1 Z10 F300
Z5
Z1.5 F150
Z-0.19
G19 G3 Y-1.17 Z-0.5 J0.31 K0
G1 Y-0.86
G17 G3 X18 Y-0.55 I-0.31 J0
G2 X18 Y36.55 I0 J18.55 F300
X18 Y-0.55 I0 J-18.55
G3 X17.69 Y-0.86 I0 J-0.31
G1 Y-1.17
G19 G2 Y-1.48 Z-0.19 J0 K0.31
G1 Z5
X18.31
Z1 F150
Z-0.69
G3 Y-1.17 Z-1 J0.31 K0
G1 Y-0.86
G17 G3 X18 Y-0.55 I-0.31 J0
G2 X18 Y36.55 I0 J18.55 F300
X18 Y-0.55 I0 J-18.55
G3 X17.69 Y-0.86 I0 J-0.31
G1 Y-1.17
G19 G2 Y-1.48 Z-0.69 J0 K0.31
G1 Z5
X18.31
Z0.5 F150
Z-1.19
G3 Y-1.17 Z-1.5 J0.31 K0
G1 Y-0.86
G17 G3 X18 Y-0.55 I-0.31 J0
G2 X18 Y36.55 I0 J18.55 F300
X18 Y-0.55 I0 J-18.55
G3 X17.69 Y-0.86 I0 J-0.31
G1 Y-1.17
G19 G2 Y-1.48 Z-1.19 J0 K0.31
G1 Z5
X18.31
Z0 F150
Z-1.69
G3 Y-1.17 Z-2 J0.31 K0
G1 Y-0.86
G17 G3 X18 Y-0.55 I-0.31 J0
G2 X18 Y36.55 I0 J18.55 F300
X18 Y-0.55 I0 J-18.55
G3 X17.69 Y-0.86 I0 J-0.31
G1 Y-1.17
G19 G2 Y-1.48 Z-1.69 J0 K0.31
G1 Z5
X18.31
Z-0.5 F150
Z-2.19
G3 Y-1.17 Z-2.5 J0.31 K0
G1 Y-0.86
G17 G3 X18 Y-0.55 I-0.31 J0
G2 X18 Y36.55 I0 J18.55 F300
X18 Y-0.55 I0 J-18.55
G3 X17.69 Y-0.86 I0 J-0.31
G1 Y-1.17
G19 G2 Y-1.48 Z-2.19 J0 K0.31
G1 Z5
X18.31
Z-1 F150
Z-2.69
G3 Y-1.17 Z-3 J0.31 K0
G1 Y-0.86
G17 G3 X18 Y-0.55 I-0.31 J0
G2 X18 Y36.55 I0 J18.55 F300
X18 Y-0.55 I0 J-18.55
G3 X17.69 Y-0.86 I0 J-0.31
G1 Y-1.17
G19 G2 Y-1.48 Z-2.69 J0 K0.31
G1 Z5
X18.31
Z-1.5 F150
Z-3.19
G3 Y-1.17 Z-3.5 J0.31 K0
G1 Y-0.86
G17 G3 X18 Y-0.55 I-0.31 J0
G2 X18 Y36.55 I0 J18.55 F300
X18 Y-0.55 I0 J-18.55
G3 X17.69 Y-0.86 I0 J-0.31
G1 Y-1.17
G19 G2 Y-1.48 Z-3.19 J0 K0.31
G1 Z5
X18.31
Z-2 F150
Z-3.69
G3 Y-1.17 Z-4 J0.31 K0
G1 Y-0.86
G17 G3 X18 Y-0.55 I-0.31 J0
G2 X18 Y36.55 I0 J18.55 F300
X18 Y-0.55 I0 J-18.55
G3 X17.69 Y-0.86 I0 J-0.31
G1 Y-1.17
G19 G2 Y-1.48 Z-3.69 J0 K0.31
G1 Z5
X18.31
Z-2.5 F150
Z-4.19
G3 Y-1.17 Z-4.5 J0.31 K0
G1 Y-0.86
G17 G3 X18 Y-0.55 I-0.31 J0
G2 X18 Y36.55 I0 J18.55 F300
X18 Y-0.55 I0 J-18.55
G3 X17.69 Y-0.86 I0 J-0.31
G1 Y-1.17
G19 G2 Y-1.48 Z-4.19 J0 K0.31
G1 Z5
X18.31
Z-3 F150
Z-4.69
G3 Y-1.17 Z-5 J0.31 K0
G1 Y-0.86
G17 G3 X18 Y-0.55 I-0.31 J0
G2 X18 Y36.55 I0 J18.55 F300
X18 Y-0.55 I0 J-18.55
G3 X17.69 Y-0.86 I0 J-0.31
G1 Y-1.17
G19 G2 Y-1.48 Z-4.69 J0 K0.31
G1 Z5
X18.31
Z-3.5 F150
Z-5.19
G3 Y-1.17 Z-5.5 J0.31 K0
G1 Y-0.86
G17 G3 X18 Y-0.55 I-0.31 J0
G2 X18 Y36.55 I0 J18.55 F300
X18 Y-0.55 I0 J-18.55
G3 X17.69 Y-0.86 I0 J-0.31
G1 Y-1.17
G19 G2 Y-1.48 Z-5.19 J0 K0.31
G1 Z5
X18.31
Z-4 F150
Z-5.69
G3 Y-1.17 Z-6 J0.31 K0
G1 Y-0.86
G17 G3 X18 Y-0.55 I-0.31 J0
G2 X18 Y36.55 I0 J18.55 F300
X18 Y-0.55 I0 J-18.55
G3 X17.69 Y-0.86 I0 J-0.31
G1 Y-1.17
G19 G2 Y-1.48 Z-5.69 J0 K0.31
G1 Z5
X18.31
Z-4.5 F150
Z-6.19
G3 Y-1.17 Z-6.5 J0.31 K0
G1 Y-0.86
G17 G3 X18 Y-0.55 I-0.31 J0
G2 X18 Y36.55 I0 J18.55 F300
X18 Y-0.55 I0 J-18.55
G3 X17.69 Y-0.86 I0 J-0.31
G1 Y-1.17
G19 G2 Y-1.48 Z-6.19 J0 K0.31
G1 Z5
X18.31
Z-5 F150
Z-6.69
G3 Y-1.17 Z-7 J0.31 K0
G1 Y-0.86
G17 G3 X18 Y-0.55 I-0.31 J0
G2 X18 Y36.55 I0 J18.55 F300
X18 Y-0.55 I0 J-18.55
G3 X17.69 Y-0.86 I0 J-0.31
G1 Y-1.17
G19 G2 Y-1.48 Z-6.69 J0 K0.31
G1 Z10
G17
M9
M5
M30
