(metal_coupler_14mm_wdrill)
(Machine)
(  vendor: Autodesk)
(  model: GARAGE CNC)
(  description: GARAGE CNC)
(T1  D=4.7 CR=0 - ZMIN=-14 - flat end mill)
G90 G94
G17
G21
(When using Fusion 360 for Personal Use, the feedrate of)
(rapid moves is reduced to match the feedrate of cutting)
(moves, which can increase machining time. Unrestricted rapid)
(moves are available with a Fusion 360 Subscription.)
G28 G91 Z0
G90

(2D Pocket3)
T1
S24000 M3
G54
M8
G0 X14.62 Y16.288
Z10
G1 Z5 F150
Z2.97 F50
S5000
X14.643 Y16.268 Z2.802
X14.713 Y16.214 Z2.657
X14.837 Y16.127 Z2.544
X14.994 Y16.034 Z2.5
G3 X17.111 Y19.966 Z2.255 I1.058 J1.966
X14.994 Y16.034 Z2.01 I-1.058 J-1.966
X17.111 Y19.966 Z1.765 I1.058 J1.966
X14.994 Y16.034 Z1.52 I-1.058 J-1.966
X17.111 Y19.966 Z1.275 I1.058 J1.966
X14.994 Y16.034 Z1.03 I-1.058 J-1.966
X17.111 Y19.966 Z0.786 I1.058 J1.966
X14.994 Y16.034 Z0.541 I-1.058 J-1.966
X17.111 Y19.966 Z0.296 I1.058 J1.966
X14.994 Y16.034 Z0.051 I-1.058 J-1.966
X17.111 Y19.966 Z-0.194 I1.058 J1.966
X14.994 Y16.034 Z-0.439 I-1.058 J-1.966
X18.285 Y18 Z-0.6 I1.058 J1.966
S24000
X17.715 Y18 I-0.285 J0 F150
X22.75 Y18 I2.517 J0
X13.25 Y18 I-4.75 J0
X22.75 Y18 I4.75 J0
S5000
X20.517 Y20.233 Z-0.714 I-2.233 J0 F50
G1 X16.052 Z-0.859
G3 X16.052 Y15.767 Z-1.086 I0 J-2.233
X18.285 Y18 Z-1.2 I0 J2.233
S24000
X17.715 Y18 I-0.285 J0 F150
X22.75 Y18 I2.517 J0
X13.25 Y18 I-4.75 J0
X22.75 Y18 I4.75 J0
S5000
X20.517 Y20.233 Z-1.314 I-2.233 J0 F50
G1 X16.052 Z-1.459
G3 X16.052 Y15.767 Z-1.686 I0 J-2.233
X18.285 Y18 Z-1.8 I0 J2.233
S24000
X17.715 Y18 I-0.285 J0 F150
X22.75 Y18 I2.517 J0
X13.25 Y18 I-4.75 J0
X22.75 Y18 I4.75 J0
S5000
X20.517 Y20.233 Z-1.914 I-2.233 J0 F50
G1 X16.052 Z-2.059
G3 X16.052 Y15.767 Z-2.286 I0 J-2.233
X18.285 Y18 Z-2.4 I0 J2.233
S24000
X17.715 Y18 I-0.285 J0 F150
X22.75 Y18 I2.517 J0
X13.25 Y18 I-4.75 J0
X22.75 Y18 I4.75 J0
S5000
X20.517 Y20.233 Z-2.514 I-2.233 J0 F50
G1 X16.052 Z-2.659
G3 X16.052 Y15.767 Z-2.886 I0 J-2.233
X18.285 Y18 Z-3 I0 J2.233
S24000
X17.715 Y18 I-0.285 J0 F150
X22.75 Y18 I2.517 J0
X13.25 Y18 I-4.75 J0
X22.75 Y18 I4.75 J0
S5000
X20.517 Y20.233 Z-3.114 I-2.233 J0 F50
G1 X16.052 Z-3.259
G3 X16.052 Y15.767 Z-3.486 I0 J-2.233
X18.285 Y18 Z-3.6 I0 J2.233
S24000
X17.715 Y18 I-0.285 J0 F150
X22.75 Y18 I2.517 J0
X13.25 Y18 I-4.75 J0
X22.75 Y18 I4.75 J0
S5000
X20.517 Y20.233 Z-3.714 I-2.233 J0 F50
G1 X16.052 Z-3.859
G3 X16.052 Y15.767 Z-4.086 I0 J-2.233
X18.285 Y18 Z-4.2 I0 J2.233
S24000
X17.715 Y18 I-0.285 J0 F150
X22.75 Y18 I2.517 J0
X13.25 Y18 I-4.75 J0
X22.75 Y18 I4.75 J0
S5000
X20.517 Y20.233 Z-4.314 I-2.233 J0 F50
G1 X16.052 Z-4.459
G3 X16.052 Y15.767 Z-4.686 I0 J-2.233
X18.285 Y18 Z-4.8 I0 J2.233
S24000
X17.715 Y18 I-0.285 J0 F150
X22.75 Y18 I2.517 J0
X13.25 Y18 I-4.75 J0
X22.75 Y18 I4.75 J0
S5000
X20.517 Y20.233 Z-4.914 I-2.233 J0 F50
G1 X16.052 Z-5.059
G3 X16.052 Y15.767 Z-5.286 I0 J-2.233
X18.285 Y18 Z-5.4 I0 J2.233
S24000
X17.715 Y18 I-0.285 J0 F150
X22.75 Y18 I2.517 J0
X13.25 Y18 I-4.75 J0
X22.75 Y18 I4.75 J0
S5000
X20.517 Y20.233 Z-5.514 I-2.233 J0 F50
G1 X16.052 Z-5.659
G3 X16.052 Y15.767 Z-5.886 I0 J-2.233
X18.285 Y18 Z-6 I0 J2.233
S24000
X17.715 Y18 I-0.285 J0 F150
X22.75 Y18 I2.517 J0
X13.25 Y18 I-4.75 J0
X22.75 Y18 I4.75 J0
S5000
X20.517 Y20.233 Z-6.114 I-2.233 J0 F50
G1 X16.052 Z-6.259
G3 X16.052 Y15.767 Z-6.486 I0 J-2.233
X18.285 Y18 Z-6.6 I0 J2.233
S24000
X17.715 Y18 I-0.285 J0 F150
X22.75 Y18 I2.517 J0
X13.25 Y18 I-4.75 J0
X22.75 Y18 I4.75 J0
S5000
X20.517 Y20.233 Z-6.714 I-2.233 J0 F50
G1 X16.052 Z-6.859
G3 X16.052 Y15.767 Z-7.086 I0 J-2.233
X18.285 Y18 Z-7.2 I0 J2.233
S24000
X17.715 Y18 I-0.285 J0 F150
X22.75 Y18 I2.517 J0
X13.25 Y18 I-4.75 J0
X22.75 Y18 I4.75 J0
S5000
X20.517 Y20.233 Z-7.314 I-2.233 J0 F50
G1 X16.052 Z-7.459
G3 X16.052 Y15.767 Z-7.686 I0 J-2.233
X18.285 Y18 Z-7.8 I0 J2.233
S24000
X17.715 Y18 I-0.285 J0 F150
X22.75 Y18 I2.517 J0
X13.25 Y18 I-4.75 J0
X22.75 Y18 I4.75 J0
S5000
X20.517 Y20.233 Z-7.914 I-2.233 J0 F50
G1 X16.052 Z-8.059
G3 X16.052 Y15.767 Z-8.286 I0 J-2.233
X18.285 Y18 Z-8.4 I0 J2.233
S24000
X17.715 Y18 I-0.285 J0 F150
X22.75 Y18 I2.517 J0
X13.25 Y18 I-4.75 J0
X22.75 Y18 I4.75 J0
S5000
X20.517 Y20.233 Z-8.514 I-2.233 J0 F50
G1 X16.052 Z-8.659
G3 X16.052 Y15.767 Z-8.886 I0 J-2.233
X18.285 Y18 Z-9 I0 J2.233
S24000
X17.715 Y18 I-0.285 J0 F150
X22.75 Y18 I2.517 J0
X13.25 Y18 I-4.75 J0
X22.75 Y18 I4.75 J0
S5000
X20.517 Y20.233 Z-9.114 I-2.233 J0 F50
G1 X16.052 Z-9.259
G3 X16.052 Y15.767 Z-9.486 I0 J-2.233
X18.285 Y18 Z-9.6 I0 J2.233
S24000
X17.715 Y18 I-0.285 J0 F150
X22.75 Y18 I2.517 J0
X13.25 Y18 I-4.75 J0
X22.75 Y18 I4.75 J0
S5000
X20.517 Y20.233 Z-9.714 I-2.233 J0 F50
G1 X16.052 Z-9.859
G3 X16.052 Y15.767 Z-10.086 I0 J-2.233
X18.285 Y18 Z-10.2 I0 J2.233
S24000
X17.715 Y18 I-0.285 J0 F150
X22.75 Y18 I2.517 J0
X13.25 Y18 I-4.75 J0
X22.75 Y18 I4.75 J0
S5000
X20.517 Y20.233 Z-10.314 I-2.233 J0 F50
G1 X16.052 Z-10.459
G3 X16.052 Y15.767 Z-10.686 I0 J-2.233
X18.285 Y18 Z-10.8 I0 J2.233
S24000
X17.715 Y18 I-0.285 J0 F150
X22.75 Y18 I2.517 J0
X13.25 Y18 I-4.75 J0
X22.75 Y18 I4.75 J0
S5000
X20.517 Y20.233 Z-10.914 I-2.233 J0 F50
G1 X16.052 Z-11.059
G3 X16.052 Y15.767 Z-11.286 I0 J-2.233
X18.285 Y18 Z-11.4 I0 J2.233
S24000
X17.715 Y18 I-0.285 J0 F150
X22.75 Y18 I2.517 J0
X13.25 Y18 I-4.75 J0
X22.75 Y18 I4.75 J0
S5000
X20.517 Y20.233 Z-11.514 I-2.233 J0 F50
G1 X16.052 Z-11.659
G3 X16.052 Y15.767 Z-11.886 I0 J-2.233
X18.285 Y18 Z-12 I0 J2.233
S24000
X17.715 Y18 I-0.285 J0 F150
X22.75 Y18 I2.517 J0
X13.25 Y18 I-4.75 J0
X22.75 Y18 I4.75 J0
S5000
X20.517 Y20.233 Z-12.114 I-2.233 J0 F50
G1 X16.052 Z-12.259
G3 X16.052 Y15.767 Z-12.486 I0 J-2.233
X18.285 Y18 Z-12.6 I0 J2.233
S24000
X17.715 Y18 I-0.285 J0 F150
X22.75 Y18 I2.517 J0
X13.25 Y18 I-4.75 J0
X22.75 Y18 I4.75 J0
S5000
X20.517 Y20.233 Z-12.714 I-2.233 J0 F50
G1 X16.052 Z-12.859
G3 X16.052 Y15.767 Z-13.086 I0 J-2.233
X18.285 Y18 Z-13.2 I0 J2.233
S24000
X17.715 Y18 I-0.285 J0 F150
X22.75 Y18 I2.517 J0
X13.25 Y18 I-4.75 J0
X22.75 Y18 I4.75 J0
S5000
X20.517 Y20.233 Z-13.314 I-2.233 J0 F50
G1 X16.052 Z-13.459
G3 X16.052 Y15.767 Z-13.686 I0 J-2.233
X18.285 Y18 Z-13.8 I0 J2.233
S24000
X17.715 Y18 I-0.285 J0 F150
X22.75 Y18 I2.517 J0
X13.25 Y18 I-4.75 J0
X22.75 Y18 I4.75 J0
S5000
X20.517 Y20.233 Z-13.838 I-2.233 J0 F50
G1 X16.052 Z-13.886
G3 X16.052 Y15.767 Z-13.962 I0 J-2.233
X18.285 Y18 Z-14 I0 J2.233
S24000
X17.715 Y18 I-0.285 J0 F150
X22.75 Y18 I2.517 J0
X13.25 Y18 I-4.75 J0
X22.75 Y18 I4.75 J0
G1 X22.746 Y18.06 Z-13.988
X22.735 Y18.119 Z-13.976
X22.716 Y18.176 Z-13.964
X22.682 Y18.244 Z-13.913
X22.637 Y18.305 Z-13.862
X22.602 Y18.342 Z-13.786
X22.563 Y18.375 Z-13.71
X22.534 Y18.395 Z-13.53
Z10
(When using Fusion 360 for Personal Use, the feedrate of)
(rapid moves is reduced to match the feedrate of cutting)
(moves, which can increase machining time. Unrestricted rapid)
(moves are available with a Fusion 360 Subscription.)

(2D Pocket2)
G0 X5.693 Y-3.799
G1 Z10 F150
Z5
Z-0.13 F50
X5.687 Y-3.795 Z-0.212
X5.67 Y-3.782 Z-0.291
X5.642 Y-3.762 Z-0.365
X5.604 Y-3.735 Z-0.432
X5.557 Y-3.701 Z-0.49
X5.502 Y-3.662 Z-0.537
X5.442 Y-3.619 Z-0.572
X5.378 Y-3.573 Z-0.593
X5.311 Y-3.525 Z-0.6
X3.526 Y-2.245
G2 X0.25 Y0.566 I14.474 J20.185 F150
G3 X-1.083 Y1.483 I-3.008 J-2.944
G2 X-2.246 Y2.047 I6.113 J14.086
G3 X-3.358 Y0.172 I-0.517 J-0.961
G1 X-0.92 Y-1.416
X-0.846 Y-1.46
X-0.769 Y-1.498
X2.89 Y-3.132
G3 X3.219 Y-3.22 I0.445 J0.996
G1 X14.394 Y-4.41
G3 X14.686 Y-2.248 I0.116 J1.085
G2 X2.586 Y4.462 I3.315 J20.24
G3 X1.562 Y5.141 I-1.762 J-1.546
G2 X-2.246 Y7.324 I3.475 J10.473
G1 X-2.279 Y7.361
X-2.305 Y7.404
X-2.32 Y7.451
X-2.326 Y7.5
X-2.37 Y33.751
X-2.365 Y33.802
X-2.348 Y33.85
X-2.322 Y33.894
X-2.287 Y33.931
X-2.246 Y33.959
G2 X-1.083 Y34.517 I7.171 J-13.459
G3 X0.25 Y35.434 I-1.676 J3.861
G2 X3.527 Y38.246 I17.75 J-17.374
G3 X3.756 Y39.797 I-0.636 J0.887
X2.198 Y39.975 I-0.865 J-0.665
G1 X-0.597 Y37.675
X-0.687 Y37.592
X-0.767 Y37.5
X-2.759 Y34.922
G3 X-2.96 Y34.495 I0.864 J-0.667
G1 X-4.031 Y29.735
G3 X-2.246 Y28.675 I1.065 J-0.24
G2 X1.562 Y30.859 I7.284 J-8.289
G3 X2.586 Y31.538 I-0.738 J2.225
G2 X14.689 Y38.249 I15.414 J-13.53
G1 X32.337 Y38.289
X32.385 Y38.284
X32.432 Y38.269
X32.474 Y38.245
G2 X35.75 Y35.434 I-14.474 J-20.185
G3 X37.083 Y34.517 I3.008 J2.944
G2 X38.246 Y33.953 I-6.113 J-14.086
G3 X39.358 Y35.828 I0.517 J0.961
G1 X36.92 Y37.416
X36.846 Y37.46
X36.769 Y37.498
X33.11 Y39.132
G3 X32.781 Y39.22 I-0.445 J-0.996
G1 X21.606 Y40.41
G3 X21.315 Y38.248 I-0.116 J-1.085
G2 X33.414 Y31.538 I-3.315 J-20.24
G3 X34.438 Y30.859 I1.762 J1.546
G2 X38.246 Y28.676 I-3.475 J-10.473
G1 X38.279 Y28.639
X38.305 Y28.596
X38.32 Y28.549
X38.326 Y28.5
X38.37 Y2.249
X38.365 Y2.198
X38.348 Y2.15
X38.322 Y2.106
X38.287 Y2.069
X38.246 Y2.041
G2 X37.083 Y1.483 I-7.171 J13.459
G3 X35.75 Y0.566 I1.676 J-3.862
G2 X32.473 Y-2.246 I-17.75 J17.374
G3 X32.244 Y-3.797 I0.636 J-0.887
X33.802 Y-3.975 I0.865 J0.665
G1 X36.597 Y-1.675
X36.687 Y-1.592
X36.767 Y-1.5
X38.759 Y1.078
G3 X38.96 Y1.505 I-0.864 J0.667
G1 X40.031 Y6.265
G3 X38.246 Y7.325 I-1.065 J0.24
G2 X34.438 Y5.141 I-7.284 J8.289
G3 X33.414 Y4.462 I0.738 J-2.225
G2 X21.312 Y-2.249 I-15.414 J13.53
X17.53 Y-0.361 I-0.583 J3.563
G3 X14.201 Y2.244 I-4.546 J-2.381
G2 X10.586 Y3.615 I3.729 J15.281
X4.873 Y8.575 I7.774 J14.724
G3 X4.169 Y8.993 I-0.835 J-0.604
G2 X0.054 Y11.157 I0.843 J6.597
X-1.605 Y15.5 I4.856 J4.343
G1 Y20.5
G2 X0.054 Y24.843 I6.515 J0
X4.169 Y27.007 I4.957 J-4.433
G3 X4.873 Y27.425 I-0.131 J1.022
G2 X7.467 Y30.265 I13.764 J-9.964
X10.654 Y32.419 I10.299 J-11.806
X18.07 Y34.205 I7.439 J-14.602
X25.414 Y32.385 I0 J-15.73
X31.127 Y27.425 I-7.774 J-14.724
G3 X31.831 Y27.007 I0.835 J0.604
G2 X35.946 Y24.843 I-0.843 J-6.597
X37.605 Y20.5 I-4.856 J-4.343
G1 Y15.5
G2 X35.946 Y11.157 I-6.515 J0
X31.831 Y8.993 I-4.957 J4.433
G3 X31.127 Y8.575 I0.131 J-1.022
G2 X25.414 Y3.615 I-13.487 J9.763
X18.07 Y1.795 I-7.344 J13.91
G1 X17.93
G2 X14.201 Y2.244 I0 J15.73
X11.462 Y5.531 I0.853 J3.495
G3 X9.681 Y9.421 I-5.885 J-0.341
G2 X7.078 Y13.15 I8.319 J8.579
G1 X5
G2 X2.65 Y15.5 I0 J2.35
G1 Y20.5
G2 X5 Y22.85 I2.35 J0
G1 X7.078
G2 X28.922 Y22.85 I10.922 J-4.85
G1 X31
G2 X33.35 Y20.5 I0 J-2.35
G1 Y15.5
G2 X31 Y13.15 I-2.35 J0
G1 X28.922
G2 X9.681 Y9.421 I-10.922 J4.85
G3 X9.298 Y9.338 I-0.164 J-0.169
G1 X4.609 Y-2.661
G2 X4.253 Y-2.766 I-0.219 J0.086
G1 X4.188 Y-2.719 Z-0.607 F50
X4.124 Y-2.674 Z-0.627
X4.065 Y-2.631 Z-0.661
X4.011 Y-2.593 Z-0.706
X3.964 Y-2.559 Z-0.763
X3.926 Y-2.531 Z-0.828
X3.897 Y-2.511 Z-0.9
X3.868 Y-2.49 Z-0.972
X3.83 Y-2.463 Z-1.037
X3.783 Y-2.429 Z-1.094
X3.729 Y-2.39 Z-1.139
X3.669 Y-2.348 Z-1.173
X3.606 Y-2.302 Z-1.193
X3.541 Y-2.255 Z-1.2
X3.526 Y-2.245
G2 X0.25 Y0.566 I14.474 J20.185 F150
G3 X-1.083 Y1.483 I-3.008 J-2.944
G2 X-2.246 Y2.047 I6.113 J14.086
G3 X-3.358 Y0.172 I-0.517 J-0.961
G1 X-0.92 Y-1.416
X-0.846 Y-1.46
X-0.769 Y-1.498
X2.89 Y-3.132
G3 X3.219 Y-3.22 I0.445 J0.996
G1 X14.394 Y-4.41
G3 X14.686 Y-2.248 I0.116 J1.085
G2 X2.586 Y4.462 I3.315 J20.24
G3 X1.562 Y5.141 I-1.762 J-1.546
G2 X-2.246 Y7.324 I3.475 J10.473
G1 X-2.279 Y7.361
X-2.305 Y7.404
X-2.32 Y7.451
X-2.326 Y7.5
X-2.37 Y33.751
X-2.365 Y33.802
X-2.348 Y33.85
X-2.322 Y33.894
X-2.287 Y33.931
X-2.246 Y33.959
G2 X-1.083 Y34.517 I7.171 J-13.459
G3 X0.25 Y35.434 I-1.676 J3.861
G2 X3.527 Y38.246 I17.75 J-17.374
G3 X3.756 Y39.797 I-0.636 J0.887
X2.198 Y39.975 I-0.865 J-0.665
G1 X-0.597 Y37.675
X-0.687 Y37.592
X-0.767 Y37.5
X-2.759 Y34.922
G3 X-2.96 Y34.495 I0.864 J-0.667
G1 X-4.031 Y29.735
G3 X-2.246 Y28.675 I1.065 J-0.24
G2 X1.562 Y30.859 I7.284 J-8.289
G3 X2.586 Y31.538 I-0.738 J2.225
G2 X14.689 Y38.249 I15.414 J-13.53
G1 X32.337 Y38.289
X32.385 Y38.284
X32.432 Y38.269
X32.474 Y38.245
G2 X35.75 Y35.434 I-14.474 J-20.185
G3 X37.083 Y34.517 I3.008 J2.944
G2 X38.246 Y33.953 I-6.113 J-14.086
G3 X39.358 Y35.828 I0.517 J0.961
G1 X36.92 Y37.416
X36.846 Y37.46
X36.769 Y37.498
X33.11 Y39.132
G3 X32.781 Y39.22 I-0.445 J-0.996
G1 X21.606 Y40.41
G3 X21.315 Y38.248 I-0.116 J-1.085
G2 X33.414 Y31.538 I-3.315 J-20.24
G3 X34.438 Y30.859 I1.762 J1.546
G2 X38.246 Y28.676 I-3.475 J-10.473
G1 X38.279 Y28.639
X38.305 Y28.596
X38.32 Y28.549
X38.326 Y28.5
X38.37 Y2.249
X38.365 Y2.198
X38.348 Y2.15
X38.322 Y2.106
X38.287 Y2.069
X38.246 Y2.041
G2 X37.083 Y1.483 I-7.171 J13.459
G3 X35.75 Y0.566 I1.676 J-3.862
G2 X32.473 Y-2.246 I-17.75 J17.374
G3 X32.244 Y-3.797 I0.636 J-0.887
X33.802 Y-3.975 I0.865 J0.665
G1 X36.597 Y-1.675
X36.687 Y-1.592
X36.767 Y-1.5
X38.759 Y1.078
G3 X38.96 Y1.505 I-0.864 J0.667
G1 X40.031 Y6.265
G3 X38.246 Y7.325 I-1.065 J0.24
G2 X34.438 Y5.141 I-7.284 J8.289
G3 X33.414 Y4.462 I0.738 J-2.225
G2 X21.312 Y-2.249 I-15.414 J13.53
X17.53 Y-0.361 I-0.583 J3.563
G3 X14.201 Y2.244 I-4.546 J-2.381
G2 X10.586 Y3.615 I3.729 J15.281
X4.873 Y8.575 I7.774 J14.724
G3 X4.169 Y8.993 I-0.835 J-0.604
G2 X0.054 Y11.157 I0.843 J6.597
X-1.605 Y15.5 I4.856 J4.343
G1 Y20.5
G2 X0.054 Y24.843 I6.515 J0
X4.169 Y27.007 I4.957 J-4.433
G3 X4.873 Y27.425 I-0.131 J1.022
G2 X7.467 Y30.265 I13.764 J-9.964
X10.654 Y32.419 I10.299 J-11.806
X18.07 Y34.205 I7.439 J-14.602
X25.414 Y32.385 I0 J-15.73
X31.127 Y27.425 I-7.774 J-14.724
G3 X31.831 Y27.007 I0.835 J0.604
G2 X35.946 Y24.843 I-0.843 J-6.597
X37.605 Y20.5 I-4.856 J-4.343
G1 Y15.5
G2 X35.946 Y11.157 I-6.515 J0
X31.831 Y8.993 I-4.957 J4.433
G3 X31.127 Y8.575 I0.131 J-1.022
G2 X25.414 Y3.615 I-13.487 J9.763
X18.07 Y1.795 I-7.344 J13.91
G1 X17.93
G2 X14.201 Y2.244 I0 J15.73
X11.462 Y5.531 I0.853 J3.495
G3 X9.681 Y9.421 I-5.885 J-0.341
G2 X7.078 Y13.15 I8.319 J8.579
G1 X5
G2 X2.65 Y15.5 I0 J2.35
G1 Y20.5
G2 X5 Y22.85 I2.35 J0
G1 X7.078
G2 X28.922 Y22.85 I10.922 J-4.85
G1 X31
G2 X33.35 Y20.5 I0 J-2.35
G1 Y15.5
G2 X31 Y13.15 I-2.35 J0
G1 X28.922
G2 X9.681 Y9.421 I-10.922 J4.85
G3 X9.298 Y9.338 I-0.164 J-0.169
G1 X4.609 Y-2.661
G2 X4.253 Y-2.766 I-0.219 J0.086
G1 X4.188 Y-2.719 Z-1.207 F50
X4.124 Y-2.674 Z-1.227
X4.065 Y-2.631 Z-1.261
X4.011 Y-2.593 Z-1.306
X3.964 Y-2.559 Z-1.363
X3.926 Y-2.531 Z-1.428
X3.897 Y-2.511 Z-1.5
X3.868 Y-2.49 Z-1.572
X3.83 Y-2.463 Z-1.637
X3.783 Y-2.429 Z-1.694
X3.729 Y-2.39 Z-1.739
X3.669 Y-2.348 Z-1.773
X3.606 Y-2.302 Z-1.793
X3.541 Y-2.255 Z-1.8
X3.526 Y-2.245
G2 X0.25 Y0.566 I14.474 J20.185 F150
G3 X-1.083 Y1.483 I-3.008 J-2.944
G2 X-2.246 Y2.047 I6.113 J14.086
G3 X-3.358 Y0.172 I-0.517 J-0.961
G1 X-0.92 Y-1.416
X-0.846 Y-1.46
X-0.769 Y-1.498
X2.89 Y-3.132
G3 X3.219 Y-3.22 I0.445 J0.996
G1 X14.394 Y-4.41
G3 X14.686 Y-2.248 I0.116 J1.085
G2 X2.586 Y4.462 I3.315 J20.24
G3 X1.562 Y5.141 I-1.762 J-1.546
G2 X-2.246 Y7.324 I3.475 J10.473
G1 X-2.279 Y7.361
X-2.305 Y7.404
X-2.32 Y7.451
X-2.326 Y7.5
X-2.37 Y33.751
X-2.365 Y33.802
X-2.348 Y33.85
X-2.322 Y33.894
X-2.287 Y33.931
X-2.246 Y33.959
G2 X-1.083 Y34.517 I7.171 J-13.459
G3 X0.25 Y35.434 I-1.676 J3.861
G2 X3.527 Y38.246 I17.75 J-17.374
G3 X3.756 Y39.797 I-0.636 J0.887
X2.198 Y39.975 I-0.865 J-0.665
G1 X-0.597 Y37.675
X-0.687 Y37.592
X-0.767 Y37.5
X-2.759 Y34.922
G3 X-2.96 Y34.495 I0.864 J-0.667
G1 X-4.031 Y29.735
G3 X-2.246 Y28.675 I1.065 J-0.24
G2 X1.562 Y30.859 I7.284 J-8.289
G3 X2.586 Y31.538 I-0.738 J2.225
G2 X14.689 Y38.249 I15.414 J-13.53
G1 X32.337 Y38.289
X32.385 Y38.284
X32.432 Y38.269
X32.474 Y38.245
G2 X35.75 Y35.434 I-14.474 J-20.185
G3 X37.083 Y34.517 I3.008 J2.944
G2 X38.246 Y33.953 I-6.113 J-14.086
G3 X39.358 Y35.828 I0.517 J0.961
G1 X36.92 Y37.416
X36.846 Y37.46
X36.769 Y37.498
X33.11 Y39.132
G3 X32.781 Y39.22 I-0.445 J-0.996
G1 X21.606 Y40.41
G3 X21.315 Y38.248 I-0.116 J-1.085
G2 X33.414 Y31.538 I-3.315 J-20.24
G3 X34.438 Y30.859 I1.762 J1.546
G2 X38.246 Y28.676 I-3.475 J-10.473
G1 X38.279 Y28.639
X38.305 Y28.596
X38.32 Y28.549
X38.326 Y28.5
X38.37 Y2.249
X38.365 Y2.198
X38.348 Y2.15
X38.322 Y2.106
X38.287 Y2.069
X38.246 Y2.041
G2 X37.083 Y1.483 I-7.171 J13.459
G3 X35.75 Y0.566 I1.676 J-3.862
G2 X32.473 Y-2.246 I-17.75 J17.374
G3 X32.244 Y-3.797 I0.636 J-0.887
X33.802 Y-3.975 I0.865 J0.665
G1 X36.597 Y-1.675
X36.687 Y-1.592
X36.767 Y-1.5
X38.759 Y1.078
G3 X38.96 Y1.505 I-0.864 J0.667
G1 X40.031 Y6.265
G3 X38.246 Y7.325 I-1.065 J0.24
G2 X34.438 Y5.141 I-7.284 J8.289
G3 X33.414 Y4.462 I0.738 J-2.225
G2 X21.312 Y-2.249 I-15.414 J13.53
X17.53 Y-0.361 I-0.583 J3.563
G3 X14.201 Y2.244 I-4.546 J-2.381
G2 X10.586 Y3.615 I3.729 J15.281
X4.873 Y8.575 I7.774 J14.724
G3 X4.169 Y8.993 I-0.835 J-0.604
G2 X0.054 Y11.157 I0.843 J6.597
X-1.605 Y15.5 I4.856 J4.343
G1 Y20.5
G2 X0.054 Y24.843 I6.515 J0
X4.169 Y27.007 I4.957 J-4.433
G3 X4.873 Y27.425 I-0.131 J1.022
G2 X7.467 Y30.265 I13.764 J-9.964
X10.654 Y32.419 I10.299 J-11.806
X18.07 Y34.205 I7.439 J-14.602
X25.414 Y32.385 I0 J-15.73
X31.127 Y27.425 I-7.774 J-14.724
G3 X31.831 Y27.007 I0.835 J0.604
G2 X35.946 Y24.843 I-0.843 J-6.597
X37.605 Y20.5 I-4.856 J-4.343
G1 Y15.5
G2 X35.946 Y11.157 I-6.515 J0
X31.831 Y8.993 I-4.957 J4.433
G3 X31.127 Y8.575 I0.131 J-1.022
G2 X25.414 Y3.615 I-13.487 J9.763
X18.07 Y1.795 I-7.344 J13.91
G1 X17.93
G2 X14.201 Y2.244 I0 J15.73
X11.462 Y5.531 I0.853 J3.495
G3 X9.681 Y9.421 I-5.885 J-0.341
G2 X7.078 Y13.15 I8.319 J8.579
G1 X5
G2 X2.65 Y15.5 I0 J2.35
G1 Y20.5
G2 X5 Y22.85 I2.35 J0
G1 X7.078
G2 X28.922 Y22.85 I10.922 J-4.85
G1 X31
G2 X33.35 Y20.5 I0 J-2.35
G1 Y15.5
G2 X31 Y13.15 I-2.35 J0
G1 X28.922
G2 X9.681 Y9.421 I-10.922 J4.85
G3 X9.298 Y9.338 I-0.164 J-0.169
G1 X4.609 Y-2.661
G2 X4.253 Y-2.766 I-0.219 J0.086
G1 X4.188 Y-2.719 Z-1.807 F50
X4.124 Y-2.674 Z-1.827
X4.065 Y-2.631 Z-1.861
X4.011 Y-2.593 Z-1.906
X3.964 Y-2.559 Z-1.963
X3.926 Y-2.531 Z-2.028
X3.897 Y-2.511 Z-2.1
X3.868 Y-2.49 Z-2.172
X3.83 Y-2.463 Z-2.237
X3.783 Y-2.429 Z-2.294
X3.729 Y-2.39 Z-2.339
X3.669 Y-2.348 Z-2.373
X3.606 Y-2.302 Z-2.393
X3.541 Y-2.255 Z-2.4
X3.526 Y-2.245
G2 X0.25 Y0.566 I14.474 J20.185 F150
G3 X-1.083 Y1.483 I-3.008 J-2.944
G2 X-2.246 Y2.047 I6.113 J14.086
G3 X-3.358 Y0.172 I-0.517 J-0.961
G1 X-0.92 Y-1.416
X-0.846 Y-1.46
X-0.769 Y-1.498
X2.89 Y-3.132
G3 X3.219 Y-3.22 I0.445 J0.996
G1 X14.394 Y-4.41
G3 X14.686 Y-2.248 I0.116 J1.085
G2 X2.586 Y4.462 I3.315 J20.24
G3 X1.562 Y5.141 I-1.762 J-1.546
G2 X-2.246 Y7.324 I3.475 J10.473
G1 X-2.279 Y7.361
X-2.305 Y7.404
X-2.32 Y7.451
X-2.326 Y7.5
X-2.37 Y33.751
X-2.365 Y33.802
X-2.348 Y33.85
X-2.322 Y33.894
X-2.287 Y33.931
X-2.246 Y33.959
G2 X-1.083 Y34.517 I7.171 J-13.459
G3 X0.25 Y35.434 I-1.676 J3.861
G2 X3.527 Y38.246 I17.75 J-17.374
G3 X3.756 Y39.797 I-0.636 J0.887
X2.198 Y39.975 I-0.865 J-0.665
G1 X-0.597 Y37.675
X-0.687 Y37.592
X-0.767 Y37.5
X-2.759 Y34.922
G3 X-2.96 Y34.495 I0.864 J-0.667
G1 X-4.031 Y29.735
G3 X-2.246 Y28.675 I1.065 J-0.24
G2 X1.562 Y30.859 I7.284 J-8.289
G3 X2.586 Y31.538 I-0.738 J2.225
G2 X14.689 Y38.249 I15.414 J-13.53
G1 X32.337 Y38.289
X32.385 Y38.284
X32.432 Y38.269
X32.474 Y38.245
G2 X35.75 Y35.434 I-14.474 J-20.185
G3 X37.083 Y34.517 I3.008 J2.944
G2 X38.246 Y33.953 I-6.113 J-14.086
G3 X39.358 Y35.828 I0.517 J0.961
G1 X36.92 Y37.416
X36.846 Y37.46
X36.769 Y37.498
X33.11 Y39.132
G3 X32.781 Y39.22 I-0.445 J-0.996
G1 X21.606 Y40.41
G3 X21.315 Y38.248 I-0.116 J-1.085
G2 X33.414 Y31.538 I-3.315 J-20.24
G3 X34.438 Y30.859 I1.762 J1.546
G2 X38.246 Y28.676 I-3.475 J-10.473
G1 X38.279 Y28.639
X38.305 Y28.596
X38.32 Y28.549
X38.326 Y28.5
X38.37 Y2.249
X38.365 Y2.198
X38.348 Y2.15
X38.322 Y2.106
X38.287 Y2.069
X38.246 Y2.041
G2 X37.083 Y1.483 I-7.171 J13.459
G3 X35.75 Y0.566 I1.676 J-3.862
G2 X32.473 Y-2.246 I-17.75 J17.374
G3 X32.244 Y-3.797 I0.636 J-0.887
X33.802 Y-3.975 I0.865 J0.665
G1 X36.597 Y-1.675
X36.687 Y-1.592
X36.767 Y-1.5
X38.759 Y1.078
G3 X38.96 Y1.505 I-0.864 J0.667
G1 X40.031 Y6.265
G3 X38.246 Y7.325 I-1.065 J0.24
G2 X34.438 Y5.141 I-7.284 J8.289
G3 X33.414 Y4.462 I0.738 J-2.225
G2 X21.312 Y-2.249 I-15.414 J13.53
X17.53 Y-0.361 I-0.583 J3.563
G3 X14.201 Y2.244 I-4.546 J-2.381
G2 X10.586 Y3.615 I3.729 J15.281
X4.873 Y8.575 I7.774 J14.724
G3 X4.169 Y8.993 I-0.835 J-0.604
G2 X0.054 Y11.157 I0.843 J6.597
X-1.605 Y15.5 I4.856 J4.343
G1 Y20.5
G2 X0.054 Y24.843 I6.515 J0
X4.169 Y27.007 I4.957 J-4.433
G3 X4.873 Y27.425 I-0.131 J1.022
G2 X7.467 Y30.265 I13.764 J-9.964
X10.654 Y32.419 I10.299 J-11.806
X18.07 Y34.205 I7.439 J-14.602
X25.414 Y32.385 I0 J-15.73
X31.127 Y27.425 I-7.774 J-14.724
G3 X31.831 Y27.007 I0.835 J0.604
G2 X35.946 Y24.843 I-0.843 J-6.597
X37.605 Y20.5 I-4.856 J-4.343
G1 Y15.5
G2 X35.946 Y11.157 I-6.515 J0
X31.831 Y8.993 I-4.957 J4.433
G3 X31.127 Y8.575 I0.131 J-1.022
G2 X25.414 Y3.615 I-13.487 J9.763
X18.07 Y1.795 I-7.344 J13.91
G1 X17.93
G2 X14.201 Y2.244 I0 J15.73
X11.462 Y5.531 I0.853 J3.495
G3 X9.681 Y9.421 I-5.885 J-0.341
G2 X7.078 Y13.15 I8.319 J8.579
G1 X5
G2 X2.65 Y15.5 I0 J2.35
G1 Y20.5
G2 X5 Y22.85 I2.35 J0
G1 X7.078
G2 X28.922 Y22.85 I10.922 J-4.85
G1 X31
G2 X33.35 Y20.5 I0 J-2.35
G1 Y15.5
G2 X31 Y13.15 I-2.35 J0
G1 X28.922
G2 X9.681 Y9.421 I-10.922 J4.85
G3 X9.298 Y9.338 I-0.164 J-0.169
G1 X4.609 Y-2.661
G2 X4.253 Y-2.766 I-0.219 J0.086
G1 X4.188 Y-2.719 Z-2.407 F50
X4.124 Y-2.674 Z-2.427
X4.065 Y-2.631 Z-2.461
X4.011 Y-2.593 Z-2.506
X3.964 Y-2.559 Z-2.563
X3.926 Y-2.531 Z-2.628
X3.897 Y-2.511 Z-2.7
X3.868 Y-2.49 Z-2.772
X3.83 Y-2.463 Z-2.837
X3.783 Y-2.429 Z-2.894
X3.729 Y-2.39 Z-2.939
X3.669 Y-2.348 Z-2.973
X3.606 Y-2.302 Z-2.993
X3.541 Y-2.255 Z-3
X3.526 Y-2.245
G2 X0.25 Y0.566 I14.474 J20.185 F150
G3 X-1.083 Y1.483 I-3.008 J-2.944
G2 X-2.246 Y2.047 I6.113 J14.086
G3 X-3.358 Y0.172 I-0.517 J-0.961
G1 X-0.92 Y-1.416
X-0.846 Y-1.46
X-0.769 Y-1.498
X2.89 Y-3.132
G3 X3.219 Y-3.22 I0.445 J0.996
G1 X14.394 Y-4.41
G3 X14.686 Y-2.248 I0.116 J1.085
G2 X2.586 Y4.462 I3.315 J20.24
G3 X1.562 Y5.141 I-1.762 J-1.546
G2 X-2.246 Y7.324 I3.475 J10.473
G1 X-2.279 Y7.361
X-2.305 Y7.404
X-2.32 Y7.451
X-2.326 Y7.5
X-2.37 Y33.751
X-2.365 Y33.802
X-2.348 Y33.85
X-2.322 Y33.894
X-2.287 Y33.931
X-2.246 Y33.959
G2 X-1.083 Y34.517 I7.171 J-13.459
G3 X0.25 Y35.434 I-1.676 J3.861
G2 X3.527 Y38.246 I17.75 J-17.374
G3 X3.756 Y39.797 I-0.636 J0.887
X2.198 Y39.975 I-0.865 J-0.665
G1 X-0.597 Y37.675
X-0.687 Y37.592
X-0.767 Y37.5
X-2.759 Y34.922
G3 X-2.96 Y34.495 I0.864 J-0.667
G1 X-4.031 Y29.735
G3 X-2.246 Y28.675 I1.065 J-0.24
G2 X1.562 Y30.859 I7.284 J-8.289
G3 X2.586 Y31.538 I-0.738 J2.225
G2 X14.689 Y38.249 I15.414 J-13.53
G1 X32.337 Y38.289
X32.385 Y38.284
X32.432 Y38.269
X32.474 Y38.245
G2 X35.75 Y35.434 I-14.474 J-20.185
G3 X37.083 Y34.517 I3.008 J2.944
G2 X38.246 Y33.953 I-6.113 J-14.086
G3 X39.358 Y35.828 I0.517 J0.961
G1 X36.92 Y37.416
X36.846 Y37.46
X36.769 Y37.498
X33.11 Y39.132
G3 X32.781 Y39.22 I-0.445 J-0.996
G1 X21.606 Y40.41
G3 X21.315 Y38.248 I-0.116 J-1.085
G2 X33.414 Y31.538 I-3.315 J-20.24
G3 X34.438 Y30.859 I1.762 J1.546
G2 X38.246 Y28.676 I-3.475 J-10.473
G1 X38.279 Y28.639
X38.305 Y28.596
X38.32 Y28.549
X38.326 Y28.5
X38.37 Y2.249
X38.365 Y2.198
X38.348 Y2.15
X38.322 Y2.106
X38.287 Y2.069
X38.246 Y2.041
G2 X37.083 Y1.483 I-7.171 J13.459
G3 X35.75 Y0.566 I1.676 J-3.862
G2 X32.473 Y-2.246 I-17.75 J17.374
G3 X32.244 Y-3.797 I0.636 J-0.887
X33.802 Y-3.975 I0.865 J0.665
G1 X36.597 Y-1.675
X36.687 Y-1.592
X36.767 Y-1.5
X38.759 Y1.078
G3 X38.96 Y1.505 I-0.864 J0.667
G1 X40.031 Y6.265
G3 X38.246 Y7.325 I-1.065 J0.24
G2 X34.438 Y5.141 I-7.284 J8.289
G3 X33.414 Y4.462 I0.738 J-2.225
G2 X21.312 Y-2.249 I-15.414 J13.53
X17.53 Y-0.361 I-0.583 J3.563
G3 X14.201 Y2.244 I-4.546 J-2.381
G2 X10.586 Y3.615 I3.729 J15.281
X4.873 Y8.575 I7.774 J14.724
G3 X4.169 Y8.993 I-0.835 J-0.604
G2 X0.054 Y11.157 I0.843 J6.597
X-1.605 Y15.5 I4.856 J4.343
G1 Y20.5
G2 X0.054 Y24.843 I6.515 J0
X4.169 Y27.007 I4.957 J-4.433
G3 X4.873 Y27.425 I-0.131 J1.022
G2 X7.467 Y30.265 I13.764 J-9.964
X10.654 Y32.419 I10.299 J-11.806
X18.07 Y34.205 I7.439 J-14.602
X25.414 Y32.385 I0 J-15.73
X31.127 Y27.425 I-7.774 J-14.724
G3 X31.831 Y27.007 I0.835 J0.604
G2 X35.946 Y24.843 I-0.843 J-6.597
X37.605 Y20.5 I-4.856 J-4.343
G1 Y15.5
G2 X35.946 Y11.157 I-6.515 J0
X31.831 Y8.993 I-4.957 J4.433
G3 X31.127 Y8.575 I0.131 J-1.022
G2 X25.414 Y3.615 I-13.487 J9.763
X18.07 Y1.795 I-7.344 J13.91
G1 X17.93
G2 X14.201 Y2.244 I0 J15.73
X11.462 Y5.531 I0.853 J3.495
G3 X9.681 Y9.421 I-5.885 J-0.341
G2 X7.078 Y13.15 I8.319 J8.579
G1 X5
G2 X2.65 Y15.5 I0 J2.35
G1 Y20.5
G2 X5 Y22.85 I2.35 J0
G1 X7.078
G2 X28.922 Y22.85 I10.922 J-4.85
G1 X31
G2 X33.35 Y20.5 I0 J-2.35
G1 Y15.5
G2 X31 Y13.15 I-2.35 J0
G1 X28.922
G2 X9.681 Y9.421 I-10.922 J4.85
G3 X9.298 Y9.338 I-0.164 J-0.169
G1 X4.609 Y-2.661
G2 X4.253 Y-2.766 I-0.219 J0.086
G1 X4.188 Y-2.719 Z-3.007 F50
X4.124 Y-2.674 Z-3.027
X4.065 Y-2.631 Z-3.061
X4.011 Y-2.593 Z-3.106
X3.964 Y-2.559 Z-3.163
X3.926 Y-2.531 Z-3.228
X3.897 Y-2.511 Z-3.3
X3.868 Y-2.49 Z-3.372
X3.83 Y-2.463 Z-3.437
X3.783 Y-2.429 Z-3.494
X3.729 Y-2.39 Z-3.539
X3.669 Y-2.348 Z-3.573
X3.606 Y-2.302 Z-3.593
X3.541 Y-2.255 Z-3.6
X3.526 Y-2.245
G2 X0.25 Y0.566 I14.474 J20.185 F150
G3 X-1.083 Y1.483 I-3.008 J-2.944
G2 X-2.246 Y2.047 I6.113 J14.086
G3 X-3.358 Y0.172 I-0.517 J-0.961
G1 X-0.92 Y-1.416
X-0.846 Y-1.46
X-0.769 Y-1.498
X2.89 Y-3.132
G3 X3.219 Y-3.22 I0.445 J0.996
G1 X14.394 Y-4.41
G3 X14.686 Y-2.248 I0.116 J1.085
G2 X2.586 Y4.462 I3.315 J20.24
G3 X1.562 Y5.141 I-1.762 J-1.546
G2 X-2.246 Y7.324 I3.475 J10.473
G1 X-2.279 Y7.361
X-2.305 Y7.404
X-2.32 Y7.451
X-2.326 Y7.5
X-2.37 Y33.751
X-2.365 Y33.802
X-2.348 Y33.85
X-2.322 Y33.894
X-2.287 Y33.931
X-2.246 Y33.959
G2 X-1.083 Y34.517 I7.171 J-13.459
G3 X0.25 Y35.434 I-1.676 J3.861
G2 X3.527 Y38.246 I17.75 J-17.374
G3 X3.756 Y39.797 I-0.636 J0.887
X2.198 Y39.975 I-0.865 J-0.665
G1 X-0.597 Y37.675
X-0.687 Y37.592
X-0.767 Y37.5
X-2.759 Y34.922
G3 X-2.96 Y34.495 I0.864 J-0.667
G1 X-4.031 Y29.735
G3 X-2.246 Y28.675 I1.065 J-0.24
G2 X1.562 Y30.859 I7.284 J-8.289
G3 X2.586 Y31.538 I-0.738 J2.225
G2 X14.689 Y38.249 I15.414 J-13.53
G1 X32.337 Y38.289
X32.385 Y38.284
X32.432 Y38.269
X32.474 Y38.245
G2 X35.75 Y35.434 I-14.474 J-20.185
G3 X37.083 Y34.517 I3.008 J2.944
G2 X38.246 Y33.953 I-6.113 J-14.086
G3 X39.358 Y35.828 I0.517 J0.961
G1 X36.92 Y37.416
X36.846 Y37.46
X36.769 Y37.498
X33.11 Y39.132
G3 X32.781 Y39.22 I-0.445 J-0.996
G1 X21.606 Y40.41
G3 X21.315 Y38.248 I-0.116 J-1.085
G2 X33.414 Y31.538 I-3.315 J-20.24
G3 X34.438 Y30.859 I1.762 J1.546
G2 X38.246 Y28.676 I-3.475 J-10.473
G1 X38.279 Y28.639
X38.305 Y28.596
X38.32 Y28.549
X38.326 Y28.5
X38.37 Y2.249
X38.365 Y2.198
X38.348 Y2.15
X38.322 Y2.106
X38.287 Y2.069
X38.246 Y2.041
G2 X37.083 Y1.483 I-7.171 J13.459
G3 X35.75 Y0.566 I1.676 J-3.862
G2 X32.473 Y-2.246 I-17.75 J17.374
G3 X32.244 Y-3.797 I0.636 J-0.887
X33.802 Y-3.975 I0.865 J0.665
G1 X36.597 Y-1.675
X36.687 Y-1.592
X36.767 Y-1.5
X38.759 Y1.078
G3 X38.96 Y1.505 I-0.864 J0.667
G1 X40.031 Y6.265
G3 X38.246 Y7.325 I-1.065 J0.24
G2 X34.438 Y5.141 I-7.284 J8.289
G3 X33.414 Y4.462 I0.738 J-2.225
G2 X21.312 Y-2.249 I-15.414 J13.53
X17.53 Y-0.361 I-0.583 J3.563
G3 X14.201 Y2.244 I-4.546 J-2.381
G2 X10.586 Y3.615 I3.729 J15.281
X4.873 Y8.575 I7.774 J14.724
G3 X4.169 Y8.993 I-0.835 J-0.604
G2 X0.054 Y11.157 I0.843 J6.597
X-1.605 Y15.5 I4.856 J4.343
G1 Y20.5
G2 X0.054 Y24.843 I6.515 J0
X4.169 Y27.007 I4.957 J-4.433
G3 X4.873 Y27.425 I-0.131 J1.022
G2 X7.467 Y30.265 I13.764 J-9.964
X10.654 Y32.419 I10.299 J-11.806
X18.07 Y34.205 I7.439 J-14.602
X25.414 Y32.385 I0 J-15.73
X31.127 Y27.425 I-7.774 J-14.724
G3 X31.831 Y27.007 I0.835 J0.604
G2 X35.946 Y24.843 I-0.843 J-6.597
X37.605 Y20.5 I-4.856 J-4.343
G1 Y15.5
G2 X35.946 Y11.157 I-6.515 J0
X31.831 Y8.993 I-4.957 J4.433
G3 X31.127 Y8.575 I0.131 J-1.022
G2 X25.414 Y3.615 I-13.487 J9.763
X18.07 Y1.795 I-7.344 J13.91
G1 X17.93
G2 X14.201 Y2.244 I0 J15.73
X11.462 Y5.531 I0.853 J3.495
G3 X9.681 Y9.421 I-5.885 J-0.341
G2 X7.078 Y13.15 I8.319 J8.579
G1 X5
G2 X2.65 Y15.5 I0 J2.35
G1 Y20.5
G2 X5 Y22.85 I2.35 J0
G1 X7.078
G2 X28.922 Y22.85 I10.922 J-4.85
G1 X31
G2 X33.35 Y20.5 I0 J-2.35
G1 Y15.5
G2 X31 Y13.15 I-2.35 J0
G1 X28.922
G2 X9.681 Y9.421 I-10.922 J4.85
G3 X9.298 Y9.338 I-0.164 J-0.169
G1 X4.609 Y-2.661
G2 X4.253 Y-2.766 I-0.219 J0.086
G1 X4.188 Y-2.719 Z-3.607 F50
X4.124 Y-2.674 Z-3.627
X4.065 Y-2.631 Z-3.661
X4.011 Y-2.593 Z-3.706
X3.964 Y-2.559 Z-3.763
X3.926 Y-2.531 Z-3.828
X3.897 Y-2.511 Z-3.9
X3.868 Y-2.49 Z-3.972
X3.83 Y-2.463 Z-4.037
X3.783 Y-2.429 Z-4.094
X3.729 Y-2.39 Z-4.139
X3.669 Y-2.348 Z-4.173
X3.606 Y-2.302 Z-4.193
X3.541 Y-2.255 Z-4.2
X3.526 Y-2.245
G2 X0.25 Y0.566 I14.474 J20.185 F150
G3 X-1.083 Y1.483 I-3.008 J-2.944
G2 X-2.246 Y2.047 I6.113 J14.086
G3 X-3.358 Y0.172 I-0.517 J-0.961
G1 X-0.92 Y-1.416
X-0.846 Y-1.46
X-0.769 Y-1.498
X2.89 Y-3.132
G3 X3.219 Y-3.22 I0.445 J0.996
G1 X14.394 Y-4.41
G3 X14.686 Y-2.248 I0.116 J1.085
G2 X2.586 Y4.462 I3.315 J20.24
G3 X1.562 Y5.141 I-1.762 J-1.546
G2 X-2.246 Y7.324 I3.475 J10.473
G1 X-2.279 Y7.361
X-2.305 Y7.404
X-2.32 Y7.451
X-2.326 Y7.5
X-2.37 Y33.751
X-2.365 Y33.802
X-2.348 Y33.85
X-2.322 Y33.894
X-2.287 Y33.931
X-2.246 Y33.959
G2 X-1.083 Y34.517 I7.171 J-13.459
G3 X0.25 Y35.434 I-1.676 J3.861
G2 X3.527 Y38.246 I17.75 J-17.374
G3 X3.756 Y39.797 I-0.636 J0.887
X2.198 Y39.975 I-0.865 J-0.665
G1 X-0.597 Y37.675
X-0.687 Y37.592
X-0.767 Y37.5
X-2.759 Y34.922
G3 X-2.96 Y34.495 I0.864 J-0.667
G1 X-4.031 Y29.735
G3 X-2.246 Y28.675 I1.065 J-0.24
G2 X1.562 Y30.859 I7.284 J-8.289
G3 X2.586 Y31.538 I-0.738 J2.225
G2 X14.689 Y38.249 I15.414 J-13.53
G1 X32.337 Y38.289
X32.385 Y38.284
X32.432 Y38.269
X32.474 Y38.245
G2 X35.75 Y35.434 I-14.474 J-20.185
G3 X37.083 Y34.517 I3.008 J2.944
G2 X38.246 Y33.953 I-6.113 J-14.086
G3 X39.358 Y35.828 I0.517 J0.961
G1 X36.92 Y37.416
X36.846 Y37.46
X36.769 Y37.498
X33.11 Y39.132
G3 X32.781 Y39.22 I-0.445 J-0.996
G1 X21.606 Y40.41
G3 X21.315 Y38.248 I-0.116 J-1.085
G2 X33.414 Y31.538 I-3.315 J-20.24
G3 X34.438 Y30.859 I1.762 J1.546
G2 X38.246 Y28.676 I-3.475 J-10.473
G1 X38.279 Y28.639
X38.305 Y28.596
X38.32 Y28.549
X38.326 Y28.5
X38.37 Y2.249
X38.365 Y2.198
X38.348 Y2.15
X38.322 Y2.106
X38.287 Y2.069
X38.246 Y2.041
G2 X37.083 Y1.483 I-7.171 J13.459
G3 X35.75 Y0.566 I1.676 J-3.862
G2 X32.473 Y-2.246 I-17.75 J17.374
G3 X32.244 Y-3.797 I0.636 J-0.887
X33.802 Y-3.975 I0.865 J0.665
G1 X36.597 Y-1.675
X36.687 Y-1.592
X36.767 Y-1.5
X38.759 Y1.078
G3 X38.96 Y1.505 I-0.864 J0.667
G1 X40.031 Y6.265
G3 X38.246 Y7.325 I-1.065 J0.24
G2 X34.438 Y5.141 I-7.284 J8.289
G3 X33.414 Y4.462 I0.738 J-2.225
G2 X21.312 Y-2.249 I-15.414 J13.53
X17.53 Y-0.361 I-0.583 J3.563
G3 X14.201 Y2.244 I-4.546 J-2.381
G2 X10.586 Y3.615 I3.729 J15.281
X4.873 Y8.575 I7.774 J14.724
G3 X4.169 Y8.993 I-0.835 J-0.604
G2 X0.054 Y11.157 I0.843 J6.597
X-1.605 Y15.5 I4.856 J4.343
G1 Y20.5
G2 X0.054 Y24.843 I6.515 J0
X4.169 Y27.007 I4.957 J-4.433
G3 X4.873 Y27.425 I-0.131 J1.022
G2 X7.467 Y30.265 I13.764 J-9.964
X10.654 Y32.419 I10.299 J-11.806
X18.07 Y34.205 I7.439 J-14.602
X25.414 Y32.385 I0 J-15.73
X31.127 Y27.425 I-7.774 J-14.724
G3 X31.831 Y27.007 I0.835 J0.604
G2 X35.946 Y24.843 I-0.843 J-6.597
X37.605 Y20.5 I-4.856 J-4.343
G1 Y15.5
G2 X35.946 Y11.157 I-6.515 J0
X31.831 Y8.993 I-4.957 J4.433
G3 X31.127 Y8.575 I0.131 J-1.022
G2 X25.414 Y3.615 I-13.487 J9.763
X18.07 Y1.795 I-7.344 J13.91
G1 X17.93
G2 X14.201 Y2.244 I0 J15.73
X11.462 Y5.531 I0.853 J3.495
G3 X9.681 Y9.421 I-5.885 J-0.341
G2 X7.078 Y13.15 I8.319 J8.579
G1 X5
G2 X2.65 Y15.5 I0 J2.35
G1 Y20.5
G2 X5 Y22.85 I2.35 J0
G1 X7.078
G2 X28.922 Y22.85 I10.922 J-4.85
G1 X31
G2 X33.35 Y20.5 I0 J-2.35
G1 Y15.5
G2 X31 Y13.15 I-2.35 J0
G1 X28.922
G2 X9.681 Y9.421 I-10.922 J4.85
G3 X9.298 Y9.338 I-0.164 J-0.169
G1 X4.609 Y-2.661
G2 X4.253 Y-2.766 I-0.219 J0.086
G1 X4.188 Y-2.719 Z-4.207 F50
X4.124 Y-2.674 Z-4.227
X4.065 Y-2.631 Z-4.261
X4.011 Y-2.593 Z-4.306
X3.964 Y-2.559 Z-4.363
X3.926 Y-2.531 Z-4.428
X3.897 Y-2.511 Z-4.5
X3.868 Y-2.49 Z-4.572
X3.83 Y-2.463 Z-4.637
X3.783 Y-2.429 Z-4.694
X3.729 Y-2.39 Z-4.739
X3.669 Y-2.348 Z-4.773
X3.606 Y-2.302 Z-4.793
X3.541 Y-2.255 Z-4.8
X3.526 Y-2.245
G2 X0.25 Y0.566 I14.474 J20.185 F150
G3 X-1.083 Y1.483 I-3.008 J-2.944
G2 X-2.246 Y2.047 I6.113 J14.086
G3 X-3.358 Y0.172 I-0.517 J-0.961
G1 X-0.92 Y-1.416
X-0.846 Y-1.46
X-0.769 Y-1.498
X2.89 Y-3.132
G3 X3.219 Y-3.22 I0.445 J0.996
G1 X14.394 Y-4.41
G3 X14.686 Y-2.248 I0.116 J1.085
G2 X2.586 Y4.462 I3.315 J20.24
G3 X1.562 Y5.141 I-1.762 J-1.546
G2 X-2.246 Y7.324 I3.475 J10.473
G1 X-2.279 Y7.361
X-2.305 Y7.404
X-2.32 Y7.451
X-2.326 Y7.5
X-2.37 Y33.751
X-2.365 Y33.802
X-2.348 Y33.85
X-2.322 Y33.894
X-2.287 Y33.931
X-2.246 Y33.959
G2 X-1.083 Y34.517 I7.171 J-13.459
G3 X0.25 Y35.434 I-1.676 J3.861
G2 X3.527 Y38.246 I17.75 J-17.374
G3 X3.756 Y39.797 I-0.636 J0.887
X2.198 Y39.975 I-0.865 J-0.665
G1 X-0.597 Y37.675
X-0.687 Y37.592
X-0.767 Y37.5
X-2.759 Y34.922
G3 X-2.96 Y34.495 I0.864 J-0.667
G1 X-4.031 Y29.735
G3 X-2.246 Y28.675 I1.065 J-0.24
G2 X1.562 Y30.859 I7.284 J-8.289
G3 X2.586 Y31.538 I-0.738 J2.225
G2 X14.689 Y38.249 I15.414 J-13.53
G1 X32.337 Y38.289
X32.385 Y38.284
X32.432 Y38.269
X32.474 Y38.245
G2 X35.75 Y35.434 I-14.474 J-20.185
G3 X37.083 Y34.517 I3.008 J2.944
G2 X38.246 Y33.953 I-6.113 J-14.086
G3 X39.358 Y35.828 I0.517 J0.961
G1 X36.92 Y37.416
X36.846 Y37.46
X36.769 Y37.498
X33.11 Y39.132
G3 X32.781 Y39.22 I-0.445 J-0.996
G1 X21.606 Y40.41
G3 X21.315 Y38.248 I-0.116 J-1.085
G2 X33.414 Y31.538 I-3.315 J-20.24
G3 X34.438 Y30.859 I1.762 J1.546
G2 X38.246 Y28.676 I-3.475 J-10.473
G1 X38.279 Y28.639
X38.305 Y28.596
X38.32 Y28.549
X38.326 Y28.5
X38.37 Y2.249
X38.365 Y2.198
X38.348 Y2.15
X38.322 Y2.106
X38.287 Y2.069
X38.246 Y2.041
G2 X37.083 Y1.483 I-7.171 J13.459
G3 X35.75 Y0.566 I1.676 J-3.862
G2 X32.473 Y-2.246 I-17.75 J17.374
G3 X32.244 Y-3.797 I0.636 J-0.887
X33.802 Y-3.975 I0.865 J0.665
G1 X36.597 Y-1.675
X36.687 Y-1.592
X36.767 Y-1.5
X38.759 Y1.078
G3 X38.96 Y1.505 I-0.864 J0.667
G1 X40.031 Y6.265
G3 X38.246 Y7.325 I-1.065 J0.24
G2 X34.438 Y5.141 I-7.284 J8.289
G3 X33.414 Y4.462 I0.738 J-2.225
G2 X21.312 Y-2.249 I-15.414 J13.53
X17.53 Y-0.361 I-0.583 J3.563
G3 X14.201 Y2.244 I-4.546 J-2.381
G2 X10.586 Y3.615 I3.729 J15.281
X4.873 Y8.575 I7.774 J14.724
G3 X4.169 Y8.993 I-0.835 J-0.604
G2 X0.054 Y11.157 I0.843 J6.597
X-1.605 Y15.5 I4.856 J4.343
G1 Y20.5
G2 X0.054 Y24.843 I6.515 J0
X4.169 Y27.007 I4.957 J-4.433
G3 X4.873 Y27.425 I-0.131 J1.022
G2 X7.467 Y30.265 I13.764 J-9.964
X10.654 Y32.419 I10.299 J-11.806
X18.07 Y34.205 I7.439 J-14.602
X25.414 Y32.385 I0 J-15.73
X31.127 Y27.425 I-7.774 J-14.724
G3 X31.831 Y27.007 I0.835 J0.604
G2 X35.946 Y24.843 I-0.843 J-6.597
X37.605 Y20.5 I-4.856 J-4.343
G1 Y15.5
G2 X35.946 Y11.157 I-6.515 J0
X31.831 Y8.993 I-4.957 J4.433
G3 X31.127 Y8.575 I0.131 J-1.022
G2 X25.414 Y3.615 I-13.487 J9.763
X18.07 Y1.795 I-7.344 J13.91
G1 X17.93
G2 X14.201 Y2.244 I0 J15.73
X11.462 Y5.531 I0.853 J3.495
G3 X9.681 Y9.421 I-5.885 J-0.341
G2 X7.078 Y13.15 I8.319 J8.579
G1 X5
G2 X2.65 Y15.5 I0 J2.35
G1 Y20.5
G2 X5 Y22.85 I2.35 J0
G1 X7.078
G2 X28.922 Y22.85 I10.922 J-4.85
G1 X31
G2 X33.35 Y20.5 I0 J-2.35
G1 Y15.5
G2 X31 Y13.15 I-2.35 J0
G1 X28.922
G2 X9.681 Y9.421 I-10.922 J4.85
G3 X9.298 Y9.338 I-0.164 J-0.169
G1 X4.609 Y-2.661
G2 X4.253 Y-2.766 I-0.219 J0.086
G1 X4.188 Y-2.719 Z-4.807 F50
X4.124 Y-2.674 Z-4.827
X4.065 Y-2.631 Z-4.861
X4.011 Y-2.593 Z-4.906
X3.964 Y-2.559 Z-4.963
X3.926 Y-2.531 Z-5.028
X3.897 Y-2.511 Z-5.1
X3.868 Y-2.49 Z-5.172
X3.83 Y-2.463 Z-5.237
X3.783 Y-2.429 Z-5.294
X3.729 Y-2.39 Z-5.339
X3.669 Y-2.348 Z-5.373
X3.606 Y-2.302 Z-5.393
X3.541 Y-2.255 Z-5.4
X3.526 Y-2.245
G2 X0.25 Y0.566 I14.474 J20.185 F150
G3 X-1.083 Y1.483 I-3.008 J-2.944
G2 X-2.246 Y2.047 I6.113 J14.086
G3 X-3.358 Y0.172 I-0.517 J-0.961
G1 X-0.92 Y-1.416
X-0.846 Y-1.46
X-0.769 Y-1.498
X2.89 Y-3.132
G3 X3.219 Y-3.22 I0.445 J0.996
G1 X14.394 Y-4.41
G3 X14.686 Y-2.248 I0.116 J1.085
G2 X2.586 Y4.462 I3.315 J20.24
G3 X1.562 Y5.141 I-1.762 J-1.546
G2 X-2.246 Y7.324 I3.475 J10.473
G1 X-2.279 Y7.361
X-2.305 Y7.404
X-2.32 Y7.451
X-2.326 Y7.5
X-2.37 Y33.751
X-2.365 Y33.802
X-2.348 Y33.85
X-2.322 Y33.894
X-2.287 Y33.931
X-2.246 Y33.959
G2 X-1.083 Y34.517 I7.171 J-13.459
G3 X0.25 Y35.434 I-1.676 J3.861
G2 X3.527 Y38.246 I17.75 J-17.374
G3 X3.756 Y39.797 I-0.636 J0.887
X2.198 Y39.975 I-0.865 J-0.665
G1 X-0.597 Y37.675
X-0.687 Y37.592
X-0.767 Y37.5
X-2.759 Y34.922
G3 X-2.96 Y34.495 I0.864 J-0.667
G1 X-4.031 Y29.735
G3 X-2.246 Y28.675 I1.065 J-0.24
G2 X1.562 Y30.859 I7.284 J-8.289
G3 X2.586 Y31.538 I-0.738 J2.225
G2 X14.689 Y38.249 I15.414 J-13.53
G1 X32.337 Y38.289
X32.385 Y38.284
X32.432 Y38.269
X32.474 Y38.245
G2 X35.75 Y35.434 I-14.474 J-20.185
G3 X37.083 Y34.517 I3.008 J2.944
G2 X38.246 Y33.953 I-6.113 J-14.086
G3 X39.358 Y35.828 I0.517 J0.961
G1 X36.92 Y37.416
X36.846 Y37.46
X36.769 Y37.498
X33.11 Y39.132
G3 X32.781 Y39.22 I-0.445 J-0.996
G1 X21.606 Y40.41
G3 X21.315 Y38.248 I-0.116 J-1.085
G2 X33.414 Y31.538 I-3.315 J-20.24
G3 X34.438 Y30.859 I1.762 J1.546
G2 X38.246 Y28.676 I-3.475 J-10.473
G1 X38.279 Y28.639
X38.305 Y28.596
X38.32 Y28.549
X38.326 Y28.5
X38.37 Y2.249
X38.365 Y2.198
X38.348 Y2.15
X38.322 Y2.106
X38.287 Y2.069
X38.246 Y2.041
G2 X37.083 Y1.483 I-7.171 J13.459
G3 X35.75 Y0.566 I1.676 J-3.862
G2 X32.473 Y-2.246 I-17.75 J17.374
G3 X32.244 Y-3.797 I0.636 J-0.887
X33.802 Y-3.975 I0.865 J0.665
G1 X36.597 Y-1.675
X36.687 Y-1.592
X36.767 Y-1.5
X38.759 Y1.078
G3 X38.96 Y1.505 I-0.864 J0.667
G1 X40.031 Y6.265
G3 X38.246 Y7.325 I-1.065 J0.24
G2 X34.438 Y5.141 I-7.284 J8.289
G3 X33.414 Y4.462 I0.738 J-2.225
G2 X21.312 Y-2.249 I-15.414 J13.53
X17.53 Y-0.361 I-0.583 J3.563
G3 X14.201 Y2.244 I-4.546 J-2.381
G2 X10.586 Y3.615 I3.729 J15.281
X4.873 Y8.575 I7.774 J14.724
G3 X4.169 Y8.993 I-0.835 J-0.604
G2 X0.054 Y11.157 I0.843 J6.597
X-1.605 Y15.5 I4.856 J4.343
G1 Y20.5
G2 X0.054 Y24.843 I6.515 J0
X4.169 Y27.007 I4.957 J-4.433
G3 X4.873 Y27.425 I-0.131 J1.022
G2 X7.467 Y30.265 I13.764 J-9.964
X10.654 Y32.419 I10.299 J-11.806
X18.07 Y34.205 I7.439 J-14.602
X25.414 Y32.385 I0 J-15.73
X31.127 Y27.425 I-7.774 J-14.724
G3 X31.831 Y27.007 I0.835 J0.604
G2 X35.946 Y24.843 I-0.843 J-6.597
X37.605 Y20.5 I-4.856 J-4.343
G1 Y15.5
G2 X35.946 Y11.157 I-6.515 J0
X31.831 Y8.993 I-4.957 J4.433
G3 X31.127 Y8.575 I0.131 J-1.022
G2 X25.414 Y3.615 I-13.487 J9.763
X18.07 Y1.795 I-7.344 J13.91
G1 X17.93
G2 X14.201 Y2.244 I0 J15.73
X11.462 Y5.531 I0.853 J3.495
G3 X9.681 Y9.421 I-5.885 J-0.341
G2 X7.078 Y13.15 I8.319 J8.579
G1 X5
G2 X2.65 Y15.5 I0 J2.35
G1 Y20.5
G2 X5 Y22.85 I2.35 J0
G1 X7.078
G2 X28.922 Y22.85 I10.922 J-4.85
G1 X31
G2 X33.35 Y20.5 I0 J-2.35
G1 Y15.5
G2 X31 Y13.15 I-2.35 J0
G1 X28.922
G2 X9.681 Y9.421 I-10.922 J4.85
G3 X9.298 Y9.338 I-0.164 J-0.169
G1 X4.609 Y-2.661
G2 X4.253 Y-2.766 I-0.219 J0.086
G1 X4.188 Y-2.719 Z-5.407 F50
X4.124 Y-2.674 Z-5.427
X4.065 Y-2.631 Z-5.461
X4.011 Y-2.593 Z-5.506
X3.964 Y-2.559 Z-5.563
X3.926 Y-2.531 Z-5.628
X3.897 Y-2.511 Z-5.7
X3.868 Y-2.49 Z-5.772
X3.83 Y-2.463 Z-5.837
X3.783 Y-2.429 Z-5.894
X3.729 Y-2.39 Z-5.939
X3.669 Y-2.348 Z-5.973
X3.606 Y-2.302 Z-5.993
X3.541 Y-2.255 Z-6
X3.526 Y-2.245
G2 X0.25 Y0.566 I14.474 J20.185 F150
G3 X-1.083 Y1.483 I-3.008 J-2.944
G2 X-2.246 Y2.047 I6.113 J14.086
G3 X-3.358 Y0.172 I-0.517 J-0.961
G1 X-0.92 Y-1.416
X-0.846 Y-1.46
X-0.769 Y-1.498
X2.89 Y-3.132
G3 X3.219 Y-3.22 I0.445 J0.996
G1 X14.394 Y-4.41
G3 X14.686 Y-2.248 I0.116 J1.085
G2 X2.586 Y4.462 I3.315 J20.24
G3 X1.562 Y5.141 I-1.762 J-1.546
G2 X-2.246 Y7.324 I3.475 J10.473
G1 X-2.279 Y7.361
X-2.305 Y7.404
X-2.32 Y7.451
X-2.326 Y7.5
X-2.37 Y33.751
X-2.365 Y33.802
X-2.348 Y33.85
X-2.322 Y33.894
X-2.287 Y33.931
X-2.246 Y33.959
G2 X-1.083 Y34.517 I7.171 J-13.459
G3 X0.25 Y35.434 I-1.676 J3.861
G2 X3.527 Y38.246 I17.75 J-17.374
G3 X3.756 Y39.797 I-0.636 J0.887
X2.198 Y39.975 I-0.865 J-0.665
G1 X-0.597 Y37.675
X-0.687 Y37.592
X-0.767 Y37.5
X-2.759 Y34.922
G3 X-2.96 Y34.495 I0.864 J-0.667
G1 X-4.031 Y29.735
G3 X-2.246 Y28.675 I1.065 J-0.24
G2 X1.562 Y30.859 I7.284 J-8.289
G3 X2.586 Y31.538 I-0.738 J2.225
G2 X14.689 Y38.249 I15.414 J-13.53
G1 X32.337 Y38.289
X32.385 Y38.284
X32.432 Y38.269
X32.474 Y38.245
G2 X35.75 Y35.434 I-14.474 J-20.185
G3 X37.083 Y34.517 I3.008 J2.944
G2 X38.246 Y33.953 I-6.113 J-14.086
G3 X39.358 Y35.828 I0.517 J0.961
G1 X36.92 Y37.416
X36.846 Y37.46
X36.769 Y37.498
X33.11 Y39.132
G3 X32.781 Y39.22 I-0.445 J-0.996
G1 X21.606 Y40.41
G3 X21.315 Y38.248 I-0.116 J-1.085
G2 X33.414 Y31.538 I-3.315 J-20.24
G3 X34.438 Y30.859 I1.762 J1.546
G2 X38.246 Y28.676 I-3.475 J-10.473
G1 X38.279 Y28.639
X38.305 Y28.596
X38.32 Y28.549
X38.326 Y28.5
X38.37 Y2.249
X38.365 Y2.198
X38.348 Y2.15
X38.322 Y2.106
X38.287 Y2.069
X38.246 Y2.041
G2 X37.083 Y1.483 I-7.171 J13.459
G3 X35.75 Y0.566 I1.676 J-3.862
G2 X32.473 Y-2.246 I-17.75 J17.374
G3 X32.244 Y-3.797 I0.636 J-0.887
X33.802 Y-3.975 I0.865 J0.665
G1 X36.597 Y-1.675
X36.687 Y-1.592
X36.767 Y-1.5
X38.759 Y1.078
G3 X38.96 Y1.505 I-0.864 J0.667
G1 X40.031 Y6.265
G3 X38.246 Y7.325 I-1.065 J0.24
G2 X34.438 Y5.141 I-7.284 J8.289
G3 X33.414 Y4.462 I0.738 J-2.225
G2 X21.312 Y-2.249 I-15.414 J13.53
X17.53 Y-0.361 I-0.583 J3.563
G3 X14.201 Y2.244 I-4.546 J-2.381
G2 X10.586 Y3.615 I3.729 J15.281
X4.873 Y8.575 I7.774 J14.724
G3 X4.169 Y8.993 I-0.835 J-0.604
G2 X0.054 Y11.157 I0.843 J6.597
X-1.605 Y15.5 I4.856 J4.343
G1 Y20.5
G2 X0.054 Y24.843 I6.515 J0
X4.169 Y27.007 I4.957 J-4.433
G3 X4.873 Y27.425 I-0.131 J1.022
G2 X7.467 Y30.265 I13.764 J-9.964
X10.654 Y32.419 I10.299 J-11.806
X18.07 Y34.205 I7.439 J-14.602
X25.414 Y32.385 I0 J-15.73
X31.127 Y27.425 I-7.774 J-14.724
G3 X31.831 Y27.007 I0.835 J0.604
G2 X35.946 Y24.843 I-0.843 J-6.597
X37.605 Y20.5 I-4.856 J-4.343
G1 Y15.5
G2 X35.946 Y11.157 I-6.515 J0
X31.831 Y8.993 I-4.957 J4.433
G3 X31.127 Y8.575 I0.131 J-1.022
G2 X25.414 Y3.615 I-13.487 J9.763
X18.07 Y1.795 I-7.344 J13.91
G1 X17.93
G2 X14.201 Y2.244 I0 J15.73
X11.462 Y5.531 I0.853 J3.495
G3 X9.681 Y9.421 I-5.885 J-0.341
G2 X7.078 Y13.15 I8.319 J8.579
G1 X5
G2 X2.65 Y15.5 I0 J2.35
G1 Y20.5
G2 X5 Y22.85 I2.35 J0
G1 X7.078
G2 X28.922 Y22.85 I10.922 J-4.85
G1 X31
G2 X33.35 Y20.5 I0 J-2.35
G1 Y15.5
G2 X31 Y13.15 I-2.35 J0
G1 X28.922
G2 X9.681 Y9.421 I-10.922 J4.85
G3 X9.298 Y9.338 I-0.164 J-0.169
G1 X4.609 Y-2.661
G2 X4.253 Y-2.766 I-0.219 J0.086
G1 X4.188 Y-2.719 Z-6.007 F50
X4.124 Y-2.674 Z-6.027
X4.065 Y-2.631 Z-6.061
X4.011 Y-2.593 Z-6.106
X3.964 Y-2.559 Z-6.163
X3.926 Y-2.531 Z-6.228
X3.897 Y-2.511 Z-6.3
X3.868 Y-2.49 Z-6.372
X3.83 Y-2.463 Z-6.437
X3.783 Y-2.429 Z-6.494
X3.729 Y-2.39 Z-6.539
X3.669 Y-2.348 Z-6.573
X3.606 Y-2.302 Z-6.593
X3.541 Y-2.255 Z-6.6
X3.526 Y-2.245
G2 X0.25 Y0.566 I14.474 J20.185 F150
G3 X-1.083 Y1.483 I-3.008 J-2.944
G2 X-2.246 Y2.047 I6.113 J14.086
G3 X-3.358 Y0.172 I-0.517 J-0.961
G1 X-0.92 Y-1.416
X-0.846 Y-1.46
X-0.769 Y-1.498
X2.89 Y-3.132
G3 X3.219 Y-3.22 I0.445 J0.996
G1 X14.394 Y-4.41
G3 X14.686 Y-2.248 I0.116 J1.085
G2 X2.586 Y4.462 I3.315 J20.24
G3 X1.562 Y5.141 I-1.762 J-1.546
G2 X-2.246 Y7.324 I3.475 J10.473
G1 X-2.279 Y7.361
X-2.305 Y7.404
X-2.32 Y7.451
X-2.326 Y7.5
X-2.37 Y33.751
X-2.365 Y33.802
X-2.348 Y33.85
X-2.322 Y33.894
X-2.287 Y33.931
X-2.246 Y33.959
G2 X-1.083 Y34.517 I7.171 J-13.459
G3 X0.25 Y35.434 I-1.676 J3.861
G2 X3.527 Y38.246 I17.75 J-17.374
G3 X3.756 Y39.797 I-0.636 J0.887
X2.198 Y39.975 I-0.865 J-0.665
G1 X-0.597 Y37.675
X-0.687 Y37.592
X-0.767 Y37.5
X-2.759 Y34.922
G3 X-2.96 Y34.495 I0.864 J-0.667
G1 X-4.031 Y29.735
G3 X-2.246 Y28.675 I1.065 J-0.24
G2 X1.562 Y30.859 I7.284 J-8.289
G3 X2.586 Y31.538 I-0.738 J2.225
G2 X14.689 Y38.249 I15.414 J-13.53
G1 X32.337 Y38.289
X32.385 Y38.284
X32.432 Y38.269
X32.474 Y38.245
G2 X35.75 Y35.434 I-14.474 J-20.185
G3 X37.083 Y34.517 I3.008 J2.944
G2 X38.246 Y33.953 I-6.113 J-14.086
G3 X39.358 Y35.828 I0.517 J0.961
G1 X36.92 Y37.416
X36.846 Y37.46
X36.769 Y37.498
X33.11 Y39.132
G3 X32.781 Y39.22 I-0.445 J-0.996
G1 X21.606 Y40.41
G3 X21.315 Y38.248 I-0.116 J-1.085
G2 X33.414 Y31.538 I-3.315 J-20.24
G3 X34.438 Y30.859 I1.762 J1.546
G2 X38.246 Y28.676 I-3.475 J-10.473
G1 X38.279 Y28.639
X38.305 Y28.596
X38.32 Y28.549
X38.326 Y28.5
X38.37 Y2.249
X38.365 Y2.198
X38.348 Y2.15
X38.322 Y2.106
X38.287 Y2.069
X38.246 Y2.041
G2 X37.083 Y1.483 I-7.171 J13.459
G3 X35.75 Y0.566 I1.676 J-3.862
G2 X32.473 Y-2.246 I-17.75 J17.374
G3 X32.244 Y-3.797 I0.636 J-0.887
X33.802 Y-3.975 I0.865 J0.665
G1 X36.597 Y-1.675
X36.687 Y-1.592
X36.767 Y-1.5
X38.759 Y1.078
G3 X38.96 Y1.505 I-0.864 J0.667
G1 X40.031 Y6.265
G3 X38.246 Y7.325 I-1.065 J0.24
G2 X34.438 Y5.141 I-7.284 J8.289
G3 X33.414 Y4.462 I0.738 J-2.225
G2 X21.312 Y-2.249 I-15.414 J13.53
X17.53 Y-0.361 I-0.583 J3.563
G3 X14.201 Y2.244 I-4.546 J-2.381
G2 X10.586 Y3.615 I3.729 J15.281
X4.873 Y8.575 I7.774 J14.724
G3 X4.169 Y8.993 I-0.835 J-0.604
G2 X0.054 Y11.157 I0.843 J6.597
X-1.605 Y15.5 I4.856 J4.343
G1 Y20.5
G2 X0.054 Y24.843 I6.515 J0
X4.169 Y27.007 I4.957 J-4.433
G3 X4.873 Y27.425 I-0.131 J1.022
G2 X7.467 Y30.265 I13.764 J-9.964
X10.654 Y32.419 I10.299 J-11.806
X18.07 Y34.205 I7.439 J-14.602
X25.414 Y32.385 I0 J-15.73
X31.127 Y27.425 I-7.774 J-14.724
G3 X31.831 Y27.007 I0.835 J0.604
G2 X35.946 Y24.843 I-0.843 J-6.597
X37.605 Y20.5 I-4.856 J-4.343
G1 Y15.5
G2 X35.946 Y11.157 I-6.515 J0
X31.831 Y8.993 I-4.957 J4.433
G3 X31.127 Y8.575 I0.131 J-1.022
G2 X25.414 Y3.615 I-13.487 J9.763
X18.07 Y1.795 I-7.344 J13.91
G1 X17.93
G2 X14.201 Y2.244 I0 J15.73
X11.462 Y5.531 I0.853 J3.495
G3 X9.681 Y9.421 I-5.885 J-0.341
G2 X7.078 Y13.15 I8.319 J8.579
G1 X5
G2 X2.65 Y15.5 I0 J2.35
G1 Y20.5
G2 X5 Y22.85 I2.35 J0
G1 X7.078
G2 X28.922 Y22.85 I10.922 J-4.85
G1 X31
G2 X33.35 Y20.5 I0 J-2.35
G1 Y15.5
G2 X31 Y13.15 I-2.35 J0
G1 X28.922
G2 X9.681 Y9.421 I-10.922 J4.85
G3 X9.298 Y9.338 I-0.164 J-0.169
G1 X4.609 Y-2.661
G2 X4.253 Y-2.766 I-0.219 J0.086
G1 X4.188 Y-2.719 Z-6.607 F50
X4.124 Y-2.674 Z-6.627
X4.065 Y-2.631 Z-6.661
X4.011 Y-2.593 Z-6.706
X3.964 Y-2.559 Z-6.763
X3.926 Y-2.531 Z-6.828
X3.897 Y-2.511 Z-6.9
X3.868 Y-2.49 Z-6.972
X3.83 Y-2.463 Z-7.037
X3.783 Y-2.429 Z-7.094
X3.729 Y-2.39 Z-7.139
X3.669 Y-2.348 Z-7.173
X3.606 Y-2.302 Z-7.193
X3.541 Y-2.255 Z-7.2
X3.526 Y-2.245
G2 X0.25 Y0.566 I14.474 J20.185 F150
G3 X-1.083 Y1.483 I-3.008 J-2.944
G2 X-2.246 Y2.047 I6.113 J14.086
G3 X-3.358 Y0.172 I-0.517 J-0.961
G1 X-0.92 Y-1.416
X-0.846 Y-1.46
X-0.769 Y-1.498
X2.89 Y-3.132
G3 X3.219 Y-3.22 I0.445 J0.996
G1 X14.394 Y-4.41
G3 X14.686 Y-2.248 I0.116 J1.085
G2 X2.586 Y4.462 I3.315 J20.24
G3 X1.562 Y5.141 I-1.762 J-1.546
G2 X-2.246 Y7.324 I3.475 J10.473
G1 X-2.279 Y7.361
X-2.305 Y7.404
X-2.32 Y7.451
X-2.326 Y7.5
X-2.37 Y33.751
X-2.365 Y33.802
X-2.348 Y33.85
X-2.322 Y33.894
X-2.287 Y33.931
X-2.246 Y33.959
G2 X-1.083 Y34.517 I7.171 J-13.459
G3 X0.25 Y35.434 I-1.676 J3.861
G2 X3.527 Y38.246 I17.75 J-17.374
G3 X3.756 Y39.797 I-0.636 J0.887
X2.198 Y39.975 I-0.865 J-0.665
G1 X-0.597 Y37.675
X-0.687 Y37.592
X-0.767 Y37.5
X-2.759 Y34.922
G3 X-2.96 Y34.495 I0.864 J-0.667
G1 X-4.031 Y29.735
G3 X-2.246 Y28.675 I1.065 J-0.24
G2 X1.562 Y30.859 I7.284 J-8.289
G3 X2.586 Y31.538 I-0.738 J2.225
G2 X14.689 Y38.249 I15.414 J-13.53
G1 X32.337 Y38.289
X32.385 Y38.284
X32.432 Y38.269
X32.474 Y38.245
G2 X35.75 Y35.434 I-14.474 J-20.185
G3 X37.083 Y34.517 I3.008 J2.944
G2 X38.246 Y33.953 I-6.113 J-14.086
G3 X39.358 Y35.828 I0.517 J0.961
G1 X36.92 Y37.416
X36.846 Y37.46
X36.769 Y37.498
X33.11 Y39.132
G3 X32.781 Y39.22 I-0.445 J-0.996
G1 X21.606 Y40.41
G3 X21.315 Y38.248 I-0.116 J-1.085
G2 X33.414 Y31.538 I-3.315 J-20.24
G3 X34.438 Y30.859 I1.762 J1.546
G2 X38.246 Y28.676 I-3.475 J-10.473
G1 X38.279 Y28.639
X38.305 Y28.596
X38.32 Y28.549
X38.326 Y28.5
X38.37 Y2.249
X38.365 Y2.198
X38.348 Y2.15
X38.322 Y2.106
X38.287 Y2.069
X38.246 Y2.041
G2 X37.083 Y1.483 I-7.171 J13.459
G3 X35.75 Y0.566 I1.676 J-3.862
G2 X32.473 Y-2.246 I-17.75 J17.374
G3 X32.244 Y-3.797 I0.636 J-0.887
X33.802 Y-3.975 I0.865 J0.665
G1 X36.597 Y-1.675
X36.687 Y-1.592
X36.767 Y-1.5
X38.759 Y1.078
G3 X38.96 Y1.505 I-0.864 J0.667
G1 X40.031 Y6.265
G3 X38.246 Y7.325 I-1.065 J0.24
G2 X34.438 Y5.141 I-7.284 J8.289
G3 X33.414 Y4.462 I0.738 J-2.225
G2 X21.312 Y-2.249 I-15.414 J13.53
X17.53 Y-0.361 I-0.583 J3.563
G3 X14.201 Y2.244 I-4.546 J-2.381
G2 X10.586 Y3.615 I3.729 J15.281
X4.873 Y8.575 I7.774 J14.724
G3 X4.169 Y8.993 I-0.835 J-0.604
G2 X0.054 Y11.157 I0.843 J6.597
X-1.605 Y15.5 I4.856 J4.343
G1 Y20.5
G2 X0.054 Y24.843 I6.515 J0
X4.169 Y27.007 I4.957 J-4.433
G3 X4.873 Y27.425 I-0.131 J1.022
G2 X7.467 Y30.265 I13.764 J-9.964
X10.654 Y32.419 I10.299 J-11.806
X18.07 Y34.205 I7.439 J-14.602
X25.414 Y32.385 I0 J-15.73
X31.127 Y27.425 I-7.774 J-14.724
G3 X31.831 Y27.007 I0.835 J0.604
G2 X35.946 Y24.843 I-0.843 J-6.597
X37.605 Y20.5 I-4.856 J-4.343
G1 Y15.5
G2 X35.946 Y11.157 I-6.515 J0
X31.831 Y8.993 I-4.957 J4.433
G3 X31.127 Y8.575 I0.131 J-1.022
G2 X25.414 Y3.615 I-13.487 J9.763
X18.07 Y1.795 I-7.344 J13.91
G1 X17.93
G2 X14.201 Y2.244 I0 J15.73
X11.462 Y5.531 I0.853 J3.495
G3 X9.681 Y9.421 I-5.885 J-0.341
G2 X7.078 Y13.15 I8.319 J8.579
G1 X5
G2 X2.65 Y15.5 I0 J2.35
G1 Y20.5
G2 X5 Y22.85 I2.35 J0
G1 X7.078
G2 X28.922 Y22.85 I10.922 J-4.85
G1 X31
G2 X33.35 Y20.5 I0 J-2.35
G1 Y15.5
G2 X31 Y13.15 I-2.35 J0
G1 X28.922
G2 X9.681 Y9.421 I-10.922 J4.85
G3 X9.298 Y9.338 I-0.164 J-0.169
G1 X4.609 Y-2.661
G2 X4.253 Y-2.766 I-0.219 J0.086
G1 X4.188 Y-2.719 Z-7.207 F50
X4.124 Y-2.674 Z-7.227
X4.065 Y-2.631 Z-7.261
X4.011 Y-2.593 Z-7.306
X3.964 Y-2.559 Z-7.363
X3.926 Y-2.531 Z-7.428
X3.897 Y-2.511 Z-7.5
X3.868 Y-2.49 Z-7.572
X3.83 Y-2.463 Z-7.637
X3.783 Y-2.429 Z-7.694
X3.729 Y-2.39 Z-7.739
X3.669 Y-2.348 Z-7.773
X3.606 Y-2.302 Z-7.793
X3.541 Y-2.255 Z-7.8
X3.526 Y-2.245
G2 X0.25 Y0.566 I14.474 J20.185 F150
G3 X-1.083 Y1.483 I-3.008 J-2.944
G2 X-2.246 Y2.047 I6.113 J14.086
G3 X-3.358 Y0.172 I-0.517 J-0.961
G1 X-0.92 Y-1.416
X-0.846 Y-1.46
X-0.769 Y-1.498
X2.89 Y-3.132
G3 X3.219 Y-3.22 I0.445 J0.996
G1 X14.394 Y-4.41
G3 X14.686 Y-2.248 I0.116 J1.085
G2 X2.586 Y4.462 I3.315 J20.24
G3 X1.562 Y5.141 I-1.762 J-1.546
G2 X-2.246 Y7.324 I3.475 J10.473
G1 X-2.279 Y7.361
X-2.305 Y7.404
X-2.32 Y7.451
X-2.326 Y7.5
X-2.37 Y33.751
X-2.365 Y33.802
X-2.348 Y33.85
X-2.322 Y33.894
X-2.287 Y33.931
X-2.246 Y33.959
G2 X-1.083 Y34.517 I7.171 J-13.459
G3 X0.25 Y35.434 I-1.676 J3.861
G2 X3.527 Y38.246 I17.75 J-17.374
G3 X3.756 Y39.797 I-0.636 J0.887
X2.198 Y39.975 I-0.865 J-0.665
G1 X-0.597 Y37.675
X-0.687 Y37.592
X-0.767 Y37.5
X-2.759 Y34.922
G3 X-2.96 Y34.495 I0.864 J-0.667
G1 X-4.031 Y29.735
G3 X-2.246 Y28.675 I1.065 J-0.24
G2 X1.562 Y30.859 I7.284 J-8.289
G3 X2.586 Y31.538 I-0.738 J2.225
G2 X14.689 Y38.249 I15.414 J-13.53
G1 X32.337 Y38.289
X32.385 Y38.284
X32.432 Y38.269
X32.474 Y38.245
G2 X35.75 Y35.434 I-14.474 J-20.185
G3 X37.083 Y34.517 I3.008 J2.944
G2 X38.246 Y33.953 I-6.113 J-14.086
G3 X39.358 Y35.828 I0.517 J0.961
G1 X36.92 Y37.416
X36.846 Y37.46
X36.769 Y37.498
X33.11 Y39.132
G3 X32.781 Y39.22 I-0.445 J-0.996
G1 X21.606 Y40.41
G3 X21.315 Y38.248 I-0.116 J-1.085
G2 X33.414 Y31.538 I-3.315 J-20.24
G3 X34.438 Y30.859 I1.762 J1.546
G2 X38.246 Y28.676 I-3.475 J-10.473
G1 X38.279 Y28.639
X38.305 Y28.596
X38.32 Y28.549
X38.326 Y28.5
X38.37 Y2.249
X38.365 Y2.198
X38.348 Y2.15
X38.322 Y2.106
X38.287 Y2.069
X38.246 Y2.041
G2 X37.083 Y1.483 I-7.171 J13.459
G3 X35.75 Y0.566 I1.676 J-3.862
G2 X32.473 Y-2.246 I-17.75 J17.374
G3 X32.244 Y-3.797 I0.636 J-0.887
X33.802 Y-3.975 I0.865 J0.665
G1 X36.597 Y-1.675
X36.687 Y-1.592
X36.767 Y-1.5
X38.759 Y1.078
G3 X38.96 Y1.505 I-0.864 J0.667
G1 X40.031 Y6.265
G3 X38.246 Y7.325 I-1.065 J0.24
G2 X34.438 Y5.141 I-7.284 J8.289
G3 X33.414 Y4.462 I0.738 J-2.225
G2 X21.312 Y-2.249 I-15.414 J13.53
X17.53 Y-0.361 I-0.583 J3.563
G3 X14.201 Y2.244 I-4.546 J-2.381
G2 X10.586 Y3.615 I3.729 J15.281
X4.873 Y8.575 I7.774 J14.724
G3 X4.169 Y8.993 I-0.835 J-0.604
G2 X0.054 Y11.157 I0.843 J6.597
X-1.605 Y15.5 I4.856 J4.343
G1 Y20.5
G2 X0.054 Y24.843 I6.515 J0
X4.169 Y27.007 I4.957 J-4.433
G3 X4.873 Y27.425 I-0.131 J1.022
G2 X7.467 Y30.265 I13.764 J-9.964
X10.654 Y32.419 I10.299 J-11.806
X18.07 Y34.205 I7.439 J-14.602
X25.414 Y32.385 I0 J-15.73
X31.127 Y27.425 I-7.774 J-14.724
G3 X31.831 Y27.007 I0.835 J0.604
G2 X35.946 Y24.843 I-0.843 J-6.597
X37.605 Y20.5 I-4.856 J-4.343
G1 Y15.5
G2 X35.946 Y11.157 I-6.515 J0
X31.831 Y8.993 I-4.957 J4.433
G3 X31.127 Y8.575 I0.131 J-1.022
G2 X25.414 Y3.615 I-13.487 J9.763
X18.07 Y1.795 I-7.344 J13.91
G1 X17.93
G2 X14.201 Y2.244 I0 J15.73
X11.462 Y5.531 I0.853 J3.495
G3 X9.681 Y9.421 I-5.885 J-0.341
G2 X7.078 Y13.15 I8.319 J8.579
G1 X5
G2 X2.65 Y15.5 I0 J2.35
G1 Y20.5
G2 X5 Y22.85 I2.35 J0
G1 X7.078
G2 X28.922 Y22.85 I10.922 J-4.85
G1 X31
G2 X33.35 Y20.5 I0 J-2.35
G1 Y15.5
G2 X31 Y13.15 I-2.35 J0
G1 X28.922
G2 X9.681 Y9.421 I-10.922 J4.85
G3 X9.298 Y9.338 I-0.164 J-0.169
G1 X4.609 Y-2.661
G2 X4.253 Y-2.766 I-0.219 J0.086
G1 X4.188 Y-2.719 Z-7.807 F50
X4.124 Y-2.674 Z-7.827
X4.065 Y-2.631 Z-7.861
X4.011 Y-2.593 Z-7.906
X3.964 Y-2.559 Z-7.963
X3.926 Y-2.531 Z-8.028
X3.897 Y-2.511 Z-8.1
X3.868 Y-2.49 Z-8.172
X3.83 Y-2.463 Z-8.237
X3.783 Y-2.429 Z-8.294
X3.729 Y-2.39 Z-8.339
X3.669 Y-2.348 Z-8.373
X3.606 Y-2.302 Z-8.393
X3.541 Y-2.255 Z-8.4
X3.526 Y-2.245
G2 X0.25 Y0.566 I14.474 J20.185 F150
G3 X-1.083 Y1.483 I-3.008 J-2.944
G2 X-2.246 Y2.047 I6.113 J14.086
G3 X-3.358 Y0.172 I-0.517 J-0.961
G1 X-0.92 Y-1.416
X-0.846 Y-1.46
X-0.769 Y-1.498
X2.89 Y-3.132
G3 X3.219 Y-3.22 I0.445 J0.996
G1 X14.394 Y-4.41
G3 X14.686 Y-2.248 I0.116 J1.085
G2 X2.586 Y4.462 I3.315 J20.24
G3 X1.562 Y5.141 I-1.762 J-1.546
G2 X-2.246 Y7.324 I3.475 J10.473
G1 X-2.279 Y7.361
X-2.305 Y7.404
X-2.32 Y7.451
X-2.326 Y7.5
X-2.37 Y33.751
X-2.365 Y33.802
X-2.348 Y33.85
X-2.322 Y33.894
X-2.287 Y33.931
X-2.246 Y33.959
G2 X-1.083 Y34.517 I7.171 J-13.459
G3 X0.25 Y35.434 I-1.676 J3.861
G2 X3.527 Y38.246 I17.75 J-17.374
G3 X3.756 Y39.797 I-0.636 J0.887
X2.198 Y39.975 I-0.865 J-0.665
G1 X-0.597 Y37.675
X-0.687 Y37.592
X-0.767 Y37.5
X-2.759 Y34.922
G3 X-2.96 Y34.495 I0.864 J-0.667
G1 X-4.031 Y29.735
G3 X-2.246 Y28.675 I1.065 J-0.24
G2 X1.562 Y30.859 I7.284 J-8.289
G3 X2.586 Y31.538 I-0.738 J2.225
G2 X14.689 Y38.249 I15.414 J-13.53
G1 X32.337 Y38.289
X32.385 Y38.284
X32.432 Y38.269
X32.474 Y38.245
G2 X35.75 Y35.434 I-14.474 J-20.185
G3 X37.083 Y34.517 I3.008 J2.944
G2 X38.246 Y33.953 I-6.113 J-14.086
G3 X39.358 Y35.828 I0.517 J0.961
G1 X36.92 Y37.416
X36.846 Y37.46
X36.769 Y37.498
X33.11 Y39.132
G3 X32.781 Y39.22 I-0.445 J-0.996
G1 X21.606 Y40.41
G3 X21.315 Y38.248 I-0.116 J-1.085
G2 X33.414 Y31.538 I-3.315 J-20.24
G3 X34.438 Y30.859 I1.762 J1.546
G2 X38.246 Y28.676 I-3.475 J-10.473
G1 X38.279 Y28.639
X38.305 Y28.596
X38.32 Y28.549
X38.326 Y28.5
X38.37 Y2.249
X38.365 Y2.198
X38.348 Y2.15
X38.322 Y2.106
X38.287 Y2.069
X38.246 Y2.041
G2 X37.083 Y1.483 I-7.171 J13.459
G3 X35.75 Y0.566 I1.676 J-3.862
G2 X32.473 Y-2.246 I-17.75 J17.374
G3 X32.244 Y-3.797 I0.636 J-0.887
X33.802 Y-3.975 I0.865 J0.665
G1 X36.597 Y-1.675
X36.687 Y-1.592
X36.767 Y-1.5
X38.759 Y1.078
G3 X38.96 Y1.505 I-0.864 J0.667
G1 X40.031 Y6.265
G3 X38.246 Y7.325 I-1.065 J0.24
G2 X34.438 Y5.141 I-7.284 J8.289
G3 X33.414 Y4.462 I0.738 J-2.225
G2 X21.312 Y-2.249 I-15.414 J13.53
X17.53 Y-0.361 I-0.583 J3.563
G3 X14.201 Y2.244 I-4.546 J-2.381
G2 X10.586 Y3.615 I3.729 J15.281
X4.873 Y8.575 I7.774 J14.724
G3 X4.169 Y8.993 I-0.835 J-0.604
G2 X0.054 Y11.157 I0.843 J6.597
X-1.605 Y15.5 I4.856 J4.343
G1 Y20.5
G2 X0.054 Y24.843 I6.515 J0
X4.169 Y27.007 I4.957 J-4.433
G3 X4.873 Y27.425 I-0.131 J1.022
G2 X7.467 Y30.265 I13.764 J-9.964
X10.654 Y32.419 I10.299 J-11.806
X18.07 Y34.205 I7.439 J-14.602
X25.414 Y32.385 I0 J-15.73
X31.127 Y27.425 I-7.774 J-14.724
G3 X31.831 Y27.007 I0.835 J0.604
G2 X35.946 Y24.843 I-0.843 J-6.597
X37.605 Y20.5 I-4.856 J-4.343
G1 Y15.5
G2 X35.946 Y11.157 I-6.515 J0
X31.831 Y8.993 I-4.957 J4.433
G3 X31.127 Y8.575 I0.131 J-1.022
G2 X25.414 Y3.615 I-13.487 J9.763
X18.07 Y1.795 I-7.344 J13.91
G1 X17.93
G2 X14.201 Y2.244 I0 J15.73
X11.462 Y5.531 I0.853 J3.495
G3 X9.681 Y9.421 I-5.885 J-0.341
G2 X7.078 Y13.15 I8.319 J8.579
G1 X5
G2 X2.65 Y15.5 I0 J2.35
G1 Y20.5
G2 X5 Y22.85 I2.35 J0
G1 X7.078
G2 X28.922 Y22.85 I10.922 J-4.85
G1 X31
G2 X33.35 Y20.5 I0 J-2.35
G1 Y15.5
G2 X31 Y13.15 I-2.35 J0
G1 X28.922
G2 X9.681 Y9.421 I-10.922 J4.85
G3 X9.298 Y9.338 I-0.164 J-0.169
G1 X4.609 Y-2.661
G2 X4.253 Y-2.766 I-0.219 J0.086
G1 X4.188 Y-2.719 Z-8.407 F50
X4.124 Y-2.674 Z-8.427
X4.065 Y-2.631 Z-8.461
X4.011 Y-2.593 Z-8.506
X3.964 Y-2.559 Z-8.563
X3.926 Y-2.531 Z-8.628
X3.897 Y-2.511 Z-8.7
X3.868 Y-2.49 Z-8.772
X3.83 Y-2.463 Z-8.837
X3.783 Y-2.429 Z-8.894
X3.729 Y-2.39 Z-8.939
X3.669 Y-2.348 Z-8.973
X3.606 Y-2.302 Z-8.993
X3.541 Y-2.255 Z-9
X3.526 Y-2.245
G2 X0.25 Y0.566 I14.474 J20.185 F150
G3 X-1.083 Y1.483 I-3.008 J-2.944
G2 X-2.246 Y2.047 I6.113 J14.086
G3 X-3.358 Y0.172 I-0.517 J-0.961
G1 X-0.92 Y-1.416
X-0.846 Y-1.46
X-0.769 Y-1.498
X2.89 Y-3.132
G3 X3.219 Y-3.22 I0.445 J0.996
G1 X14.394 Y-4.41
G3 X14.686 Y-2.248 I0.116 J1.085
G2 X2.586 Y4.462 I3.315 J20.24
G3 X1.562 Y5.141 I-1.762 J-1.546
G2 X-2.246 Y7.324 I3.475 J10.473
G1 X-2.279 Y7.361
X-2.305 Y7.404
X-2.32 Y7.451
X-2.326 Y7.5
X-2.37 Y33.751
X-2.365 Y33.802
X-2.348 Y33.85
X-2.322 Y33.894
X-2.287 Y33.931
X-2.246 Y33.959
G2 X-1.083 Y34.517 I7.171 J-13.459
G3 X0.25 Y35.434 I-1.676 J3.861
G2 X3.527 Y38.246 I17.75 J-17.374
G3 X3.756 Y39.797 I-0.636 J0.887
X2.198 Y39.975 I-0.865 J-0.665
G1 X-0.597 Y37.675
X-0.687 Y37.592
X-0.767 Y37.5
X-2.759 Y34.922
G3 X-2.96 Y34.495 I0.864 J-0.667
G1 X-4.031 Y29.735
G3 X-2.246 Y28.675 I1.065 J-0.24
G2 X1.562 Y30.859 I7.284 J-8.289
G3 X2.586 Y31.538 I-0.738 J2.225
G2 X14.689 Y38.249 I15.414 J-13.53
G1 X32.337 Y38.289
X32.385 Y38.284
X32.432 Y38.269
X32.474 Y38.245
G2 X35.75 Y35.434 I-14.474 J-20.185
G3 X37.083 Y34.517 I3.008 J2.944
G2 X38.246 Y33.953 I-6.113 J-14.086
G3 X39.358 Y35.828 I0.517 J0.961
G1 X36.92 Y37.416
X36.846 Y37.46
X36.769 Y37.498
X33.11 Y39.132
G3 X32.781 Y39.22 I-0.445 J-0.996
G1 X21.606 Y40.41
G3 X21.315 Y38.248 I-0.116 J-1.085
G2 X33.414 Y31.538 I-3.315 J-20.24
G3 X34.438 Y30.859 I1.762 J1.546
G2 X38.246 Y28.676 I-3.475 J-10.473
G1 X38.279 Y28.639
X38.305 Y28.596
X38.32 Y28.549
X38.326 Y28.5
X38.37 Y2.249
X38.365 Y2.198
X38.348 Y2.15
X38.322 Y2.106
X38.287 Y2.069
X38.246 Y2.041
G2 X37.083 Y1.483 I-7.171 J13.459
G3 X35.75 Y0.566 I1.676 J-3.862
G2 X32.473 Y-2.246 I-17.75 J17.374
G3 X32.244 Y-3.797 I0.636 J-0.887
X33.802 Y-3.975 I0.865 J0.665
G1 X36.597 Y-1.675
X36.687 Y-1.592
X36.767 Y-1.5
X38.759 Y1.078
G3 X38.96 Y1.505 I-0.864 J0.667
G1 X40.031 Y6.265
G3 X38.246 Y7.325 I-1.065 J0.24
G2 X34.438 Y5.141 I-7.284 J8.289
G3 X33.414 Y4.462 I0.738 J-2.225
G2 X21.312 Y-2.249 I-15.414 J13.53
X17.53 Y-0.361 I-0.583 J3.563
G3 X14.201 Y2.244 I-4.546 J-2.381
G2 X10.586 Y3.615 I3.729 J15.281
X4.873 Y8.575 I7.774 J14.724
G3 X4.169 Y8.993 I-0.835 J-0.604
G2 X0.054 Y11.157 I0.843 J6.597
X-1.605 Y15.5 I4.856 J4.343
G1 Y20.5
G2 X0.054 Y24.843 I6.515 J0
X4.169 Y27.007 I4.957 J-4.433
G3 X4.873 Y27.425 I-0.131 J1.022
G2 X7.467 Y30.265 I13.764 J-9.964
X10.654 Y32.419 I10.299 J-11.806
X18.07 Y34.205 I7.439 J-14.602
X25.414 Y32.385 I0 J-15.73
X31.127 Y27.425 I-7.774 J-14.724
G3 X31.831 Y27.007 I0.835 J0.604
G2 X35.946 Y24.843 I-0.843 J-6.597
X37.605 Y20.5 I-4.856 J-4.343
G1 Y15.5
G2 X35.946 Y11.157 I-6.515 J0
X31.831 Y8.993 I-4.957 J4.433
G3 X31.127 Y8.575 I0.131 J-1.022
G2 X25.414 Y3.615 I-13.487 J9.763
X18.07 Y1.795 I-7.344 J13.91
G1 X17.93
G2 X14.201 Y2.244 I0 J15.73
X11.462 Y5.531 I0.853 J3.495
G3 X9.681 Y9.421 I-5.885 J-0.341
G2 X7.078 Y13.15 I8.319 J8.579
G1 X5
G2 X2.65 Y15.5 I0 J2.35
G1 Y20.5
G2 X5 Y22.85 I2.35 J0
G1 X7.078
G2 X28.922 Y22.85 I10.922 J-4.85
G1 X31
G2 X33.35 Y20.5 I0 J-2.35
G1 Y15.5
G2 X31 Y13.15 I-2.35 J0
G1 X28.922
G2 X9.681 Y9.421 I-10.922 J4.85
G1 X9.635 Y9.46 Z-8.988
X9.585 Y9.493 Z-8.976
X9.531 Y9.519 Z-8.964
X9.459 Y9.542 Z-8.913
X9.383 Y9.553 Z-8.862
X9.332 Z-8.786
X9.282 Y9.548 Z-8.71
X9.246 Y9.541 Z-8.53
Z10

(Drill1)
G0 X26.75 Y26.75
Z10
Z5
Z-4
G1 Z-9 F50
Z-9.5
X26.757 Y26.768 F150
X26.775 Y26.775
X26.793 Y26.768
X26.8 Y26.75
G2 X26.7 Y26.75 I-0.05 J0
X26.8 Y26.75 I0.05 J0
G1 X26.75
Z-10 F50
X26.757 Y26.768 F150
X26.775 Y26.775
X26.793 Y26.768
X26.8 Y26.75
G2 X26.7 Y26.75 I-0.05 J0
X26.8 Y26.75 I0.05 J0
G1 X26.75
Z-10.5 F50
X26.757 Y26.768 F150
X26.775 Y26.775
X26.793 Y26.768
X26.8 Y26.75
G2 X26.7 Y26.75 I-0.05 J0
X26.8 Y26.75 I0.05 J0
G1 X26.75
Z-11 F50
X26.757 Y26.768 F150
X26.775 Y26.775
X26.793 Y26.768
X26.8 Y26.75
G2 X26.7 Y26.75 I-0.05 J0
X26.8 Y26.75 I0.05 J0
G1 X26.75
G0 Z5
X9.25
Z-4
G1 Z-9 F50
Z-9.5
X9.257 Y26.768 F150
X9.275 Y26.775
X9.293 Y26.768
X9.3 Y26.75
G2 X9.2 Y26.75 I-0.05 J0
X9.3 Y26.75 I0.05 J0
G1 X9.25
Z-10 F50
X9.257 Y26.768 F150
X9.275 Y26.775
X9.293 Y26.768
X9.3 Y26.75
G2 X9.2 Y26.75 I-0.05 J0
X9.3 Y26.75 I0.05 J0
G1 X9.25
Z-10.5 F50
X9.257 Y26.768 F150
X9.275 Y26.775
X9.293 Y26.768
X9.3 Y26.75
G2 X9.2 Y26.75 I-0.05 J0
X9.3 Y26.75 I0.05 J0
G1 X9.25
Z-11 F50
X9.257 Y26.768 F150
X9.275 Y26.775
X9.293 Y26.768
X9.3 Y26.75
G2 X9.2 Y26.75 I-0.05 J0
X9.3 Y26.75 I0.05 J0
G1 X9.25
G0 Z5
Y9.25
Z-4
G1 Z-9 F50
Z-9.5
X9.257 Y9.268 F150
X9.275 Y9.275
X9.293 Y9.268
X9.3 Y9.25
G2 X9.2 Y9.25 I-0.05 J0
X9.3 Y9.25 I0.05 J0
G1 X9.25
Z-10 F50
X9.257 Y9.268 F150
X9.275 Y9.275
X9.293 Y9.268
X9.3 Y9.25
G2 X9.2 Y9.25 I-0.05 J0
X9.3 Y9.25 I0.05 J0
G1 X9.25
Z-10.5 F50
X9.257 Y9.268 F150
X9.275 Y9.275
X9.293 Y9.268
X9.3 Y9.25
G2 X9.2 Y9.25 I-0.05 J0
X9.3 Y9.25 I0.05 J0
G1 X9.25
Z-11 F50
X9.257 Y9.268 F150
X9.275 Y9.275
X9.293 Y9.268
X9.3 Y9.25
G2 X9.2 Y9.25 I-0.05 J0
X9.3 Y9.25 I0.05 J0
G1 X9.25
G0 Z5
X26.75
Z-4
G1 Z-9 F50
Z-9.5
X26.757 Y9.268 F150
X26.775 Y9.275
X26.793 Y9.268
X26.8 Y9.25
G2 X26.7 Y9.25 I-0.05 J0
X26.8 Y9.25 I0.05 J0
G1 X26.75
Z-10 F50
X26.757 Y9.268 F150
X26.775 Y9.275
X26.793 Y9.268
X26.8 Y9.25
G2 X26.7 Y9.25 I-0.05 J0
X26.8 Y9.25 I0.05 J0
G1 X26.75
Z-10.5 F50
X26.757 Y9.268 F150
X26.775 Y9.275
X26.793 Y9.268
X26.8 Y9.25
G2 X26.7 Y9.25 I-0.05 J0
X26.8 Y9.25 I0.05 J0
G1 X26.75
Z-11 F50
X26.757 Y9.268 F150
X26.775 Y9.275
X26.793 Y9.268
X26.8 Y9.25
G2 X26.7 Y9.25 I-0.05 J0
X26.8 Y9.25 I0.05 J0
G1 X26.75
G0 Z5
Z10
(When using Fusion 360 for Personal Use, the feedrate of)
(rapid moves is reduced to match the feedrate of cutting)
(moves, which can increase machining time. Unrestricted rapid)
(moves are available with a Fusion 360 Subscription.)

(2D Contour5)
X18.47 Y-2.76
G1 Z10 F250
Z-3
Z-6.4 F25
Z-8.13
G19 G3 Y-2.29 Z-8.6 J0.47 K0 F250
G1 Y-1.82
G17 G3 X18 Y-1.35 I-0.47 J0
G2 X18 Y37.35 I0 J19.35
X18 Y-1.35 I0 J-19.35
G3 X17.53 Y-1.82 I0 J-0.47
G1 Y-2.29
G19 G2 Y-2.76 Z-8.13 J0 K0.47
G1 Z5
X18.47
Z-3
Z-7 F25
Z-8.73
G3 Y-2.29 Z-9.2 J0.47 K0 F250
G1 Y-1.82
G17 G3 X18 Y-1.35 I-0.47 J0
G2 X18 Y37.35 I0 J19.35
X18 Y-1.35 I0 J-19.35
G3 X17.53 Y-1.82 I0 J-0.47
G1 Y-2.29
G19 G2 Y-2.76 Z-8.73 J0 K0.47
G1 Z5
X18.47
Z-3
Z-7.6 F25
Z-9.33
G3 Y-2.29 Z-9.8 J0.47 K0 F250
G1 Y-1.82
G17 G3 X18 Y-1.35 I-0.47 J0
G2 X18 Y37.35 I0 J19.35
X18 Y-1.35 I0 J-19.35
G3 X17.53 Y-1.82 I0 J-0.47
G1 Y-2.29
G19 G2 Y-2.76 Z-9.33 J0 K0.47
G1 Z5
X18.47
Z-3
Z-8.2 F25
Z-9.93
G3 Y-2.29 Z-10.4 J0.47 K0 F250
G1 Y-1.82
G17 G3 X18 Y-1.35 I-0.47 J0
G2 X18 Y37.35 I0 J19.35
X18 Y-1.35 I0 J-19.35
G3 X17.53 Y-1.82 I0 J-0.47
G1 Y-2.29
G19 G2 Y-2.76 Z-9.93 J0 K0.47
G1 Z5
X18.47
Z-3
Z-8.8 F25
Z-10.53
G3 Y-2.29 Z-11 J0.47 K0 F250
G1 Y-1.82
G17 G3 X18 Y-1.35 I-0.47 J0
G2 X18 Y37.35 I0 J19.35
X18 Y-1.35 I0 J-19.35
G3 X17.53 Y-1.82 I0 J-0.47
G1 Y-2.29
G19 G2 Y-2.76 Z-10.53 J0 K0.47
G1 Z5
X18.47
Z-3
Z-9.4 F25
Z-11.13
G3 Y-2.29 Z-11.6 J0.47 K0 F250
G1 Y-1.82
G17 G3 X18 Y-1.35 I-0.47 J0
G2 X18 Y37.35 I0 J19.35
X18 Y-1.35 I0 J-19.35
G3 X17.53 Y-1.82 I0 J-0.47
G1 Y-2.29
G19 G2 Y-2.76 Z-11.13 J0 K0.47
G1 Z5
X18.47
Z-3
Z-10 F25
Z-11.73
G3 Y-2.29 Z-12.2 J0.47 K0 F250
G1 Y-1.82
G17 G3 X18 Y-1.35 I-0.47 J0
G2 X18 Y37.35 I0 J19.35
X18 Y-1.35 I0 J-19.35
G3 X17.53 Y-1.82 I0 J-0.47
G1 Y-2.29
G19 G2 Y-2.76 Z-11.73 J0 K0.47
G1 Z5
X18.47
Z-3
Z-10.6 F25
Z-12.33
G3 Y-2.29 Z-12.8 J0.47 K0 F250
G1 Y-1.82
G17 G3 X18 Y-1.35 I-0.47 J0
G2 X18 Y37.35 I0 J19.35
X18 Y-1.35 I0 J-19.35
G3 X17.53 Y-1.82 I0 J-0.47
G1 Y-2.29
G19 G2 Y-2.76 Z-12.33 J0 K0.47
G1 Z5
X18.47
Z-3
Z-11.2 F25
Z-12.93
G3 Y-2.29 Z-13.4 J0.47 K0 F250
G1 Y-1.82
G17 G3 X18 Y-1.35 I-0.47 J0
G2 X18 Y37.35 I0 J19.35
X18 Y-1.35 I0 J-19.35
G3 X17.53 Y-1.82 I0 J-0.47
G1 Y-2.29
G19 G2 Y-2.76 Z-12.93 J0 K0.47
G1 Z5
X18.47
Z-3
Z-11.8 F25
Z-13.53
G3 Y-2.29 Z-14 J0.47 K0 F250
G1 Y-1.82
G17 G3 X18 Y-1.35 I-0.47 J0
G2 X18 Y37.35 I0 J19.35
X18 Y-1.35 I0 J-19.35
G3 X17.53 Y-1.82 I0 J-0.47
G1 Y-2.29
G19 G2 Y-2.76 Z-13.53 J0 K0.47
G1 Z10
G17
M9
G28 G91 Z0
G90
G28 G91 X0 Y0
G90
M5
M30
