(metal_coupler_14mm)
(Machine)
(  vendor: Autodesk)
(  model: Generic 3-axis)
(  description: This machine has XY axis on the Table and Z axis on the Head)
(T1  D=4.76 CR=0 - ZMIN=-14 - flat end mill)
G90 G94
G17
G21
(When using Fusion 360 for Personal Use, the feedrate of)
(rapid moves is reduced to match the feedrate of cutting)
(moves, which can increase machining time. Unrestricted rapid)
(moves are available with a Fusion 360 Subscription.)
G28 G91 Z0
G90

(2D Pocket3)
T1
S24000 M3
G54
M8
G0 X17.921 Y16.916
Z10
G1 Z5 F300
Z2.976
X17.938 Y16.947 Z2.797 F50
X17.982 Y17.035 Z2.645
X18.041 Y17.172 Z2.541
X18.099 Y17.339 Z2.5
G3 X13.775 Y18.661 Z2.252 I-2.162 J0.661
X18.099 Y17.339 Z2.004 I2.162 J-0.661
X13.775 Y18.661 Z1.756 I-2.162 J0.661
X18.099 Y17.339 Z1.508 I2.162 J-0.661
X13.775 Y18.661 Z1.26 I-2.162 J0.661
X18.099 Y17.339 Z1.012 I2.162 J-0.661
X13.775 Y18.661 Z0.764 I-2.162 J0.661
X18.099 Y17.339 Z0.516 I2.162 J-0.661
X13.775 Y18.661 Z0.268 I-2.162 J0.661
X18.099 Y17.339 Z0.02 I2.162 J-0.661
X13.775 Y18.661 Z-0.229 I-2.162 J0.661
X15.603 Y15.764 Z-0.364 I2.162 J-0.661
X18.198 Y18 Z-0.5 I0.334 J2.236
X17.802 Y18 I-0.198 J0 F300
X22.72 Y18 I2.459 J0
X13.28 Y18 I-4.72 J0
X22.72 Y18 I4.72 J0
X20.459 Y20.261 Z-0.595 I-2.261 J0 F50
G1 X15.937 Z-0.716
G3 X15.937 Y15.739 Z-0.905 I0 J-2.261
X18.198 Y18 Z-1 I0 J2.261
X17.802 Y18 I-0.198 J0 F300
X22.72 Y18 I2.459 J0
X13.28 Y18 I-4.72 J0
X22.72 Y18 I4.72 J0
X20.459 Y20.261 Z-1.095 I-2.261 J0 F50
G1 X15.937 Z-1.216
G3 X15.937 Y15.739 Z-1.405 I0 J-2.261
X18.198 Y18 Z-1.5 I0 J2.261
X17.802 Y18 I-0.198 J0 F300
X22.72 Y18 I2.459 J0
X13.28 Y18 I-4.72 J0
X22.72 Y18 I4.72 J0
X20.459 Y20.261 Z-1.595 I-2.261 J0 F50
G1 X15.937 Z-1.716
G3 X15.937 Y15.739 Z-1.905 I0 J-2.261
X18.198 Y18 Z-2 I0 J2.261
X17.802 Y18 I-0.198 J0 F300
X22.72 Y18 I2.459 J0
X13.28 Y18 I-4.72 J0
X22.72 Y18 I4.72 J0
X20.459 Y20.261 Z-2.095 I-2.261 J0 F50
G1 X15.937 Z-2.216
G3 X15.937 Y15.739 Z-2.405 I0 J-2.261
X18.198 Y18 Z-2.5 I0 J2.261
X17.802 Y18 I-0.198 J0 F300
X22.72 Y18 I2.459 J0
X13.28 Y18 I-4.72 J0
X22.72 Y18 I4.72 J0
X20.459 Y20.261 Z-2.595 I-2.261 J0 F50
G1 X15.937 Z-2.716
G3 X15.937 Y15.739 Z-2.905 I0 J-2.261
X18.198 Y18 Z-3 I0 J2.261
X17.802 Y18 I-0.198 J0 F300
X22.72 Y18 I2.459 J0
X13.28 Y18 I-4.72 J0
X22.72 Y18 I4.72 J0
X20.459 Y20.261 Z-3.095 I-2.261 J0 F50
G1 X15.937 Z-3.216
G3 X15.937 Y15.739 Z-3.405 I0 J-2.261
X18.198 Y18 Z-3.5 I0 J2.261
X17.802 Y18 I-0.198 J0 F300
X22.72 Y18 I2.459 J0
X13.28 Y18 I-4.72 J0
X22.72 Y18 I4.72 J0
X20.459 Y20.261 Z-3.595 I-2.261 J0 F50
G1 X15.937 Z-3.716
G3 X15.937 Y15.739 Z-3.905 I0 J-2.261
X18.198 Y18 Z-4 I0 J2.261
X17.802 Y18 I-0.198 J0 F300
X22.72 Y18 I2.459 J0
X13.28 Y18 I-4.72 J0
X22.72 Y18 I4.72 J0
X20.459 Y20.261 Z-4.095 I-2.261 J0 F50
G1 X15.937 Z-4.216
G3 X15.937 Y15.739 Z-4.405 I0 J-2.261
X18.198 Y18 Z-4.5 I0 J2.261
X17.802 Y18 I-0.198 J0 F300
X22.72 Y18 I2.459 J0
X13.28 Y18 I-4.72 J0
X22.72 Y18 I4.72 J0
X20.459 Y20.261 Z-4.595 I-2.261 J0 F50
G1 X15.937 Z-4.716
G3 X15.937 Y15.739 Z-4.905 I0 J-2.261
X18.198 Y18 Z-5 I0 J2.261
X17.802 Y18 I-0.198 J0 F300
X22.72 Y18 I2.459 J0
X13.28 Y18 I-4.72 J0
X22.72 Y18 I4.72 J0
X20.459 Y20.261 Z-5.095 I-2.261 J0 F50
G1 X15.937 Z-5.216
G3 X15.937 Y15.739 Z-5.405 I0 J-2.261
X18.198 Y18 Z-5.5 I0 J2.261
X17.802 Y18 I-0.198 J0 F300
X22.72 Y18 I2.459 J0
X13.28 Y18 I-4.72 J0
X22.72 Y18 I4.72 J0
X20.459 Y20.261 Z-5.595 I-2.261 J0 F50
G1 X15.937 Z-5.716
G3 X15.937 Y15.739 Z-5.905 I0 J-2.261
X18.198 Y18 Z-6 I0 J2.261
X17.802 Y18 I-0.198 J0 F300
X22.72 Y18 I2.459 J0
X13.28 Y18 I-4.72 J0
X22.72 Y18 I4.72 J0
X20.459 Y20.261 Z-6.095 I-2.261 J0 F50
G1 X15.937 Z-6.216
G3 X15.937 Y15.739 Z-6.405 I0 J-2.261
X18.198 Y18 Z-6.5 I0 J2.261
X17.802 Y18 I-0.198 J0 F300
X22.72 Y18 I2.459 J0
X13.28 Y18 I-4.72 J0
X22.72 Y18 I4.72 J0
X20.459 Y20.261 Z-6.595 I-2.261 J0 F50
G1 X15.937 Z-6.716
G3 X15.937 Y15.739 Z-6.905 I0 J-2.261
X18.198 Y18 Z-7 I0 J2.261
X17.802 Y18 I-0.198 J0 F300
X22.72 Y18 I2.459 J0
X13.28 Y18 I-4.72 J0
X22.72 Y18 I4.72 J0
X20.459 Y20.261 Z-7.095 I-2.261 J0 F50
G1 X15.937 Z-7.216
G3 X15.937 Y15.739 Z-7.405 I0 J-2.261
X18.198 Y18 Z-7.5 I0 J2.261
X17.802 Y18 I-0.198 J0 F300
X22.72 Y18 I2.459 J0
X13.28 Y18 I-4.72 J0
X22.72 Y18 I4.72 J0
X20.459 Y20.261 Z-7.595 I-2.261 J0 F50
G1 X15.937 Z-7.716
G3 X15.937 Y15.739 Z-7.905 I0 J-2.261
X18.198 Y18 Z-8 I0 J2.261
X17.802 Y18 I-0.198 J0 F300
X22.72 Y18 I2.459 J0
X13.28 Y18 I-4.72 J0
X22.72 Y18 I4.72 J0
X20.459 Y20.261 Z-8.095 I-2.261 J0 F50
G1 X15.937 Z-8.216
G3 X15.937 Y15.739 Z-8.405 I0 J-2.261
X18.198 Y18 Z-8.5 I0 J2.261
X17.802 Y18 I-0.198 J0 F300
X22.72 Y18 I2.459 J0
X13.28 Y18 I-4.72 J0
X22.72 Y18 I4.72 J0
X20.459 Y20.261 Z-8.595 I-2.261 J0 F50
G1 X15.937 Z-8.716
G3 X15.937 Y15.739 Z-8.905 I0 J-2.261
X18.198 Y18 Z-9 I0 J2.261
X17.802 Y18 I-0.198 J0 F300
X22.72 Y18 I2.459 J0
X13.28 Y18 I-4.72 J0
X22.72 Y18 I4.72 J0
X20.459 Y20.261 Z-9.095 I-2.261 J0 F50
G1 X15.937 Z-9.216
G3 X15.937 Y15.739 Z-9.405 I0 J-2.261
X18.198 Y18 Z-9.5 I0 J2.261
X17.802 Y18 I-0.198 J0 F300
X22.72 Y18 I2.459 J0
X13.28 Y18 I-4.72 J0
X22.72 Y18 I4.72 J0
X20.459 Y20.261 Z-9.595 I-2.261 J0 F50
G1 X15.937 Z-9.716
G3 X15.937 Y15.739 Z-9.905 I0 J-2.261
X18.198 Y18 Z-10 I0 J2.261
X17.802 Y18 I-0.198 J0 F300
X22.72 Y18 I2.459 J0
X13.28 Y18 I-4.72 J0
X22.72 Y18 I4.72 J0
X20.459 Y20.261 Z-10.095 I-2.261 J0 F50
G1 X15.937 Z-10.216
G3 X15.937 Y15.739 Z-10.405 I0 J-2.261
X18.198 Y18 Z-10.5 I0 J2.261
X17.802 Y18 I-0.198 J0 F300
X22.72 Y18 I2.459 J0
X13.28 Y18 I-4.72 J0
X22.72 Y18 I4.72 J0
X20.459 Y20.261 Z-10.595 I-2.261 J0 F50
G1 X15.937 Z-10.716
G3 X15.937 Y15.739 Z-10.905 I0 J-2.261
X18.198 Y18 Z-11 I0 J2.261
X17.802 Y18 I-0.198 J0 F300
X22.72 Y18 I2.459 J0
X13.28 Y18 I-4.72 J0
X22.72 Y18 I4.72 J0
X20.459 Y20.261 Z-11.095 I-2.261 J0 F50
G1 X15.937 Z-11.216
G3 X15.937 Y15.739 Z-11.405 I0 J-2.261
X18.198 Y18 Z-11.5 I0 J2.261
X17.802 Y18 I-0.198 J0 F300
X22.72 Y18 I2.459 J0
X13.28 Y18 I-4.72 J0
X22.72 Y18 I4.72 J0
X20.459 Y20.261 Z-11.595 I-2.261 J0 F50
G1 X15.937 Z-11.716
G3 X15.937 Y15.739 Z-11.905 I0 J-2.261
X18.198 Y18 Z-12 I0 J2.261
X17.802 Y18 I-0.198 J0 F300
X22.72 Y18 I2.459 J0
X13.28 Y18 I-4.72 J0
X22.72 Y18 I4.72 J0
X20.459 Y20.261 Z-12.095 I-2.261 J0 F50
G1 X15.937 Z-12.216
G3 X15.937 Y15.739 Z-12.405 I0 J-2.261
X18.198 Y18 Z-12.5 I0 J2.261
X17.802 Y18 I-0.198 J0 F300
X22.72 Y18 I2.459 J0
X13.28 Y18 I-4.72 J0
X22.72 Y18 I4.72 J0
X20.459 Y20.261 Z-12.595 I-2.261 J0 F50
G1 X15.937 Z-12.716
G3 X15.937 Y15.739 Z-12.905 I0 J-2.261
X18.198 Y18 Z-13 I0 J2.261
X17.802 Y18 I-0.198 J0 F300
X22.72 Y18 I2.459 J0
X13.28 Y18 I-4.72 J0
X22.72 Y18 I4.72 J0
X20.459 Y20.261 Z-13.095 I-2.261 J0 F50
G1 X15.937 Z-13.216
G3 X15.937 Y15.739 Z-13.405 I0 J-2.261
X18.198 Y18 Z-13.5 I0 J2.261
X17.802 Y18 I-0.198 J0 F300
X22.72 Y18 I2.459 J0
X13.28 Y18 I-4.72 J0
X22.72 Y18 I4.72 J0
X20.459 Y20.261 Z-13.595 I-2.261 J0 F50
G1 X15.937 Z-13.716
G3 X15.937 Y15.739 Z-13.905 I0 J-2.261
X18.198 Y18 Z-14 I0 J2.261
X17.802 Y18 I-0.198 J0 F300
X22.72 Y18 I2.459 J0
X13.28 Y18 I-4.72 J0
X22.72 Y18 I4.72 J0
G1 X22.716 Y18.061 Z-13.988
X22.705 Y18.12 Z-13.976
X22.686 Y18.178 Z-13.964
X22.651 Y18.247 Z-13.912
X22.606 Y18.309 Z-13.861
X22.57 Y18.347 Z-13.783
X22.531 Y18.38 Z-13.706
X22.501 Y18.401 Z-13.524
Z10
(When using Fusion 360 for Personal Use, the feedrate of)
(rapid moves is reduced to match the feedrate of cutting)
(moves, which can increase machining time. Unrestricted rapid)
(moves are available with a Fusion 360 Subscription.)

(2D Pocket2)
G0 X39.81 Y5.011
G1 Z10 F150
Z5
Z-0.124 F50
X39.806 Y5.005 Z-0.207
X39.793 Y4.988 Z-0.287
X39.772 Y4.96 Z-0.362
X39.744 Y4.922 Z-0.43
X39.709 Y4.875 Z-0.489
X39.668 Y4.82 Z-0.536
X39.623 Y4.76 Z-0.571
X39.575 Y4.696 Z-0.593
X39.526 Y4.629 Z-0.6
X38.276 Y2.953
G2 X33.056 Y-2.275 I-20.64 J15.388 F150
G3 X32.848 Y-3.843 I0.662 J-0.885
X34.42 Y-4.015 I0.87 J0.682
G1 X37.121 Y-1.795
G3 X37.419 Y-1.412 I-0.702 J0.854
G1 X39.162 Y2.292
G3 X39.253 Y2.586 I-1 J0.471
G1 X40.328 Y9.229
G3 X38.279 Y9.957 I-1.091 J0.177
G2 X36.348 Y7.469 I-9.984 J5.753
G3 X34.792 Y5.675 I10.113 J-10.348
G2 X22.782 Y-2.279 I-16.792 J12.309
G1 X22.728 Y-2.285
X3.076 Y-2.322
X3.026 Y-2.317
X2.977 Y-2.301
X2.933 Y-2.275
G2 X-2.275 Y2.948 I15.136 J20.304
G3 X-3.842 Y3.162 I-0.888 J-0.658
X-4.019 Y1.59 I0.679 J-0.873
G1 X-1.812 Y-1.115
G3 X-1.427 Y-1.416 I0.857 J0.699
G1 X2.273 Y-3.161
G3 X2.616 Y-3.259 I0.472 J1
G1 X12.833 Y-4.452
G3 X13.216 Y-2.278 I0.128 J1.098
G2 X1.208 Y5.675 I4.784 J20.263
G3 X-0.348 Y7.469 I-11.669 J-8.554
G2 X-2.278 Y9.956 I8.054 J8.241
G1 X-2.295 Y9.993
X-2.306 Y10.033
X-2.31 Y10.074
X-2.323 Y32.905
X-2.317 Y32.956
X-2.302 Y33.004
X-2.276 Y33.048
G2 X1.343 Y36.987 I20.926 J-15.589
X2.921 Y38.274 I16.417 J-18.523
G3 X3.127 Y39.842 I-0.663 J0.885
X1.554 Y40.011 I-0.869 J-0.684
G1 X-1.136 Y37.789
G3 X-1.433 Y37.405 I0.704 J-0.852
G1 X-3.162 Y33.708
G3 X-3.252 Y33.416 I1.001 J-0.468
G1 X-4.328 Y26.771
G3 X-2.279 Y26.043 I1.091 J-0.177
G2 X-0.348 Y28.531 I9.984 J-5.753
G3 X1.208 Y30.325 I-10.112 J10.347
G2 X13.218 Y38.279 I16.792 J-12.309
G1 X13.272 Y38.285
X32.919 Y38.324
X32.97 Y38.319
X33.018 Y38.303
X33.062 Y38.277
G2 X38.275 Y33.053 I-15.073 J-20.254
G3 X39.842 Y32.839 I0.888 J0.658
X40.02 Y34.41 I-0.679 J0.873
G1 X37.81 Y37.117
G3 X37.425 Y37.418 I-0.857 J-0.699
G1 X33.722 Y39.164
G3 X33.378 Y39.262 I-0.471 J-1
G1 X23.167 Y40.452
G3 X22.785 Y38.278 I-0.128 J-1.098
G2 X34.792 Y30.325 I-4.784 J-20.263
G3 X36.348 Y28.531 I11.67 J8.554
G2 X38.278 Y26.044 I-8.054 J-8.241
X37.385 Y21.516 I-3.041 J-1.753
G3 X35.352 Y17.372 I3.207 J-4.144
G1 Y15.5
G2 X34.678 Y12.589 I-6.624 J0
X32.826 Y10.244 I-6.332 J3.098
G3 X31.744 Y9.039 I3.428 J-4.165
G2 X25.853 Y3.566 I-14.059 J9.225
X18.07 Y1.548 I-7.783 J14.005
X4.256 Y9.039 I0 J16.482
G3 X3.174 Y10.244 I-4.51 J-2.959
G2 X1.322 Y12.589 I4.48 J5.443
X0.648 Y15.5 I5.95 J2.911
G1 Y20.5
G2 X1.322 Y23.411 I6.624 J0
X3.174 Y25.756 I6.332 J-3.098
G3 X4.256 Y26.961 I-3.428 J4.165
G2 X6.892 Y30.087 I14.277 J-9.368
X10.215 Y32.468 I10.897 J-11.694
X31.744 Y26.961 I7.773 J-14.446
G3 X32.826 Y25.756 I4.51 J2.959
G2 X34.678 Y23.411 I-4.48 J-5.443
X35.352 Y20.5 I-5.95 J-2.911
G1 Y17.372
G2 X32.18 Y14.088 I-3.286 J0
G3 X28.24 Y11.781 I0.166 J-4.801
G2 X7.039 Y13.165 I-10.24 J6.219
X5.12 Y15.5 I0.461 J2.335
G1 Y20.5
G2 X7.039 Y22.835 I2.38 J0
X28.961 Y22.835 I10.961 J-4.835
X30.88 Y20.5 I-0.461 J-2.335
G1 Y15.5
G2 X28.961 Y13.165 I-2.38 J0
X28.24 Y11.781 I-10.961 J4.835
G3 X28.305 Y11.464 I0.203 J-0.124
G1 X38.763 Y4.013
G2 X38.815 Y3.677 I-0.138 J-0.194
G1 X38.767 Y3.612 Z-0.607 F50
X38.72 Y3.549 Z-0.627
X38.676 Y3.49 Z-0.661
X38.636 Y3.436 Z-0.706
X38.601 Y3.39 Z-0.762
X38.573 Y3.351 Z-0.828
X38.551 Y3.322 Z-0.9
X38.529 Y3.293 Z-0.972
X38.501 Y3.255 Z-1.038
X38.466 Y3.208 Z-1.094
X38.426 Y3.154 Z-1.139
X38.382 Y3.095 Z-1.173
X38.335 Y3.032 Z-1.193
X38.287 Y2.968 Z-1.2
X38.276 Y2.953
G2 X33.056 Y-2.275 I-20.64 J15.388 F150
G3 X32.848 Y-3.843 I0.662 J-0.885
X34.42 Y-4.015 I0.87 J0.682
G1 X37.121 Y-1.795
G3 X37.419 Y-1.412 I-0.702 J0.854
G1 X39.162 Y2.292
G3 X39.253 Y2.586 I-1 J0.471
G1 X40.328 Y9.229
G3 X38.279 Y9.957 I-1.091 J0.177
G2 X36.348 Y7.469 I-9.984 J5.753
G3 X34.792 Y5.675 I10.113 J-10.348
G2 X22.782 Y-2.279 I-16.792 J12.309
G1 X22.728 Y-2.285
X3.076 Y-2.322
X3.026 Y-2.317
X2.977 Y-2.301
X2.933 Y-2.275
G2 X-2.275 Y2.948 I15.136 J20.304
G3 X-3.842 Y3.162 I-0.888 J-0.658
X-4.019 Y1.59 I0.679 J-0.873
G1 X-1.812 Y-1.115
G3 X-1.427 Y-1.416 I0.857 J0.699
G1 X2.273 Y-3.161
G3 X2.616 Y-3.259 I0.472 J1
G1 X12.833 Y-4.452
G3 X13.216 Y-2.278 I0.128 J1.098
G2 X1.208 Y5.675 I4.784 J20.263
G3 X-0.348 Y7.469 I-11.669 J-8.554
G2 X-2.278 Y9.956 I8.054 J8.241
G1 X-2.295 Y9.993
X-2.306 Y10.033
X-2.31 Y10.074
X-2.323 Y32.905
X-2.317 Y32.956
X-2.302 Y33.004
X-2.276 Y33.048
G2 X1.343 Y36.987 I20.926 J-15.589
X2.921 Y38.274 I16.417 J-18.523
G3 X3.127 Y39.842 I-0.663 J0.885
X1.554 Y40.011 I-0.869 J-0.684
G1 X-1.136 Y37.789
G3 X-1.433 Y37.405 I0.704 J-0.852
G1 X-3.162 Y33.708
G3 X-3.252 Y33.416 I1.001 J-0.468
G1 X-4.328 Y26.771
G3 X-2.279 Y26.043 I1.091 J-0.177
G2 X-0.348 Y28.531 I9.984 J-5.753
G3 X1.208 Y30.325 I-10.112 J10.347
G2 X13.218 Y38.279 I16.792 J-12.309
G1 X13.272 Y38.285
X32.919 Y38.324
X32.97 Y38.319
X33.018 Y38.303
X33.062 Y38.277
G2 X38.275 Y33.053 I-15.073 J-20.254
G3 X39.842 Y32.839 I0.888 J0.658
X40.02 Y34.41 I-0.679 J0.873
G1 X37.81 Y37.117
G3 X37.425 Y37.418 I-0.857 J-0.699
G1 X33.722 Y39.164
G3 X33.378 Y39.262 I-0.471 J-1
G1 X23.167 Y40.452
G3 X22.785 Y38.278 I-0.128 J-1.098
G2 X34.792 Y30.325 I-4.784 J-20.263
G3 X36.348 Y28.531 I11.67 J8.554
G2 X38.278 Y26.044 I-8.054 J-8.241
X37.385 Y21.516 I-3.041 J-1.753
G3 X35.352 Y17.372 I3.207 J-4.144
G1 Y15.5
G2 X34.678 Y12.589 I-6.624 J0
X32.826 Y10.244 I-6.332 J3.098
G3 X31.744 Y9.039 I3.428 J-4.165
G2 X25.853 Y3.566 I-14.059 J9.225
X18.07 Y1.548 I-7.783 J14.005
X4.256 Y9.039 I0 J16.482
G3 X3.174 Y10.244 I-4.51 J-2.959
G2 X1.322 Y12.589 I4.48 J5.443
X0.648 Y15.5 I5.95 J2.911
G1 Y20.5
G2 X1.322 Y23.411 I6.624 J0
X3.174 Y25.756 I6.332 J-3.098
G3 X4.256 Y26.961 I-3.428 J4.165
G2 X6.892 Y30.087 I14.277 J-9.368
X10.215 Y32.468 I10.897 J-11.694
X31.744 Y26.961 I7.773 J-14.446
G3 X32.826 Y25.756 I4.51 J2.959
G2 X34.678 Y23.411 I-4.48 J-5.443
X35.352 Y20.5 I-5.95 J-2.911
G1 Y17.372
G2 X32.18 Y14.088 I-3.286 J0
G3 X28.24 Y11.781 I0.166 J-4.801
G2 X7.039 Y13.165 I-10.24 J6.219
X5.12 Y15.5 I0.461 J2.335
G1 Y20.5
G2 X7.039 Y22.835 I2.38 J0
X28.961 Y22.835 I10.961 J-4.835
X30.88 Y20.5 I-0.461 J-2.335
G1 Y15.5
G2 X28.961 Y13.165 I-2.38 J0
X28.24 Y11.781 I-10.961 J4.835
G3 X28.305 Y11.464 I0.203 J-0.124
G1 X38.763 Y4.013
G2 X38.815 Y3.677 I-0.138 J-0.194
G1 X38.767 Y3.612 Z-1.207 F50
X38.72 Y3.549 Z-1.227
X38.676 Y3.49 Z-1.261
X38.636 Y3.436 Z-1.306
X38.601 Y3.39 Z-1.362
X38.573 Y3.351 Z-1.428
X38.551 Y3.322 Z-1.5
X38.529 Y3.293 Z-1.572
X38.501 Y3.255 Z-1.638
X38.466 Y3.208 Z-1.694
X38.426 Y3.154 Z-1.739
X38.382 Y3.095 Z-1.773
X38.335 Y3.032 Z-1.793
X38.287 Y2.968 Z-1.8
X38.276 Y2.953
G2 X33.056 Y-2.275 I-20.64 J15.388 F150
G3 X32.848 Y-3.843 I0.662 J-0.885
X34.42 Y-4.015 I0.87 J0.682
G1 X37.121 Y-1.795
G3 X37.419 Y-1.412 I-0.702 J0.854
G1 X39.162 Y2.292
G3 X39.253 Y2.586 I-1 J0.471
G1 X40.328 Y9.229
G3 X38.279 Y9.957 I-1.091 J0.177
G2 X36.348 Y7.469 I-9.984 J5.753
G3 X34.792 Y5.675 I10.113 J-10.348
G2 X22.782 Y-2.279 I-16.792 J12.309
G1 X22.728 Y-2.285
X3.076 Y-2.322
X3.026 Y-2.317
X2.977 Y-2.301
X2.933 Y-2.275
G2 X-2.275 Y2.948 I15.136 J20.304
G3 X-3.842 Y3.162 I-0.888 J-0.658
X-4.019 Y1.59 I0.679 J-0.873
G1 X-1.812 Y-1.115
G3 X-1.427 Y-1.416 I0.857 J0.699
G1 X2.273 Y-3.161
G3 X2.616 Y-3.259 I0.472 J1
G1 X12.833 Y-4.452
G3 X13.216 Y-2.278 I0.128 J1.098
G2 X1.208 Y5.675 I4.784 J20.263
G3 X-0.348 Y7.469 I-11.669 J-8.554
G2 X-2.278 Y9.956 I8.054 J8.241
G1 X-2.295 Y9.993
X-2.306 Y10.033
X-2.31 Y10.074
X-2.323 Y32.905
X-2.317 Y32.956
X-2.302 Y33.004
X-2.276 Y33.048
G2 X1.343 Y36.987 I20.926 J-15.589
X2.921 Y38.274 I16.417 J-18.523
G3 X3.127 Y39.842 I-0.663 J0.885
X1.554 Y40.011 I-0.869 J-0.684
G1 X-1.136 Y37.789
G3 X-1.433 Y37.405 I0.704 J-0.852
G1 X-3.162 Y33.708
G3 X-3.252 Y33.416 I1.001 J-0.468
G1 X-4.328 Y26.771
G3 X-2.279 Y26.043 I1.091 J-0.177
G2 X-0.348 Y28.531 I9.984 J-5.753
G3 X1.208 Y30.325 I-10.112 J10.347
G2 X13.218 Y38.279 I16.792 J-12.309
G1 X13.272 Y38.285
X32.919 Y38.324
X32.97 Y38.319
X33.018 Y38.303
X33.062 Y38.277
G2 X38.275 Y33.053 I-15.073 J-20.254
G3 X39.842 Y32.839 I0.888 J0.658
X40.02 Y34.41 I-0.679 J0.873
G1 X37.81 Y37.117
G3 X37.425 Y37.418 I-0.857 J-0.699
G1 X33.722 Y39.164
G3 X33.378 Y39.262 I-0.471 J-1
G1 X23.167 Y40.452
G3 X22.785 Y38.278 I-0.128 J-1.098
G2 X34.792 Y30.325 I-4.784 J-20.263
G3 X36.348 Y28.531 I11.67 J8.554
G2 X38.278 Y26.044 I-8.054 J-8.241
X37.385 Y21.516 I-3.041 J-1.753
G3 X35.352 Y17.372 I3.207 J-4.144
G1 Y15.5
G2 X34.678 Y12.589 I-6.624 J0
X32.826 Y10.244 I-6.332 J3.098
G3 X31.744 Y9.039 I3.428 J-4.165
G2 X25.853 Y3.566 I-14.059 J9.225
X18.07 Y1.548 I-7.783 J14.005
X4.256 Y9.039 I0 J16.482
G3 X3.174 Y10.244 I-4.51 J-2.959
G2 X1.322 Y12.589 I4.48 J5.443
X0.648 Y15.5 I5.95 J2.911
G1 Y20.5
G2 X1.322 Y23.411 I6.624 J0
X3.174 Y25.756 I6.332 J-3.098
G3 X4.256 Y26.961 I-3.428 J4.165
G2 X6.892 Y30.087 I14.277 J-9.368
X10.215 Y32.468 I10.897 J-11.694
X31.744 Y26.961 I7.773 J-14.446
G3 X32.826 Y25.756 I4.51 J2.959
G2 X34.678 Y23.411 I-4.48 J-5.443
X35.352 Y20.5 I-5.95 J-2.911
G1 Y17.372
G2 X32.18 Y14.088 I-3.286 J0
G3 X28.24 Y11.781 I0.166 J-4.801
G2 X7.039 Y13.165 I-10.24 J6.219
X5.12 Y15.5 I0.461 J2.335
G1 Y20.5
G2 X7.039 Y22.835 I2.38 J0
X28.961 Y22.835 I10.961 J-4.835
X30.88 Y20.5 I-0.461 J-2.335
G1 Y15.5
G2 X28.961 Y13.165 I-2.38 J0
X28.24 Y11.781 I-10.961 J4.835
G3 X28.305 Y11.464 I0.203 J-0.124
G1 X38.763 Y4.013
G2 X38.815 Y3.677 I-0.138 J-0.194
G1 X38.767 Y3.612 Z-1.807 F50
X38.72 Y3.549 Z-1.827
X38.676 Y3.49 Z-1.861
X38.636 Y3.436 Z-1.906
X38.601 Y3.39 Z-1.962
X38.573 Y3.351 Z-2.028
X38.551 Y3.322 Z-2.1
X38.529 Y3.293 Z-2.172
X38.501 Y3.255 Z-2.238
X38.466 Y3.208 Z-2.294
X38.426 Y3.154 Z-2.339
X38.382 Y3.095 Z-2.373
X38.335 Y3.032 Z-2.393
X38.287 Y2.968 Z-2.4
X38.276 Y2.953
G2 X33.056 Y-2.275 I-20.64 J15.388 F150
G3 X32.848 Y-3.843 I0.662 J-0.885
X34.42 Y-4.015 I0.87 J0.682
G1 X37.121 Y-1.795
G3 X37.419 Y-1.412 I-0.702 J0.854
G1 X39.162 Y2.292
G3 X39.253 Y2.586 I-1 J0.471
G1 X40.328 Y9.229
G3 X38.279 Y9.957 I-1.091 J0.177
G2 X36.348 Y7.469 I-9.984 J5.753
G3 X34.792 Y5.675 I10.113 J-10.348
G2 X22.782 Y-2.279 I-16.792 J12.309
G1 X22.728 Y-2.285
X3.076 Y-2.322
X3.026 Y-2.317
X2.977 Y-2.301
X2.933 Y-2.275
G2 X-2.275 Y2.948 I15.136 J20.304
G3 X-3.842 Y3.162 I-0.888 J-0.658
X-4.019 Y1.59 I0.679 J-0.873
G1 X-1.812 Y-1.115
G3 X-1.427 Y-1.416 I0.857 J0.699
G1 X2.273 Y-3.161
G3 X2.616 Y-3.259 I0.472 J1
G1 X12.833 Y-4.452
G3 X13.216 Y-2.278 I0.128 J1.098
G2 X1.208 Y5.675 I4.784 J20.263
G3 X-0.348 Y7.469 I-11.669 J-8.554
G2 X-2.278 Y9.956 I8.054 J8.241
G1 X-2.295 Y9.993
X-2.306 Y10.033
X-2.31 Y10.074
X-2.323 Y32.905
X-2.317 Y32.956
X-2.302 Y33.004
X-2.276 Y33.048
G2 X1.343 Y36.987 I20.926 J-15.589
X2.921 Y38.274 I16.417 J-18.523
G3 X3.127 Y39.842 I-0.663 J0.885
X1.554 Y40.011 I-0.869 J-0.684
G1 X-1.136 Y37.789
G3 X-1.433 Y37.405 I0.704 J-0.852
G1 X-3.162 Y33.708
G3 X-3.252 Y33.416 I1.001 J-0.468
G1 X-4.328 Y26.771
G3 X-2.279 Y26.043 I1.091 J-0.177
G2 X-0.348 Y28.531 I9.984 J-5.753
G3 X1.208 Y30.325 I-10.112 J10.347
G2 X13.218 Y38.279 I16.792 J-12.309
G1 X13.272 Y38.285
X32.919 Y38.324
X32.97 Y38.319
X33.018 Y38.303
X33.062 Y38.277
G2 X38.275 Y33.053 I-15.073 J-20.254
G3 X39.842 Y32.839 I0.888 J0.658
X40.02 Y34.41 I-0.679 J0.873
G1 X37.81 Y37.117
G3 X37.425 Y37.418 I-0.857 J-0.699
G1 X33.722 Y39.164
G3 X33.378 Y39.262 I-0.471 J-1
G1 X23.167 Y40.452
G3 X22.785 Y38.278 I-0.128 J-1.098
G2 X34.792 Y30.325 I-4.784 J-20.263
G3 X36.348 Y28.531 I11.67 J8.554
G2 X38.278 Y26.044 I-8.054 J-8.241
X37.385 Y21.516 I-3.041 J-1.753
G3 X35.352 Y17.372 I3.207 J-4.144
G1 Y15.5
G2 X34.678 Y12.589 I-6.624 J0
X32.826 Y10.244 I-6.332 J3.098
G3 X31.744 Y9.039 I3.428 J-4.165
G2 X25.853 Y3.566 I-14.059 J9.225
X18.07 Y1.548 I-7.783 J14.005
X4.256 Y9.039 I0 J16.482
G3 X3.174 Y10.244 I-4.51 J-2.959
G2 X1.322 Y12.589 I4.48 J5.443
X0.648 Y15.5 I5.95 J2.911
G1 Y20.5
G2 X1.322 Y23.411 I6.624 J0
X3.174 Y25.756 I6.332 J-3.098
G3 X4.256 Y26.961 I-3.428 J4.165
G2 X6.892 Y30.087 I14.277 J-9.368
X10.215 Y32.468 I10.897 J-11.694
X31.744 Y26.961 I7.773 J-14.446
G3 X32.826 Y25.756 I4.51 J2.959
G2 X34.678 Y23.411 I-4.48 J-5.443
X35.352 Y20.5 I-5.95 J-2.911
G1 Y17.372
G2 X32.18 Y14.088 I-3.286 J0
G3 X28.24 Y11.781 I0.166 J-4.801
G2 X7.039 Y13.165 I-10.24 J6.219
X5.12 Y15.5 I0.461 J2.335
G1 Y20.5
G2 X7.039 Y22.835 I2.38 J0
X28.961 Y22.835 I10.961 J-4.835
X30.88 Y20.5 I-0.461 J-2.335
G1 Y15.5
G2 X28.961 Y13.165 I-2.38 J0
X28.24 Y11.781 I-10.961 J4.835
G3 X28.305 Y11.464 I0.203 J-0.124
G1 X38.763 Y4.013
G2 X38.815 Y3.677 I-0.138 J-0.194
G1 X38.767 Y3.612 Z-2.407 F50
X38.72 Y3.549 Z-2.427
X38.676 Y3.49 Z-2.461
X38.636 Y3.436 Z-2.506
X38.601 Y3.39 Z-2.562
X38.573 Y3.351 Z-2.628
X38.551 Y3.322 Z-2.7
X38.529 Y3.293 Z-2.772
X38.501 Y3.255 Z-2.838
X38.466 Y3.208 Z-2.894
X38.426 Y3.154 Z-2.939
X38.382 Y3.095 Z-2.973
X38.335 Y3.032 Z-2.993
X38.287 Y2.968 Z-3
X38.276 Y2.953
G2 X33.056 Y-2.275 I-20.64 J15.388 F150
G3 X32.848 Y-3.843 I0.662 J-0.885
X34.42 Y-4.015 I0.87 J0.682
G1 X37.121 Y-1.795
G3 X37.419 Y-1.412 I-0.702 J0.854
G1 X39.162 Y2.292
G3 X39.253 Y2.586 I-1 J0.471
G1 X40.328 Y9.229
G3 X38.279 Y9.957 I-1.091 J0.177
G2 X36.348 Y7.469 I-9.984 J5.753
G3 X34.792 Y5.675 I10.113 J-10.348
G2 X22.782 Y-2.279 I-16.792 J12.309
G1 X22.728 Y-2.285
X3.076 Y-2.322
X3.026 Y-2.317
X2.977 Y-2.301
X2.933 Y-2.275
G2 X-2.275 Y2.948 I15.136 J20.304
G3 X-3.842 Y3.162 I-0.888 J-0.658
X-4.019 Y1.59 I0.679 J-0.873
G1 X-1.812 Y-1.115
G3 X-1.427 Y-1.416 I0.857 J0.699
G1 X2.273 Y-3.161
G3 X2.616 Y-3.259 I0.472 J1
G1 X12.833 Y-4.452
G3 X13.216 Y-2.278 I0.128 J1.098
G2 X1.208 Y5.675 I4.784 J20.263
G3 X-0.348 Y7.469 I-11.669 J-8.554
G2 X-2.278 Y9.956 I8.054 J8.241
G1 X-2.295 Y9.993
X-2.306 Y10.033
X-2.31 Y10.074
X-2.323 Y32.905
X-2.317 Y32.956
X-2.302 Y33.004
X-2.276 Y33.048
G2 X1.343 Y36.987 I20.926 J-15.589
X2.921 Y38.274 I16.417 J-18.523
G3 X3.127 Y39.842 I-0.663 J0.885
X1.554 Y40.011 I-0.869 J-0.684
G1 X-1.136 Y37.789
G3 X-1.433 Y37.405 I0.704 J-0.852
G1 X-3.162 Y33.708
G3 X-3.252 Y33.416 I1.001 J-0.468
G1 X-4.328 Y26.771
G3 X-2.279 Y26.043 I1.091 J-0.177
G2 X-0.348 Y28.531 I9.984 J-5.753
G3 X1.208 Y30.325 I-10.112 J10.347
G2 X13.218 Y38.279 I16.792 J-12.309
G1 X13.272 Y38.285
X32.919 Y38.324
X32.97 Y38.319
X33.018 Y38.303
X33.062 Y38.277
G2 X38.275 Y33.053 I-15.073 J-20.254
G3 X39.842 Y32.839 I0.888 J0.658
X40.02 Y34.41 I-0.679 J0.873
G1 X37.81 Y37.117
G3 X37.425 Y37.418 I-0.857 J-0.699
G1 X33.722 Y39.164
G3 X33.378 Y39.262 I-0.471 J-1
G1 X23.167 Y40.452
G3 X22.785 Y38.278 I-0.128 J-1.098
G2 X34.792 Y30.325 I-4.784 J-20.263
G3 X36.348 Y28.531 I11.67 J8.554
G2 X38.278 Y26.044 I-8.054 J-8.241
X37.385 Y21.516 I-3.041 J-1.753
G3 X35.352 Y17.372 I3.207 J-4.144
G1 Y15.5
G2 X34.678 Y12.589 I-6.624 J0
X32.826 Y10.244 I-6.332 J3.098
G3 X31.744 Y9.039 I3.428 J-4.165
G2 X25.853 Y3.566 I-14.059 J9.225
X18.07 Y1.548 I-7.783 J14.005
X4.256 Y9.039 I0 J16.482
G3 X3.174 Y10.244 I-4.51 J-2.959
G2 X1.322 Y12.589 I4.48 J5.443
X0.648 Y15.5 I5.95 J2.911
G1 Y20.5
G2 X1.322 Y23.411 I6.624 J0
X3.174 Y25.756 I6.332 J-3.098
G3 X4.256 Y26.961 I-3.428 J4.165
G2 X6.892 Y30.087 I14.277 J-9.368
X10.215 Y32.468 I10.897 J-11.694
X31.744 Y26.961 I7.773 J-14.446
G3 X32.826 Y25.756 I4.51 J2.959
G2 X34.678 Y23.411 I-4.48 J-5.443
X35.352 Y20.5 I-5.95 J-2.911
G1 Y17.372
G2 X32.18 Y14.088 I-3.286 J0
G3 X28.24 Y11.781 I0.166 J-4.801
G2 X7.039 Y13.165 I-10.24 J6.219
X5.12 Y15.5 I0.461 J2.335
G1 Y20.5
G2 X7.039 Y22.835 I2.38 J0
X28.961 Y22.835 I10.961 J-4.835
X30.88 Y20.5 I-0.461 J-2.335
G1 Y15.5
G2 X28.961 Y13.165 I-2.38 J0
X28.24 Y11.781 I-10.961 J4.835
G3 X28.305 Y11.464 I0.203 J-0.124
G1 X38.763 Y4.013
G2 X38.815 Y3.677 I-0.138 J-0.194
G1 X38.767 Y3.612 Z-3.007 F50
X38.72 Y3.549 Z-3.027
X38.676 Y3.49 Z-3.061
X38.636 Y3.436 Z-3.106
X38.601 Y3.39 Z-3.162
X38.573 Y3.351 Z-3.228
X38.551 Y3.322 Z-3.3
X38.529 Y3.293 Z-3.372
X38.501 Y3.255 Z-3.438
X38.466 Y3.208 Z-3.494
X38.426 Y3.154 Z-3.539
X38.382 Y3.095 Z-3.573
X38.335 Y3.032 Z-3.593
X38.287 Y2.968 Z-3.6
X38.276 Y2.953
G2 X33.056 Y-2.275 I-20.64 J15.388 F150
G3 X32.848 Y-3.843 I0.662 J-0.885
X34.42 Y-4.015 I0.87 J0.682
G1 X37.121 Y-1.795
G3 X37.419 Y-1.412 I-0.702 J0.854
G1 X39.162 Y2.292
G3 X39.253 Y2.586 I-1 J0.471
G1 X40.328 Y9.229
G3 X38.279 Y9.957 I-1.091 J0.177
G2 X36.348 Y7.469 I-9.984 J5.753
G3 X34.792 Y5.675 I10.113 J-10.348
G2 X22.782 Y-2.279 I-16.792 J12.309
G1 X22.728 Y-2.285
X3.076 Y-2.322
X3.026 Y-2.317
X2.977 Y-2.301
X2.933 Y-2.275
G2 X-2.275 Y2.948 I15.136 J20.304
G3 X-3.842 Y3.162 I-0.888 J-0.658
X-4.019 Y1.59 I0.679 J-0.873
G1 X-1.812 Y-1.115
G3 X-1.427 Y-1.416 I0.857 J0.699
G1 X2.273 Y-3.161
G3 X2.616 Y-3.259 I0.472 J1
G1 X12.833 Y-4.452
G3 X13.216 Y-2.278 I0.128 J1.098
G2 X1.208 Y5.675 I4.784 J20.263
G3 X-0.348 Y7.469 I-11.669 J-8.554
G2 X-2.278 Y9.956 I8.054 J8.241
G1 X-2.295 Y9.993
X-2.306 Y10.033
X-2.31 Y10.074
X-2.323 Y32.905
X-2.317 Y32.956
X-2.302 Y33.004
X-2.276 Y33.048
G2 X1.343 Y36.987 I20.926 J-15.589
X2.921 Y38.274 I16.417 J-18.523
G3 X3.127 Y39.842 I-0.663 J0.885
X1.554 Y40.011 I-0.869 J-0.684
G1 X-1.136 Y37.789
G3 X-1.433 Y37.405 I0.704 J-0.852
G1 X-3.162 Y33.708
G3 X-3.252 Y33.416 I1.001 J-0.468
G1 X-4.328 Y26.771
G3 X-2.279 Y26.043 I1.091 J-0.177
G2 X-0.348 Y28.531 I9.984 J-5.753
G3 X1.208 Y30.325 I-10.112 J10.347
G2 X13.218 Y38.279 I16.792 J-12.309
G1 X13.272 Y38.285
X32.919 Y38.324
X32.97 Y38.319
X33.018 Y38.303
X33.062 Y38.277
G2 X38.275 Y33.053 I-15.073 J-20.254
G3 X39.842 Y32.839 I0.888 J0.658
X40.02 Y34.41 I-0.679 J0.873
G1 X37.81 Y37.117
G3 X37.425 Y37.418 I-0.857 J-0.699
G1 X33.722 Y39.164
G3 X33.378 Y39.262 I-0.471 J-1
G1 X23.167 Y40.452
G3 X22.785 Y38.278 I-0.128 J-1.098
G2 X34.792 Y30.325 I-4.784 J-20.263
G3 X36.348 Y28.531 I11.67 J8.554
G2 X38.278 Y26.044 I-8.054 J-8.241
X37.385 Y21.516 I-3.041 J-1.753
G3 X35.352 Y17.372 I3.207 J-4.144
G1 Y15.5
G2 X34.678 Y12.589 I-6.624 J0
X32.826 Y10.244 I-6.332 J3.098
G3 X31.744 Y9.039 I3.428 J-4.165
G2 X25.853 Y3.566 I-14.059 J9.225
X18.07 Y1.548 I-7.783 J14.005
X4.256 Y9.039 I0 J16.482
G3 X3.174 Y10.244 I-4.51 J-2.959
G2 X1.322 Y12.589 I4.48 J5.443
X0.648 Y15.5 I5.95 J2.911
G1 Y20.5
G2 X1.322 Y23.411 I6.624 J0
X3.174 Y25.756 I6.332 J-3.098
G3 X4.256 Y26.961 I-3.428 J4.165
G2 X6.892 Y30.087 I14.277 J-9.368
X10.215 Y32.468 I10.897 J-11.694
X31.744 Y26.961 I7.773 J-14.446
G3 X32.826 Y25.756 I4.51 J2.959
G2 X34.678 Y23.411 I-4.48 J-5.443
X35.352 Y20.5 I-5.95 J-2.911
G1 Y17.372
G2 X32.18 Y14.088 I-3.286 J0
G3 X28.24 Y11.781 I0.166 J-4.801
G2 X7.039 Y13.165 I-10.24 J6.219
X5.12 Y15.5 I0.461 J2.335
G1 Y20.5
G2 X7.039 Y22.835 I2.38 J0
X28.961 Y22.835 I10.961 J-4.835
X30.88 Y20.5 I-0.461 J-2.335
G1 Y15.5
G2 X28.961 Y13.165 I-2.38 J0
X28.24 Y11.781 I-10.961 J4.835
G3 X28.305 Y11.464 I0.203 J-0.124
G1 X38.763 Y4.013
G2 X38.815 Y3.677 I-0.138 J-0.194
G1 X38.767 Y3.612 Z-3.607 F50
X38.72 Y3.549 Z-3.627
X38.676 Y3.49 Z-3.661
X38.636 Y3.436 Z-3.706
X38.601 Y3.39 Z-3.762
X38.573 Y3.351 Z-3.828
X38.551 Y3.322 Z-3.9
X38.529 Y3.293 Z-3.972
X38.501 Y3.255 Z-4.038
X38.466 Y3.208 Z-4.094
X38.426 Y3.154 Z-4.139
X38.382 Y3.095 Z-4.173
X38.335 Y3.032 Z-4.193
X38.287 Y2.968 Z-4.2
X38.276 Y2.953
G2 X33.056 Y-2.275 I-20.64 J15.388 F150
G3 X32.848 Y-3.843 I0.662 J-0.885
X34.42 Y-4.015 I0.87 J0.682
G1 X37.121 Y-1.795
G3 X37.419 Y-1.412 I-0.702 J0.854
G1 X39.162 Y2.292
G3 X39.253 Y2.586 I-1 J0.471
G1 X40.328 Y9.229
G3 X38.279 Y9.957 I-1.091 J0.177
G2 X36.348 Y7.469 I-9.984 J5.753
G3 X34.792 Y5.675 I10.113 J-10.348
G2 X22.782 Y-2.279 I-16.792 J12.309
G1 X22.728 Y-2.285
X3.076 Y-2.322
X3.026 Y-2.317
X2.977 Y-2.301
X2.933 Y-2.275
G2 X-2.275 Y2.948 I15.136 J20.304
G3 X-3.842 Y3.162 I-0.888 J-0.658
X-4.019 Y1.59 I0.679 J-0.873
G1 X-1.812 Y-1.115
G3 X-1.427 Y-1.416 I0.857 J0.699
G1 X2.273 Y-3.161
G3 X2.616 Y-3.259 I0.472 J1
G1 X12.833 Y-4.452
G3 X13.216 Y-2.278 I0.128 J1.098
G2 X1.208 Y5.675 I4.784 J20.263
G3 X-0.348 Y7.469 I-11.669 J-8.554
G2 X-2.278 Y9.956 I8.054 J8.241
G1 X-2.295 Y9.993
X-2.306 Y10.033
X-2.31 Y10.074
X-2.323 Y32.905
X-2.317 Y32.956
X-2.302 Y33.004
X-2.276 Y33.048
G2 X1.343 Y36.987 I20.926 J-15.589
X2.921 Y38.274 I16.417 J-18.523
G3 X3.127 Y39.842 I-0.663 J0.885
X1.554 Y40.011 I-0.869 J-0.684
G1 X-1.136 Y37.789
G3 X-1.433 Y37.405 I0.704 J-0.852
G1 X-3.162 Y33.708
G3 X-3.252 Y33.416 I1.001 J-0.468
G1 X-4.328 Y26.771
G3 X-2.279 Y26.043 I1.091 J-0.177
G2 X-0.348 Y28.531 I9.984 J-5.753
G3 X1.208 Y30.325 I-10.112 J10.347
G2 X13.218 Y38.279 I16.792 J-12.309
G1 X13.272 Y38.285
X32.919 Y38.324
X32.97 Y38.319
X33.018 Y38.303
X33.062 Y38.277
G2 X38.275 Y33.053 I-15.073 J-20.254
G3 X39.842 Y32.839 I0.888 J0.658
X40.02 Y34.41 I-0.679 J0.873
G1 X37.81 Y37.117
G3 X37.425 Y37.418 I-0.857 J-0.699
G1 X33.722 Y39.164
G3 X33.378 Y39.262 I-0.471 J-1
G1 X23.167 Y40.452
G3 X22.785 Y38.278 I-0.128 J-1.098
G2 X34.792 Y30.325 I-4.784 J-20.263
G3 X36.348 Y28.531 I11.67 J8.554
G2 X38.278 Y26.044 I-8.054 J-8.241
X37.385 Y21.516 I-3.041 J-1.753
G3 X35.352 Y17.372 I3.207 J-4.144
G1 Y15.5
G2 X34.678 Y12.589 I-6.624 J0
X32.826 Y10.244 I-6.332 J3.098
G3 X31.744 Y9.039 I3.428 J-4.165
G2 X25.853 Y3.566 I-14.059 J9.225
X18.07 Y1.548 I-7.783 J14.005
X4.256 Y9.039 I0 J16.482
G3 X3.174 Y10.244 I-4.51 J-2.959
G2 X1.322 Y12.589 I4.48 J5.443
X0.648 Y15.5 I5.95 J2.911
G1 Y20.5
G2 X1.322 Y23.411 I6.624 J0
X3.174 Y25.756 I6.332 J-3.098
G3 X4.256 Y26.961 I-3.428 J4.165
G2 X6.892 Y30.087 I14.277 J-9.368
X10.215 Y32.468 I10.897 J-11.694
X31.744 Y26.961 I7.773 J-14.446
G3 X32.826 Y25.756 I4.51 J2.959
G2 X34.678 Y23.411 I-4.48 J-5.443
X35.352 Y20.5 I-5.95 J-2.911
G1 Y17.372
G2 X32.18 Y14.088 I-3.286 J0
G3 X28.24 Y11.781 I0.166 J-4.801
G2 X7.039 Y13.165 I-10.24 J6.219
X5.12 Y15.5 I0.461 J2.335
G1 Y20.5
G2 X7.039 Y22.835 I2.38 J0
X28.961 Y22.835 I10.961 J-4.835
X30.88 Y20.5 I-0.461 J-2.335
G1 Y15.5
G2 X28.961 Y13.165 I-2.38 J0
X28.24 Y11.781 I-10.961 J4.835
G3 X28.305 Y11.464 I0.203 J-0.124
G1 X38.763 Y4.013
G2 X38.815 Y3.677 I-0.138 J-0.194
G1 X38.767 Y3.612 Z-4.207 F50
X38.72 Y3.549 Z-4.227
X38.676 Y3.49 Z-4.261
X38.636 Y3.436 Z-4.306
X38.601 Y3.39 Z-4.362
X38.573 Y3.351 Z-4.428
X38.551 Y3.322 Z-4.5
X38.529 Y3.293 Z-4.572
X38.501 Y3.255 Z-4.638
X38.466 Y3.208 Z-4.694
X38.426 Y3.154 Z-4.739
X38.382 Y3.095 Z-4.773
X38.335 Y3.032 Z-4.793
X38.287 Y2.968 Z-4.8
X38.276 Y2.953
G2 X33.056 Y-2.275 I-20.64 J15.388 F150
G3 X32.848 Y-3.843 I0.662 J-0.885
X34.42 Y-4.015 I0.87 J0.682
G1 X37.121 Y-1.795
G3 X37.419 Y-1.412 I-0.702 J0.854
G1 X39.162 Y2.292
G3 X39.253 Y2.586 I-1 J0.471
G1 X40.328 Y9.229
G3 X38.279 Y9.957 I-1.091 J0.177
G2 X36.348 Y7.469 I-9.984 J5.753
G3 X34.792 Y5.675 I10.113 J-10.348
G2 X22.782 Y-2.279 I-16.792 J12.309
G1 X22.728 Y-2.285
X3.076 Y-2.322
X3.026 Y-2.317
X2.977 Y-2.301
X2.933 Y-2.275
G2 X-2.275 Y2.948 I15.136 J20.304
G3 X-3.842 Y3.162 I-0.888 J-0.658
X-4.019 Y1.59 I0.679 J-0.873
G1 X-1.812 Y-1.115
G3 X-1.427 Y-1.416 I0.857 J0.699
G1 X2.273 Y-3.161
G3 X2.616 Y-3.259 I0.472 J1
G1 X12.833 Y-4.452
G3 X13.216 Y-2.278 I0.128 J1.098
G2 X1.208 Y5.675 I4.784 J20.263
G3 X-0.348 Y7.469 I-11.669 J-8.554
G2 X-2.278 Y9.956 I8.054 J8.241
G1 X-2.295 Y9.993
X-2.306 Y10.033
X-2.31 Y10.074
X-2.323 Y32.905
X-2.317 Y32.956
X-2.302 Y33.004
X-2.276 Y33.048
G2 X1.343 Y36.987 I20.926 J-15.589
X2.921 Y38.274 I16.417 J-18.523
G3 X3.127 Y39.842 I-0.663 J0.885
X1.554 Y40.011 I-0.869 J-0.684
G1 X-1.136 Y37.789
G3 X-1.433 Y37.405 I0.704 J-0.852
G1 X-3.162 Y33.708
G3 X-3.252 Y33.416 I1.001 J-0.468
G1 X-4.328 Y26.771
G3 X-2.279 Y26.043 I1.091 J-0.177
G2 X-0.348 Y28.531 I9.984 J-5.753
G3 X1.208 Y30.325 I-10.112 J10.347
G2 X13.218 Y38.279 I16.792 J-12.309
G1 X13.272 Y38.285
X32.919 Y38.324
X32.97 Y38.319
X33.018 Y38.303
X33.062 Y38.277
G2 X38.275 Y33.053 I-15.073 J-20.254
G3 X39.842 Y32.839 I0.888 J0.658
X40.02 Y34.41 I-0.679 J0.873
G1 X37.81 Y37.117
G3 X37.425 Y37.418 I-0.857 J-0.699
G1 X33.722 Y39.164
G3 X33.378 Y39.262 I-0.471 J-1
G1 X23.167 Y40.452
G3 X22.785 Y38.278 I-0.128 J-1.098
G2 X34.792 Y30.325 I-4.784 J-20.263
G3 X36.348 Y28.531 I11.67 J8.554
G2 X38.278 Y26.044 I-8.054 J-8.241
X37.385 Y21.516 I-3.041 J-1.753
G3 X35.352 Y17.372 I3.207 J-4.144
G1 Y15.5
G2 X34.678 Y12.589 I-6.624 J0
X32.826 Y10.244 I-6.332 J3.098
G3 X31.744 Y9.039 I3.428 J-4.165
G2 X25.853 Y3.566 I-14.059 J9.225
X18.07 Y1.548 I-7.783 J14.005
X4.256 Y9.039 I0 J16.482
G3 X3.174 Y10.244 I-4.51 J-2.959
G2 X1.322 Y12.589 I4.48 J5.443
X0.648 Y15.5 I5.95 J2.911
G1 Y20.5
G2 X1.322 Y23.411 I6.624 J0
X3.174 Y25.756 I6.332 J-3.098
G3 X4.256 Y26.961 I-3.428 J4.165
G2 X6.892 Y30.087 I14.277 J-9.368
X10.215 Y32.468 I10.897 J-11.694
X31.744 Y26.961 I7.773 J-14.446
G3 X32.826 Y25.756 I4.51 J2.959
G2 X34.678 Y23.411 I-4.48 J-5.443
X35.352 Y20.5 I-5.95 J-2.911
G1 Y17.372
G2 X32.18 Y14.088 I-3.286 J0
G3 X28.24 Y11.781 I0.166 J-4.801
G2 X7.039 Y13.165 I-10.24 J6.219
X5.12 Y15.5 I0.461 J2.335
G1 Y20.5
G2 X7.039 Y22.835 I2.38 J0
X28.961 Y22.835 I10.961 J-4.835
X30.88 Y20.5 I-0.461 J-2.335
G1 Y15.5
G2 X28.961 Y13.165 I-2.38 J0
X28.24 Y11.781 I-10.961 J4.835
G3 X28.305 Y11.464 I0.203 J-0.124
G1 X38.763 Y4.013
G2 X38.815 Y3.677 I-0.138 J-0.194
G1 X38.767 Y3.612 Z-4.807 F50
X38.72 Y3.549 Z-4.827
X38.676 Y3.49 Z-4.861
X38.636 Y3.436 Z-4.906
X38.601 Y3.39 Z-4.962
X38.573 Y3.351 Z-5.028
X38.551 Y3.322 Z-5.1
X38.529 Y3.293 Z-5.172
X38.501 Y3.255 Z-5.238
X38.466 Y3.208 Z-5.294
X38.426 Y3.154 Z-5.339
X38.382 Y3.095 Z-5.373
X38.335 Y3.032 Z-5.393
X38.287 Y2.968 Z-5.4
X38.276 Y2.953
G2 X33.056 Y-2.275 I-20.64 J15.388 F150
G3 X32.848 Y-3.843 I0.662 J-0.885
X34.42 Y-4.015 I0.87 J0.682
G1 X37.121 Y-1.795
G3 X37.419 Y-1.412 I-0.702 J0.854
G1 X39.162 Y2.292
G3 X39.253 Y2.586 I-1 J0.471
G1 X40.328 Y9.229
G3 X38.279 Y9.957 I-1.091 J0.177
G2 X36.348 Y7.469 I-9.984 J5.753
G3 X34.792 Y5.675 I10.113 J-10.348
G2 X22.782 Y-2.279 I-16.792 J12.309
G1 X22.728 Y-2.285
X3.076 Y-2.322
X3.026 Y-2.317
X2.977 Y-2.301
X2.933 Y-2.275
G2 X-2.275 Y2.948 I15.136 J20.304
G3 X-3.842 Y3.162 I-0.888 J-0.658
X-4.019 Y1.59 I0.679 J-0.873
G1 X-1.812 Y-1.115
G3 X-1.427 Y-1.416 I0.857 J0.699
G1 X2.273 Y-3.161
G3 X2.616 Y-3.259 I0.472 J1
G1 X12.833 Y-4.452
G3 X13.216 Y-2.278 I0.128 J1.098
G2 X1.208 Y5.675 I4.784 J20.263
G3 X-0.348 Y7.469 I-11.669 J-8.554
G2 X-2.278 Y9.956 I8.054 J8.241
G1 X-2.295 Y9.993
X-2.306 Y10.033
X-2.31 Y10.074
X-2.323 Y32.905
X-2.317 Y32.956
X-2.302 Y33.004
X-2.276 Y33.048
G2 X1.343 Y36.987 I20.926 J-15.589
X2.921 Y38.274 I16.417 J-18.523
G3 X3.127 Y39.842 I-0.663 J0.885
X1.554 Y40.011 I-0.869 J-0.684
G1 X-1.136 Y37.789
G3 X-1.433 Y37.405 I0.704 J-0.852
G1 X-3.162 Y33.708
G3 X-3.252 Y33.416 I1.001 J-0.468
G1 X-4.328 Y26.771
G3 X-2.279 Y26.043 I1.091 J-0.177
G2 X-0.348 Y28.531 I9.984 J-5.753
G3 X1.208 Y30.325 I-10.112 J10.347
G2 X13.218 Y38.279 I16.792 J-12.309
G1 X13.272 Y38.285
X32.919 Y38.324
X32.97 Y38.319
X33.018 Y38.303
X33.062 Y38.277
G2 X38.275 Y33.053 I-15.073 J-20.254
G3 X39.842 Y32.839 I0.888 J0.658
X40.02 Y34.41 I-0.679 J0.873
G1 X37.81 Y37.117
G3 X37.425 Y37.418 I-0.857 J-0.699
G1 X33.722 Y39.164
G3 X33.378 Y39.262 I-0.471 J-1
G1 X23.167 Y40.452
G3 X22.785 Y38.278 I-0.128 J-1.098
G2 X34.792 Y30.325 I-4.784 J-20.263
G3 X36.348 Y28.531 I11.67 J8.554
G2 X38.278 Y26.044 I-8.054 J-8.241
X37.385 Y21.516 I-3.041 J-1.753
G3 X35.352 Y17.372 I3.207 J-4.144
G1 Y15.5
G2 X34.678 Y12.589 I-6.624 J0
X32.826 Y10.244 I-6.332 J3.098
G3 X31.744 Y9.039 I3.428 J-4.165
G2 X25.853 Y3.566 I-14.059 J9.225
X18.07 Y1.548 I-7.783 J14.005
X4.256 Y9.039 I0 J16.482
G3 X3.174 Y10.244 I-4.51 J-2.959
G2 X1.322 Y12.589 I4.48 J5.443
X0.648 Y15.5 I5.95 J2.911
G1 Y20.5
G2 X1.322 Y23.411 I6.624 J0
X3.174 Y25.756 I6.332 J-3.098
G3 X4.256 Y26.961 I-3.428 J4.165
G2 X6.892 Y30.087 I14.277 J-9.368
X10.215 Y32.468 I10.897 J-11.694
X31.744 Y26.961 I7.773 J-14.446
G3 X32.826 Y25.756 I4.51 J2.959
G2 X34.678 Y23.411 I-4.48 J-5.443
X35.352 Y20.5 I-5.95 J-2.911
G1 Y17.372
G2 X32.18 Y14.088 I-3.286 J0
G3 X28.24 Y11.781 I0.166 J-4.801
G2 X7.039 Y13.165 I-10.24 J6.219
X5.12 Y15.5 I0.461 J2.335
G1 Y20.5
G2 X7.039 Y22.835 I2.38 J0
X28.961 Y22.835 I10.961 J-4.835
X30.88 Y20.5 I-0.461 J-2.335
G1 Y15.5
G2 X28.961 Y13.165 I-2.38 J0
X28.24 Y11.781 I-10.961 J4.835
G3 X28.305 Y11.464 I0.203 J-0.124
G1 X38.763 Y4.013
G2 X38.815 Y3.677 I-0.138 J-0.194
G1 X38.767 Y3.612 Z-5.407 F50
X38.72 Y3.549 Z-5.427
X38.676 Y3.49 Z-5.461
X38.636 Y3.436 Z-5.506
X38.601 Y3.39 Z-5.562
X38.573 Y3.351 Z-5.628
X38.551 Y3.322 Z-5.7
X38.529 Y3.293 Z-5.772
X38.501 Y3.255 Z-5.838
X38.466 Y3.208 Z-5.894
X38.426 Y3.154 Z-5.939
X38.382 Y3.095 Z-5.973
X38.335 Y3.032 Z-5.993
X38.287 Y2.968 Z-6
X38.276 Y2.953
G2 X33.056 Y-2.275 I-20.64 J15.388 F150
G3 X32.848 Y-3.843 I0.662 J-0.885
X34.42 Y-4.015 I0.87 J0.682
G1 X37.121 Y-1.795
G3 X37.419 Y-1.412 I-0.702 J0.854
G1 X39.162 Y2.292
G3 X39.253 Y2.586 I-1 J0.471
G1 X40.328 Y9.229
G3 X38.279 Y9.957 I-1.091 J0.177
G2 X36.348 Y7.469 I-9.984 J5.753
G3 X34.792 Y5.675 I10.113 J-10.348
G2 X22.782 Y-2.279 I-16.792 J12.309
G1 X22.728 Y-2.285
X3.076 Y-2.322
X3.026 Y-2.317
X2.977 Y-2.301
X2.933 Y-2.275
G2 X-2.275 Y2.948 I15.136 J20.304
G3 X-3.842 Y3.162 I-0.888 J-0.658
X-4.019 Y1.59 I0.679 J-0.873
G1 X-1.812 Y-1.115
G3 X-1.427 Y-1.416 I0.857 J0.699
G1 X2.273 Y-3.161
G3 X2.616 Y-3.259 I0.472 J1
G1 X12.833 Y-4.452
G3 X13.216 Y-2.278 I0.128 J1.098
G2 X1.208 Y5.675 I4.784 J20.263
G3 X-0.348 Y7.469 I-11.669 J-8.554
G2 X-2.278 Y9.956 I8.054 J8.241
G1 X-2.295 Y9.993
X-2.306 Y10.033
X-2.31 Y10.074
X-2.323 Y32.905
X-2.317 Y32.956
X-2.302 Y33.004
X-2.276 Y33.048
G2 X1.343 Y36.987 I20.926 J-15.589
X2.921 Y38.274 I16.417 J-18.523
G3 X3.127 Y39.842 I-0.663 J0.885
X1.554 Y40.011 I-0.869 J-0.684
G1 X-1.136 Y37.789
G3 X-1.433 Y37.405 I0.704 J-0.852
G1 X-3.162 Y33.708
G3 X-3.252 Y33.416 I1.001 J-0.468
G1 X-4.328 Y26.771
G3 X-2.279 Y26.043 I1.091 J-0.177
G2 X-0.348 Y28.531 I9.984 J-5.753
G3 X1.208 Y30.325 I-10.112 J10.347
G2 X13.218 Y38.279 I16.792 J-12.309
G1 X13.272 Y38.285
X32.919 Y38.324
X32.97 Y38.319
X33.018 Y38.303
X33.062 Y38.277
G2 X38.275 Y33.053 I-15.073 J-20.254
G3 X39.842 Y32.839 I0.888 J0.658
X40.02 Y34.41 I-0.679 J0.873
G1 X37.81 Y37.117
G3 X37.425 Y37.418 I-0.857 J-0.699
G1 X33.722 Y39.164
G3 X33.378 Y39.262 I-0.471 J-1
G1 X23.167 Y40.452
G3 X22.785 Y38.278 I-0.128 J-1.098
G2 X34.792 Y30.325 I-4.784 J-20.263
G3 X36.348 Y28.531 I11.67 J8.554
G2 X38.278 Y26.044 I-8.054 J-8.241
X37.385 Y21.516 I-3.041 J-1.753
G3 X35.352 Y17.372 I3.207 J-4.144
G1 Y15.5
G2 X34.678 Y12.589 I-6.624 J0
X32.826 Y10.244 I-6.332 J3.098
G3 X31.744 Y9.039 I3.428 J-4.165
G2 X25.853 Y3.566 I-14.059 J9.225
X18.07 Y1.548 I-7.783 J14.005
X4.256 Y9.039 I0 J16.482
G3 X3.174 Y10.244 I-4.51 J-2.959
G2 X1.322 Y12.589 I4.48 J5.443
X0.648 Y15.5 I5.95 J2.911
G1 Y20.5
G2 X1.322 Y23.411 I6.624 J0
X3.174 Y25.756 I6.332 J-3.098
G3 X4.256 Y26.961 I-3.428 J4.165
G2 X6.892 Y30.087 I14.277 J-9.368
X10.215 Y32.468 I10.897 J-11.694
X31.744 Y26.961 I7.773 J-14.446
G3 X32.826 Y25.756 I4.51 J2.959
G2 X34.678 Y23.411 I-4.48 J-5.443
X35.352 Y20.5 I-5.95 J-2.911
G1 Y17.372
G2 X32.18 Y14.088 I-3.286 J0
G3 X28.24 Y11.781 I0.166 J-4.801
G2 X7.039 Y13.165 I-10.24 J6.219
X5.12 Y15.5 I0.461 J2.335
G1 Y20.5
G2 X7.039 Y22.835 I2.38 J0
X28.961 Y22.835 I10.961 J-4.835
X30.88 Y20.5 I-0.461 J-2.335
G1 Y15.5
G2 X28.961 Y13.165 I-2.38 J0
X28.24 Y11.781 I-10.961 J4.835
G3 X28.305 Y11.464 I0.203 J-0.124
G1 X38.763 Y4.013
G2 X38.815 Y3.677 I-0.138 J-0.194
G1 X38.767 Y3.612 Z-6.007 F50
X38.72 Y3.549 Z-6.027
X38.676 Y3.49 Z-6.061
X38.636 Y3.436 Z-6.106
X38.601 Y3.39 Z-6.162
X38.573 Y3.351 Z-6.228
X38.551 Y3.322 Z-6.3
X38.529 Y3.293 Z-6.372
X38.501 Y3.255 Z-6.438
X38.466 Y3.208 Z-6.494
X38.426 Y3.154 Z-6.539
X38.382 Y3.095 Z-6.573
X38.335 Y3.032 Z-6.593
X38.287 Y2.968 Z-6.6
X38.276 Y2.953
G2 X33.056 Y-2.275 I-20.64 J15.388 F150
G3 X32.848 Y-3.843 I0.662 J-0.885
X34.42 Y-4.015 I0.87 J0.682
G1 X37.121 Y-1.795
G3 X37.419 Y-1.412 I-0.702 J0.854
G1 X39.162 Y2.292
G3 X39.253 Y2.586 I-1 J0.471
G1 X40.328 Y9.229
G3 X38.279 Y9.957 I-1.091 J0.177
G2 X36.348 Y7.469 I-9.984 J5.753
G3 X34.792 Y5.675 I10.113 J-10.348
G2 X22.782 Y-2.279 I-16.792 J12.309
G1 X22.728 Y-2.285
X3.076 Y-2.322
X3.026 Y-2.317
X2.977 Y-2.301
X2.933 Y-2.275
G2 X-2.275 Y2.948 I15.136 J20.304
G3 X-3.842 Y3.162 I-0.888 J-0.658
X-4.019 Y1.59 I0.679 J-0.873
G1 X-1.812 Y-1.115
G3 X-1.427 Y-1.416 I0.857 J0.699
G1 X2.273 Y-3.161
G3 X2.616 Y-3.259 I0.472 J1
G1 X12.833 Y-4.452
G3 X13.216 Y-2.278 I0.128 J1.098
G2 X1.208 Y5.675 I4.784 J20.263
G3 X-0.348 Y7.469 I-11.669 J-8.554
G2 X-2.278 Y9.956 I8.054 J8.241
G1 X-2.295 Y9.993
X-2.306 Y10.033
X-2.31 Y10.074
X-2.323 Y32.905
X-2.317 Y32.956
X-2.302 Y33.004
X-2.276 Y33.048
G2 X1.343 Y36.987 I20.926 J-15.589
X2.921 Y38.274 I16.417 J-18.523
G3 X3.127 Y39.842 I-0.663 J0.885
X1.554 Y40.011 I-0.869 J-0.684
G1 X-1.136 Y37.789
G3 X-1.433 Y37.405 I0.704 J-0.852
G1 X-3.162 Y33.708
G3 X-3.252 Y33.416 I1.001 J-0.468
G1 X-4.328 Y26.771
G3 X-2.279 Y26.043 I1.091 J-0.177
G2 X-0.348 Y28.531 I9.984 J-5.753
G3 X1.208 Y30.325 I-10.112 J10.347
G2 X13.218 Y38.279 I16.792 J-12.309
G1 X13.272 Y38.285
X32.919 Y38.324
X32.97 Y38.319
X33.018 Y38.303
X33.062 Y38.277
G2 X38.275 Y33.053 I-15.073 J-20.254
G3 X39.842 Y32.839 I0.888 J0.658
X40.02 Y34.41 I-0.679 J0.873
G1 X37.81 Y37.117
G3 X37.425 Y37.418 I-0.857 J-0.699
G1 X33.722 Y39.164
G3 X33.378 Y39.262 I-0.471 J-1
G1 X23.167 Y40.452
G3 X22.785 Y38.278 I-0.128 J-1.098
G2 X34.792 Y30.325 I-4.784 J-20.263
G3 X36.348 Y28.531 I11.67 J8.554
G2 X38.278 Y26.044 I-8.054 J-8.241
X37.385 Y21.516 I-3.041 J-1.753
G3 X35.352 Y17.372 I3.207 J-4.144
G1 Y15.5
G2 X34.678 Y12.589 I-6.624 J0
X32.826 Y10.244 I-6.332 J3.098
G3 X31.744 Y9.039 I3.428 J-4.165
G2 X25.853 Y3.566 I-14.059 J9.225
X18.07 Y1.548 I-7.783 J14.005
X4.256 Y9.039 I0 J16.482
G3 X3.174 Y10.244 I-4.51 J-2.959
G2 X1.322 Y12.589 I4.48 J5.443
X0.648 Y15.5 I5.95 J2.911
G1 Y20.5
G2 X1.322 Y23.411 I6.624 J0
X3.174 Y25.756 I6.332 J-3.098
G3 X4.256 Y26.961 I-3.428 J4.165
G2 X6.892 Y30.087 I14.277 J-9.368
X10.215 Y32.468 I10.897 J-11.694
X31.744 Y26.961 I7.773 J-14.446
G3 X32.826 Y25.756 I4.51 J2.959
G2 X34.678 Y23.411 I-4.48 J-5.443
X35.352 Y20.5 I-5.95 J-2.911
G1 Y17.372
G2 X32.18 Y14.088 I-3.286 J0
G3 X28.24 Y11.781 I0.166 J-4.801
G2 X7.039 Y13.165 I-10.24 J6.219
X5.12 Y15.5 I0.461 J2.335
G1 Y20.5
G2 X7.039 Y22.835 I2.38 J0
X28.961 Y22.835 I10.961 J-4.835
X30.88 Y20.5 I-0.461 J-2.335
G1 Y15.5
G2 X28.961 Y13.165 I-2.38 J0
X28.24 Y11.781 I-10.961 J4.835
G3 X28.305 Y11.464 I0.203 J-0.124
G1 X38.763 Y4.013
G2 X38.815 Y3.677 I-0.138 J-0.194
G1 X38.767 Y3.612 Z-6.607 F50
X38.72 Y3.549 Z-6.627
X38.676 Y3.49 Z-6.661
X38.636 Y3.436 Z-6.706
X38.601 Y3.39 Z-6.762
X38.573 Y3.351 Z-6.828
X38.551 Y3.322 Z-6.9
X38.529 Y3.293 Z-6.972
X38.501 Y3.255 Z-7.038
X38.466 Y3.208 Z-7.094
X38.426 Y3.154 Z-7.139
X38.382 Y3.095 Z-7.173
X38.335 Y3.032 Z-7.193
X38.287 Y2.968 Z-7.2
X38.276 Y2.953
G2 X33.056 Y-2.275 I-20.64 J15.388 F150
G3 X32.848 Y-3.843 I0.662 J-0.885
X34.42 Y-4.015 I0.87 J0.682
G1 X37.121 Y-1.795
G3 X37.419 Y-1.412 I-0.702 J0.854
G1 X39.162 Y2.292
G3 X39.253 Y2.586 I-1 J0.471
G1 X40.328 Y9.229
G3 X38.279 Y9.957 I-1.091 J0.177
G2 X36.348 Y7.469 I-9.984 J5.753
G3 X34.792 Y5.675 I10.113 J-10.348
G2 X22.782 Y-2.279 I-16.792 J12.309
G1 X22.728 Y-2.285
X3.076 Y-2.322
X3.026 Y-2.317
X2.977 Y-2.301
X2.933 Y-2.275
G2 X-2.275 Y2.948 I15.136 J20.304
G3 X-3.842 Y3.162 I-0.888 J-0.658
X-4.019 Y1.59 I0.679 J-0.873
G1 X-1.812 Y-1.115
G3 X-1.427 Y-1.416 I0.857 J0.699
G1 X2.273 Y-3.161
G3 X2.616 Y-3.259 I0.472 J1
G1 X12.833 Y-4.452
G3 X13.216 Y-2.278 I0.128 J1.098
G2 X1.208 Y5.675 I4.784 J20.263
G3 X-0.348 Y7.469 I-11.669 J-8.554
G2 X-2.278 Y9.956 I8.054 J8.241
G1 X-2.295 Y9.993
X-2.306 Y10.033
X-2.31 Y10.074
X-2.323 Y32.905
X-2.317 Y32.956
X-2.302 Y33.004
X-2.276 Y33.048
G2 X1.343 Y36.987 I20.926 J-15.589
X2.921 Y38.274 I16.417 J-18.523
G3 X3.127 Y39.842 I-0.663 J0.885
X1.554 Y40.011 I-0.869 J-0.684
G1 X-1.136 Y37.789
G3 X-1.433 Y37.405 I0.704 J-0.852
G1 X-3.162 Y33.708
G3 X-3.252 Y33.416 I1.001 J-0.468
G1 X-4.328 Y26.771
G3 X-2.279 Y26.043 I1.091 J-0.177
G2 X-0.348 Y28.531 I9.984 J-5.753
G3 X1.208 Y30.325 I-10.112 J10.347
G2 X13.218 Y38.279 I16.792 J-12.309
G1 X13.272 Y38.285
X32.919 Y38.324
X32.97 Y38.319
X33.018 Y38.303
X33.062 Y38.277
G2 X38.275 Y33.053 I-15.073 J-20.254
G3 X39.842 Y32.839 I0.888 J0.658
X40.02 Y34.41 I-0.679 J0.873
G1 X37.81 Y37.117
G3 X37.425 Y37.418 I-0.857 J-0.699
G1 X33.722 Y39.164
G3 X33.378 Y39.262 I-0.471 J-1
G1 X23.167 Y40.452
G3 X22.785 Y38.278 I-0.128 J-1.098
G2 X34.792 Y30.325 I-4.784 J-20.263
G3 X36.348 Y28.531 I11.67 J8.554
G2 X38.278 Y26.044 I-8.054 J-8.241
X37.385 Y21.516 I-3.041 J-1.753
G3 X35.352 Y17.372 I3.207 J-4.144
G1 Y15.5
G2 X34.678 Y12.589 I-6.624 J0
X32.826 Y10.244 I-6.332 J3.098
G3 X31.744 Y9.039 I3.428 J-4.165
G2 X25.853 Y3.566 I-14.059 J9.225
X18.07 Y1.548 I-7.783 J14.005
X4.256 Y9.039 I0 J16.482
G3 X3.174 Y10.244 I-4.51 J-2.959
G2 X1.322 Y12.589 I4.48 J5.443
X0.648 Y15.5 I5.95 J2.911
G1 Y20.5
G2 X1.322 Y23.411 I6.624 J0
X3.174 Y25.756 I6.332 J-3.098
G3 X4.256 Y26.961 I-3.428 J4.165
G2 X6.892 Y30.087 I14.277 J-9.368
X10.215 Y32.468 I10.897 J-11.694
X31.744 Y26.961 I7.773 J-14.446
G3 X32.826 Y25.756 I4.51 J2.959
G2 X34.678 Y23.411 I-4.48 J-5.443
X35.352 Y20.5 I-5.95 J-2.911
G1 Y17.372
G2 X32.18 Y14.088 I-3.286 J0
G3 X28.24 Y11.781 I0.166 J-4.801
G2 X7.039 Y13.165 I-10.24 J6.219
X5.12 Y15.5 I0.461 J2.335
G1 Y20.5
G2 X7.039 Y22.835 I2.38 J0
X28.961 Y22.835 I10.961 J-4.835
X30.88 Y20.5 I-0.461 J-2.335
G1 Y15.5
G2 X28.961 Y13.165 I-2.38 J0
X28.24 Y11.781 I-10.961 J4.835
G3 X28.305 Y11.464 I0.203 J-0.124
G1 X38.763 Y4.013
G2 X38.815 Y3.677 I-0.138 J-0.194
G1 X38.767 Y3.612 Z-7.207 F50
X38.72 Y3.549 Z-7.227
X38.676 Y3.49 Z-7.261
X38.636 Y3.436 Z-7.306
X38.601 Y3.39 Z-7.362
X38.573 Y3.351 Z-7.428
X38.551 Y3.322 Z-7.5
X38.529 Y3.293 Z-7.572
X38.501 Y3.255 Z-7.638
X38.466 Y3.208 Z-7.694
X38.426 Y3.154 Z-7.739
X38.382 Y3.095 Z-7.773
X38.335 Y3.032 Z-7.793
X38.287 Y2.968 Z-7.8
X38.276 Y2.953
G2 X33.056 Y-2.275 I-20.64 J15.388 F150
G3 X32.848 Y-3.843 I0.662 J-0.885
X34.42 Y-4.015 I0.87 J0.682
G1 X37.121 Y-1.795
G3 X37.419 Y-1.412 I-0.702 J0.854
G1 X39.162 Y2.292
G3 X39.253 Y2.586 I-1 J0.471
G1 X40.328 Y9.229
G3 X38.279 Y9.957 I-1.091 J0.177
G2 X36.348 Y7.469 I-9.984 J5.753
G3 X34.792 Y5.675 I10.113 J-10.348
G2 X22.782 Y-2.279 I-16.792 J12.309
G1 X22.728 Y-2.285
X3.076 Y-2.322
X3.026 Y-2.317
X2.977 Y-2.301
X2.933 Y-2.275
G2 X-2.275 Y2.948 I15.136 J20.304
G3 X-3.842 Y3.162 I-0.888 J-0.658
X-4.019 Y1.59 I0.679 J-0.873
G1 X-1.812 Y-1.115
G3 X-1.427 Y-1.416 I0.857 J0.699
G1 X2.273 Y-3.161
G3 X2.616 Y-3.259 I0.472 J1
G1 X12.833 Y-4.452
G3 X13.216 Y-2.278 I0.128 J1.098
G2 X1.208 Y5.675 I4.784 J20.263
G3 X-0.348 Y7.469 I-11.669 J-8.554
G2 X-2.278 Y9.956 I8.054 J8.241
G1 X-2.295 Y9.993
X-2.306 Y10.033
X-2.31 Y10.074
X-2.323 Y32.905
X-2.317 Y32.956
X-2.302 Y33.004
X-2.276 Y33.048
G2 X1.343 Y36.987 I20.926 J-15.589
X2.921 Y38.274 I16.417 J-18.523
G3 X3.127 Y39.842 I-0.663 J0.885
X1.554 Y40.011 I-0.869 J-0.684
G1 X-1.136 Y37.789
G3 X-1.433 Y37.405 I0.704 J-0.852
G1 X-3.162 Y33.708
G3 X-3.252 Y33.416 I1.001 J-0.468
G1 X-4.328 Y26.771
G3 X-2.279 Y26.043 I1.091 J-0.177
G2 X-0.348 Y28.531 I9.984 J-5.753
G3 X1.208 Y30.325 I-10.112 J10.347
G2 X13.218 Y38.279 I16.792 J-12.309
G1 X13.272 Y38.285
X32.919 Y38.324
X32.97 Y38.319
X33.018 Y38.303
X33.062 Y38.277
G2 X38.275 Y33.053 I-15.073 J-20.254
G3 X39.842 Y32.839 I0.888 J0.658
X40.02 Y34.41 I-0.679 J0.873
G1 X37.81 Y37.117
G3 X37.425 Y37.418 I-0.857 J-0.699
G1 X33.722 Y39.164
G3 X33.378 Y39.262 I-0.471 J-1
G1 X23.167 Y40.452
G3 X22.785 Y38.278 I-0.128 J-1.098
G2 X34.792 Y30.325 I-4.784 J-20.263
G3 X36.348 Y28.531 I11.67 J8.554
G2 X38.278 Y26.044 I-8.054 J-8.241
X37.385 Y21.516 I-3.041 J-1.753
G3 X35.352 Y17.372 I3.207 J-4.144
G1 Y15.5
G2 X34.678 Y12.589 I-6.624 J0
X32.826 Y10.244 I-6.332 J3.098
G3 X31.744 Y9.039 I3.428 J-4.165
G2 X25.853 Y3.566 I-14.059 J9.225
X18.07 Y1.548 I-7.783 J14.005
X4.256 Y9.039 I0 J16.482
G3 X3.174 Y10.244 I-4.51 J-2.959
G2 X1.322 Y12.589 I4.48 J5.443
X0.648 Y15.5 I5.95 J2.911
G1 Y20.5
G2 X1.322 Y23.411 I6.624 J0
X3.174 Y25.756 I6.332 J-3.098
G3 X4.256 Y26.961 I-3.428 J4.165
G2 X6.892 Y30.087 I14.277 J-9.368
X10.215 Y32.468 I10.897 J-11.694
X31.744 Y26.961 I7.773 J-14.446
G3 X32.826 Y25.756 I4.51 J2.959
G2 X34.678 Y23.411 I-4.48 J-5.443
X35.352 Y20.5 I-5.95 J-2.911
G1 Y17.372
G2 X32.18 Y14.088 I-3.286 J0
G3 X28.24 Y11.781 I0.166 J-4.801
G2 X7.039 Y13.165 I-10.24 J6.219
X5.12 Y15.5 I0.461 J2.335
G1 Y20.5
G2 X7.039 Y22.835 I2.38 J0
X28.961 Y22.835 I10.961 J-4.835
X30.88 Y20.5 I-0.461 J-2.335
G1 Y15.5
G2 X28.961 Y13.165 I-2.38 J0
X28.24 Y11.781 I-10.961 J4.835
G3 X28.305 Y11.464 I0.203 J-0.124
G1 X38.763 Y4.013
G2 X38.815 Y3.677 I-0.138 J-0.194
G1 X38.767 Y3.612 Z-7.807 F50
X38.72 Y3.549 Z-7.827
X38.676 Y3.49 Z-7.861
X38.636 Y3.436 Z-7.906
X38.601 Y3.39 Z-7.962
X38.573 Y3.351 Z-8.028
X38.551 Y3.322 Z-8.1
X38.529 Y3.293 Z-8.172
X38.501 Y3.255 Z-8.238
X38.466 Y3.208 Z-8.294
X38.426 Y3.154 Z-8.339
X38.382 Y3.095 Z-8.373
X38.335 Y3.032 Z-8.393
X38.287 Y2.968 Z-8.4
X38.276 Y2.953
G2 X33.056 Y-2.275 I-20.64 J15.388 F150
G3 X32.848 Y-3.843 I0.662 J-0.885
X34.42 Y-4.015 I0.87 J0.682
G1 X37.121 Y-1.795
G3 X37.419 Y-1.412 I-0.702 J0.854
G1 X39.162 Y2.292
G3 X39.253 Y2.586 I-1 J0.471
G1 X40.328 Y9.229
G3 X38.279 Y9.957 I-1.091 J0.177
G2 X36.348 Y7.469 I-9.984 J5.753
G3 X34.792 Y5.675 I10.113 J-10.348
G2 X22.782 Y-2.279 I-16.792 J12.309
G1 X22.728 Y-2.285
X3.076 Y-2.322
X3.026 Y-2.317
X2.977 Y-2.301
X2.933 Y-2.275
G2 X-2.275 Y2.948 I15.136 J20.304
G3 X-3.842 Y3.162 I-0.888 J-0.658
X-4.019 Y1.59 I0.679 J-0.873
G1 X-1.812 Y-1.115
G3 X-1.427 Y-1.416 I0.857 J0.699
G1 X2.273 Y-3.161
G3 X2.616 Y-3.259 I0.472 J1
G1 X12.833 Y-4.452
G3 X13.216 Y-2.278 I0.128 J1.098
G2 X1.208 Y5.675 I4.784 J20.263
G3 X-0.348 Y7.469 I-11.669 J-8.554
G2 X-2.278 Y9.956 I8.054 J8.241
G1 X-2.295 Y9.993
X-2.306 Y10.033
X-2.31 Y10.074
X-2.323 Y32.905
X-2.317 Y32.956
X-2.302 Y33.004
X-2.276 Y33.048
G2 X1.343 Y36.987 I20.926 J-15.589
X2.921 Y38.274 I16.417 J-18.523
G3 X3.127 Y39.842 I-0.663 J0.885
X1.554 Y40.011 I-0.869 J-0.684
G1 X-1.136 Y37.789
G3 X-1.433 Y37.405 I0.704 J-0.852
G1 X-3.162 Y33.708
G3 X-3.252 Y33.416 I1.001 J-0.468
G1 X-4.328 Y26.771
G3 X-2.279 Y26.043 I1.091 J-0.177
G2 X-0.348 Y28.531 I9.984 J-5.753
G3 X1.208 Y30.325 I-10.112 J10.347
G2 X13.218 Y38.279 I16.792 J-12.309
G1 X13.272 Y38.285
X32.919 Y38.324
X32.97 Y38.319
X33.018 Y38.303
X33.062 Y38.277
G2 X38.275 Y33.053 I-15.073 J-20.254
G3 X39.842 Y32.839 I0.888 J0.658
X40.02 Y34.41 I-0.679 J0.873
G1 X37.81 Y37.117
G3 X37.425 Y37.418 I-0.857 J-0.699
G1 X33.722 Y39.164
G3 X33.378 Y39.262 I-0.471 J-1
G1 X23.167 Y40.452
G3 X22.785 Y38.278 I-0.128 J-1.098
G2 X34.792 Y30.325 I-4.784 J-20.263
G3 X36.348 Y28.531 I11.67 J8.554
G2 X38.278 Y26.044 I-8.054 J-8.241
X37.385 Y21.516 I-3.041 J-1.753
G3 X35.352 Y17.372 I3.207 J-4.144
G1 Y15.5
G2 X34.678 Y12.589 I-6.624 J0
X32.826 Y10.244 I-6.332 J3.098
G3 X31.744 Y9.039 I3.428 J-4.165
G2 X25.853 Y3.566 I-14.059 J9.225
X18.07 Y1.548 I-7.783 J14.005
X4.256 Y9.039 I0 J16.482
G3 X3.174 Y10.244 I-4.51 J-2.959
G2 X1.322 Y12.589 I4.48 J5.443
X0.648 Y15.5 I5.95 J2.911
G1 Y20.5
G2 X1.322 Y23.411 I6.624 J0
X3.174 Y25.756 I6.332 J-3.098
G3 X4.256 Y26.961 I-3.428 J4.165
G2 X6.892 Y30.087 I14.277 J-9.368
X10.215 Y32.468 I10.897 J-11.694
X31.744 Y26.961 I7.773 J-14.446
G3 X32.826 Y25.756 I4.51 J2.959
G2 X34.678 Y23.411 I-4.48 J-5.443
X35.352 Y20.5 I-5.95 J-2.911
G1 Y17.372
G2 X32.18 Y14.088 I-3.286 J0
G3 X28.24 Y11.781 I0.166 J-4.801
G2 X7.039 Y13.165 I-10.24 J6.219
X5.12 Y15.5 I0.461 J2.335
G1 Y20.5
G2 X7.039 Y22.835 I2.38 J0
X28.961 Y22.835 I10.961 J-4.835
X30.88 Y20.5 I-0.461 J-2.335
G1 Y15.5
G2 X28.961 Y13.165 I-2.38 J0
X28.24 Y11.781 I-10.961 J4.835
G3 X28.305 Y11.464 I0.203 J-0.124
G1 X38.763 Y4.013
G2 X38.815 Y3.677 I-0.138 J-0.194
G1 X38.767 Y3.612 Z-8.407 F50
X38.72 Y3.549 Z-8.427
X38.676 Y3.49 Z-8.461
X38.636 Y3.436 Z-8.506
X38.601 Y3.39 Z-8.562
X38.573 Y3.351 Z-8.628
X38.551 Y3.322 Z-8.7
X38.529 Y3.293 Z-8.772
X38.501 Y3.255 Z-8.838
X38.466 Y3.208 Z-8.894
X38.426 Y3.154 Z-8.939
X38.382 Y3.095 Z-8.973
X38.335 Y3.032 Z-8.993
X38.287 Y2.968 Z-9
X38.276 Y2.953
G2 X33.056 Y-2.275 I-20.64 J15.388 F150
G3 X32.848 Y-3.843 I0.662 J-0.885
X34.42 Y-4.015 I0.87 J0.682
G1 X37.121 Y-1.795
G3 X37.419 Y-1.412 I-0.702 J0.854
G1 X39.162 Y2.292
G3 X39.253 Y2.586 I-1 J0.471
G1 X40.328 Y9.229
G3 X38.279 Y9.957 I-1.091 J0.177
G2 X36.348 Y7.469 I-9.984 J5.753
G3 X34.792 Y5.675 I10.113 J-10.348
G2 X22.782 Y-2.279 I-16.792 J12.309
G1 X22.728 Y-2.285
X3.076 Y-2.322
X3.026 Y-2.317
X2.977 Y-2.301
X2.933 Y-2.275
G2 X-2.275 Y2.948 I15.136 J20.304
G3 X-3.842 Y3.162 I-0.888 J-0.658
X-4.019 Y1.59 I0.679 J-0.873
G1 X-1.812 Y-1.115
G3 X-1.427 Y-1.416 I0.857 J0.699
G1 X2.273 Y-3.161
G3 X2.616 Y-3.259 I0.472 J1
G1 X12.833 Y-4.452
G3 X13.216 Y-2.278 I0.128 J1.098
G2 X1.208 Y5.675 I4.784 J20.263
G3 X-0.348 Y7.469 I-11.669 J-8.554
G2 X-2.278 Y9.956 I8.054 J8.241
G1 X-2.295 Y9.993
X-2.306 Y10.033
X-2.31 Y10.074
X-2.323 Y32.905
X-2.317 Y32.956
X-2.302 Y33.004
X-2.276 Y33.048
G2 X1.343 Y36.987 I20.926 J-15.589
X2.921 Y38.274 I16.417 J-18.523
G3 X3.127 Y39.842 I-0.663 J0.885
X1.554 Y40.011 I-0.869 J-0.684
G1 X-1.136 Y37.789
G3 X-1.433 Y37.405 I0.704 J-0.852
G1 X-3.162 Y33.708
G3 X-3.252 Y33.416 I1.001 J-0.468
G1 X-4.328 Y26.771
G3 X-2.279 Y26.043 I1.091 J-0.177
G2 X-0.348 Y28.531 I9.984 J-5.753
G3 X1.208 Y30.325 I-10.112 J10.347
G2 X13.218 Y38.279 I16.792 J-12.309
G1 X13.272 Y38.285
X32.919 Y38.324
X32.97 Y38.319
X33.018 Y38.303
X33.062 Y38.277
G2 X38.275 Y33.053 I-15.073 J-20.254
G3 X39.842 Y32.839 I0.888 J0.658
X40.02 Y34.41 I-0.679 J0.873
G1 X37.81 Y37.117
G3 X37.425 Y37.418 I-0.857 J-0.699
G1 X33.722 Y39.164
G3 X33.378 Y39.262 I-0.471 J-1
G1 X23.167 Y40.452
G3 X22.785 Y38.278 I-0.128 J-1.098
G2 X34.792 Y30.325 I-4.784 J-20.263
G3 X36.348 Y28.531 I11.67 J8.554
G2 X38.278 Y26.044 I-8.054 J-8.241
X37.385 Y21.516 I-3.041 J-1.753
G3 X35.352 Y17.372 I3.207 J-4.144
G1 Y15.5
G2 X34.678 Y12.589 I-6.624 J0
X32.826 Y10.244 I-6.332 J3.098
G3 X31.744 Y9.039 I3.428 J-4.165
G2 X25.853 Y3.566 I-14.059 J9.225
X18.07 Y1.548 I-7.783 J14.005
X4.256 Y9.039 I0 J16.482
G3 X3.174 Y10.244 I-4.51 J-2.959
G2 X1.322 Y12.589 I4.48 J5.443
X0.648 Y15.5 I5.95 J2.911
G1 Y20.5
G2 X1.322 Y23.411 I6.624 J0
X3.174 Y25.756 I6.332 J-3.098
G3 X4.256 Y26.961 I-3.428 J4.165
G2 X6.892 Y30.087 I14.277 J-9.368
X10.215 Y32.468 I10.897 J-11.694
X31.744 Y26.961 I7.773 J-14.446
G3 X32.826 Y25.756 I4.51 J2.959
G2 X34.678 Y23.411 I-4.48 J-5.443
X35.352 Y20.5 I-5.95 J-2.911
G1 Y17.372
G2 X32.18 Y14.088 I-3.286 J0
G3 X28.24 Y11.781 I0.166 J-4.801
G2 X7.039 Y13.165 I-10.24 J6.219
X5.12 Y15.5 I0.461 J2.335
G1 Y20.5
G2 X7.039 Y22.835 I2.38 J0
X28.961 Y22.835 I10.961 J-4.835
X30.88 Y20.5 I-0.461 J-2.335
G1 Y15.5
G2 X28.961 Y13.165 I-2.38 J0
X28.24 Y11.781 I-10.961 J4.835
G1 X28.212 Y11.727 Z-8.988
X28.191 Y11.67 Z-8.976
X28.177 Y11.611 Z-8.964
X28.171 Y11.534 Z-8.912
X28.177 Y11.457 Z-8.861
X28.188 Y11.407 Z-8.783
X28.204 Y11.358 Z-8.706
X28.219 Y11.325 Z-8.524
Z10
(When using Fusion 360 for Personal Use, the feedrate of)
(rapid moves is reduced to match the feedrate of cutting)
(moves, which can increase machining time. Unrestricted rapid)
(moves are available with a Fusion 360 Subscription.)

(metal_coupler_14mm_drill)
(Machine)
(  vendor: Autodesk)
(  model: Generic 3-axis)
(  description: This machine has XY axis on the Table and Z axis on the Head)
(T1  D=4.76 CR=0 - ZMIN=-11 - flat end mill)
G90 G94
G17
G21
G28 G91 Z0
G90

(Drill1)
T1
S24000 M3
G54
M8
G0 X26.75 Y26.75
Z10
Z5
Z-4
G1 Z-9 F50
Z-9.5
G2 X29.011 Y26.75 I1.13 J0 F150
X24.37 Y26.75 I-2.321 J0
X29.13 Y26.75 I2.38 J0
X24.37 Y26.75 I-2.38 J0
G1 X26.75
Z-10 F50
G2 X29.011 Y26.75 I1.13 J0 F150
X24.37 Y26.75 I-2.321 J0
X29.13 Y26.75 I2.38 J0
X24.37 Y26.75 I-2.38 J0
G1 X26.75
Z-10.5 F50
G2 X29.011 Y26.75 I1.13 J0 F150
X24.37 Y26.75 I-2.321 J0
X29.13 Y26.75 I2.38 J0
X24.37 Y26.75 I-2.38 J0
G1 X26.75
Z-11 F50
G2 X29.011 Y26.75 I1.13 J0 F150
X24.37 Y26.75 I-2.321 J0
X29.13 Y26.75 I2.38 J0
X24.37 Y26.75 I-2.38 J0
G1 X26.75
G0 Z5
X9.25
Z-4
G1 Z-9 F50
Z-9.5
G2 X11.511 Y26.75 I1.13 J0 F150
X6.87 Y26.75 I-2.321 J0
X11.63 Y26.75 I2.38 J0
X6.87 Y26.75 I-2.38 J0
G1 X9.25
Z-10 F50
G2 X11.511 Y26.75 I1.13 J0 F150
X6.87 Y26.75 I-2.321 J0
X11.63 Y26.75 I2.38 J0
X6.87 Y26.75 I-2.38 J0
G1 X9.25
Z-10.5 F50
G2 X11.511 Y26.75 I1.13 J0 F150
X6.87 Y26.75 I-2.321 J0
X11.63 Y26.75 I2.38 J0
X6.87 Y26.75 I-2.38 J0
G1 X9.25
Z-11 F50
G2 X11.511 Y26.75 I1.13 J0 F150
X6.87 Y26.75 I-2.321 J0
X11.63 Y26.75 I2.38 J0
X6.87 Y26.75 I-2.38 J0
G1 X9.25
G0 Z5
Y9.25
Z-4
G1 Z-9 F50
Z-9.5
G2 X11.511 Y9.25 I1.13 J0 F150
X6.87 Y9.25 I-2.321 J0
X11.63 Y9.25 I2.38 J0
X6.87 Y9.25 I-2.38 J0
G1 X9.25
Z-10 F50
G2 X11.511 Y9.25 I1.13 J0 F150
X6.87 Y9.25 I-2.321 J0
X11.63 Y9.25 I2.38 J0
X6.87 Y9.25 I-2.38 J0
G1 X9.25
Z-10.5 F50
G2 X11.511 Y9.25 I1.13 J0 F150
X6.87 Y9.25 I-2.321 J0
X11.63 Y9.25 I2.38 J0
X6.87 Y9.25 I-2.38 J0
G1 X9.25
Z-11 F50
G2 X11.511 Y9.25 I1.13 J0 F150
X6.87 Y9.25 I-2.321 J0
X11.63 Y9.25 I2.38 J0
X6.87 Y9.25 I-2.38 J0
G1 X9.25
G0 Z5
X26.75
Z-4
G1 Z-9 F50
Z-9.5
G2 X29.011 Y9.25 I1.13 J0 F150
X24.37 Y9.25 I-2.321 J0
X29.13 Y9.25 I2.38 J0
X24.37 Y9.25 I-2.38 J0
G1 X26.75
Z-10 F50
G2 X29.011 Y9.25 I1.13 J0 F150
X24.37 Y9.25 I-2.321 J0
X29.13 Y9.25 I2.38 J0
X24.37 Y9.25 I-2.38 J0
G1 X26.75
Z-10.5 F50
G2 X29.011 Y9.25 I1.13 J0 F150
X24.37 Y9.25 I-2.321 J0
X29.13 Y9.25 I2.38 J0
X24.37 Y9.25 I-2.38 J0
G1 X26.75
Z-11 F50
G2 X29.011 Y9.25 I1.13 J0 F150
X24.37 Y9.25 I-2.321 J0
X29.13 Y9.25 I2.38 J0
X24.37 Y9.25 I-2.38 J0
G1 X26.75
G0 Z5
Z10
M9
G28 G91 Z0
G90
G28 G91 X0 Y0
G90

(2D Contour5)
G0 X18.476 Y-2.808
G1 Z10 F250
Z-3
Z-6.4 F25
Z-8.124
G19 G3 Y-2.332 Z-8.6 J0.476 K0 F250
G1 Y-1.856
G17 G3 X18 Y-1.38 I-0.476 J0
G2 X18 Y37.38 I0 J19.38
X18 Y-1.38 I0 J-19.38
G3 X17.524 Y-1.856 I0 J-0.476
G1 Y-2.332
G19 G2 Y-2.808 Z-8.124 J0 K0.476
G1 Z5
X18.476
Z-3
Z-7 F25
Z-8.724
G3 Y-2.332 Z-9.2 J0.476 K0 F250
G1 Y-1.856
G17 G3 X18 Y-1.38 I-0.476 J0
G2 X18 Y37.38 I0 J19.38
X18 Y-1.38 I0 J-19.38
G3 X17.524 Y-1.856 I0 J-0.476
G1 Y-2.332
G19 G2 Y-2.808 Z-8.724 J0 K0.476
G1 Z5
X18.476
Z-3
Z-7.6 F25
Z-9.324
G3 Y-2.332 Z-9.8 J0.476 K0 F250
G1 Y-1.856
G17 G3 X18 Y-1.38 I-0.476 J0
G2 X18 Y37.38 I0 J19.38
X18 Y-1.38 I0 J-19.38
G3 X17.524 Y-1.856 I0 J-0.476
G1 Y-2.332
G19 G2 Y-2.808 Z-9.324 J0 K0.476
G1 Z5
X18.476
Z-3
Z-8.2 F25
Z-9.924
G3 Y-2.332 Z-10.4 J0.476 K0 F250
G1 Y-1.856
G17 G3 X18 Y-1.38 I-0.476 J0
G2 X18 Y37.38 I0 J19.38
X18 Y-1.38 I0 J-19.38
G3 X17.524 Y-1.856 I0 J-0.476
G1 Y-2.332
G19 G2 Y-2.808 Z-9.924 J0 K0.476
G1 Z5
X18.476
Z-3
Z-8.8 F25
Z-10.524
G3 Y-2.332 Z-11 J0.476 K0 F250
G1 Y-1.856
G17 G3 X18 Y-1.38 I-0.476 J0
G2 X18 Y37.38 I0 J19.38
X18 Y-1.38 I0 J-19.38
G3 X17.524 Y-1.856 I0 J-0.476
G1 Y-2.332
G19 G2 Y-2.808 Z-10.524 J0 K0.476
G1 Z5
X18.476
Z-3
Z-9.4 F25
Z-11.124
G3 Y-2.332 Z-11.6 J0.476 K0 F250
G1 Y-1.856
G17 G3 X18 Y-1.38 I-0.476 J0
G2 X18 Y37.38 I0 J19.38
X18 Y-1.38 I0 J-19.38
G3 X17.524 Y-1.856 I0 J-0.476
G1 Y-2.332
G19 G2 Y-2.808 Z-11.124 J0 K0.476
G1 Z5
X18.476
Z-3
Z-10 F25
Z-11.724
G3 Y-2.332 Z-12.2 J0.476 K0 F250
G1 Y-1.856
G17 G3 X18 Y-1.38 I-0.476 J0
G2 X18 Y37.38 I0 J19.38
X18 Y-1.38 I0 J-19.38
G3 X17.524 Y-1.856 I0 J-0.476
G1 Y-2.332
G19 G2 Y-2.808 Z-11.724 J0 K0.476
G1 Z5
X18.476
Z-3
Z-10.6 F25
Z-12.324
G3 Y-2.332 Z-12.8 J0.476 K0 F250
G1 Y-1.856
G17 G3 X18 Y-1.38 I-0.476 J0
G2 X18 Y37.38 I0 J19.38
X18 Y-1.38 I0 J-19.38
G3 X17.524 Y-1.856 I0 J-0.476
G1 Y-2.332
G19 G2 Y-2.808 Z-12.324 J0 K0.476
G1 Z5
X18.476
Z-3
Z-11.2 F25
Z-12.924
G3 Y-2.332 Z-13.4 J0.476 K0 F250
G1 Y-1.856
G17 G3 X18 Y-1.38 I-0.476 J0
G2 X18 Y37.38 I0 J19.38
X18 Y-1.38 I0 J-19.38
G3 X17.524 Y-1.856 I0 J-0.476
G1 Y-2.332
G19 G2 Y-2.808 Z-12.924 J0 K0.476
G1 Z5
X18.476
Z-3
Z-11.8 F25
Z-13.524
G3 Y-2.332 Z-14 J0.476 K0 F250
G1 Y-1.856
G17 G3 X18 Y-1.38 I-0.476 J0
G2 X18 Y37.38 I0 J19.38
X18 Y-1.38 I0 J-19.38
G3 X17.524 Y-1.856 I0 J-0.476
G1 Y-2.332
G19 G2 Y-2.808 Z-13.524 J0 K0.476
G1 Z10
G17
M9
G28 G91 Z0
G90
G28 G91 X0 Y0
G90
M5
M30
