(metal_coupler_8mm_drill)
(Machine)
(  vendor: Autodesk)
(  model: Generic 3-axis)
(  description: This machine has XY axis on the Table and Z axis on the Head)
(T3  D=3.1 CR=0 - ZMIN=-14 - flat end mill)
G90 G94
G17
G21

(Drill1)
T3
S24000 M3
G54
M8
G0 X26.75 Y26.75
Z10
Z5
Z-4
G1 Z-9 F150
Z-9.5
X26.758 Y26.788 F300
X26.779 Y26.821
X26.812 Y26.842
X26.85 Y26.85
X26.888 Y26.842
X26.921 Y26.821
X26.942 Y26.788
X26.95 Y26.75
G2 X26.55 Y26.75 I-0.2 J0
X26.95 Y26.75 I0.2 J0
G1 X26.75
Z-10 F150
X26.758 Y26.788 F300
X26.779 Y26.821
X26.812 Y26.842
X26.85 Y26.85
X26.888 Y26.842
X26.921 Y26.821
X26.942 Y26.788
X26.95 Y26.75
G2 X26.55 Y26.75 I-0.2 J0
X26.95 Y26.75 I0.2 J0
G1 X26.75
Z-10.5 F150
X26.758 Y26.788 F300
X26.779 Y26.821
X26.812 Y26.842
X26.85 Y26.85
X26.888 Y26.842
X26.921 Y26.821
X26.942 Y26.788
X26.95 Y26.75
G2 X26.55 Y26.75 I-0.2 J0
X26.95 Y26.75 I0.2 J0
G1 X26.75
Z-11 F150
X26.758 Y26.788 F300
X26.779 Y26.821
X26.812 Y26.842
X26.85 Y26.85
X26.888 Y26.842
X26.921 Y26.821
X26.942 Y26.788
X26.95 Y26.75
G2 X26.55 Y26.75 I-0.2 J0
X26.95 Y26.75 I0.2 J0
G1 X26.75
Z-11.5 F150
X26.758 Y26.788 F300
X26.779 Y26.821
X26.812 Y26.842
X26.85 Y26.85
X26.888 Y26.842
X26.921 Y26.821
X26.942 Y26.788
X26.95 Y26.75
G2 X26.55 Y26.75 I-0.2 J0
X26.95 Y26.75 I0.2 J0
G1 X26.75
Z-12 F150
X26.758 Y26.788 F300
X26.779 Y26.821
X26.812 Y26.842
X26.85 Y26.85
X26.888 Y26.842
X26.921 Y26.821
X26.942 Y26.788
X26.95 Y26.75
G2 X26.55 Y26.75 I-0.2 J0
X26.95 Y26.75 I0.2 J0
G1 X26.75
Z-12.5 F150
X26.758 Y26.788 F300
X26.779 Y26.821
X26.812 Y26.842
X26.85 Y26.85
X26.888 Y26.842
X26.921 Y26.821
X26.942 Y26.788
X26.95 Y26.75
G2 X26.55 Y26.75 I-0.2 J0
X26.95 Y26.75 I0.2 J0
G1 X26.75
Z-13 F150
X26.758 Y26.788 F300
X26.779 Y26.821
X26.812 Y26.842
X26.85 Y26.85
X26.888 Y26.842
X26.921 Y26.821
X26.942 Y26.788
X26.95 Y26.75
G2 X26.55 Y26.75 I-0.2 J0
X26.95 Y26.75 I0.2 J0
G1 X26.75
Z-13.5 F150
X26.758 Y26.788 F300
X26.779 Y26.821
X26.812 Y26.842
X26.85 Y26.85
X26.888 Y26.842
X26.921 Y26.821
X26.942 Y26.788
X26.95 Y26.75
G2 X26.55 Y26.75 I-0.2 J0
X26.95 Y26.75 I0.2 J0
G1 X26.75
Z-14 F150
X26.758 Y26.788 F300
X26.779 Y26.821
X26.812 Y26.842
X26.85 Y26.85
X26.888 Y26.842
X26.921 Y26.821
X26.942 Y26.788
X26.95 Y26.75
G2 X26.55 Y26.75 I-0.2 J0
X26.95 Y26.75 I0.2 J0
G1 X26.75
G0 Z5
X9.25
Z-4
G1 Z-9 F150
Z-9.5
X9.258 Y26.788 F300
X9.279 Y26.821
X9.312 Y26.842
X9.35 Y26.85
X9.388 Y26.842
X9.421 Y26.821
X9.442 Y26.788
X9.45 Y26.75
G2 X9.05 Y26.75 I-0.2 J0
X9.45 Y26.75 I0.2 J0
G1 X9.25
Z-10 F150
X9.258 Y26.788 F300
X9.279 Y26.821
X9.312 Y26.842
X9.35 Y26.85
X9.388 Y26.842
X9.421 Y26.821
X9.442 Y26.788
X9.45 Y26.75
G2 X9.05 Y26.75 I-0.2 J0
X9.45 Y26.75 I0.2 J0
G1 X9.25
Z-10.5 F150
X9.258 Y26.788 F300
X9.279 Y26.821
X9.312 Y26.842
X9.35 Y26.85
X9.388 Y26.842
X9.421 Y26.821
X9.442 Y26.788
X9.45 Y26.75
G2 X9.05 Y26.75 I-0.2 J0
X9.45 Y26.75 I0.2 J0
G1 X9.25
Z-11 F150
X9.258 Y26.788 F300
X9.279 Y26.821
X9.312 Y26.842
X9.35 Y26.85
X9.388 Y26.842
X9.421 Y26.821
X9.442 Y26.788
X9.45 Y26.75
G2 X9.05 Y26.75 I-0.2 J0
X9.45 Y26.75 I0.2 J0
G1 X9.25
Z-11.5 F150
X9.258 Y26.788 F300
X9.279 Y26.821
X9.312 Y26.842
X9.35 Y26.85
X9.388 Y26.842
X9.421 Y26.821
X9.442 Y26.788
X9.45 Y26.75
G2 X9.05 Y26.75 I-0.2 J0
X9.45 Y26.75 I0.2 J0
G1 X9.25
Z-12 F150
X9.258 Y26.788 F300
X9.279 Y26.821
X9.312 Y26.842
X9.35 Y26.85
X9.388 Y26.842
X9.421 Y26.821
X9.442 Y26.788
X9.45 Y26.75
G2 X9.05 Y26.75 I-0.2 J0
X9.45 Y26.75 I0.2 J0
G1 X9.25
Z-12.5 F150
X9.258 Y26.788 F300
X9.279 Y26.821
X9.312 Y26.842
X9.35 Y26.85
X9.388 Y26.842
X9.421 Y26.821
X9.442 Y26.788
X9.45 Y26.75
G2 X9.05 Y26.75 I-0.2 J0
X9.45 Y26.75 I0.2 J0
G1 X9.25
Z-13 F150
X9.258 Y26.788 F300
X9.279 Y26.821
X9.312 Y26.842
X9.35 Y26.85
X9.388 Y26.842
X9.421 Y26.821
X9.442 Y26.788
X9.45 Y26.75
G2 X9.05 Y26.75 I-0.2 J0
X9.45 Y26.75 I0.2 J0
G1 X9.25
Z-13.5 F150
X9.258 Y26.788 F300
X9.279 Y26.821
X9.312 Y26.842
X9.35 Y26.85
X9.388 Y26.842
X9.421 Y26.821
X9.442 Y26.788
X9.45 Y26.75
G2 X9.05 Y26.75 I-0.2 J0
X9.45 Y26.75 I0.2 J0
G1 X9.25
Z-14 F150
X9.258 Y26.788 F300
X9.279 Y26.821
X9.312 Y26.842
X9.35 Y26.85
X9.388 Y26.842
X9.421 Y26.821
X9.442 Y26.788
X9.45 Y26.75
G2 X9.05 Y26.75 I-0.2 J0
X9.45 Y26.75 I0.2 J0
G1 X9.25
G0 Z5
Y9.25
Z-4
G1 Z-9 F150
Z-9.5
X9.258 Y9.288 F300
X9.279 Y9.321
X9.312 Y9.342
X9.35 Y9.35
X9.388 Y9.342
X9.421 Y9.321
X9.442 Y9.288
X9.45 Y9.25
G2 X9.05 Y9.25 I-0.2 J0
X9.45 Y9.25 I0.2 J0
G1 X9.25
Z-10 F150
X9.258 Y9.288 F300
X9.279 Y9.321
X9.312 Y9.342
X9.35 Y9.35
X9.388 Y9.342
X9.421 Y9.321
X9.442 Y9.288
X9.45 Y9.25
G2 X9.05 Y9.25 I-0.2 J0
X9.45 Y9.25 I0.2 J0
G1 X9.25
Z-10.5 F150
X9.258 Y9.288 F300
X9.279 Y9.321
X9.312 Y9.342
X9.35 Y9.35
X9.388 Y9.342
X9.421 Y9.321
X9.442 Y9.288
X9.45 Y9.25
G2 X9.05 Y9.25 I-0.2 J0
X9.45 Y9.25 I0.2 J0
G1 X9.25
Z-11 F150
X9.258 Y9.288 F300
X9.279 Y9.321
X9.312 Y9.342
X9.35 Y9.35
X9.388 Y9.342
X9.421 Y9.321
X9.442 Y9.288
X9.45 Y9.25
G2 X9.05 Y9.25 I-0.2 J0
X9.45 Y9.25 I0.2 J0
G1 X9.25
Z-11.5 F150
X9.258 Y9.288 F300
X9.279 Y9.321
X9.312 Y9.342
X9.35 Y9.35
X9.388 Y9.342
X9.421 Y9.321
X9.442 Y9.288
X9.45 Y9.25
G2 X9.05 Y9.25 I-0.2 J0
X9.45 Y9.25 I0.2 J0
G1 X9.25
Z-12 F150
X9.258 Y9.288 F300
X9.279 Y9.321
X9.312 Y9.342
X9.35 Y9.35
X9.388 Y9.342
X9.421 Y9.321
X9.442 Y9.288
X9.45 Y9.25
G2 X9.05 Y9.25 I-0.2 J0
X9.45 Y9.25 I0.2 J0
G1 X9.25
Z-12.5 F150
X9.258 Y9.288 F300
X9.279 Y9.321
X9.312 Y9.342
X9.35 Y9.35
X9.388 Y9.342
X9.421 Y9.321
X9.442 Y9.288
X9.45 Y9.25
G2 X9.05 Y9.25 I-0.2 J0
X9.45 Y9.25 I0.2 J0
G1 X9.25
Z-13 F150
X9.258 Y9.288 F300
X9.279 Y9.321
X9.312 Y9.342
X9.35 Y9.35
X9.388 Y9.342
X9.421 Y9.321
X9.442 Y9.288
X9.45 Y9.25
G2 X9.05 Y9.25 I-0.2 J0
X9.45 Y9.25 I0.2 J0
G1 X9.25
Z-13.5 F150
X9.258 Y9.288 F300
X9.279 Y9.321
X9.312 Y9.342
X9.35 Y9.35
X9.388 Y9.342
X9.421 Y9.321
X9.442 Y9.288
X9.45 Y9.25
G2 X9.05 Y9.25 I-0.2 J0
X9.45 Y9.25 I0.2 J0
G1 X9.25
Z-14 F150
X9.258 Y9.288 F300
X9.279 Y9.321
X9.312 Y9.342
X9.35 Y9.35
X9.388 Y9.342
X9.421 Y9.321
X9.442 Y9.288
X9.45 Y9.25
G2 X9.05 Y9.25 I-0.2 J0
X9.45 Y9.25 I0.2 J0
G1 X9.25
G0 Z5
X26.75
Z-4
G1 Z-9 F150
Z-9.5
X26.758 Y9.288 F300
X26.779 Y9.321
X26.812 Y9.342
X26.85 Y9.35
X26.888 Y9.342
X26.921 Y9.321
X26.942 Y9.288
X26.95 Y9.25
G2 X26.55 Y9.25 I-0.2 J0
X26.95 Y9.25 I0.2 J0
G1 X26.75
Z-10 F150
X26.758 Y9.288 F300
X26.779 Y9.321
X26.812 Y9.342
X26.85 Y9.35
X26.888 Y9.342
X26.921 Y9.321
X26.942 Y9.288
X26.95 Y9.25
G2 X26.55 Y9.25 I-0.2 J0
X26.95 Y9.25 I0.2 J0
G1 X26.75
Z-10.5 F150
X26.758 Y9.288 F300
X26.779 Y9.321
X26.812 Y9.342
X26.85 Y9.35
X26.888 Y9.342
X26.921 Y9.321
X26.942 Y9.288
X26.95 Y9.25
G2 X26.55 Y9.25 I-0.2 J0
X26.95 Y9.25 I0.2 J0
G1 X26.75
Z-11 F150
X26.758 Y9.288 F300
X26.779 Y9.321
X26.812 Y9.342
X26.85 Y9.35
X26.888 Y9.342
X26.921 Y9.321
X26.942 Y9.288
X26.95 Y9.25
G2 X26.55 Y9.25 I-0.2 J0
X26.95 Y9.25 I0.2 J0
G1 X26.75
Z-11.5 F150
X26.758 Y9.288 F300
X26.779 Y9.321
X26.812 Y9.342
X26.85 Y9.35
X26.888 Y9.342
X26.921 Y9.321
X26.942 Y9.288
X26.95 Y9.25
G2 X26.55 Y9.25 I-0.2 J0
X26.95 Y9.25 I0.2 J0
G1 X26.75
Z-12 F150
X26.758 Y9.288 F300
X26.779 Y9.321
X26.812 Y9.342
X26.85 Y9.35
X26.888 Y9.342
X26.921 Y9.321
X26.942 Y9.288
X26.95 Y9.25
G2 X26.55 Y9.25 I-0.2 J0
X26.95 Y9.25 I0.2 J0
G1 X26.75
Z-12.5 F150
X26.758 Y9.288 F300
X26.779 Y9.321
X26.812 Y9.342
X26.85 Y9.35
X26.888 Y9.342
X26.921 Y9.321
X26.942 Y9.288
X26.95 Y9.25
G2 X26.55 Y9.25 I-0.2 J0
X26.95 Y9.25 I0.2 J0
G1 X26.75
Z-13 F150
X26.758 Y9.288 F300
X26.779 Y9.321
X26.812 Y9.342
X26.85 Y9.35
X26.888 Y9.342
X26.921 Y9.321
X26.942 Y9.288
X26.95 Y9.25
G2 X26.55 Y9.25 I-0.2 J0
X26.95 Y9.25 I0.2 J0
G1 X26.75
Z-13.5 F150
X26.758 Y9.288 F300
X26.779 Y9.321
X26.812 Y9.342
X26.85 Y9.35
X26.888 Y9.342
X26.921 Y9.321
X26.942 Y9.288
X26.95 Y9.25
G2 X26.55 Y9.25 I-0.2 J0
X26.95 Y9.25 I0.2 J0
G1 X26.75
Z-14 F150
X26.758 Y9.288 F300
X26.779 Y9.321
X26.812 Y9.342
X26.85 Y9.35
X26.888 Y9.342
X26.921 Y9.321
X26.942 Y9.288
X26.95 Y9.25
G2 X26.55 Y9.25 I-0.2 J0
X26.95 Y9.25 I0.2 J0
G1 X26.75
G0 Z5
Z10
M9
M5
M30
