( Made using CamBam - http://www.cambam.co.uk )
( e-stop23mm 12/9/2021 6:15:16 PM )
( Post processor: Default )
( T0 : 3.1 )
G21 G90 G64 G40
G0 Z3.0
( T0 : 3.1 )
T0 M6
( Profile1 )
G17
M3 S24000
G0 X20.8107 Y0.0
G0 Z1.0
G1 F40.0 Z-0.4
G2 F400.0 X-10.4053 Y-18.0226 I-20.8107 J0.0
G2 Y18.0226 I10.4053 J18.0226
G2 X20.8107 Y0.0 I10.4053 J-18.0226
G1 F40.0 Z-0.8
G2 F400.0 X-10.4053 Y-18.0226 I-20.8107 J0.0
G2 Y18.0226 I10.4053 J18.0226
G2 X20.8107 Y0.0 I10.4053 J-18.0226
G1 F40.0 Z-1.2
G2 F400.0 X-10.4053 Y-18.0226 I-20.8107 J0.0
G2 Y18.0226 I10.4053 J18.0226
G2 X20.8107 Y0.0 I10.4053 J-18.0226
G1 F40.0 Z-1.6
G2 F400.0 X-10.4053 Y-18.0226 I-20.8107 J0.0
G2 Y18.0226 I10.4053 J18.0226
G2 X20.8107 Y0.0 I10.4053 J-18.0226
G1 F40.0 Z-2.0
G2 F400.0 X-10.4053 Y-18.0226 I-20.8107 J0.0
G2 Y18.0226 I10.4053 J18.0226
G2 X20.8107 Y0.0 I10.4053 J-18.0226
G1 F40.0 Z-2.4
G2 F400.0 X-10.4053 Y-18.0226 I-20.8107 J0.0
G2 Y18.0226 I10.4053 J18.0226
G2 X20.8107 Y0.0 I10.4053 J-18.0226
G1 F40.0 Z-2.8
G2 F400.0 X-10.4053 Y-18.0226 I-20.8107 J0.0
G2 Y18.0226 I10.4053 J18.0226
G2 X20.8107 Y0.0 I10.4053 J-18.0226
G1 F40.0 Z-3.2
G2 F400.0 X-10.4053 Y-18.0226 I-20.8107 J0.0
G2 Y18.0226 I10.4053 J18.0226
G2 X20.8107 Y0.0 I10.4053 J-18.0226
G1 F40.0 Z-3.6
G2 F400.0 X-10.4053 Y-18.0226 I-20.8107 J0.0
G2 Y18.0226 I10.4053 J18.0226
G2 X20.8107 Y0.0 I10.4053 J-18.0226
G1 F40.0 Z-4.0
G2 F400.0 X-10.4053 Y-18.0226 I-20.8107 J0.0
G2 Y18.0226 I10.4053 J18.0226
G2 X20.8107 Y0.0 I10.4053 J-18.0226
G1 F40.0 Z-4.4
G2 F400.0 X-10.4053 Y-18.0226 I-20.8107 J0.0
G2 Y18.0226 I10.4053 J18.0226
G2 X20.8107 Y0.0 I10.4053 J-18.0226
G1 F40.0 Z-4.8
G2 F400.0 X-10.4053 Y-18.0226 I-20.8107 J0.0
G2 Y18.0226 I10.4053 J18.0226
G2 X20.8107 Y0.0 I10.4053 J-18.0226
G1 F40.0 Z-5.0
G2 F400.0 X-10.4053 Y-18.0226 I-20.8107 J0.0
G2 Y18.0226 I10.4053 J18.0226
G2 X20.8107 Y0.0 I10.4053 J-18.0226
G0 Z3.0
M5
M30
