( Made using CamBam - http://www.cambam.co.uk )
( flip_switch12mm 12/9/2021 8:13:27 PM )
( Post processor: Default )
( T0 : 3.1 )
G21 G90 G64 G40
G0 Z3.0
( T0 : 3.1 )
T0 M6
( Profile1 )
G17
M3 S24000
G0 X4.5 Y0.0
G0 Z1.0
G1 F40.0 Z-0.4
G2 F400.0 X-2.25 Y-3.8971 I-4.5 J0.0
G2 Y3.8971 I2.25 J3.8971
G2 X4.5 Y0.0 I2.25 J-3.8971
G1 F40.0 Z-0.8
G2 F400.0 X-2.25 Y-3.8971 I-4.5 J0.0
G2 Y3.8971 I2.25 J3.8971
G2 X4.5 Y0.0 I2.25 J-3.8971
G1 F40.0 Z-1.2
G2 F400.0 X-2.25 Y-3.8971 I-4.5 J0.0
G2 Y3.8971 I2.25 J3.8971
G2 X4.5 Y0.0 I2.25 J-3.8971
G1 F40.0 Z-1.6
G2 F400.0 X-2.25 Y-3.8971 I-4.5 J0.0
G2 Y3.8971 I2.25 J3.8971
G2 X4.5 Y0.0 I2.25 J-3.8971
G1 F40.0 Z-2.0
G2 F400.0 X-2.25 Y-3.8971 I-4.5 J0.0
G2 Y3.8971 I2.25 J3.8971
G2 X4.5 Y0.0 I2.25 J-3.8971
G1 F40.0 Z-2.4
G2 F400.0 X-2.25 Y-3.8971 I-4.5 J0.0
G2 Y3.8971 I2.25 J3.8971
G2 X4.5 Y0.0 I2.25 J-3.8971
G1 F40.0 Z-2.8
G2 F400.0 X-2.25 Y-3.8971 I-4.5 J0.0
G2 Y3.8971 I2.25 J3.8971
G2 X4.5 Y0.0 I2.25 J-3.8971
G1 F40.0 Z-3.2
G2 F400.0 X-2.25 Y-3.8971 I-4.5 J0.0
G2 Y3.8971 I2.25 J3.8971
G2 X4.5 Y0.0 I2.25 J-3.8971
G1 F40.0 Z-3.6
G2 F400.0 X-2.25 Y-3.8971 I-4.5 J0.0
G2 Y3.8971 I2.25 J3.8971
G2 X4.5 Y0.0 I2.25 J-3.8971
G1 F40.0 Z-4.0
G2 F400.0 X-2.25 Y-3.8971 I-4.5 J0.0
G2 Y3.8971 I2.25 J3.8971
G2 X4.5 Y0.0 I2.25 J-3.8971
G1 F40.0 Z-4.4
G2 F400.0 X-2.25 Y-3.8971 I-4.5 J0.0
G2 Y3.8971 I2.25 J3.8971
G2 X4.5 Y0.0 I2.25 J-3.8971
G1 F40.0 Z-4.8
G2 F400.0 X-2.25 Y-3.8971 I-4.5 J0.0
G2 Y3.8971 I2.25 J3.8971
G2 X4.5 Y0.0 I2.25 J-3.8971
G1 F40.0 Z-5.0
G2 F400.0 X-2.25 Y-3.8971 I-4.5 J0.0
G2 Y3.8971 I2.25 J3.8971
G2 X4.5 Y0.0 I2.25 J-3.8971
G0 Z3.0
M5
M30
