( Made using CamBam - http://www.cambam.co.uk )
( temp_panel 12/11/2021 7:24:30 PM )
( Post processor: Default )
( T0 : 1.0 )
G21 G90 G64 G40
G0 Z3.0
( T0 : 1.0 )
T0 M6
( Profile1 )
G17
M3 S14000
G0 X0.5 Y0.5
G0 Z1.0
G1 F40.0 Z-0.4
G1 F300.0 Y25.5
G1 X44.5
G1 Y0.5
G1 X0.5
G1 F40.0 Z-0.8
G1 F300.0 Y25.5
G1 X44.5
G1 Y0.5
G1 X0.5
G1 F40.0 Z-1.2
G1 F300.0 Y25.5
G1 X44.5
G1 Y0.5
G1 X0.5
G1 F40.0 Z-1.6
G1 F300.0 Y25.5
G1 X44.5
G1 Y0.5
G1 X0.5
G1 F40.0 Z-2.0
G1 F300.0 Y25.5
G1 X44.5
G1 Y0.5
G1 X0.5
G1 F40.0 Z-2.4
G1 F300.0 Y25.5
G1 X44.5
G1 Y0.5
G1 X0.5
G1 F40.0 Z-2.8
G1 F300.0 Y25.5
G1 X44.5
G1 Y0.5
G1 X0.5
G1 F40.0 Z-3.2
G1 F300.0 Y25.5
G1 X44.5
G1 Y0.5
G1 X0.5
G1 F40.0 Z-3.6
G1 F300.0 Y25.5
G1 X44.5
G1 Y0.5
G1 X0.5
G1 F40.0 Z-4.0
G1 F300.0 Y25.5
G1 X44.5
G1 Y0.5
G1 X0.5
G1 F40.0 Z-4.4
G1 F300.0 Y25.5
G1 X44.5
G1 Y0.5
G1 X0.5
G1 F40.0 Z-4.8
G1 F300.0 Y25.5
G1 X44.5
G1 Y0.5
G1 X0.5
G1 F40.0 Z-5.0
G1 F300.0 Y25.5
G1 X44.5
G1 Y0.5
G1 X0.5
G0 Z3.0
M5
M30
