( Made using CamBam - http://www.cambam.co.uk )
( 30x30_D3_slot 11/20/2021 3:17:44 PM )
( Post processor: Default )
( T0 : 3.0 )
G21 G90 G64 G40
G0 Z3.0
( T0 : 3.0 )
T0 M6
( Pocket1 )
G17
M3 S24000
G0 X14.7 Y14.7
G0 Z1.0
G1 F40.0 Z-0.3
G1 F220.0 Y15.3
G1 X15.3
G1 Y14.7
G1 X14.7
G1 F40.0 X13.5
G1 F220.0 Y16.5
G1 X16.5
G1 Y13.5
G1 X13.5
G1 Y14.7
G1 F40.0 X12.3
G1 F220.0 Y17.7
G1 X17.7
G1 Y12.3
G1 X12.3
G1 Y14.7
G1 F40.0 X11.1
G1 F220.0 Y18.9
G1 X18.9
G1 Y11.1
G1 X11.1
G1 Y14.7
G1 F40.0 X9.9
G1 F220.0 Y20.1
G1 X20.1
G1 Y9.9
G1 X9.9
G1 Y14.7
G1 F40.0 X8.7
G1 F220.0 Y21.3
G1 X21.3
G1 Y8.7
G1 X8.7
G1 Y14.7
G1 F40.0 X7.5
G1 F220.0 Y22.5
G1 X22.5
G1 Y7.5
G1 X7.5
G1 Y14.7
G1 F40.0 X6.3
G1 F220.0 Y23.7
G1 X23.7
G1 Y6.3
G1 X6.3
G1 Y14.7
G1 F40.0 X5.1
G1 F220.0 Y24.9
G1 X24.9
G1 Y5.1
G1 X5.1
G1 Y14.7
G1 F40.0 X3.9
G1 F220.0 Y26.1
G1 X26.1
G1 Y3.9
G1 X3.9
G1 Y14.7
G1 F40.0 X2.7
G1 F220.0 Y27.3
G1 X27.3
G1 Y2.7
G1 X2.7
G1 Y14.7
G1 F40.0 X1.5
G1 F220.0 Y28.5
G1 X28.5
G1 Y1.5
G1 X1.5
G1 Y14.7
G0 Z3.0
G0 X14.7
G0 Z0.7
G1 F40.0 Z-0.6
G1 F220.0 Y15.3
G1 X15.3
G1 Y14.7
G1 X14.7
G1 F40.0 X13.5
G1 F220.0 Y16.5
G1 X16.5
G1 Y13.5
G1 X13.5
G1 Y14.7
G1 F40.0 X12.3
G1 F220.0 Y17.7
G1 X17.7
G1 Y12.3
G1 X12.3
G1 Y14.7
G1 F40.0 X11.1
G1 F220.0 Y18.9
G1 X18.9
G1 Y11.1
G1 X11.1
G1 Y14.7
G1 F40.0 X9.9
G1 F220.0 Y20.1
G1 X20.1
G1 Y9.9
G1 X9.9
G1 Y14.7
G1 F40.0 X8.7
G1 F220.0 Y21.3
G1 X21.3
G1 Y8.7
G1 X8.7
G1 Y14.7
G1 F40.0 X7.5
G1 F220.0 Y22.5
G1 X22.5
G1 Y7.5
G1 X7.5
G1 Y14.7
G1 F40.0 X6.3
G1 F220.0 Y23.7
G1 X23.7
G1 Y6.3
G1 X6.3
G1 Y14.7
G1 F40.0 X5.1
G1 F220.0 Y24.9
G1 X24.9
G1 Y5.1
G1 X5.1
G1 Y14.7
G1 F40.0 X3.9
G1 F220.0 Y26.1
G1 X26.1
G1 Y3.9
G1 X3.9
G1 Y14.7
G1 F40.0 X2.7
G1 F220.0 Y27.3
G1 X27.3
G1 Y2.7
G1 X2.7
G1 Y14.7
G1 F40.0 X1.5
G1 F220.0 Y28.5
G1 X28.5
G1 Y1.5
G1 X1.5
G1 Y14.7
G0 Z3.0
G0 X14.7
G0 Z0.4
G1 F40.0 Z-0.9
G1 F220.0 Y15.3
G1 X15.3
G1 Y14.7
G1 X14.7
G1 F40.0 X13.5
G1 F220.0 Y16.5
G1 X16.5
G1 Y13.5
G1 X13.5
G1 Y14.7
G1 F40.0 X12.3
G1 F220.0 Y17.7
G1 X17.7
G1 Y12.3
G1 X12.3
G1 Y14.7
G1 F40.0 X11.1
G1 F220.0 Y18.9
G1 X18.9
G1 Y11.1
G1 X11.1
G1 Y14.7
G1 F40.0 X9.9
G1 F220.0 Y20.1
G1 X20.1
G1 Y9.9
G1 X9.9
G1 Y14.7
G1 F40.0 X8.7
G1 F220.0 Y21.3
G1 X21.3
G1 Y8.7
G1 X8.7
G1 Y14.7
G1 F40.0 X7.5
G1 F220.0 Y22.5
G1 X22.5
G1 Y7.5
G1 X7.5
G1 Y14.7
G1 F40.0 X6.3
G1 F220.0 Y23.7
G1 X23.7
G1 Y6.3
G1 X6.3
G1 Y14.7
G1 F40.0 X5.1
G1 F220.0 Y24.9
G1 X24.9
G1 Y5.1
G1 X5.1
G1 Y14.7
G1 F40.0 X3.9
G1 F220.0 Y26.1
G1 X26.1
G1 Y3.9
G1 X3.9
G1 Y14.7
G1 F40.0 X2.7
G1 F220.0 Y27.3
G1 X27.3
G1 Y2.7
G1 X2.7
G1 Y14.7
G1 F40.0 X1.5
G1 F220.0 Y28.5
G1 X28.5
G1 Y1.5
G1 X1.5
G1 Y14.7
G0 Z3.0
G0 X14.7
G0 Z0.1
G1 F40.0 Z-1.2
G1 F220.0 Y15.3
G1 X15.3
G1 Y14.7
G1 X14.7
G1 F40.0 X13.5
G1 F220.0 Y16.5
G1 X16.5
G1 Y13.5
G1 X13.5
G1 Y14.7
G1 F40.0 X12.3
G1 F220.0 Y17.7
G1 X17.7
G1 Y12.3
G1 X12.3
G1 Y14.7
G1 F40.0 X11.1
G1 F220.0 Y18.9
G1 X18.9
G1 Y11.1
G1 X11.1
G1 Y14.7
G1 F40.0 X9.9
G1 F220.0 Y20.1
G1 X20.1
G1 Y9.9
G1 X9.9
G1 Y14.7
G1 F40.0 X8.7
G1 F220.0 Y21.3
G1 X21.3
G1 Y8.7
G1 X8.7
G1 Y14.7
G1 F40.0 X7.5
G1 F220.0 Y22.5
G1 X22.5
G1 Y7.5
G1 X7.5
G1 Y14.7
G1 F40.0 X6.3
G1 F220.0 Y23.7
G1 X23.7
G1 Y6.3
G1 X6.3
G1 Y14.7
G1 F40.0 X5.1
G1 F220.0 Y24.9
G1 X24.9
G1 Y5.1
G1 X5.1
G1 Y14.7
G1 F40.0 X3.9
G1 F220.0 Y26.1
G1 X26.1
G1 Y3.9
G1 X3.9
G1 Y14.7
G1 F40.0 X2.7
G1 F220.0 Y27.3
G1 X27.3
G1 Y2.7
G1 X2.7
G1 Y14.7
G1 F40.0 X1.5
G1 F220.0 Y28.5
G1 X28.5
G1 Y1.5
G1 X1.5
G1 Y14.7
G0 Z3.0
G0 X14.7
G0 Z-0.2
G1 F40.0 Z-1.5
G1 F220.0 Y15.3
G1 X15.3
G1 Y14.7
G1 X14.7
G1 F40.0 X13.5
G1 F220.0 Y16.5
G1 X16.5
G1 Y13.5
G1 X13.5
G1 Y14.7
G1 F40.0 X12.3
G1 F220.0 Y17.7
G1 X17.7
G1 Y12.3
G1 X12.3
G1 Y14.7
G1 F40.0 X11.1
G1 F220.0 Y18.9
G1 X18.9
G1 Y11.1
G1 X11.1
G1 Y14.7
G1 F40.0 X9.9
G1 F220.0 Y20.1
G1 X20.1
G1 Y9.9
G1 X9.9
G1 Y14.7
G1 F40.0 X8.7
G1 F220.0 Y21.3
G1 X21.3
G1 Y8.7
G1 X8.7
G1 Y14.7
G1 F40.0 X7.5
G1 F220.0 Y22.5
G1 X22.5
G1 Y7.5
G1 X7.5
G1 Y14.7
G1 F40.0 X6.3
G1 F220.0 Y23.7
G1 X23.7
G1 Y6.3
G1 X6.3
G1 Y14.7
G1 F40.0 X5.1
G1 F220.0 Y24.9
G1 X24.9
G1 Y5.1
G1 X5.1
G1 Y14.7
G1 F40.0 X3.9
G1 F220.0 Y26.1
G1 X26.1
G1 Y3.9
G1 X3.9
G1 Y14.7
G1 F40.0 X2.7
G1 F220.0 Y27.3
G1 X27.3
G1 Y2.7
G1 X2.7
G1 Y14.7
G1 F40.0 X1.5
G1 F220.0 Y28.5
G1 X28.5
G1 Y1.5
G1 X1.5
G1 Y14.7
G0 Z3.0
G0 X14.7
G0 Z-0.5
G1 F40.0 Z-1.8
G1 F220.0 Y15.3
G1 X15.3
G1 Y14.7
G1 X14.7
G1 F40.0 X13.5
G1 F220.0 Y16.5
G1 X16.5
G1 Y13.5
G1 X13.5
G1 Y14.7
G1 F40.0 X12.3
G1 F220.0 Y17.7
G1 X17.7
G1 Y12.3
G1 X12.3
G1 Y14.7
G1 F40.0 X11.1
G1 F220.0 Y18.9
G1 X18.9
G1 Y11.1
G1 X11.1
G1 Y14.7
G1 F40.0 X9.9
G1 F220.0 Y20.1
G1 X20.1
G1 Y9.9
G1 X9.9
G1 Y14.7
G1 F40.0 X8.7
G1 F220.0 Y21.3
G1 X21.3
G1 Y8.7
G1 X8.7
G1 Y14.7
G1 F40.0 X7.5
G1 F220.0 Y22.5
G1 X22.5
G1 Y7.5
G1 X7.5
G1 Y14.7
G1 F40.0 X6.3
G1 F220.0 Y23.7
G1 X23.7
G1 Y6.3
G1 X6.3
G1 Y14.7
G1 F40.0 X5.1
G1 F220.0 Y24.9
G1 X24.9
G1 Y5.1
G1 X5.1
G1 Y14.7
G1 F40.0 X3.9
G1 F220.0 Y26.1
G1 X26.1
G1 Y3.9
G1 X3.9
G1 Y14.7
G1 F40.0 X2.7
G1 F220.0 Y27.3
G1 X27.3
G1 Y2.7
G1 X2.7
G1 Y14.7
G1 F40.0 X1.5
G1 F220.0 Y28.5
G1 X28.5
G1 Y1.5
G1 X1.5
G1 Y14.7
G0 Z3.0
G0 X14.7
G0 Z-0.8
G1 F40.0 Z-2.1
G1 F220.0 Y15.3
G1 X15.3
G1 Y14.7
G1 X14.7
G1 F40.0 X13.5
G1 F220.0 Y16.5
G1 X16.5
G1 Y13.5
G1 X13.5
G1 Y14.7
G1 F40.0 X12.3
G1 F220.0 Y17.7
G1 X17.7
G1 Y12.3
G1 X12.3
G1 Y14.7
G1 F40.0 X11.1
G1 F220.0 Y18.9
G1 X18.9
G1 Y11.1
G1 X11.1
G1 Y14.7
G1 F40.0 X9.9
G1 F220.0 Y20.1
G1 X20.1
G1 Y9.9
G1 X9.9
G1 Y14.7
G1 F40.0 X8.7
G1 F220.0 Y21.3
G1 X21.3
G1 Y8.7
G1 X8.7
G1 Y14.7
G1 F40.0 X7.5
G1 F220.0 Y22.5
G1 X22.5
G1 Y7.5
G1 X7.5
G1 Y14.7
G1 F40.0 X6.3
G1 F220.0 Y23.7
G1 X23.7
G1 Y6.3
G1 X6.3
G1 Y14.7
G1 F40.0 X5.1
G1 F220.0 Y24.9
G1 X24.9
G1 Y5.1
G1 X5.1
G1 Y14.7
G1 F40.0 X3.9
G1 F220.0 Y26.1
G1 X26.1
G1 Y3.9
G1 X3.9
G1 Y14.7
G1 F40.0 X2.7
G1 F220.0 Y27.3
G1 X27.3
G1 Y2.7
G1 X2.7
G1 Y14.7
G1 F40.0 X1.5
G1 F220.0 Y28.5
G1 X28.5
G1 Y1.5
G1 X1.5
G1 Y14.7
G0 Z3.0
G0 X14.7
G0 Z-1.1
G1 F40.0 Z-2.4
G1 F220.0 Y15.3
G1 X15.3
G1 Y14.7
G1 X14.7
G1 F40.0 X13.5
G1 F220.0 Y16.5
G1 X16.5
G1 Y13.5
G1 X13.5
G1 Y14.7
G1 F40.0 X12.3
G1 F220.0 Y17.7
G1 X17.7
G1 Y12.3
G1 X12.3
G1 Y14.7
G1 F40.0 X11.1
G1 F220.0 Y18.9
G1 X18.9
G1 Y11.1
G1 X11.1
G1 Y14.7
G1 F40.0 X9.9
G1 F220.0 Y20.1
G1 X20.1
G1 Y9.9
G1 X9.9
G1 Y14.7
G1 F40.0 X8.7
G1 F220.0 Y21.3
G1 X21.3
G1 Y8.7
G1 X8.7
G1 Y14.7
G1 F40.0 X7.5
G1 F220.0 Y22.5
G1 X22.5
G1 Y7.5
G1 X7.5
G1 Y14.7
G1 F40.0 X6.3
G1 F220.0 Y23.7
G1 X23.7
G1 Y6.3
G1 X6.3
G1 Y14.7
G1 F40.0 X5.1
G1 F220.0 Y24.9
G1 X24.9
G1 Y5.1
G1 X5.1
G1 Y14.7
G1 F40.0 X3.9
G1 F220.0 Y26.1
G1 X26.1
G1 Y3.9
G1 X3.9
G1 Y14.7
G1 F40.0 X2.7
G1 F220.0 Y27.3
G1 X27.3
G1 Y2.7
G1 X2.7
G1 Y14.7
G1 F40.0 X1.5
G1 F220.0 Y28.5
G1 X28.5
G1 Y1.5
G1 X1.5
G1 Y14.7
G0 Z3.0
G0 X14.7
G0 Z-1.4
G1 F40.0 Z-2.5
G1 F220.0 Y15.3
G1 X15.3
G1 Y14.7
G1 X14.7
G1 F40.0 X13.5
G1 F220.0 Y16.5
G1 X16.5
G1 Y13.5
G1 X13.5
G1 Y14.7
G1 F40.0 X12.3
G1 F220.0 Y17.7
G1 X17.7
G1 Y12.3
G1 X12.3
G1 Y14.7
G1 F40.0 X11.1
G1 F220.0 Y18.9
G1 X18.9
G1 Y11.1
G1 X11.1
G1 Y14.7
G1 F40.0 X9.9
G1 F220.0 Y20.1
G1 X20.1
G1 Y9.9
G1 X9.9
G1 Y14.7
G1 F40.0 X8.7
G1 F220.0 Y21.3
G1 X21.3
G1 Y8.7
G1 X8.7
G1 Y14.7
G1 F40.0 X7.5
G1 F220.0 Y22.5
G1 X22.5
G1 Y7.5
G1 X7.5
G1 Y14.7
G1 F40.0 X6.3
G1 F220.0 Y23.7
G1 X23.7
G1 Y6.3
G1 X6.3
G1 Y14.7
G1 F40.0 X5.1
G1 F220.0 Y24.9
G1 X24.9
G1 Y5.1
G1 X5.1
G1 Y14.7
G1 F40.0 X3.9
G1 F220.0 Y26.1
G1 X26.1
G1 Y3.9
G1 X3.9
G1 Y14.7
G1 F40.0 X2.7
G1 F220.0 Y27.3
G1 X27.3
G1 Y2.7
G1 X2.7
G1 Y14.7
G1 F40.0 X1.5
G1 F220.0 Y28.5
G1 X28.5
G1 Y1.5
G1 X1.5
G1 Y14.7
G0 Z3.0
M5
M30
