( Made using CamBam - http://www.cambam.co.uk )
( 6mm_D3 11/11/2021 1:55:27 PM )
( Post processor: Default )
( T0 : 3.0 )
G21 G90 G64 G40
G0 Z3.0
( T0 : 3.0 )
T0 M6
( Pocket1 )
G17
M3 S24000
G0 X0.55 Y0.0
G0 Z1.0
G1 F40.0 Z-0.3
G2 F140.0 X-0.275 Y-0.4763 I-0.55 J0.0
G2 Y0.4763 I0.275 J0.4763
G2 X0.55 Y0.0 I0.275 J-0.4763
G1 F40.0 X1.75
G2 F140.0 X-0.875 Y-1.5155 I-1.75 J0.0
G2 Y1.5155 I0.875 J1.5155
G2 X1.75 Y0.0 I0.875 J-1.5155
G1 F40.0 X0.55
G1 Z-0.6
G2 F140.0 X-0.275 Y-0.4763 I-0.55 J0.0
G2 Y0.4763 I0.275 J0.4763
G2 X0.55 Y0.0 I0.275 J-0.4763
G1 F40.0 X1.75
G2 F140.0 X-0.875 Y-1.5155 I-1.75 J0.0
G2 Y1.5155 I0.875 J1.5155
G2 X1.75 Y0.0 I0.875 J-1.5155
G1 F40.0 X0.55
G1 Z-0.9
G2 F140.0 X-0.275 Y-0.4763 I-0.55 J0.0
G2 Y0.4763 I0.275 J0.4763
G2 X0.55 Y0.0 I0.275 J-0.4763
G1 F40.0 X1.75
G2 F140.0 X-0.875 Y-1.5155 I-1.75 J0.0
G2 Y1.5155 I0.875 J1.5155
G2 X1.75 Y0.0 I0.875 J-1.5155
G1 F40.0 X0.55
G1 Z-1.2
G2 F140.0 X-0.275 Y-0.4763 I-0.55 J0.0
G2 Y0.4763 I0.275 J0.4763
G2 X0.55 Y0.0 I0.275 J-0.4763
G1 F40.0 X1.75
G2 F140.0 X-0.875 Y-1.5155 I-1.75 J0.0
G2 Y1.5155 I0.875 J1.5155
G2 X1.75 Y0.0 I0.875 J-1.5155
G1 F40.0 X0.55
G1 Z-1.5
G2 F140.0 X-0.275 Y-0.4763 I-0.55 J0.0
G2 Y0.4763 I0.275 J0.4763
G2 X0.55 Y0.0 I0.275 J-0.4763
G1 F40.0 X1.75
G2 F140.0 X-0.875 Y-1.5155 I-1.75 J0.0
G2 Y1.5155 I0.875 J1.5155
G2 X1.75 Y0.0 I0.875 J-1.5155
G1 F40.0 X0.55
G1 Z-1.8
G2 F140.0 X-0.275 Y-0.4763 I-0.55 J0.0
G2 Y0.4763 I0.275 J0.4763
G2 X0.55 Y0.0 I0.275 J-0.4763
G1 F40.0 X1.75
G2 F140.0 X-0.875 Y-1.5155 I-1.75 J0.0
G2 Y1.5155 I0.875 J1.5155
G2 X1.75 Y0.0 I0.875 J-1.5155
G1 F40.0 X0.55
G1 Z-2.1
G2 F140.0 X-0.275 Y-0.4763 I-0.55 J0.0
G2 Y0.4763 I0.275 J0.4763
G2 X0.55 Y0.0 I0.275 J-0.4763
G1 F40.0 X1.75
G2 F140.0 X-0.875 Y-1.5155 I-1.75 J0.0
G2 Y1.5155 I0.875 J1.5155
G2 X1.75 Y0.0 I0.875 J-1.5155
G1 F40.0 X0.55
G1 Z-2.4
G2 F140.0 X-0.275 Y-0.4763 I-0.55 J0.0
G2 Y0.4763 I0.275 J0.4763
G2 X0.55 Y0.0 I0.275 J-0.4763
G1 F40.0 X1.75
G2 F140.0 X-0.875 Y-1.5155 I-1.75 J0.0
G2 Y1.5155 I0.875 J1.5155
G2 X1.75 Y0.0 I0.875 J-1.5155
G1 F40.0 X0.55
G1 Z-2.7
G2 F140.0 X-0.275 Y-0.4763 I-0.55 J0.0
G2 Y0.4763 I0.275 J0.4763
G2 X0.55 Y0.0 I0.275 J-0.4763
G1 F40.0 X1.75
G2 F140.0 X-0.875 Y-1.5155 I-1.75 J0.0
G2 Y1.5155 I0.875 J1.5155
G2 X1.75 Y0.0 I0.875 J-1.5155
G1 F40.0 X0.55
G1 Z-3.0
G2 F140.0 X-0.275 Y-0.4763 I-0.55 J0.0
G2 Y0.4763 I0.275 J0.4763
G2 X0.55 Y0.0 I0.275 J-0.4763
G1 F40.0 X1.75
G2 F140.0 X-0.875 Y-1.5155 I-1.75 J0.0
G2 Y1.5155 I0.875 J1.5155
G2 X1.75 Y0.0 I0.875 J-1.5155
G1 F40.0 X0.55
G1 Z-3.3
G2 F140.0 X-0.275 Y-0.4763 I-0.55 J0.0
G2 Y0.4763 I0.275 J0.4763
G2 X0.55 Y0.0 I0.275 J-0.4763
G1 F40.0 X1.75
G2 F140.0 X-0.875 Y-1.5155 I-1.75 J0.0
G2 Y1.5155 I0.875 J1.5155
G2 X1.75 Y0.0 I0.875 J-1.5155
G1 F40.0 X0.55
G1 Z-3.6
G2 F140.0 X-0.275 Y-0.4763 I-0.55 J0.0
G2 Y0.4763 I0.275 J0.4763
G2 X0.55 Y0.0 I0.275 J-0.4763
G1 F40.0 X1.75
G2 F140.0 X-0.875 Y-1.5155 I-1.75 J0.0
G2 Y1.5155 I0.875 J1.5155
G2 X1.75 Y0.0 I0.875 J-1.5155
G1 F40.0 X0.55
G1 Z-3.9
G2 F140.0 X-0.275 Y-0.4763 I-0.55 J0.0
G2 Y0.4763 I0.275 J0.4763
G2 X0.55 Y0.0 I0.275 J-0.4763
G1 F40.0 X1.75
G2 F140.0 X-0.875 Y-1.5155 I-1.75 J0.0
G2 Y1.5155 I0.875 J1.5155
G2 X1.75 Y0.0 I0.875 J-1.5155
G1 F40.0 X0.55
G1 Z-4.2
G2 F140.0 X-0.275 Y-0.4763 I-0.55 J0.0
G2 Y0.4763 I0.275 J0.4763
G2 X0.55 Y0.0 I0.275 J-0.4763
G1 F40.0 X1.75
G2 F140.0 X-0.875 Y-1.5155 I-1.75 J0.0
G2 Y1.5155 I0.875 J1.5155
G2 X1.75 Y0.0 I0.875 J-1.5155
G1 F40.0 X0.55
G1 Z-4.5
G2 F140.0 X-0.275 Y-0.4763 I-0.55 J0.0
G2 Y0.4763 I0.275 J0.4763
G2 X0.55 Y0.0 I0.275 J-0.4763
G1 F40.0 X1.75
G2 F140.0 X-0.875 Y-1.5155 I-1.75 J0.0
G2 Y1.5155 I0.875 J1.5155
G2 X1.75 Y0.0 I0.875 J-1.5155
G1 F40.0 X0.55
G1 Z-4.8
G2 F140.0 X-0.275 Y-0.4763 I-0.55 J0.0
G2 Y0.4763 I0.275 J0.4763
G2 X0.55 Y0.0 I0.275 J-0.4763
G1 F40.0 X1.75
G2 F140.0 X-0.875 Y-1.5155 I-1.75 J0.0
G2 Y1.5155 I0.875 J1.5155
G2 X1.75 Y0.0 I0.875 J-1.5155
G1 F40.0 X0.55
G1 Z-5.1
G2 F140.0 X-0.275 Y-0.4763 I-0.55 J0.0
G2 Y0.4763 I0.275 J0.4763
G2 X0.55 Y0.0 I0.275 J-0.4763
G1 F40.0 X1.75
G2 F140.0 X-0.875 Y-1.5155 I-1.75 J0.0
G2 Y1.5155 I0.875 J1.5155
G2 X1.75 Y0.0 I0.875 J-1.5155
G1 F40.0 X0.55
G1 Z-5.4
G2 F140.0 X-0.275 Y-0.4763 I-0.55 J0.0
G2 Y0.4763 I0.275 J0.4763
G2 X0.55 Y0.0 I0.275 J-0.4763
G1 F40.0 X1.75
G2 F140.0 X-0.875 Y-1.5155 I-1.75 J0.0
G2 Y1.5155 I0.875 J1.5155
G2 X1.75 Y0.0 I0.875 J-1.5155
G1 F40.0 X0.55
G1 Z-5.7
G2 F140.0 X-0.275 Y-0.4763 I-0.55 J0.0
G2 Y0.4763 I0.275 J0.4763
G2 X0.55 Y0.0 I0.275 J-0.4763
G1 F40.0 X1.75
G2 F140.0 X-0.875 Y-1.5155 I-1.75 J0.0
G2 Y1.5155 I0.875 J1.5155
G2 X1.75 Y0.0 I0.875 J-1.5155
G1 F40.0 X0.55
G1 Z-6.0
G2 F140.0 X-0.275 Y-0.4763 I-0.55 J0.0
G2 Y0.4763 I0.275 J0.4763
G2 X0.55 Y0.0 I0.275 J-0.4763
G1 F40.0 X1.75
G2 F140.0 X-0.875 Y-1.5155 I-1.75 J0.0
G2 Y1.5155 I0.875 J1.5155
G2 X1.75 Y0.0 I0.875 J-1.5155
G1 F40.0 X0.55
G1 Z-6.3
G2 F140.0 X-0.275 Y-0.4763 I-0.55 J0.0
G2 Y0.4763 I0.275 J0.4763
G2 X0.55 Y0.0 I0.275 J-0.4763
G1 F40.0 X1.75
G2 F140.0 X-0.875 Y-1.5155 I-1.75 J0.0
G2 Y1.5155 I0.875 J1.5155
G2 X1.75 Y0.0 I0.875 J-1.5155
G1 F40.0 X0.55
G1 Z-6.6
G2 F140.0 X-0.275 Y-0.4763 I-0.55 J0.0
G2 Y0.4763 I0.275 J0.4763
G2 X0.55 Y0.0 I0.275 J-0.4763
G1 F40.0 X1.75
G2 F140.0 X-0.875 Y-1.5155 I-1.75 J0.0
G2 Y1.5155 I0.875 J1.5155
G2 X1.75 Y0.0 I0.875 J-1.5155
G1 F40.0 X0.55
G1 Z-6.9
G2 F140.0 X-0.275 Y-0.4763 I-0.55 J0.0
G2 Y0.4763 I0.275 J0.4763
G2 X0.55 Y0.0 I0.275 J-0.4763
G1 F40.0 X1.75
G2 F140.0 X-0.875 Y-1.5155 I-1.75 J0.0
G2 Y1.5155 I0.875 J1.5155
G2 X1.75 Y0.0 I0.875 J-1.5155
G1 F40.0 X0.55
G1 Z-7.2
G2 F140.0 X-0.275 Y-0.4763 I-0.55 J0.0
G2 Y0.4763 I0.275 J0.4763
G2 X0.55 Y0.0 I0.275 J-0.4763
G1 F40.0 X1.75
G2 F140.0 X-0.875 Y-1.5155 I-1.75 J0.0
G2 Y1.5155 I0.875 J1.5155
G2 X1.75 Y0.0 I0.875 J-1.5155
G1 F40.0 X0.55
G1 Z-7.5
G2 F140.0 X-0.275 Y-0.4763 I-0.55 J0.0
G2 Y0.4763 I0.275 J0.4763
G2 X0.55 Y0.0 I0.275 J-0.4763
G1 F40.0 X1.75
G2 F140.0 X-0.875 Y-1.5155 I-1.75 J0.0
G2 Y1.5155 I0.875 J1.5155
G2 X1.75 Y0.0 I0.875 J-1.5155
G1 F40.0 X0.55
G1 Z-7.8
G2 F140.0 X-0.275 Y-0.4763 I-0.55 J0.0
G2 Y0.4763 I0.275 J0.4763
G2 X0.55 Y0.0 I0.275 J-0.4763
G1 F40.0 X1.75
G2 F140.0 X-0.875 Y-1.5155 I-1.75 J0.0
G2 Y1.5155 I0.875 J1.5155
G2 X1.75 Y0.0 I0.875 J-1.5155
G1 F40.0 X0.55
G1 Z-8.1
G2 F140.0 X-0.275 Y-0.4763 I-0.55 J0.0
G2 Y0.4763 I0.275 J0.4763
G2 X0.55 Y0.0 I0.275 J-0.4763
G1 F40.0 X1.75
G2 F140.0 X-0.875 Y-1.5155 I-1.75 J0.0
G2 Y1.5155 I0.875 J1.5155
G2 X1.75 Y0.0 I0.875 J-1.5155
G1 F40.0 X0.55
G1 Z-8.4
G2 F140.0 X-0.275 Y-0.4763 I-0.55 J0.0
G2 Y0.4763 I0.275 J0.4763
G2 X0.55 Y0.0 I0.275 J-0.4763
G1 F40.0 X1.75
G2 F140.0 X-0.875 Y-1.5155 I-1.75 J0.0
G2 Y1.5155 I0.875 J1.5155
G2 X1.75 Y0.0 I0.875 J-1.5155
G1 F40.0 X0.55
G1 Z-8.7
G2 F140.0 X-0.275 Y-0.4763 I-0.55 J0.0
G2 Y0.4763 I0.275 J0.4763
G2 X0.55 Y0.0 I0.275 J-0.4763
G1 F40.0 X1.75
G2 F140.0 X-0.875 Y-1.5155 I-1.75 J0.0
G2 Y1.5155 I0.875 J1.5155
G2 X1.75 Y0.0 I0.875 J-1.5155
G1 F40.0 X0.55
G1 Z-9.0
G2 F140.0 X-0.275 Y-0.4763 I-0.55 J0.0
G2 Y0.4763 I0.275 J0.4763
G2 X0.55 Y0.0 I0.275 J-0.4763
G1 F40.0 X1.75
G2 F140.0 X-0.875 Y-1.5155 I-1.75 J0.0
G2 Y1.5155 I0.875 J1.5155
G2 X1.75 Y0.0 I0.875 J-1.5155
G1 F40.0 X0.55
G1 Z-9.3
G2 F140.0 X-0.275 Y-0.4763 I-0.55 J0.0
G2 Y0.4763 I0.275 J0.4763
G2 X0.55 Y0.0 I0.275 J-0.4763
G1 F40.0 X1.75
G2 F140.0 X-0.875 Y-1.5155 I-1.75 J0.0
G2 Y1.5155 I0.875 J1.5155
G2 X1.75 Y0.0 I0.875 J-1.5155
G1 F40.0 X0.55
G1 Z-9.6
G2 F140.0 X-0.275 Y-0.4763 I-0.55 J0.0
G2 Y0.4763 I0.275 J0.4763
G2 X0.55 Y0.0 I0.275 J-0.4763
G1 F40.0 X1.75
G2 F140.0 X-0.875 Y-1.5155 I-1.75 J0.0
G2 Y1.5155 I0.875 J1.5155
G2 X1.75 Y0.0 I0.875 J-1.5155
G1 F40.0 X0.55
G1 Z-9.9
G2 F140.0 X-0.275 Y-0.4763 I-0.55 J0.0
G2 Y0.4763 I0.275 J0.4763
G2 X0.55 Y0.0 I0.275 J-0.4763
G1 F40.0 X1.75
G2 F140.0 X-0.875 Y-1.5155 I-1.75 J0.0
G2 Y1.5155 I0.875 J1.5155
G2 X1.75 Y0.0 I0.875 J-1.5155
G1 F40.0 X0.55
G1 Z-10.0
G2 F140.0 X-0.275 Y-0.4763 I-0.55 J0.0
G2 Y0.4763 I0.275 J0.4763
G2 X0.55 Y0.0 I0.275 J-0.4763
G1 F40.0 X1.75
G2 F140.0 X-0.875 Y-1.5155 I-1.75 J0.0
G2 Y1.5155 I0.875 J1.5155
G2 X1.75 Y0.0 I0.875 J-1.5155
G0 Z3.0
M5
M30
