( Made using CamBam - http://www.cambam.co.uk )
( 6mm_x12_D3_deburr 11/11/2021 4:06:09 PM )
( Post processor: Default )
( T0 : 5.0 )
G21 G90 G64 G40
G0 Z3.0
( T0 : 5.0 )
T0 M6
( Pocket1 )
G17
M3 S24000
G0 X0.5 Y0.0
G0 Z1.0
G1 F40.0 Z0.0
G2 F220.0 X-0.25 Y-0.433 Z-0.1 I-0.5 J0.0
G2 Y0.433 Z-0.2 I0.25 J0.433
G2 X0.5 Y0.0 Z-0.3 I0.25 J-0.433
G1 F40.0 X1.5
G2 F220.0 X-0.75 Y-1.299 I-1.5 J0.0
G2 Y1.299 I0.75 J1.299
G2 X1.5 Y0.0 I0.75 J-1.299
G1 F40.0 X3.5
G2 F220.0 X-1.75 Y-3.0311 I-3.5 J0.0
G2 Y3.0311 I1.75 J3.0311
G2 X3.5 Y0.0 I1.75 J-3.0311
G1 F40.0 X5.5
G2 F220.0 X-2.75 Y-4.7631 I-5.5 J0.0
G2 Y4.7631 I2.75 J4.7631
G2 X5.5 Y0.0 I2.75 J-4.7631
G0 Z3.0
G0 X0.5
G0 Z0.7
G1 F40.0 Z-0.3
G2 F220.0 X-0.25 Y-0.433 Z-0.4 I-0.5 J0.0
G2 Y0.433 Z-0.5 I0.25 J0.433
G2 X0.5 Y0.0 Z-0.6 I0.25 J-0.433
G1 F40.0 X1.5
G2 F220.0 X-0.75 Y-1.299 I-1.5 J0.0
G2 Y1.299 I0.75 J1.299
G2 X1.5 Y0.0 I0.75 J-1.299
G1 F40.0 X3.5
G2 F220.0 X-1.75 Y-3.0311 I-3.5 J0.0
G2 Y3.0311 I1.75 J3.0311
G2 X3.5 Y0.0 I1.75 J-3.0311
G1 F40.0 X5.5
G2 F220.0 X-2.75 Y-4.7631 I-5.5 J0.0
G2 Y4.7631 I2.75 J4.7631
G2 X5.5 Y0.0 I2.75 J-4.7631
G0 Z3.0
G0 X0.5
G0 Z0.4
G1 F40.0 Z-0.6
G2 F220.0 X-0.25 Y-0.433 Z-0.7 I-0.5 J0.0
G2 Y0.433 Z-0.8 I0.25 J0.433
G2 X0.5 Y0.0 Z-0.9 I0.25 J-0.433
G1 F40.0 X1.5
G2 F220.0 X-0.75 Y-1.299 I-1.5 J0.0
G2 Y1.299 I0.75 J1.299
G2 X1.5 Y0.0 I0.75 J-1.299
G1 F40.0 X3.5
G2 F220.0 X-1.75 Y-3.0311 I-3.5 J0.0
G2 Y3.0311 I1.75 J3.0311
G2 X3.5 Y0.0 I1.75 J-3.0311
G1 F40.0 X5.5
G2 F220.0 X-2.75 Y-4.7631 I-5.5 J0.0
G2 Y4.7631 I2.75 J4.7631
G2 X5.5 Y0.0 I2.75 J-4.7631
G0 Z3.0
G0 X0.5
G1 F40.0 Z-0.9
G2 F220.0 X-0.25 Y-0.433 Z-1.0 I-0.5 J0.0
G2 Y0.433 Z-1.1 I0.25 J0.433
G2 X0.5 Y0.0 Z-1.2 I0.25 J-0.433
G1 F40.0 X1.5
G2 F220.0 X-0.75 Y-1.299 I-1.5 J0.0
G2 Y1.299 I0.75 J1.299
G2 X1.5 Y0.0 I0.75 J-1.299
G1 F40.0 X3.5
G2 F220.0 X-1.75 Y-3.0311 I-3.5 J0.0
G2 Y3.0311 I1.75 J3.0311
G2 X3.5 Y0.0 I1.75 J-3.0311
G1 F40.0 X5.5
G2 F220.0 X-2.75 Y-4.7631 I-5.5 J0.0
G2 Y4.7631 I2.75 J4.7631
G2 X5.5 Y0.0 I2.75 J-4.7631
G0 Z3.0
G0 X0.5
G0 Z-0.2
G1 F40.0 Z-1.2
G2 F220.0 X-0.25 Y-0.433 Z-1.3 I-0.5 J0.0
G2 Y0.433 Z-1.4 I0.25 J0.433
G2 X0.5 Y0.0 Z-1.5 I0.25 J-0.433
G2 X-0.25 Y-0.433 I-0.5 J0.0
G2 Y0.433 I0.25 J0.433
G2 X0.5 Y0.0 I0.25 J-0.433
G1 F40.0 X1.5
G2 F220.0 X-0.75 Y-1.299 I-1.5 J0.0
G2 Y1.299 I0.75 J1.299
G2 X1.5 Y0.0 I0.75 J-1.299
G1 F40.0 X3.5
G2 F220.0 X-1.75 Y-3.0311 I-3.5 J0.0
G2 Y3.0311 I1.75 J3.0311
G2 X3.5 Y0.0 I1.75 J-3.0311
G1 F40.0 X5.5
G2 F220.0 X-2.75 Y-4.7631 I-5.5 J0.0
G2 Y4.7631 I2.75 J4.7631
G2 X5.5 Y0.0 I2.75 J-4.7631
G0 Z3.0
M5
M30
