( Made using CamBam - http://www.cambam.co.uk )
( drill 11/10/2021 3:28:19 PM )
( Post processor: Default )
( T0 : 0.0 )
G21
G90
G64
G40
G0 Z3.0
( T0 : 0.0 )
T0 M6
( Drill1 )
G17
M3 S22000
G0 X0.0 Y0.0 Z0.0

G91
G01 Z-0.5 F10
G0 Z3.0
G0 Z-3.0
G01 Z-0.5 F10
G0 Z3.0
G0 Z-3.0
G01 Z-0.5 F10
G0 Z3.0
G0 Z-3.0
G01 Z-0.5 F10
G0 Z3.0
G0 Z-3.0
G01 Z-0.5 F10
G0 Z3.0
G0 Z-3.0
G01 Z-0.5 F10
G0 Z3.0
G0 Z-3.0
G01 Z-0.5 F10
G0 Z3.0
G0 Z-3.0
G01 Z-0.5 F10
G0 Z3.0
G0 Z-3.0
G01 Z-0.5 F10
G0 Z3.0
G0 Z-3.0
G01 Z-0.5 F10
G0 Z3.0
G0 Z-3.0
G01 Z-0.5 F10
G0 Z3.0
G0 Z-3.0
G01 Z-0.5 F10
G0 Z3.0
G0 Z-3.0
G01 Z-0.5 F10
G0 Z3.0
G0 Z-3.0
G01 Z-0.5 F10
G0 Z3.0
G0 Z-3.0
G01 Z-0.5 F10
G0 Z3.0
G0 Z-3.0
G01 Z-0.5 F10
G0 Z3.0
G0 Z-3.0
G01 Z-0.5 F10
G0 Z3.0
G0 Z-3.0
G01 Z-0.5 F10
G0 Z3.0
G0 Z-3.0
G01 Z-0.5 F10
G0 Z3.0
G0 Z-3.0
G01 Z-0.5 F10
G0 Z3.0
G0 Z-3.0
G01 Z-0.5 F10
G0 Z3.0
G0 Z-3.0
G01 Z-0.5 F10
G0 Z3.0
G0 Z-3.0
G01 Z-0.5 F10
G0 Z3.0
G0 Z-3.0
G01 Z-0.5 F10
G0 Z3.0
G0 Z-3.0
G01 Z-0.5 F10
G0 Z3.0
G0 Z-3.0
G01 Z-0.5 F10
G0 Z3.0
G0 Z-3.0
G01 Z-0.5 F10
G0 Z3.0
G0 Z-3.0
G01 Z-0.5 F10
G0 Z3.0
G0 Z-3.0
G01 Z-0.5 F10
G0 Z3.0
G0 Z-3.0
G01 Z-0.5 F10
G0 Z3.0
G0 Z-3.0


G90
G0 Z3.0
M5
M30
