( Made using CamBam - http://www.cambam.co.uk )
( Untitled 11/9/2021 7:02:02 PM )
( Post processor: Default )
( T0 : 3.0 )
G21 G90 G64 G40
G0 Z3.0
( T0 : 3.0 )
T0 M6
( Pocket1 )
G17
M3 S1000
G0 X0.3 Y0.0
G0 Z1.0
G1 F40.0 Z0.0
G2 F220.0 X-0.15 Y-0.2598 Z-0.1 I-0.3 J0.0
G2 Y0.2598 Z-0.2 I0.15 J0.2598
G2 X0.3 Y0.0 Z-0.3 I0.15 J-0.2598
G1 F40.0 X0.9
G2 F220.0 X-0.45 Y-0.7794 I-0.9 J0.0
G2 Y0.7794 I0.45 J0.7794
G2 X0.9 Y0.0 I0.45 J-0.7794
G1 F40.0 X2.1
G2 F220.0 X-1.05 Y-1.8187 I-2.1 J0.0
G2 Y1.8187 I1.05 J1.8187
G2 X2.1 Y0.0 I1.05 J-1.8187
G1 F40.0 X3.3
G2 F220.0 X-1.65 Y-2.8579 I-3.3 J0.0
G2 Y2.8579 I1.65 J2.8579
G2 X3.3 Y0.0 I1.65 J-2.8579
G1 F40.0 X4.5
G2 F220.0 X-2.25 Y-3.8971 I-4.5 J0.0
G2 Y3.8971 I2.25 J3.8971
G2 X4.5 Y0.0 I2.25 J-3.8971
G0 Z3.0
G0 X0.3
G0 Z0.7
G1 F40.0 Z-0.3
G2 F220.0 X-0.15 Y-0.2598 Z-0.4 I-0.3 J0.0
G2 Y0.2598 Z-0.5 I0.15 J0.2598
G2 X0.3 Y0.0 Z-0.6 I0.15 J-0.2598
G1 F40.0 X0.9
G2 F220.0 X-0.45 Y-0.7794 I-0.9 J0.0
G2 Y0.7794 I0.45 J0.7794
G2 X0.9 Y0.0 I0.45 J-0.7794
G1 F40.0 X2.1
G2 F220.0 X-1.05 Y-1.8187 I-2.1 J0.0
G2 Y1.8187 I1.05 J1.8187
G2 X2.1 Y0.0 I1.05 J-1.8187
G1 F40.0 X3.3
G2 F220.0 X-1.65 Y-2.8579 I-3.3 J0.0
G2 Y2.8579 I1.65 J2.8579
G2 X3.3 Y0.0 I1.65 J-2.8579
G1 F40.0 X4.5
G2 F220.0 X-2.25 Y-3.8971 I-4.5 J0.0
G2 Y3.8971 I2.25 J3.8971
G2 X4.5 Y0.0 I2.25 J-3.8971
G0 Z3.0
G0 X0.3
G0 Z0.4
G1 F40.0 Z-0.6
G2 F220.0 X-0.15 Y-0.2598 Z-0.7 I-0.3 J0.0
G2 Y0.2598 Z-0.8 I0.15 J0.2598
G2 X0.3 Y0.0 Z-0.9 I0.15 J-0.2598
G1 F40.0 X0.9
G2 F220.0 X-0.45 Y-0.7794 I-0.9 J0.0
G2 Y0.7794 I0.45 J0.7794
G2 X0.9 Y0.0 I0.45 J-0.7794
G1 F40.0 X2.1
G2 F220.0 X-1.05 Y-1.8187 I-2.1 J0.0
G2 Y1.8187 I1.05 J1.8187
G2 X2.1 Y0.0 I1.05 J-1.8187
G1 F40.0 X3.3
G2 F220.0 X-1.65 Y-2.8579 I-3.3 J0.0
G2 Y2.8579 I1.65 J2.8579
G2 X3.3 Y0.0 I1.65 J-2.8579
G1 F40.0 X4.5
G2 F220.0 X-2.25 Y-3.8971 I-4.5 J0.0
G2 Y3.8971 I2.25 J3.8971
G2 X4.5 Y0.0 I2.25 J-3.8971
G0 Z3.0
G0 X0.3
G1 F40.0 Z-0.9
G2 F220.0 X-0.15 Y-0.2598 Z-1.0 I-0.3 J0.0
G2 Y0.2598 Z-1.1 I0.15 J0.2598
G2 X0.3 Y0.0 Z-1.2 I0.15 J-0.2598
G1 F40.0 X0.9
G2 F220.0 X-0.45 Y-0.7794 I-0.9 J0.0
G2 Y0.7794 I0.45 J0.7794
G2 X0.9 Y0.0 I0.45 J-0.7794
G1 F40.0 X2.1
G2 F220.0 X-1.05 Y-1.8187 I-2.1 J0.0
G2 Y1.8187 I1.05 J1.8187
G2 X2.1 Y0.0 I1.05 J-1.8187
G1 F40.0 X3.3
G2 F220.0 X-1.65 Y-2.8579 I-3.3 J0.0
G2 Y2.8579 I1.65 J2.8579
G2 X3.3 Y0.0 I1.65 J-2.8579
G1 F40.0 X4.5
G2 F220.0 X-2.25 Y-3.8971 I-4.5 J0.0
G2 Y3.8971 I2.25 J3.8971
G2 X4.5 Y0.0 I2.25 J-3.8971
G0 Z3.0
G0 X0.3
G0 Z-0.2
G1 F40.0 Z-1.2
G2 F220.0 X-0.15 Y-0.2598 Z-1.3 I-0.3 J0.0
G2 Y0.2598 Z-1.4 I0.15 J0.2598
G2 X0.3 Y0.0 Z-1.5 I0.15 J-0.2598
G2 X-0.15 Y-0.2598 I-0.3 J0.0
G2 Y0.2598 I0.15 J0.2598
G2 X0.3 Y0.0 I0.15 J-0.2598
G1 F40.0 X0.9
G2 F220.0 X-0.45 Y-0.7794 I-0.9 J0.0
G2 Y0.7794 I0.45 J0.7794
G2 X0.9 Y0.0 I0.45 J-0.7794
G1 F40.0 X2.1
G2 F220.0 X-1.05 Y-1.8187 I-2.1 J0.0
G2 Y1.8187 I1.05 J1.8187
G2 X2.1 Y0.0 I1.05 J-1.8187
G1 F40.0 X3.3
G2 F220.0 X-1.65 Y-2.8579 I-3.3 J0.0
G2 Y2.8579 I1.65 J2.8579
G2 X3.3 Y0.0 I1.65 J-2.8579
G1 F40.0 X4.5
G2 F220.0 X-2.25 Y-3.8971 I-4.5 J0.0
G2 Y3.8971 I2.25 J3.8971
G2 X4.5 Y0.0 I2.25 J-3.8971
G0 Z3.0
M5
M30
