( Made using CamBam - http://www.cambam.co.uk )
( X100mmT_slot 11/19/2021 6:20:49 PM )
( Post processor: Default )
( T0 : 10.0 )
G21 G90 G64 G40
G0 Z3.0
( T0 : 10.0 )
T0 M6
( Pocket1 )
G17
M3 S1000
G0 X9.0 Y9.0
G0 Z1.0
G1 F40.0 Z-1.0
G1 F200.0 Y11.0
G1 X91.0
G1 Y9.0
G1 X9.0
G1 F40.0 X5.0
G1 F200.0 Y15.0
G1 X95.0
G1 Y5.0
G1 X5.0
G1 Y9.0
G1 F40.0 X9.0
G1 Z-2.0
G1 F200.0 Y11.0
G1 X91.0
G1 Y9.0
G1 X9.0
G1 F40.0 X5.0
G1 F200.0 Y15.0
G1 X95.0
G1 Y5.0
G1 X5.0
G1 Y9.0
G1 F40.0 X9.0
G1 Z-3.0
G1 F200.0 Y11.0
G1 X91.0
G1 Y9.0
G1 X9.0
G1 F40.0 X5.0
G1 F200.0 Y15.0
G1 X95.0
G1 Y5.0
G1 X5.0
G1 Y9.0
G1 F40.0 X9.0
G1 Z-4.0
G1 F200.0 Y11.0
G1 X91.0
G1 Y9.0
G1 X9.0
G1 F40.0 X5.0
G1 F200.0 Y15.0
G1 X95.0
G1 Y5.0
G1 X5.0
G1 Y9.0
G1 F40.0 X9.0
G1 Z-5.0
G1 F200.0 Y11.0
G1 X91.0
G1 Y9.0
G1 X9.0
G1 F40.0 X5.0
G1 F200.0 Y15.0
G1 X95.0
G1 Y5.0
G1 X5.0
G1 Y9.0
G1 F40.0 X9.0
G1 Z-6.0
G1 F200.0 Y11.0
G1 X91.0
G1 Y9.0
G1 X9.0
G1 F40.0 X5.0
G1 F200.0 Y15.0
G1 X95.0
G1 Y5.0
G1 X5.0
G1 Y9.0
G1 F40.0 X9.0
G1 Z-7.0
G1 F200.0 Y11.0
G1 X91.0
G1 Y9.0
G1 X9.0
G1 F40.0 X5.0
G1 F200.0 Y15.0
G1 X95.0
G1 Y5.0
G1 X5.0
G1 Y9.0
G1 F40.0 X9.0
G1 Z-8.0
G1 F200.0 Y11.0
G1 X91.0
G1 Y9.0
G1 X9.0
G1 F40.0 X5.0
G1 F200.0 Y15.0
G1 X95.0
G1 Y5.0
G1 X5.0
G1 Y9.0
G1 F40.0 X9.0
G1 Z-9.0
G1 F200.0 Y11.0
G1 X91.0
G1 Y9.0
G1 X9.0
G1 F40.0 X5.0
G1 F200.0 Y15.0
G1 X95.0
G1 Y5.0
G1 X5.0
G1 Y9.0
G1 F40.0 X9.0
G1 Z-10.0
G1 F200.0 Y11.0
G1 X91.0
G1 Y9.0
G1 X9.0
G1 F40.0 X5.0
G1 F200.0 Y15.0
G1 X95.0
G1 Y5.0
G1 X5.0
G1 Y9.0
G0 Z3.0
M5
M30
