( Made using CamBam - http://www.cambam.co.uk )
( X72mm_slot 11/11/2021 6:22:11 PM )
( Post processor: Default )
( T0 : 3.0 )
G21 G90 G64 G40
G0 Z3.0
( T0 : 3.0 )
T0 M6
( Profile1 )
G17
M3 S24000
G0 X0.0 Y-1.5
G0 Z1.0
G1 F40.0 Z-0.1
G1 F165.0 X72.0
G0 Z3.0
G0 X0.0
G0 Z0.9
G1 F40.0 Z-0.2
G1 F165.0 X72.0
G0 Z3.0
G0 X0.0
G0 Z0.8
G1 F40.0 Z-0.3
G1 F165.0 X72.0
G0 Z3.0
G0 X0.0
G0 Z0.7
G1 F40.0 Z-0.4
G1 F165.0 X72.0
G0 Z3.0
G0 X0.0
G0 Z0.6
G1 F40.0 Z-0.5
G1 F165.0 X72.0
G0 Z3.0
G0 X0.0
G0 Z0.5
G1 F40.0 Z-0.6
G1 F165.0 X72.0
G0 Z3.0
G0 X0.0
G0 Z0.4
G1 F40.0 Z-0.7
G1 F165.0 X72.0
G0 Z3.0
G0 X0.0
G0 Z0.3
G1 F40.0 Z-0.8
G1 F165.0 X72.0
G0 Z3.0
G0 X0.0
G0 Z0.2
G1 F40.0 Z-0.9
G1 F165.0 X72.0
G0 Z3.0
G0 X0.0
G0 Z0.1
G1 F40.0 Z-1.0
G1 F165.0 X72.0
G0 Z3.0
G0 X0.0
G0 Z0.0
G1 F40.0 Z-1.1
G1 F165.0 X72.0
G0 Z3.0
G0 X0.0
G0 Z-0.1
G1 F40.0 Z-1.2
G1 F165.0 X72.0
G0 Z3.0
G0 X0.0
G0 Z-0.2
G1 F40.0 Z-1.3
G1 F165.0 X72.0
G0 Z3.0
G0 X0.0
G0 Z-0.3
G1 F40.0 Z-1.4
G1 F165.0 X72.0
G0 Z3.0
G0 X0.0
G0 Z-0.4
G1 F40.0 Z-1.5
G1 F165.0 X72.0
G0 Z3.0
G0 X0.0
G0 Z-0.5
G1 F40.0 Z-1.6
G1 F165.0 X72.0
G0 Z3.0
G0 X0.0
G0 Z-0.6
G1 F40.0 Z-1.7
G1 F165.0 X72.0
G0 Z3.0
G0 X0.0
G0 Z-0.7
G1 F40.0 Z-1.8
G1 F165.0 X72.0
G0 Z3.0
G0 X0.0
G0 Z-0.8
G1 F40.0 Z-1.9
G1 F165.0 X72.0
G0 Z3.0
G0 X0.0
G0 Z-0.9
G1 F40.0 Z-2.0
G1 F165.0 X72.0
G0 Z3.0
G0 X0.0
G0 Z-1.0
G1 F40.0 Z-2.1
G1 F165.0 X72.0
G0 Z3.0
G0 X0.0
G0 Z-1.1
G1 F40.0 Z-2.2
G1 F165.0 X72.0
G0 Z3.0
G0 X0.0
G0 Z-1.2
G1 F40.0 Z-2.3
G1 F165.0 X72.0
G0 Z3.0
G0 X0.0
G0 Z-1.3
G1 F40.0 Z-2.4
G1 F165.0 X72.0
G0 Z3.0
G0 X0.0
G0 Z-1.4
G1 F40.0 Z-2.5
G1 F165.0 X72.0
G0 Z3.0
G0 X0.0
G0 Z-1.5
G1 F40.0 Z-2.6
G1 F165.0 X72.0
G0 Z3.0
G0 X0.0
G0 Z-1.6
G1 F40.0 Z-2.7
G1 F165.0 X72.0
G0 Z3.0
G0 X0.0
G0 Z-1.7
G1 F40.0 Z-2.8
G1 F165.0 X72.0
G0 Z3.0
G0 X0.0
G0 Z-1.8
G1 F40.0 Z-2.9
G1 F165.0 X72.0
G0 Z3.0
G0 X0.0
G0 Z-1.9
G1 F40.0 Z-3.0
G1 F165.0 X72.0
G0 Z3.0
G0 X0.0
G0 Z-2.0
G1 F40.0 Z-3.1
G1 F165.0 X72.0
G0 Z3.0
G0 X0.0
G0 Z-2.1
G1 F40.0 Z-3.2
G1 F165.0 X72.0
G0 Z3.0
G0 X0.0
G0 Z-2.2
G1 F40.0 Z-3.3
G1 F165.0 X72.0
G0 Z3.0
G0 X0.0
G0 Z-2.3
G1 F40.0 Z-3.4
G1 F165.0 X72.0
G0 Z3.0
G0 X0.0
G0 Z-2.4
G1 F40.0 Z-3.5
G1 F165.0 X72.0
G0 Z3.0
G0 X0.0
G0 Z-2.5
G1 F40.0 Z-3.6
G1 F165.0 X72.0
G0 Z3.0
G0 X0.0
G0 Z-2.6
G1 F40.0 Z-3.7
G1 F165.0 X72.0
G0 Z3.0
G0 X0.0
G0 Z-2.7
G1 F40.0 Z-3.8
G1 F165.0 X72.0
G0 Z3.0
G0 X0.0
G0 Z-2.8
G1 F40.0 Z-3.9
G1 F165.0 X72.0
G0 Z3.0
G0 X0.0
G0 Z-2.9
G1 F40.0 Z-4.0
G1 F165.0 X72.0
G0 Z3.0
G0 X0.0
G0 Z-3.0
G1 F40.0 Z-4.1
G1 F165.0 X72.0
G0 Z3.0
G0 X0.0
G0 Z-3.1
G1 F40.0 Z-4.2
G1 F165.0 X72.0
G0 Z3.0
G0 X0.0
G0 Z-3.2
G1 F40.0 Z-4.3
G1 F165.0 X72.0
G0 Z3.0
G0 X0.0
G0 Z-3.3
G1 F40.0 Z-4.4
G1 F165.0 X72.0
G0 Z3.0
G0 X0.0
G0 Z-3.4
G1 F40.0 Z-4.5
G1 F165.0 X72.0
G0 Z3.0
G0 X0.0
G0 Z-3.5
G1 F40.0 Z-4.6
G1 F165.0 X72.0
G0 Z3.0
G0 X0.0
G0 Z-3.6
G1 F40.0 Z-4.7
G1 F165.0 X72.0
G0 Z3.0
G0 X0.0
G0 Z-3.7
G1 F40.0 Z-4.8
G1 F165.0 X72.0
G0 Z3.0
G0 X0.0
G0 Z-3.8
G1 F40.0 Z-4.9
G1 F165.0 X72.0
G0 Z3.0
G0 X0.0
G0 Z-3.9
G1 F40.0 Z-5.0
G1 F165.0 X72.0
G0 Z3.0
G0 X0.0
G0 Z-4.0
G1 F40.0 Z-5.1
G1 F165.0 X72.0
G0 Z3.0
G0 X0.0
G0 Z-4.1
G1 F40.0 Z-5.2
G1 F165.0 X72.0
G0 Z3.0
G0 X0.0
G0 Z-4.2
G1 F40.0 Z-5.3
G1 F165.0 X72.0
G0 Z3.0
G0 X0.0
G0 Z-4.3
G1 F40.0 Z-5.4
G1 F165.0 X72.0
G0 Z3.0
G0 X0.0
G0 Z-4.4
G1 F40.0 Z-5.5
G1 F165.0 X72.0
G0 Z3.0
G0 X0.0
G0 Z-4.5
G1 F40.0 Z-5.6
G1 F165.0 X72.0
G0 Z3.0
G0 X0.0
G0 Z-4.6
G1 F40.0 Z-5.7
G1 F165.0 X72.0
G0 Z3.0
G0 X0.0
G0 Z-4.7
G1 F40.0 Z-5.8
G1 F165.0 X72.0
G0 Z3.0
G0 X0.0
G0 Z-4.8
G1 F40.0 Z-5.9
G1 F165.0 X72.0
G0 Z3.0
G0 X0.0
G0 Z-4.9
G1 F40.0 Z-6.0
G1 F165.0 X72.0
G0 Z3.0
G0 X0.0
G0 Z-5.0
G1 F40.0 Z-6.1
G1 F165.0 X72.0
G0 Z3.0
G0 X0.0
G0 Z-5.1
G1 F40.0 Z-6.2
G1 F165.0 X72.0
G0 Z3.0
G0 X0.0
G0 Z-5.2
G1 F40.0 Z-6.3
G1 F165.0 X72.0
G0 Z3.0
G0 X0.0
G0 Z-5.3
G1 F40.0 Z-6.4
G1 F165.0 X72.0
G0 Z3.0
G0 X0.0
G0 Z-5.4
G1 F40.0 Z-6.5
G1 F165.0 X72.0
G0 Z3.0
G0 X0.0
G0 Z-5.5
G1 F40.0 Z-6.6
G1 F165.0 X72.0
G0 Z3.0
G0 X0.0
G0 Z-5.6
G1 F40.0 Z-6.7
G1 F165.0 X72.0
G0 Z3.0
G0 X0.0
G0 Z-5.7
G1 F40.0 Z-6.8
G1 F165.0 X72.0
G0 Z3.0
G0 X0.0
G0 Z-5.8
G1 F40.0 Z-6.9
G1 F165.0 X72.0
G0 Z3.0
G0 X0.0
G0 Z-5.9
G1 F40.0 Z-7.0
G1 F165.0 X72.0
G0 Z3.0
G0 X0.0
G0 Z-6.0
G1 F40.0 Z-7.1
G1 F165.0 X72.0
G0 Z3.0
G0 X0.0
G0 Z-6.1
G1 F40.0 Z-7.2
G1 F165.0 X72.0
G0 Z3.0
G0 X0.0
G0 Z-6.2
G1 F40.0 Z-7.3
G1 F165.0 X72.0
G0 Z3.0
G0 X0.0
G0 Z-6.3
G1 F40.0 Z-7.4
G1 F165.0 X72.0
G0 Z3.0
G0 X0.0
G0 Z-6.4
G1 F40.0 Z-7.5
G1 F165.0 X72.0
G0 Z3.0
G0 X0.0
G0 Z-6.5
G1 F40.0 Z-7.6
G1 F165.0 X72.0
G0 Z3.0
G0 X0.0
G0 Z-6.6
G1 F40.0 Z-7.7
G1 F165.0 X72.0
G0 Z3.0
G0 X0.0
G0 Z-6.7
G1 F40.0 Z-7.8
G1 F165.0 X72.0
G0 Z3.0
G0 X0.0
G0 Z-6.8
G1 F40.0 Z-7.9
G1 F165.0 X72.0
G0 Z3.0
G0 X0.0
G0 Z-6.9
G1 F40.0 Z-8.0
G1 F165.0 X72.0
G0 Z3.0
G0 X0.0
G0 Z-7.0
G1 F40.0 Z-8.1
G1 F165.0 X72.0
G0 Z3.0
G0 X0.0
G0 Z-7.1
G1 F40.0 Z-8.2
G1 F165.0 X72.0
G0 Z3.0
G0 X0.0
G0 Z-7.2
G1 F40.0 Z-8.3
G1 F165.0 X72.0
G0 Z3.0
G0 X0.0
G0 Z-7.3
G1 F40.0 Z-8.4
G1 F165.0 X72.0
G0 Z3.0
G0 X0.0
G0 Z-7.4
G1 F40.0 Z-8.5
G1 F165.0 X72.0
G0 Z3.0
G0 X0.0
G0 Z-7.5
G1 F40.0 Z-8.6
G1 F165.0 X72.0
G0 Z3.0
G0 X0.0
G0 Z-7.6
G1 F40.0 Z-8.7
G1 F165.0 X72.0
G0 Z3.0
G0 X0.0
G0 Z-7.7
G1 F40.0 Z-8.8
G1 F165.0 X72.0
G0 Z3.0
G0 X0.0
G0 Z-7.8
G1 F40.0 Z-8.9
G1 F165.0 X72.0
G0 Z3.0
G0 X0.0
G0 Z-7.9
G1 F40.0 Z-9.0
G1 F165.0 X72.0
G0 Z3.0
G0 X0.0
G0 Z-8.0
G1 F40.0 Z-9.1
G1 F165.0 X72.0
G0 Z3.0
G0 X0.0
G0 Z-8.1
G1 F40.0 Z-9.2
G1 F165.0 X72.0
G0 Z3.0
G0 X0.0
G0 Z-8.2
G1 F40.0 Z-9.3
G1 F165.0 X72.0
G0 Z3.0
G0 X0.0
G0 Z-8.3
G1 F40.0 Z-9.4
G1 F165.0 X72.0
G0 Z3.0
G0 X0.0
G0 Z-8.4
G1 F40.0 Z-9.5
G1 F165.0 X72.0
G0 Z3.0
G0 X0.0
G0 Z-8.5
G1 F40.0 Z-9.6
G1 F165.0 X72.0
G0 Z3.0
G0 X0.0
G0 Z-8.6
G1 F40.0 Z-9.7
G1 F165.0 X72.0
G0 Z3.0
G0 X0.0
G0 Z-8.7
G1 F40.0 Z-9.8
G1 F165.0 X72.0
G0 Z3.0
G0 X0.0
G0 Z-8.8
G1 F40.0 Z-9.9
G1 F165.0 X72.0
G0 Z3.0
G0 X0.0
G0 Z-8.9
G1 F40.0 Z-10.0
G1 F165.0 X72.0
G0 Z3.0
M5
M30
