( Made using CamBam - http://www.cambam.co.uk )
( Y500mmT_slotD10 12/9/2021 2:47:46 PM )
( Post processor: Default )
( T0 : 10.0 )
G21 G90 G64 G40
G0 Z3.0
( T0 : 10.0 )
T0 M6
( Pocket1 )
G17
M3 S14000
G0 X10.0 Y10.0
G0 Z1.0
G1 F40.0 Z-1.0
G1 F300.0 Y490.0
G1 F40.0 X9.0
G1 F300.0 Y491.0
G1 X11.0
G1 Y9.0
G1 X9.0
G1 Y490.0
G1 F40.0 X8.0
G1 F300.0 Y492.0
G1 X12.0
G1 Y8.0
G1 X8.0
G1 Y490.0
G1 F40.0 X7.0
G1 F300.0 Y493.0
G1 X13.0
G1 Y7.0
G1 X7.0
G1 Y490.0
G1 F40.0 X6.0
G1 F300.0 Y494.0
G1 X14.0
G1 Y6.0
G1 X6.0
G1 Y490.0
G1 F40.0 X5.0
G1 F300.0 Y495.0
G1 X15.0
G1 Y5.0
G1 X5.0
G1 Y490.0
G0 Z3.0
G0 X10.0 Y10.0
G0 Z0.0
G1 F40.0 Z-2.0
G1 F300.0 Y490.0
G1 F40.0 X9.0
G1 F300.0 Y491.0
G1 X11.0
G1 Y9.0
G1 X9.0
G1 Y490.0
G1 F40.0 X8.0
G1 F300.0 Y492.0
G1 X12.0
G1 Y8.0
G1 X8.0
G1 Y490.0
G1 F40.0 X7.0
G1 F300.0 Y493.0
G1 X13.0
G1 Y7.0
G1 X7.0
G1 Y490.0
G1 F40.0 X6.0
G1 F300.0 Y494.0
G1 X14.0
G1 Y6.0
G1 X6.0
G1 Y490.0
G1 F40.0 X5.0
G1 F300.0 Y495.0
G1 X15.0
G1 Y5.0
G1 X5.0
G1 Y490.0
G0 Z3.0
G0 X10.0 Y10.0
G0 Z-1.0
G1 F40.0 Z-3.0
G1 F300.0 Y490.0
G1 F40.0 X9.0
G1 F300.0 Y491.0
G1 X11.0
G1 Y9.0
G1 X9.0
G1 Y490.0
G1 F40.0 X8.0
G1 F300.0 Y492.0
G1 X12.0
G1 Y8.0
G1 X8.0
G1 Y490.0
G1 F40.0 X7.0
G1 F300.0 Y493.0
G1 X13.0
G1 Y7.0
G1 X7.0
G1 Y490.0
G1 F40.0 X6.0
G1 F300.0 Y494.0
G1 X14.0
G1 Y6.0
G1 X6.0
G1 Y490.0
G1 F40.0 X5.0
G1 F300.0 Y495.0
G1 X15.0
G1 Y5.0
G1 X5.0
G1 Y490.0
G0 Z3.0
G0 X10.0 Y10.0
G0 Z-2.0
G1 F40.0 Z-4.0
G1 F300.0 Y490.0
G1 F40.0 X9.0
G1 F300.0 Y491.0
G1 X11.0
G1 Y9.0
G1 X9.0
G1 Y490.0
G1 F40.0 X8.0
G1 F300.0 Y492.0
G1 X12.0
G1 Y8.0
G1 X8.0
G1 Y490.0
G1 F40.0 X7.0
G1 F300.0 Y493.0
G1 X13.0
G1 Y7.0
G1 X7.0
G1 Y490.0
G1 F40.0 X6.0
G1 F300.0 Y494.0
G1 X14.0
G1 Y6.0
G1 X6.0
G1 Y490.0
G1 F40.0 X5.0
G1 F300.0 Y495.0
G1 X15.0
G1 Y5.0
G1 X5.0
G1 Y490.0
G0 Z3.0
G0 X10.0 Y10.0
G0 Z-3.0
G1 F40.0 Z-5.0
G1 F300.0 Y490.0
G1 F40.0 X9.0
G1 F300.0 Y491.0
G1 X11.0
G1 Y9.0
G1 X9.0
G1 Y490.0
G1 F40.0 X8.0
G1 F300.0 Y492.0
G1 X12.0
G1 Y8.0
G1 X8.0
G1 Y490.0
G1 F40.0 X7.0
G1 F300.0 Y493.0
G1 X13.0
G1 Y7.0
G1 X7.0
G1 Y490.0
G1 F40.0 X6.0
G1 F300.0 Y494.0
G1 X14.0
G1 Y6.0
G1 X6.0
G1 Y490.0
G1 F40.0 X5.0
G1 F300.0 Y495.0
G1 X15.0
G1 Y5.0
G1 X5.0
G1 Y490.0
G0 Z3.0
G0 X10.0 Y10.0
G0 Z-4.0
G1 F40.0 Z-6.0
G1 F300.0 Y490.0
G1 F40.0 X9.0
G1 F300.0 Y491.0
G1 X11.0
G1 Y9.0
G1 X9.0
G1 Y490.0
G1 F40.0 X8.0
G1 F300.0 Y492.0
G1 X12.0
G1 Y8.0
G1 X8.0
G1 Y490.0
G1 F40.0 X7.0
G1 F300.0 Y493.0
G1 X13.0
G1 Y7.0
G1 X7.0
G1 Y490.0
G1 F40.0 X6.0
G1 F300.0 Y494.0
G1 X14.0
G1 Y6.0
G1 X6.0
G1 Y490.0
G1 F40.0 X5.0
G1 F300.0 Y495.0
G1 X15.0
G1 Y5.0
G1 X5.0
G1 Y490.0
G0 Z3.0
G0 X10.0 Y10.0
G0 Z-5.0
G1 F40.0 Z-7.0
G1 F300.0 Y490.0
G1 F40.0 X9.0
G1 F300.0 Y491.0
G1 X11.0
G1 Y9.0
G1 X9.0
G1 Y490.0
G1 F40.0 X8.0
G1 F300.0 Y492.0
G1 X12.0
G1 Y8.0
G1 X8.0
G1 Y490.0
G1 F40.0 X7.0
G1 F300.0 Y493.0
G1 X13.0
G1 Y7.0
G1 X7.0
G1 Y490.0
G1 F40.0 X6.0
G1 F300.0 Y494.0
G1 X14.0
G1 Y6.0
G1 X6.0
G1 Y490.0
G1 F40.0 X5.0
G1 F300.0 Y495.0
G1 X15.0
G1 Y5.0
G1 X5.0
G1 Y490.0
G0 Z3.0
G0 X10.0 Y10.0
G0 Z-6.0
G1 F40.0 Z-8.0
G1 F300.0 Y490.0
G1 F40.0 X9.0
G1 F300.0 Y491.0
G1 X11.0
G1 Y9.0
G1 X9.0
G1 Y490.0
G1 F40.0 X8.0
G1 F300.0 Y492.0
G1 X12.0
G1 Y8.0
G1 X8.0
G1 Y490.0
G1 F40.0 X7.0
G1 F300.0 Y493.0
G1 X13.0
G1 Y7.0
G1 X7.0
G1 Y490.0
G1 F40.0 X6.0
G1 F300.0 Y494.0
G1 X14.0
G1 Y6.0
G1 X6.0
G1 Y490.0
G1 F40.0 X5.0
G1 F300.0 Y495.0
G1 X15.0
G1 Y5.0
G1 X5.0
G1 Y490.0
G0 Z3.0
G0 X10.0 Y10.0
G0 Z-7.0
G1 F40.0 Z-9.0
G1 F300.0 Y490.0
G1 F40.0 X9.0
G1 F300.0 Y491.0
G1 X11.0
G1 Y9.0
G1 X9.0
G1 Y490.0
G1 F40.0 X8.0
G1 F300.0 Y492.0
G1 X12.0
G1 Y8.0
G1 X8.0
G1 Y490.0
G1 F40.0 X7.0
G1 F300.0 Y493.0
G1 X13.0
G1 Y7.0
G1 X7.0
G1 Y490.0
G1 F40.0 X6.0
G1 F300.0 Y494.0
G1 X14.0
G1 Y6.0
G1 X6.0
G1 Y490.0
G1 F40.0 X5.0
G1 F300.0 Y495.0
G1 X15.0
G1 Y5.0
G1 X5.0
G1 Y490.0
G0 Z3.0
G0 X10.0 Y10.0
G0 Z-8.0
G1 F40.0 Z-10.0
G1 F300.0 Y490.0
G1 F40.0 X9.0
G1 F300.0 Y491.0
G1 X11.0
G1 Y9.0
G1 X9.0
G1 Y490.0
G1 F40.0 X8.0
G1 F300.0 Y492.0
G1 X12.0
G1 Y8.0
G1 X8.0
G1 Y490.0
G1 F40.0 X7.0
G1 F300.0 Y493.0
G1 X13.0
G1 Y7.0
G1 X7.0
G1 Y490.0
G1 F40.0 X6.0
G1 F300.0 Y494.0
G1 X14.0
G1 Y6.0
G1 X6.0
G1 Y490.0
G1 F40.0 X5.0
G1 F300.0 Y495.0
G1 X15.0
G1 Y5.0
G1 X5.0
G1 Y490.0
G0 Z3.0
M5
M30
