( Made using CamBam - http://www.cambam.co.uk )
( Y500X20mmT_slotD10 12/9/2021 4:35:55 PM )
( Post processor: Default )
( T0 : 10.0 )
G21 G90 G64 G40
G0 Z3.0
( T0 : 10.0 )
T0 M6
( Profile1 )
G17
M3 S14000
G0 X5.0 Y5.0
G0 Z1.0
G1 F40.0 Z-1.0
G1 F400.0 Y495.0
G1 X15.0
G1 Y5.0
G1 X5.0
G1 F40.0 Z-2.0
G1 F400.0 Y495.0
G1 X15.0
G1 Y5.0
G1 X5.0
G1 F40.0 Z-3.0
G1 F400.0 Y495.0
G1 X15.0
G1 Y5.0
G1 X5.0
G1 F40.0 Z-4.0
G1 F400.0 Y495.0
G1 X15.0
G1 Y5.0
G1 X5.0
G1 F40.0 Z-5.0
G1 F400.0 Y495.0
G1 X15.0
G1 Y5.0
G1 X5.0
G1 F40.0 Z-6.0
G1 F400.0 Y495.0
G1 X15.0
G1 Y5.0
G1 X5.0
G1 F40.0 Z-7.0
G1 F400.0 Y495.0
G1 X15.0
G1 Y5.0
G1 X5.0
G1 F40.0 Z-8.0
G1 F400.0 Y495.0
G1 X15.0
G1 Y5.0
G1 X5.0
G1 F40.0 Z-9.0
G1 F400.0 Y495.0
G1 X15.0
G1 Y5.0
G1 X5.0
G1 F40.0 Z-10.0
G1 F400.0 Y495.0
G1 X15.0
G1 Y5.0
G1 X5.0
G0 Z3.0
M5
M30
