(actuator_link_drill)
(Machine)
(  vendor: Autodesk)
(  model: Generic 3-axis)
(  description: This machine has XY axis on the Table and Z axis on the Head)
(T1  D=3.175 CR=1.587 - ZMIN=-4 - ball end mill)
G90 G94
G17
G21
(When using Fusion 360 for Personal Use, the feedrate of)
(rapid moves is reduced to match the feedrate of cutting)
(moves, which can increase machining time. Unrestricted rapid)
(moves are available with a Fusion 360 Subscription.)
G28 G91 Z0
G90

(Bore1)
T1
S24000 M3
G54
M8
G0 X0.259 Y-28.784
Z16
G1 Z2 F150
Z0.317 F100
G18 G3 X-0.058 Z0 I-0.317 K0
G1 X-0.217
G17 G3 X-0.423 Y-28.99 I0 J-0.206
X0.402 Y-28.99 Z-0.5 I0.413 J0 F150
X-0.423 Y-28.99 Z-1 I-0.413 J0
X0.402 Y-28.99 Z-1.5 I0.413 J0
X-0.423 Y-28.99 Z-2 I-0.413 J0
X0.402 Y-28.99 Z-2.5 I0.413 J0
X-0.423 Y-28.99 Z-3 I-0.413 J0
X0.402 Y-28.99 Z-3.5 I0.413 J0
X-0.423 Y-28.99 Z-4 I-0.413 J0
X0.402 Y-28.99 I0.413 J0
X-0.423 Y-28.99 I-0.413 J0
X-0.217 Y-29.196 I0.206 J0 F100
G1 X-0.058
G18 G2 X0.259 Z-3.682 I0 K0.318
G1 Z6 F150
X-24.835 Y14.698
Z2
Z0.317 F100
G3 X-25.153 Z0 I-0.317 K0
G1 X-25.312
G17 G3 X-25.518 Y14.492 I0 J-0.206
X-24.693 Y14.492 Z-0.5 I0.413 J0 F150
X-25.518 Y14.492 Z-1 I-0.413 J0
X-24.693 Y14.492 Z-1.5 I0.413 J0
X-25.518 Y14.492 Z-2 I-0.413 J0
X-24.693 Y14.492 Z-2.5 I0.413 J0
X-25.518 Y14.492 Z-3 I-0.413 J0
X-24.693 Y14.492 Z-3.5 I0.413 J0
X-25.518 Y14.492 Z-4 I-0.413 J0
X-24.693 Y14.492 I0.413 J0
X-25.518 Y14.492 I-0.413 J0
X-25.312 Y14.286 I0.206 J0 F100
G1 X-25.153
G18 G2 X-24.835 Z-3.682 I0 K0.318
G1 Z6 F150
X25.38 Y14.695
Z2
Z0.317 F100
G3 X25.063 Z0 I-0.317 K0
G1 X24.904
G17 G3 X24.698 Y14.489 I0 J-0.206
X25.523 Y14.489 Z-0.5 I0.413 J0 F150
X24.698 Y14.489 Z-1 I-0.413 J0
X25.523 Y14.489 Z-1.5 I0.413 J0
X24.698 Y14.489 Z-2 I-0.413 J0
X25.523 Y14.489 Z-2.5 I0.413 J0
X24.698 Y14.489 Z-3 I-0.413 J0
X25.523 Y14.489 Z-3.5 I0.413 J0
X24.698 Y14.489 Z-4 I-0.413 J0
X25.523 Y14.489 I0.413 J0
X24.698 Y14.489 I-0.413 J0
X24.904 Y14.282 I0.206 J0 F100
G1 X25.063
G18 G2 X25.38 Z-3.682 I0 K0.318
G1 Z16 F150
G17
M9
G28 G91 Z0
G90
G28 G91 X0 Y0
G90
M5
M30
