(actuator_link_center)
(Machine)
(  vendor: Autodesk)
(  model: Generic 3-axis)
(  description: This machine has XY axis on the Table and Z axis on the Head)
(T1  D=3.175 CR=1.587 - ZMIN=-2.452 - ball end mill)
G90 G94
G17
G21
(When using Fusion 360 for Personal Use, the feedrate of)
(rapid moves is reduced to match the feedrate of cutting)
(moves, which can increase machining time. Unrestricted rapid)
(moves are available with a Fusion 360 Subscription.)
G28 G91 Z0
G90

(Trace2)
T1
S24000 M3
G54
M8
G0 X0 Y-11
Z16
G1 Z1.548 F150
X-0.658 Y-10.98
X-1.313 Y-10.921
X-1.964 Y-10.823
X-2.608 Y-10.686
X-3.242 Y-10.511
X-3.865 Y-10.299
X-4.474 Y-10.049
X-5.067 Y-9.763
X-5.642 Y-9.443
X-6.197 Y-9.089
X-6.729 Y-8.702
X-7.237 Y-8.284
X-7.72 Y-7.836
X-8.175 Y-7.36
X-8.6 Y-6.858
X-8.995 Y-6.332
X-9.357 Y-5.783
X-9.687 Y-5.213
X-9.981 Y-4.624
X-10.24 Y-4.019
X-10.462 Y-3.399
X-10.646 Y-2.767
X-10.793 Y-2.126
X-10.9 Y-1.477
X-10.969 Y-0.822
X-10.999 Y-0.165
X-10.989 Y0.494
X-10.94 Y1.15
X-10.851 Y1.802
X-10.724 Y2.448
X-10.559 Y3.085
X-10.355 Y3.711
X-10.115 Y4.323
X-9.838 Y4.92
X-9.526 Y5.5
X-9.18 Y6.06
X-8.801 Y6.598
X-8.391 Y7.113
X-7.951 Y7.602
X-7.482 Y8.064
X-6.986 Y8.497
X-6.466 Y8.899
X-5.922 Y9.27
X-5.357 Y9.607
X-4.773 Y9.911
X-4.171 Y10.178
X-3.555 Y10.41
X-2.926 Y10.604
X-2.287 Y10.76
X-1.639 Y10.877
X-0.986 Y10.956
X-0.329 Y10.995
X0.329
X0.986 Y10.956
X1.639 Y10.877
X2.287 Y10.76
X2.926 Y10.604
X3.555 Y10.41
X4.171 Y10.178
X4.773 Y9.911
X5.357 Y9.607
X5.922 Y9.27
X6.466 Y8.899
X6.986 Y8.497
X7.482 Y8.064
X7.951 Y7.602
X8.391 Y7.113
X8.801 Y6.598
X9.18 Y6.06
X9.526 Y5.5
X9.838 Y4.92
X10.115 Y4.323
X10.355 Y3.711
X10.559 Y3.085
X10.724 Y2.448
X10.851 Y1.802
X10.94 Y1.15
X10.989 Y0.494
X10.999 Y-0.165
X10.969 Y-0.822
X10.9 Y-1.477
X10.793 Y-2.126
X10.646 Y-2.767
X10.462 Y-3.399
X10.24 Y-4.019
X9.981 Y-4.624
X9.687 Y-5.213
X9.357 Y-5.783
X8.995 Y-6.332
X8.6 Y-6.858
X8.175 Y-7.36
X7.72 Y-7.836
X7.237 Y-8.284
X6.729 Y-8.702
X6.197 Y-9.089
X5.642 Y-9.443
X5.067 Y-9.763
X4.474 Y-10.049
X3.865 Y-10.299
X3.242 Y-10.511
X2.608 Y-10.686
X1.964 Y-10.823
X1.313 Y-10.921
X0.658 Y-10.98
X0 Y-11
Z1.148 F100
X-0.658 Y-10.98 F150
X-1.313 Y-10.921
X-1.964 Y-10.823
X-2.608 Y-10.686
X-3.242 Y-10.511
X-3.865 Y-10.299
X-4.474 Y-10.049
X-5.067 Y-9.763
X-5.642 Y-9.443
X-6.197 Y-9.089
X-6.729 Y-8.702
X-7.237 Y-8.284
X-7.72 Y-7.836
X-8.175 Y-7.36
X-8.6 Y-6.858
X-8.995 Y-6.332
X-9.357 Y-5.783
X-9.687 Y-5.213
X-9.981 Y-4.624
X-10.24 Y-4.019
X-10.462 Y-3.399
X-10.646 Y-2.767
X-10.793 Y-2.126
X-10.9 Y-1.477
X-10.969 Y-0.822
X-10.999 Y-0.165
X-10.989 Y0.494
X-10.94 Y1.15
X-10.851 Y1.802
X-10.724 Y2.448
X-10.559 Y3.085
X-10.355 Y3.711
X-10.115 Y4.323
X-9.838 Y4.92
X-9.526 Y5.5
X-9.18 Y6.06
X-8.801 Y6.598
X-8.391 Y7.113
X-7.951 Y7.602
X-7.482 Y8.064
X-6.986 Y8.497
X-6.466 Y8.899
X-5.922 Y9.27
X-5.357 Y9.607
X-4.773 Y9.911
X-4.171 Y10.178
X-3.555 Y10.41
X-2.926 Y10.604
X-2.287 Y10.76
X-1.639 Y10.877
X-0.986 Y10.956
X-0.329 Y10.995
X0.329
X0.986 Y10.956
X1.639 Y10.877
X2.287 Y10.76
X2.926 Y10.604
X3.555 Y10.41
X4.171 Y10.178
X4.773 Y9.911
X5.357 Y9.607
X5.922 Y9.27
X6.466 Y8.899
X6.986 Y8.497
X7.482 Y8.064
X7.951 Y7.602
X8.391 Y7.113
X8.801 Y6.598
X9.18 Y6.06
X9.526 Y5.5
X9.838 Y4.92
X10.115 Y4.323
X10.355 Y3.711
X10.559 Y3.085
X10.724 Y2.448
X10.851 Y1.802
X10.94 Y1.15
X10.989 Y0.494
X10.999 Y-0.165
X10.969 Y-0.822
X10.9 Y-1.477
X10.793 Y-2.126
X10.646 Y-2.767
X10.462 Y-3.399
X10.24 Y-4.019
X9.981 Y-4.624
X9.687 Y-5.213
X9.357 Y-5.783
X8.995 Y-6.332
X8.6 Y-6.858
X8.175 Y-7.36
X7.72 Y-7.836
X7.237 Y-8.284
X6.729 Y-8.702
X6.197 Y-9.089
X5.642 Y-9.443
X5.067 Y-9.763
X4.474 Y-10.049
X3.865 Y-10.299
X3.242 Y-10.511
X2.608 Y-10.686
X1.964 Y-10.823
X1.313 Y-10.921
X0.658 Y-10.98
X0 Y-11
Z0.748 F100
X-0.658 Y-10.98 F150
X-1.313 Y-10.921
X-1.964 Y-10.823
X-2.608 Y-10.686
X-3.242 Y-10.511
X-3.865 Y-10.299
X-4.474 Y-10.049
X-5.067 Y-9.763
X-5.642 Y-9.443
X-6.197 Y-9.089
X-6.729 Y-8.702
X-7.237 Y-8.284
X-7.72 Y-7.836
X-8.175 Y-7.36
X-8.6 Y-6.858
X-8.995 Y-6.332
X-9.357 Y-5.783
X-9.687 Y-5.213
X-9.981 Y-4.624
X-10.24 Y-4.019
X-10.462 Y-3.399
X-10.646 Y-2.767
X-10.793 Y-2.126
X-10.9 Y-1.477
X-10.969 Y-0.822
X-10.999 Y-0.165
X-10.989 Y0.494
X-10.94 Y1.15
X-10.851 Y1.802
X-10.724 Y2.448
X-10.559 Y3.085
X-10.355 Y3.711
X-10.115 Y4.323
X-9.838 Y4.92
X-9.526 Y5.5
X-9.18 Y6.06
X-8.801 Y6.598
X-8.391 Y7.113
X-7.951 Y7.602
X-7.482 Y8.064
X-6.986 Y8.497
X-6.466 Y8.899
X-5.922 Y9.27
X-5.357 Y9.607
X-4.773 Y9.911
X-4.171 Y10.178
X-3.555 Y10.41
X-2.926 Y10.604
X-2.287 Y10.76
X-1.639 Y10.877
X-0.986 Y10.956
X-0.329 Y10.995
X0.329
X0.986 Y10.956
X1.639 Y10.877
X2.287 Y10.76
X2.926 Y10.604
X3.555 Y10.41
X4.171 Y10.178
X4.773 Y9.911
X5.357 Y9.607
X5.922 Y9.27
X6.466 Y8.899
X6.986 Y8.497
X7.482 Y8.064
X7.951 Y7.602
X8.391 Y7.113
X8.801 Y6.598
X9.18 Y6.06
X9.526 Y5.5
X9.838 Y4.92
X10.115 Y4.323
X10.355 Y3.711
X10.559 Y3.085
X10.724 Y2.448
X10.851 Y1.802
X10.94 Y1.15
X10.989 Y0.494
X10.999 Y-0.165
X10.969 Y-0.822
X10.9 Y-1.477
X10.793 Y-2.126
X10.646 Y-2.767
X10.462 Y-3.399
X10.24 Y-4.019
X9.981 Y-4.624
X9.687 Y-5.213
X9.357 Y-5.783
X8.995 Y-6.332
X8.6 Y-6.858
X8.175 Y-7.36
X7.72 Y-7.836
X7.237 Y-8.284
X6.729 Y-8.702
X6.197 Y-9.089
X5.642 Y-9.443
X5.067 Y-9.763
X4.474 Y-10.049
X3.865 Y-10.299
X3.242 Y-10.511
X2.608 Y-10.686
X1.964 Y-10.823
X1.313 Y-10.921
X0.658 Y-10.98
X0 Y-11
Z0.348 F100
X-0.658 Y-10.98 F150
X-1.313 Y-10.921
X-1.964 Y-10.823
X-2.608 Y-10.686
X-3.242 Y-10.511
X-3.865 Y-10.299
X-4.474 Y-10.049
X-5.067 Y-9.763
X-5.642 Y-9.443
X-6.197 Y-9.089
X-6.729 Y-8.702
X-7.237 Y-8.284
X-7.72 Y-7.836
X-8.175 Y-7.36
X-8.6 Y-6.858
X-8.995 Y-6.332
X-9.357 Y-5.783
X-9.687 Y-5.213
X-9.981 Y-4.624
X-10.24 Y-4.019
X-10.462 Y-3.399
X-10.646 Y-2.767
X-10.793 Y-2.126
X-10.9 Y-1.477
X-10.969 Y-0.822
X-10.999 Y-0.165
X-10.989 Y0.494
X-10.94 Y1.15
X-10.851 Y1.802
X-10.724 Y2.448
X-10.559 Y3.085
X-10.355 Y3.711
X-10.115 Y4.323
X-9.838 Y4.92
X-9.526 Y5.5
X-9.18 Y6.06
X-8.801 Y6.598
X-8.391 Y7.113
X-7.951 Y7.602
X-7.482 Y8.064
X-6.986 Y8.497
X-6.466 Y8.899
X-5.922 Y9.27
X-5.357 Y9.607
X-4.773 Y9.911
X-4.171 Y10.178
X-3.555 Y10.41
X-2.926 Y10.604
X-2.287 Y10.76
X-1.639 Y10.877
X-0.986 Y10.956
X-0.329 Y10.995
X0.329
X0.986 Y10.956
X1.639 Y10.877
X2.287 Y10.76
X2.926 Y10.604
X3.555 Y10.41
X4.171 Y10.178
X4.773 Y9.911
X5.357 Y9.607
X5.922 Y9.27
X6.466 Y8.899
X6.986 Y8.497
X7.482 Y8.064
X7.951 Y7.602
X8.391 Y7.113
X8.801 Y6.598
X9.18 Y6.06
X9.526 Y5.5
X9.838 Y4.92
X10.115 Y4.323
X10.355 Y3.711
X10.559 Y3.085
X10.724 Y2.448
X10.851 Y1.802
X10.94 Y1.15
X10.989 Y0.494
X10.999 Y-0.165
X10.969 Y-0.822
X10.9 Y-1.477
X10.793 Y-2.126
X10.646 Y-2.767
X10.462 Y-3.399
X10.24 Y-4.019
X9.981 Y-4.624
X9.687 Y-5.213
X9.357 Y-5.783
X8.995 Y-6.332
X8.6 Y-6.858
X8.175 Y-7.36
X7.72 Y-7.836
X7.237 Y-8.284
X6.729 Y-8.702
X6.197 Y-9.089
X5.642 Y-9.443
X5.067 Y-9.763
X4.474 Y-10.049
X3.865 Y-10.299
X3.242 Y-10.511
X2.608 Y-10.686
X1.964 Y-10.823
X1.313 Y-10.921
X0.658 Y-10.98
X0 Y-11
Z-0.052 F100
X-0.658 Y-10.98 F150
X-1.313 Y-10.921
X-1.964 Y-10.823
X-2.608 Y-10.686
X-3.242 Y-10.511
X-3.865 Y-10.299
X-4.474 Y-10.049
X-5.067 Y-9.763
X-5.642 Y-9.443
X-6.197 Y-9.089
X-6.729 Y-8.702
X-7.237 Y-8.284
X-7.72 Y-7.836
X-8.175 Y-7.36
X-8.6 Y-6.858
X-8.995 Y-6.332
X-9.357 Y-5.783
X-9.687 Y-5.213
X-9.981 Y-4.624
X-10.24 Y-4.019
X-10.462 Y-3.399
X-10.646 Y-2.767
X-10.793 Y-2.126
X-10.9 Y-1.477
X-10.969 Y-0.822
X-10.999 Y-0.165
X-10.989 Y0.494
X-10.94 Y1.15
X-10.851 Y1.802
X-10.724 Y2.448
X-10.559 Y3.085
X-10.355 Y3.711
X-10.115 Y4.323
X-9.838 Y4.92
X-9.526 Y5.5
X-9.18 Y6.06
X-8.801 Y6.598
X-8.391 Y7.113
X-7.951 Y7.602
X-7.482 Y8.064
X-6.986 Y8.497
X-6.466 Y8.899
X-5.922 Y9.27
X-5.357 Y9.607
X-4.773 Y9.911
X-4.171 Y10.178
X-3.555 Y10.41
X-2.926 Y10.604
X-2.287 Y10.76
X-1.639 Y10.877
X-0.986 Y10.956
X-0.329 Y10.995
X0.329
X0.986 Y10.956
X1.639 Y10.877
X2.287 Y10.76
X2.926 Y10.604
X3.555 Y10.41
X4.171 Y10.178
X4.773 Y9.911
X5.357 Y9.607
X5.922 Y9.27
X6.466 Y8.899
X6.986 Y8.497
X7.482 Y8.064
X7.951 Y7.602
X8.391 Y7.113
X8.801 Y6.598
X9.18 Y6.06
X9.526 Y5.5
X9.838 Y4.92
X10.115 Y4.323
X10.355 Y3.711
X10.559 Y3.085
X10.724 Y2.448
X10.851 Y1.802
X10.94 Y1.15
X10.989 Y0.494
X10.999 Y-0.165
X10.969 Y-0.822
X10.9 Y-1.477
X10.793 Y-2.126
X10.646 Y-2.767
X10.462 Y-3.399
X10.24 Y-4.019
X9.981 Y-4.624
X9.687 Y-5.213
X9.357 Y-5.783
X8.995 Y-6.332
X8.6 Y-6.858
X8.175 Y-7.36
X7.72 Y-7.836
X7.237 Y-8.284
X6.729 Y-8.702
X6.197 Y-9.089
X5.642 Y-9.443
X5.067 Y-9.763
X4.474 Y-10.049
X3.865 Y-10.299
X3.242 Y-10.511
X2.608 Y-10.686
X1.964 Y-10.823
X1.313 Y-10.921
X0.658 Y-10.98
X0 Y-11
Z-0.452 F100
X-0.658 Y-10.98 F150
X-1.313 Y-10.921
X-1.964 Y-10.823
X-2.608 Y-10.686
X-3.242 Y-10.511
X-3.865 Y-10.299
X-4.474 Y-10.049
X-5.067 Y-9.763
X-5.642 Y-9.443
X-6.197 Y-9.089
X-6.729 Y-8.702
X-7.237 Y-8.284
X-7.72 Y-7.836
X-8.175 Y-7.36
X-8.6 Y-6.858
X-8.995 Y-6.332
X-9.357 Y-5.783
X-9.687 Y-5.213
X-9.981 Y-4.624
X-10.24 Y-4.019
X-10.462 Y-3.399
X-10.646 Y-2.767
X-10.793 Y-2.126
X-10.9 Y-1.477
X-10.969 Y-0.822
X-10.999 Y-0.165
X-10.989 Y0.494
X-10.94 Y1.15
X-10.851 Y1.802
X-10.724 Y2.448
X-10.559 Y3.085
X-10.355 Y3.711
X-10.115 Y4.323
X-9.838 Y4.92
X-9.526 Y5.5
X-9.18 Y6.06
X-8.801 Y6.598
X-8.391 Y7.113
X-7.951 Y7.602
X-7.482 Y8.064
X-6.986 Y8.497
X-6.466 Y8.899
X-5.922 Y9.27
X-5.357 Y9.607
X-4.773 Y9.911
X-4.171 Y10.178
X-3.555 Y10.41
X-2.926 Y10.604
X-2.287 Y10.76
X-1.639 Y10.877
X-0.986 Y10.956
X-0.329 Y10.995
X0.329
X0.986 Y10.956
X1.639 Y10.877
X2.287 Y10.76
X2.926 Y10.604
X3.555 Y10.41
X4.171 Y10.178
X4.773 Y9.911
X5.357 Y9.607
X5.922 Y9.27
X6.466 Y8.899
X6.986 Y8.497
X7.482 Y8.064
X7.951 Y7.602
X8.391 Y7.113
X8.801 Y6.598
X9.18 Y6.06
X9.526 Y5.5
X9.838 Y4.92
X10.115 Y4.323
X10.355 Y3.711
X10.559 Y3.085
X10.724 Y2.448
X10.851 Y1.802
X10.94 Y1.15
X10.989 Y0.494
X10.999 Y-0.165
X10.969 Y-0.822
X10.9 Y-1.477
X10.793 Y-2.126
X10.646 Y-2.767
X10.462 Y-3.399
X10.24 Y-4.019
X9.981 Y-4.624
X9.687 Y-5.213
X9.357 Y-5.783
X8.995 Y-6.332
X8.6 Y-6.858
X8.175 Y-7.36
X7.72 Y-7.836
X7.237 Y-8.284
X6.729 Y-8.702
X6.197 Y-9.089
X5.642 Y-9.443
X5.067 Y-9.763
X4.474 Y-10.049
X3.865 Y-10.299
X3.242 Y-10.511
X2.608 Y-10.686
X1.964 Y-10.823
X1.313 Y-10.921
X0.658 Y-10.98
X0 Y-11
Z-0.852 F100
X-0.658 Y-10.98 F150
X-1.313 Y-10.921
X-1.964 Y-10.823
X-2.608 Y-10.686
X-3.242 Y-10.511
X-3.865 Y-10.299
X-4.474 Y-10.049
X-5.067 Y-9.763
X-5.642 Y-9.443
X-6.197 Y-9.089
X-6.729 Y-8.702
X-7.237 Y-8.284
X-7.72 Y-7.836
X-8.175 Y-7.36
X-8.6 Y-6.858
X-8.995 Y-6.332
X-9.357 Y-5.783
X-9.687 Y-5.213
X-9.981 Y-4.624
X-10.24 Y-4.019
X-10.462 Y-3.399
X-10.646 Y-2.767
X-10.793 Y-2.126
X-10.9 Y-1.477
X-10.969 Y-0.822
X-10.999 Y-0.165
X-10.989 Y0.494
X-10.94 Y1.15
X-10.851 Y1.802
X-10.724 Y2.448
X-10.559 Y3.085
X-10.355 Y3.711
X-10.115 Y4.323
X-9.838 Y4.92
X-9.526 Y5.5
X-9.18 Y6.06
X-8.801 Y6.598
X-8.391 Y7.113
X-7.951 Y7.602
X-7.482 Y8.064
X-6.986 Y8.497
X-6.466 Y8.899
X-5.922 Y9.27
X-5.357 Y9.607
X-4.773 Y9.911
X-4.171 Y10.178
X-3.555 Y10.41
X-2.926 Y10.604
X-2.287 Y10.76
X-1.639 Y10.877
X-0.986 Y10.956
X-0.329 Y10.995
X0.329
X0.986 Y10.956
X1.639 Y10.877
X2.287 Y10.76
X2.926 Y10.604
X3.555 Y10.41
X4.171 Y10.178
X4.773 Y9.911
X5.357 Y9.607
X5.922 Y9.27
X6.466 Y8.899
X6.986 Y8.497
X7.482 Y8.064
X7.951 Y7.602
X8.391 Y7.113
X8.801 Y6.598
X9.18 Y6.06
X9.526 Y5.5
X9.838 Y4.92
X10.115 Y4.323
X10.355 Y3.711
X10.559 Y3.085
X10.724 Y2.448
X10.851 Y1.802
X10.94 Y1.15
X10.989 Y0.494
X10.999 Y-0.165
X10.969 Y-0.822
X10.9 Y-1.477
X10.793 Y-2.126
X10.646 Y-2.767
X10.462 Y-3.399
X10.24 Y-4.019
X9.981 Y-4.624
X9.687 Y-5.213
X9.357 Y-5.783
X8.995 Y-6.332
X8.6 Y-6.858
X8.175 Y-7.36
X7.72 Y-7.836
X7.237 Y-8.284
X6.729 Y-8.702
X6.197 Y-9.089
X5.642 Y-9.443
X5.067 Y-9.763
X4.474 Y-10.049
X3.865 Y-10.299
X3.242 Y-10.511
X2.608 Y-10.686
X1.964 Y-10.823
X1.313 Y-10.921
X0.658 Y-10.98
X0 Y-11
Z-1.252 F100
X-0.658 Y-10.98 F150
X-1.313 Y-10.921
X-1.964 Y-10.823
X-2.608 Y-10.686
X-3.242 Y-10.511
X-3.865 Y-10.299
X-4.474 Y-10.049
X-5.067 Y-9.763
X-5.642 Y-9.443
X-6.197 Y-9.089
X-6.729 Y-8.702
X-7.237 Y-8.284
X-7.72 Y-7.836
X-8.175 Y-7.36
X-8.6 Y-6.858
X-8.995 Y-6.332
X-9.357 Y-5.783
X-9.687 Y-5.213
X-9.981 Y-4.624
X-10.24 Y-4.019
X-10.462 Y-3.399
X-10.646 Y-2.767
X-10.793 Y-2.126
X-10.9 Y-1.477
X-10.969 Y-0.822
X-10.999 Y-0.165
X-10.989 Y0.494
X-10.94 Y1.15
X-10.851 Y1.802
X-10.724 Y2.448
X-10.559 Y3.085
X-10.355 Y3.711
X-10.115 Y4.323
X-9.838 Y4.92
X-9.526 Y5.5
X-9.18 Y6.06
X-8.801 Y6.598
X-8.391 Y7.113
X-7.951 Y7.602
X-7.482 Y8.064
X-6.986 Y8.497
X-6.466 Y8.899
X-5.922 Y9.27
X-5.357 Y9.607
X-4.773 Y9.911
X-4.171 Y10.178
X-3.555 Y10.41
X-2.926 Y10.604
X-2.287 Y10.76
X-1.639 Y10.877
X-0.986 Y10.956
X-0.329 Y10.995
X0.329
X0.986 Y10.956
X1.639 Y10.877
X2.287 Y10.76
X2.926 Y10.604
X3.555 Y10.41
X4.171 Y10.178
X4.773 Y9.911
X5.357 Y9.607
X5.922 Y9.27
X6.466 Y8.899
X6.986 Y8.497
X7.482 Y8.064
X7.951 Y7.602
X8.391 Y7.113
X8.801 Y6.598
X9.18 Y6.06
X9.526 Y5.5
X9.838 Y4.92
X10.115 Y4.323
X10.355 Y3.711
X10.559 Y3.085
X10.724 Y2.448
X10.851 Y1.802
X10.94 Y1.15
X10.989 Y0.494
X10.999 Y-0.165
X10.969 Y-0.822
X10.9 Y-1.477
X10.793 Y-2.126
X10.646 Y-2.767
X10.462 Y-3.399
X10.24 Y-4.019
X9.981 Y-4.624
X9.687 Y-5.213
X9.357 Y-5.783
X8.995 Y-6.332
X8.6 Y-6.858
X8.175 Y-7.36
X7.72 Y-7.836
X7.237 Y-8.284
X6.729 Y-8.702
X6.197 Y-9.089
X5.642 Y-9.443
X5.067 Y-9.763
X4.474 Y-10.049
X3.865 Y-10.299
X3.242 Y-10.511
X2.608 Y-10.686
X1.964 Y-10.823
X1.313 Y-10.921
X0.658 Y-10.98
X0 Y-11
Z-1.652 F100
X-0.658 Y-10.98 F150
X-1.313 Y-10.921
X-1.964 Y-10.823
X-2.608 Y-10.686
X-3.242 Y-10.511
X-3.865 Y-10.299
X-4.474 Y-10.049
X-5.067 Y-9.763
X-5.642 Y-9.443
X-6.197 Y-9.089
X-6.729 Y-8.702
X-7.237 Y-8.284
X-7.72 Y-7.836
X-8.175 Y-7.36
X-8.6 Y-6.858
X-8.995 Y-6.332
X-9.357 Y-5.783
X-9.687 Y-5.213
X-9.981 Y-4.624
X-10.24 Y-4.019
X-10.462 Y-3.399
X-10.646 Y-2.767
X-10.793 Y-2.126
X-10.9 Y-1.477
X-10.969 Y-0.822
X-10.999 Y-0.165
X-10.989 Y0.494
X-10.94 Y1.15
X-10.851 Y1.802
X-10.724 Y2.448
X-10.559 Y3.085
X-10.355 Y3.711
X-10.115 Y4.323
X-9.838 Y4.92
X-9.526 Y5.5
X-9.18 Y6.06
X-8.801 Y6.598
X-8.391 Y7.113
X-7.951 Y7.602
X-7.482 Y8.064
X-6.986 Y8.497
X-6.466 Y8.899
X-5.922 Y9.27
X-5.357 Y9.607
X-4.773 Y9.911
X-4.171 Y10.178
X-3.555 Y10.41
X-2.926 Y10.604
X-2.287 Y10.76
X-1.639 Y10.877
X-0.986 Y10.956
X-0.329 Y10.995
X0.329
X0.986 Y10.956
X1.639 Y10.877
X2.287 Y10.76
X2.926 Y10.604
X3.555 Y10.41
X4.171 Y10.178
X4.773 Y9.911
X5.357 Y9.607
X5.922 Y9.27
X6.466 Y8.899
X6.986 Y8.497
X7.482 Y8.064
X7.951 Y7.602
X8.391 Y7.113
X8.801 Y6.598
X9.18 Y6.06
X9.526 Y5.5
X9.838 Y4.92
X10.115 Y4.323
X10.355 Y3.711
X10.559 Y3.085
X10.724 Y2.448
X10.851 Y1.802
X10.94 Y1.15
X10.989 Y0.494
X10.999 Y-0.165
X10.969 Y-0.822
X10.9 Y-1.477
X10.793 Y-2.126
X10.646 Y-2.767
X10.462 Y-3.399
X10.24 Y-4.019
X9.981 Y-4.624
X9.687 Y-5.213
X9.357 Y-5.783
X8.995 Y-6.332
X8.6 Y-6.858
X8.175 Y-7.36
X7.72 Y-7.836
X7.237 Y-8.284
X6.729 Y-8.702
X6.197 Y-9.089
X5.642 Y-9.443
X5.067 Y-9.763
X4.474 Y-10.049
X3.865 Y-10.299
X3.242 Y-10.511
X2.608 Y-10.686
X1.964 Y-10.823
X1.313 Y-10.921
X0.658 Y-10.98
X0 Y-11
Z-2.052 F100
X-0.658 Y-10.98 F150
X-1.313 Y-10.921
X-1.964 Y-10.823
X-2.608 Y-10.686
X-3.242 Y-10.511
X-3.865 Y-10.299
X-4.474 Y-10.049
X-5.067 Y-9.763
X-5.642 Y-9.443
X-6.197 Y-9.089
X-6.729 Y-8.702
X-7.237 Y-8.284
X-7.72 Y-7.836
X-8.175 Y-7.36
X-8.6 Y-6.858
X-8.995 Y-6.332
X-9.357 Y-5.783
X-9.687 Y-5.213
X-9.981 Y-4.624
X-10.24 Y-4.019
X-10.462 Y-3.399
X-10.646 Y-2.767
X-10.793 Y-2.126
X-10.9 Y-1.477
X-10.969 Y-0.822
X-10.999 Y-0.165
X-10.989 Y0.494
X-10.94 Y1.15
X-10.851 Y1.802
X-10.724 Y2.448
X-10.559 Y3.085
X-10.355 Y3.711
X-10.115 Y4.323
X-9.838 Y4.92
X-9.526 Y5.5
X-9.18 Y6.06
X-8.801 Y6.598
X-8.391 Y7.113
X-7.951 Y7.602
X-7.482 Y8.064
X-6.986 Y8.497
X-6.466 Y8.899
X-5.922 Y9.27
X-5.357 Y9.607
X-4.773 Y9.911
X-4.171 Y10.178
X-3.555 Y10.41
X-2.926 Y10.604
X-2.287 Y10.76
X-1.639 Y10.877
X-0.986 Y10.956
X-0.329 Y10.995
X0.329
X0.986 Y10.956
X1.639 Y10.877
X2.287 Y10.76
X2.926 Y10.604
X3.555 Y10.41
X4.171 Y10.178
X4.773 Y9.911
X5.357 Y9.607
X5.922 Y9.27
X6.466 Y8.899
X6.986 Y8.497
X7.482 Y8.064
X7.951 Y7.602
X8.391 Y7.113
X8.801 Y6.598
X9.18 Y6.06
X9.526 Y5.5
X9.838 Y4.92
X10.115 Y4.323
X10.355 Y3.711
X10.559 Y3.085
X10.724 Y2.448
X10.851 Y1.802
X10.94 Y1.15
X10.989 Y0.494
X10.999 Y-0.165
X10.969 Y-0.822
X10.9 Y-1.477
X10.793 Y-2.126
X10.646 Y-2.767
X10.462 Y-3.399
X10.24 Y-4.019
X9.981 Y-4.624
X9.687 Y-5.213
X9.357 Y-5.783
X8.995 Y-6.332
X8.6 Y-6.858
X8.175 Y-7.36
X7.72 Y-7.836
X7.237 Y-8.284
X6.729 Y-8.702
X6.197 Y-9.089
X5.642 Y-9.443
X5.067 Y-9.763
X4.474 Y-10.049
X3.865 Y-10.299
X3.242 Y-10.511
X2.608 Y-10.686
X1.964 Y-10.823
X1.313 Y-10.921
X0.658 Y-10.98
X0 Y-11
Z-2.452 F100
X-0.658 Y-10.98 F150
X-1.313 Y-10.921
X-1.964 Y-10.823
X-2.608 Y-10.686
X-3.242 Y-10.511
X-3.865 Y-10.299
X-4.474 Y-10.049
X-5.067 Y-9.763
X-5.642 Y-9.443
X-6.197 Y-9.089
X-6.729 Y-8.702
X-7.237 Y-8.284
X-7.72 Y-7.836
X-8.175 Y-7.36
X-8.6 Y-6.858
X-8.995 Y-6.332
X-9.357 Y-5.783
X-9.687 Y-5.213
X-9.981 Y-4.624
X-10.24 Y-4.019
X-10.462 Y-3.399
X-10.646 Y-2.767
X-10.793 Y-2.126
X-10.9 Y-1.477
X-10.969 Y-0.822
X-10.999 Y-0.165
X-10.989 Y0.494
X-10.94 Y1.15
X-10.851 Y1.802
X-10.724 Y2.448
X-10.559 Y3.085
X-10.355 Y3.711
X-10.115 Y4.323
X-9.838 Y4.92
X-9.526 Y5.5
X-9.18 Y6.06
X-8.801 Y6.598
X-8.391 Y7.113
X-7.951 Y7.602
X-7.482 Y8.064
X-6.986 Y8.497
X-6.466 Y8.899
X-5.922 Y9.27
X-5.357 Y9.607
X-4.773 Y9.911
X-4.171 Y10.178
X-3.555 Y10.41
X-2.926 Y10.604
X-2.287 Y10.76
X-1.639 Y10.877
X-0.986 Y10.956
X-0.329 Y10.995
X0.329
X0.986 Y10.956
X1.639 Y10.877
X2.287 Y10.76
X2.926 Y10.604
X3.555 Y10.41
X4.171 Y10.178
X4.773 Y9.911
X5.357 Y9.607
X5.922 Y9.27
X6.466 Y8.899
X6.986 Y8.497
X7.482 Y8.064
X7.951 Y7.602
X8.391 Y7.113
X8.801 Y6.598
X9.18 Y6.06
X9.526 Y5.5
X9.838 Y4.92
X10.115 Y4.323
X10.355 Y3.711
X10.559 Y3.085
X10.724 Y2.448
X10.851 Y1.802
X10.94 Y1.15
X10.989 Y0.494
X10.999 Y-0.165
X10.969 Y-0.822
X10.9 Y-1.477
X10.793 Y-2.126
X10.646 Y-2.767
X10.462 Y-3.399
X10.24 Y-4.019
X9.981 Y-4.624
X9.687 Y-5.213
X9.357 Y-5.783
X8.995 Y-6.332
X8.6 Y-6.858
X8.175 Y-7.36
X7.72 Y-7.836
X7.237 Y-8.284
X6.729 Y-8.702
X6.197 Y-9.089
X5.642 Y-9.443
X5.067 Y-9.763
X4.474 Y-10.049
X3.865 Y-10.299
X3.242 Y-10.511
X2.608 Y-10.686
X1.964 Y-10.823
X1.313 Y-10.921
X0.658 Y-10.98
X0 Y-11
Z1 F100
Z16 F150
M9
G28 G91 Z0
G90
G28 G91 X0 Y0
G90
M5
M30
