(actuator_link_outline)
(Machine)
(  vendor: Autodesk)
(  model: Generic 3-axis)
(  description: This machine has XY axis on the Table and Z axis on the Head)
(T1  D=3.175 CR=1.587 - ZMIN=-6.5 - ball end mill)
G90 G94
G17
G21
(When using Fusion 360 for Personal Use, the feedrate of)
(rapid moves is reduced to match the feedrate of cutting)
(moves, which can increase machining time. Unrestricted rapid)
(moves are available with a Fusion 360 Subscription.)
G28 G91 Z0
G90

(Trace1)
T1
S24000 M3
G54
M8
G0 X0 Y-32
Z16
G1 Z5 F150
Z-0.1 F100
X-1.129 Y-31.98 F150
X-2.257 Y-31.92
X-3.382 Y-31.821
X-4.503 Y-31.682
X-5.619 Y-31.503
X-6.727 Y-31.285
X-7.827 Y-31.028
X-8.917 Y-30.733
X-9.996 Y-30.399
X-11.063 Y-30.027
X-12.115 Y-29.618
X-13.153 Y-29.172
X-14.174 Y-28.69
X-15.178 Y-28.171
X-16.163 Y-27.618
X-17.127 Y-27.031
X-18.071 Y-26.409
X-18.991 Y-25.755
X-19.889 Y-25.069
X-20.761 Y-24.351
X-21.607 Y-23.604
X-22.427 Y-22.826
X-23.219 Y-22.021
X-23.981 Y-21.187
X-24.714 Y-20.328
X-25.416 Y-19.443
X-26.086 Y-18.534
X-26.724 Y-17.602
X-27.329 Y-16.648
X-27.899 Y-15.673
X-28.435 Y-14.679
X-28.935 Y-13.666
X-29.399 Y-12.636
X-29.827 Y-11.591
X-30.218 Y-10.531
X-30.57 Y-9.458
X-30.885 Y-8.373
X-31.161 Y-7.278
X-31.399 Y-6.174
X-31.597 Y-5.062
X-31.756 Y-3.943
X-31.875 Y-2.82
X-31.955 Y-1.694
X-31.995 Y-0.565
Y0.565
X-31.955 Y1.694
X-31.875 Y2.82
X-31.756 Y3.943
X-31.597 Y5.062
X-31.399 Y6.174
X-31.161 Y7.278
X-30.885 Y8.373
X-30.57 Y9.458
X-30.218 Y10.531
X-29.827 Y11.591
X-29.399 Y12.636
X-28.935 Y13.666
X-28.435 Y14.679
X-27.899 Y15.673
X-27.329 Y16.648
X-26.724 Y17.602
X-26.086 Y18.534
X-25.416 Y19.443
X-24.714 Y20.328
X-23.981 Y21.187
X-23.219 Y22.021
X-22.427 Y22.826
X-21.607 Y23.604
X-20.761 Y24.351
X-19.889 Y25.069
X-18.991 Y25.755
X-18.071 Y26.409
X-17.127 Y27.031
X-16.163 Y27.618
X-15.178 Y28.171
X-14.174 Y28.69
X-13.153 Y29.172
X-12.115 Y29.618
X-11.063 Y30.027
X-9.996 Y30.399
X-8.917 Y30.733
X-7.827 Y31.028
X-6.727 Y31.285
X-5.619 Y31.503
X-4.503 Y31.682
X-3.382 Y31.821
X-2.257 Y31.92
X-1.129 Y31.98
X0 Y32
X1.129 Y31.98
X2.257 Y31.92
X3.382 Y31.821
X4.503 Y31.682
X5.619 Y31.503
X6.727 Y31.285
X7.827 Y31.028
X8.917 Y30.733
X9.996 Y30.399
X11.063 Y30.027
X12.115 Y29.618
X13.153 Y29.172
X14.174 Y28.69
X15.178 Y28.171
X16.163 Y27.618
X17.127 Y27.031
X18.071 Y26.409
X18.991 Y25.755
X19.889 Y25.069
X20.761 Y24.351
X21.607 Y23.604
X22.427 Y22.826
X23.219 Y22.021
X23.981 Y21.187
X24.714 Y20.328
X25.416 Y19.443
X26.086 Y18.534
X26.724 Y17.602
X27.329 Y16.648
X27.899 Y15.673
X28.435 Y14.679
X28.935 Y13.666
X29.399 Y12.636
X29.827 Y11.591
X30.218 Y10.531
X30.57 Y9.458
X30.885 Y8.373
X31.161 Y7.278
X31.399 Y6.174
X31.597 Y5.062
X31.756 Y3.943
X31.875 Y2.82
X31.955 Y1.694
X31.995 Y0.565
Y-0.565
X31.955 Y-1.694
X31.875 Y-2.82
X31.756 Y-3.943
X31.597 Y-5.062
X31.399 Y-6.174
X31.161 Y-7.278
X30.885 Y-8.373
X30.57 Y-9.458
X30.218 Y-10.531
X29.827 Y-11.591
X29.399 Y-12.636
X28.935 Y-13.666
X28.435 Y-14.679
X27.899 Y-15.673
X27.329 Y-16.648
X26.724 Y-17.602
X26.086 Y-18.534
X25.416 Y-19.443
X24.714 Y-20.328
X23.981 Y-21.187
X23.219 Y-22.021
X22.427 Y-22.826
X21.607 Y-23.604
X20.761 Y-24.351
X19.889 Y-25.069
X18.991 Y-25.755
X18.071 Y-26.409
X17.127 Y-27.031
X16.163 Y-27.618
X15.178 Y-28.171
X14.174 Y-28.69
X13.153 Y-29.172
X12.115 Y-29.618
X11.063 Y-30.027
X9.996 Y-30.399
X8.917 Y-30.733
X7.827 Y-31.028
X6.727 Y-31.285
X5.619 Y-31.503
X4.503 Y-31.682
X3.382 Y-31.821
X2.257 Y-31.92
X1.129 Y-31.98
X0 Y-32
Z-0.5 F100
X-1.129 Y-31.98 F150
X-2.257 Y-31.92
X-3.382 Y-31.821
X-4.503 Y-31.682
X-5.619 Y-31.503
X-6.727 Y-31.285
X-7.827 Y-31.028
X-8.917 Y-30.733
X-9.996 Y-30.399
X-11.063 Y-30.027
X-12.115 Y-29.618
X-13.153 Y-29.172
X-14.174 Y-28.69
X-15.178 Y-28.171
X-16.163 Y-27.618
X-17.127 Y-27.031
X-18.071 Y-26.409
X-18.991 Y-25.755
X-19.889 Y-25.069
X-20.761 Y-24.351
X-21.607 Y-23.604
X-22.427 Y-22.826
X-23.219 Y-22.021
X-23.981 Y-21.187
X-24.714 Y-20.328
X-25.416 Y-19.443
X-26.086 Y-18.534
X-26.724 Y-17.602
X-27.329 Y-16.648
X-27.899 Y-15.673
X-28.435 Y-14.679
X-28.935 Y-13.666
X-29.399 Y-12.636
X-29.827 Y-11.591
X-30.218 Y-10.531
X-30.57 Y-9.458
X-30.885 Y-8.373
X-31.161 Y-7.278
X-31.399 Y-6.174
X-31.597 Y-5.062
X-31.756 Y-3.943
X-31.875 Y-2.82
X-31.955 Y-1.694
X-31.995 Y-0.565
Y0.565
X-31.955 Y1.694
X-31.875 Y2.82
X-31.756 Y3.943
X-31.597 Y5.062
X-31.399 Y6.174
X-31.161 Y7.278
X-30.885 Y8.373
X-30.57 Y9.458
X-30.218 Y10.531
X-29.827 Y11.591
X-29.399 Y12.636
X-28.935 Y13.666
X-28.435 Y14.679
X-27.899 Y15.673
X-27.329 Y16.648
X-26.724 Y17.602
X-26.086 Y18.534
X-25.416 Y19.443
X-24.714 Y20.328
X-23.981 Y21.187
X-23.219 Y22.021
X-22.427 Y22.826
X-21.607 Y23.604
X-20.761 Y24.351
X-19.889 Y25.069
X-18.991 Y25.755
X-18.071 Y26.409
X-17.127 Y27.031
X-16.163 Y27.618
X-15.178 Y28.171
X-14.174 Y28.69
X-13.153 Y29.172
X-12.115 Y29.618
X-11.063 Y30.027
X-9.996 Y30.399
X-8.917 Y30.733
X-7.827 Y31.028
X-6.727 Y31.285
X-5.619 Y31.503
X-4.503 Y31.682
X-3.382 Y31.821
X-2.257 Y31.92
X-1.129 Y31.98
X0 Y32
X1.129 Y31.98
X2.257 Y31.92
X3.382 Y31.821
X4.503 Y31.682
X5.619 Y31.503
X6.727 Y31.285
X7.827 Y31.028
X8.917 Y30.733
X9.996 Y30.399
X11.063 Y30.027
X12.115 Y29.618
X13.153 Y29.172
X14.174 Y28.69
X15.178 Y28.171
X16.163 Y27.618
X17.127 Y27.031
X18.071 Y26.409
X18.991 Y25.755
X19.889 Y25.069
X20.761 Y24.351
X21.607 Y23.604
X22.427 Y22.826
X23.219 Y22.021
X23.981 Y21.187
X24.714 Y20.328
X25.416 Y19.443
X26.086 Y18.534
X26.724 Y17.602
X27.329 Y16.648
X27.899 Y15.673
X28.435 Y14.679
X28.935 Y13.666
X29.399 Y12.636
X29.827 Y11.591
X30.218 Y10.531
X30.57 Y9.458
X30.885 Y8.373
X31.161 Y7.278
X31.399 Y6.174
X31.597 Y5.062
X31.756 Y3.943
X31.875 Y2.82
X31.955 Y1.694
X31.995 Y0.565
Y-0.565
X31.955 Y-1.694
X31.875 Y-2.82
X31.756 Y-3.943
X31.597 Y-5.062
X31.399 Y-6.174
X31.161 Y-7.278
X30.885 Y-8.373
X30.57 Y-9.458
X30.218 Y-10.531
X29.827 Y-11.591
X29.399 Y-12.636
X28.935 Y-13.666
X28.435 Y-14.679
X27.899 Y-15.673
X27.329 Y-16.648
X26.724 Y-17.602
X26.086 Y-18.534
X25.416 Y-19.443
X24.714 Y-20.328
X23.981 Y-21.187
X23.219 Y-22.021
X22.427 Y-22.826
X21.607 Y-23.604
X20.761 Y-24.351
X19.889 Y-25.069
X18.991 Y-25.755
X18.071 Y-26.409
X17.127 Y-27.031
X16.163 Y-27.618
X15.178 Y-28.171
X14.174 Y-28.69
X13.153 Y-29.172
X12.115 Y-29.618
X11.063 Y-30.027
X9.996 Y-30.399
X8.917 Y-30.733
X7.827 Y-31.028
X6.727 Y-31.285
X5.619 Y-31.503
X4.503 Y-31.682
X3.382 Y-31.821
X2.257 Y-31.92
X1.129 Y-31.98
X0 Y-32
Z-0.9 F100
X-1.129 Y-31.98 F150
X-2.257 Y-31.92
X-3.382 Y-31.821
X-4.503 Y-31.682
X-5.619 Y-31.503
X-6.727 Y-31.285
X-7.827 Y-31.028
X-8.917 Y-30.733
X-9.996 Y-30.399
X-11.063 Y-30.027
X-12.115 Y-29.618
X-13.153 Y-29.172
X-14.174 Y-28.69
X-15.178 Y-28.171
X-16.163 Y-27.618
X-17.127 Y-27.031
X-18.071 Y-26.409
X-18.991 Y-25.755
X-19.889 Y-25.069
X-20.761 Y-24.351
X-21.607 Y-23.604
X-22.427 Y-22.826
X-23.219 Y-22.021
X-23.981 Y-21.187
X-24.714 Y-20.328
X-25.416 Y-19.443
X-26.086 Y-18.534
X-26.724 Y-17.602
X-27.329 Y-16.648
X-27.899 Y-15.673
X-28.435 Y-14.679
X-28.935 Y-13.666
X-29.399 Y-12.636
X-29.827 Y-11.591
X-30.218 Y-10.531
X-30.57 Y-9.458
X-30.885 Y-8.373
X-31.161 Y-7.278
X-31.399 Y-6.174
X-31.597 Y-5.062
X-31.756 Y-3.943
X-31.875 Y-2.82
X-31.955 Y-1.694
X-31.995 Y-0.565
Y0.565
X-31.955 Y1.694
X-31.875 Y2.82
X-31.756 Y3.943
X-31.597 Y5.062
X-31.399 Y6.174
X-31.161 Y7.278
X-30.885 Y8.373
X-30.57 Y9.458
X-30.218 Y10.531
X-29.827 Y11.591
X-29.399 Y12.636
X-28.935 Y13.666
X-28.435 Y14.679
X-27.899 Y15.673
X-27.329 Y16.648
X-26.724 Y17.602
X-26.086 Y18.534
X-25.416 Y19.443
X-24.714 Y20.328
X-23.981 Y21.187
X-23.219 Y22.021
X-22.427 Y22.826
X-21.607 Y23.604
X-20.761 Y24.351
X-19.889 Y25.069
X-18.991 Y25.755
X-18.071 Y26.409
X-17.127 Y27.031
X-16.163 Y27.618
X-15.178 Y28.171
X-14.174 Y28.69
X-13.153 Y29.172
X-12.115 Y29.618
X-11.063 Y30.027
X-9.996 Y30.399
X-8.917 Y30.733
X-7.827 Y31.028
X-6.727 Y31.285
X-5.619 Y31.503
X-4.503 Y31.682
X-3.382 Y31.821
X-2.257 Y31.92
X-1.129 Y31.98
X0 Y32
X1.129 Y31.98
X2.257 Y31.92
X3.382 Y31.821
X4.503 Y31.682
X5.619 Y31.503
X6.727 Y31.285
X7.827 Y31.028
X8.917 Y30.733
X9.996 Y30.399
X11.063 Y30.027
X12.115 Y29.618
X13.153 Y29.172
X14.174 Y28.69
X15.178 Y28.171
X16.163 Y27.618
X17.127 Y27.031
X18.071 Y26.409
X18.991 Y25.755
X19.889 Y25.069
X20.761 Y24.351
X21.607 Y23.604
X22.427 Y22.826
X23.219 Y22.021
X23.981 Y21.187
X24.714 Y20.328
X25.416 Y19.443
X26.086 Y18.534
X26.724 Y17.602
X27.329 Y16.648
X27.899 Y15.673
X28.435 Y14.679
X28.935 Y13.666
X29.399 Y12.636
X29.827 Y11.591
X30.218 Y10.531
X30.57 Y9.458
X30.885 Y8.373
X31.161 Y7.278
X31.399 Y6.174
X31.597 Y5.062
X31.756 Y3.943
X31.875 Y2.82
X31.955 Y1.694
X31.995 Y0.565
Y-0.565
X31.955 Y-1.694
X31.875 Y-2.82
X31.756 Y-3.943
X31.597 Y-5.062
X31.399 Y-6.174
X31.161 Y-7.278
X30.885 Y-8.373
X30.57 Y-9.458
X30.218 Y-10.531
X29.827 Y-11.591
X29.399 Y-12.636
X28.935 Y-13.666
X28.435 Y-14.679
X27.899 Y-15.673
X27.329 Y-16.648
X26.724 Y-17.602
X26.086 Y-18.534
X25.416 Y-19.443
X24.714 Y-20.328
X23.981 Y-21.187
X23.219 Y-22.021
X22.427 Y-22.826
X21.607 Y-23.604
X20.761 Y-24.351
X19.889 Y-25.069
X18.991 Y-25.755
X18.071 Y-26.409
X17.127 Y-27.031
X16.163 Y-27.618
X15.178 Y-28.171
X14.174 Y-28.69
X13.153 Y-29.172
X12.115 Y-29.618
X11.063 Y-30.027
X9.996 Y-30.399
X8.917 Y-30.733
X7.827 Y-31.028
X6.727 Y-31.285
X5.619 Y-31.503
X4.503 Y-31.682
X3.382 Y-31.821
X2.257 Y-31.92
X1.129 Y-31.98
X0 Y-32
Z-1.3 F100
X-1.129 Y-31.98 F150
X-2.257 Y-31.92
X-3.382 Y-31.821
X-4.503 Y-31.682
X-5.619 Y-31.503
X-6.727 Y-31.285
X-7.827 Y-31.028
X-8.917 Y-30.733
X-9.996 Y-30.399
X-11.063 Y-30.027
X-12.115 Y-29.618
X-13.153 Y-29.172
X-14.174 Y-28.69
X-15.178 Y-28.171
X-16.163 Y-27.618
X-17.127 Y-27.031
X-18.071 Y-26.409
X-18.991 Y-25.755
X-19.889 Y-25.069
X-20.761 Y-24.351
X-21.607 Y-23.604
X-22.427 Y-22.826
X-23.219 Y-22.021
X-23.981 Y-21.187
X-24.714 Y-20.328
X-25.416 Y-19.443
X-26.086 Y-18.534
X-26.724 Y-17.602
X-27.329 Y-16.648
X-27.899 Y-15.673
X-28.435 Y-14.679
X-28.935 Y-13.666
X-29.399 Y-12.636
X-29.827 Y-11.591
X-30.218 Y-10.531
X-30.57 Y-9.458
X-30.885 Y-8.373
X-31.161 Y-7.278
X-31.399 Y-6.174
X-31.597 Y-5.062
X-31.756 Y-3.943
X-31.875 Y-2.82
X-31.955 Y-1.694
X-31.995 Y-0.565
Y0.565
X-31.955 Y1.694
X-31.875 Y2.82
X-31.756 Y3.943
X-31.597 Y5.062
X-31.399 Y6.174
X-31.161 Y7.278
X-30.885 Y8.373
X-30.57 Y9.458
X-30.218 Y10.531
X-29.827 Y11.591
X-29.399 Y12.636
X-28.935 Y13.666
X-28.435 Y14.679
X-27.899 Y15.673
X-27.329 Y16.648
X-26.724 Y17.602
X-26.086 Y18.534
X-25.416 Y19.443
X-24.714 Y20.328
X-23.981 Y21.187
X-23.219 Y22.021
X-22.427 Y22.826
X-21.607 Y23.604
X-20.761 Y24.351
X-19.889 Y25.069
X-18.991 Y25.755
X-18.071 Y26.409
X-17.127 Y27.031
X-16.163 Y27.618
X-15.178 Y28.171
X-14.174 Y28.69
X-13.153 Y29.172
X-12.115 Y29.618
X-11.063 Y30.027
X-9.996 Y30.399
X-8.917 Y30.733
X-7.827 Y31.028
X-6.727 Y31.285
X-5.619 Y31.503
X-4.503 Y31.682
X-3.382 Y31.821
X-2.257 Y31.92
X-1.129 Y31.98
X0 Y32
X1.129 Y31.98
X2.257 Y31.92
X3.382 Y31.821
X4.503 Y31.682
X5.619 Y31.503
X6.727 Y31.285
X7.827 Y31.028
X8.917 Y30.733
X9.996 Y30.399
X11.063 Y30.027
X12.115 Y29.618
X13.153 Y29.172
X14.174 Y28.69
X15.178 Y28.171
X16.163 Y27.618
X17.127 Y27.031
X18.071 Y26.409
X18.991 Y25.755
X19.889 Y25.069
X20.761 Y24.351
X21.607 Y23.604
X22.427 Y22.826
X23.219 Y22.021
X23.981 Y21.187
X24.714 Y20.328
X25.416 Y19.443
X26.086 Y18.534
X26.724 Y17.602
X27.329 Y16.648
X27.899 Y15.673
X28.435 Y14.679
X28.935 Y13.666
X29.399 Y12.636
X29.827 Y11.591
X30.218 Y10.531
X30.57 Y9.458
X30.885 Y8.373
X31.161 Y7.278
X31.399 Y6.174
X31.597 Y5.062
X31.756 Y3.943
X31.875 Y2.82
X31.955 Y1.694
X31.995 Y0.565
Y-0.565
X31.955 Y-1.694
X31.875 Y-2.82
X31.756 Y-3.943
X31.597 Y-5.062
X31.399 Y-6.174
X31.161 Y-7.278
X30.885 Y-8.373
X30.57 Y-9.458
X30.218 Y-10.531
X29.827 Y-11.591
X29.399 Y-12.636
X28.935 Y-13.666
X28.435 Y-14.679
X27.899 Y-15.673
X27.329 Y-16.648
X26.724 Y-17.602
X26.086 Y-18.534
X25.416 Y-19.443
X24.714 Y-20.328
X23.981 Y-21.187
X23.219 Y-22.021
X22.427 Y-22.826
X21.607 Y-23.604
X20.761 Y-24.351
X19.889 Y-25.069
X18.991 Y-25.755
X18.071 Y-26.409
X17.127 Y-27.031
X16.163 Y-27.618
X15.178 Y-28.171
X14.174 Y-28.69
X13.153 Y-29.172
X12.115 Y-29.618
X11.063 Y-30.027
X9.996 Y-30.399
X8.917 Y-30.733
X7.827 Y-31.028
X6.727 Y-31.285
X5.619 Y-31.503
X4.503 Y-31.682
X3.382 Y-31.821
X2.257 Y-31.92
X1.129 Y-31.98
X0 Y-32
Z-1.7 F100
X-1.129 Y-31.98 F150
X-2.257 Y-31.92
X-3.382 Y-31.821
X-4.503 Y-31.682
X-5.619 Y-31.503
X-6.727 Y-31.285
X-7.827 Y-31.028
X-8.917 Y-30.733
X-9.996 Y-30.399
X-11.063 Y-30.027
X-12.115 Y-29.618
X-13.153 Y-29.172
X-14.174 Y-28.69
X-15.178 Y-28.171
X-16.163 Y-27.618
X-17.127 Y-27.031
X-18.071 Y-26.409
X-18.991 Y-25.755
X-19.889 Y-25.069
X-20.761 Y-24.351
X-21.607 Y-23.604
X-22.427 Y-22.826
X-23.219 Y-22.021
X-23.981 Y-21.187
X-24.714 Y-20.328
X-25.416 Y-19.443
X-26.086 Y-18.534
X-26.724 Y-17.602
X-27.329 Y-16.648
X-27.899 Y-15.673
X-28.435 Y-14.679
X-28.935 Y-13.666
X-29.399 Y-12.636
X-29.827 Y-11.591
X-30.218 Y-10.531
X-30.57 Y-9.458
X-30.885 Y-8.373
X-31.161 Y-7.278
X-31.399 Y-6.174
X-31.597 Y-5.062
X-31.756 Y-3.943
X-31.875 Y-2.82
X-31.955 Y-1.694
X-31.995 Y-0.565
Y0.565
X-31.955 Y1.694
X-31.875 Y2.82
X-31.756 Y3.943
X-31.597 Y5.062
X-31.399 Y6.174
X-31.161 Y7.278
X-30.885 Y8.373
X-30.57 Y9.458
X-30.218 Y10.531
X-29.827 Y11.591
X-29.399 Y12.636
X-28.935 Y13.666
X-28.435 Y14.679
X-27.899 Y15.673
X-27.329 Y16.648
X-26.724 Y17.602
X-26.086 Y18.534
X-25.416 Y19.443
X-24.714 Y20.328
X-23.981 Y21.187
X-23.219 Y22.021
X-22.427 Y22.826
X-21.607 Y23.604
X-20.761 Y24.351
X-19.889 Y25.069
X-18.991 Y25.755
X-18.071 Y26.409
X-17.127 Y27.031
X-16.163 Y27.618
X-15.178 Y28.171
X-14.174 Y28.69
X-13.153 Y29.172
X-12.115 Y29.618
X-11.063 Y30.027
X-9.996 Y30.399
X-8.917 Y30.733
X-7.827 Y31.028
X-6.727 Y31.285
X-5.619 Y31.503
X-4.503 Y31.682
X-3.382 Y31.821
X-2.257 Y31.92
X-1.129 Y31.98
X0 Y32
X1.129 Y31.98
X2.257 Y31.92
X3.382 Y31.821
X4.503 Y31.682
X5.619 Y31.503
X6.727 Y31.285
X7.827 Y31.028
X8.917 Y30.733
X9.996 Y30.399
X11.063 Y30.027
X12.115 Y29.618
X13.153 Y29.172
X14.174 Y28.69
X15.178 Y28.171
X16.163 Y27.618
X17.127 Y27.031
X18.071 Y26.409
X18.991 Y25.755
X19.889 Y25.069
X20.761 Y24.351
X21.607 Y23.604
X22.427 Y22.826
X23.219 Y22.021
X23.981 Y21.187
X24.714 Y20.328
X25.416 Y19.443
X26.086 Y18.534
X26.724 Y17.602
X27.329 Y16.648
X27.899 Y15.673
X28.435 Y14.679
X28.935 Y13.666
X29.399 Y12.636
X29.827 Y11.591
X30.218 Y10.531
X30.57 Y9.458
X30.885 Y8.373
X31.161 Y7.278
X31.399 Y6.174
X31.597 Y5.062
X31.756 Y3.943
X31.875 Y2.82
X31.955 Y1.694
X31.995 Y0.565
Y-0.565
X31.955 Y-1.694
X31.875 Y-2.82
X31.756 Y-3.943
X31.597 Y-5.062
X31.399 Y-6.174
X31.161 Y-7.278
X30.885 Y-8.373
X30.57 Y-9.458
X30.218 Y-10.531
X29.827 Y-11.591
X29.399 Y-12.636
X28.935 Y-13.666
X28.435 Y-14.679
X27.899 Y-15.673
X27.329 Y-16.648
X26.724 Y-17.602
X26.086 Y-18.534
X25.416 Y-19.443
X24.714 Y-20.328
X23.981 Y-21.187
X23.219 Y-22.021
X22.427 Y-22.826
X21.607 Y-23.604
X20.761 Y-24.351
X19.889 Y-25.069
X18.991 Y-25.755
X18.071 Y-26.409
X17.127 Y-27.031
X16.163 Y-27.618
X15.178 Y-28.171
X14.174 Y-28.69
X13.153 Y-29.172
X12.115 Y-29.618
X11.063 Y-30.027
X9.996 Y-30.399
X8.917 Y-30.733
X7.827 Y-31.028
X6.727 Y-31.285
X5.619 Y-31.503
X4.503 Y-31.682
X3.382 Y-31.821
X2.257 Y-31.92
X1.129 Y-31.98
X0 Y-32
Z-2.1 F100
X-1.129 Y-31.98 F150
X-2.257 Y-31.92
X-3.382 Y-31.821
X-4.503 Y-31.682
X-5.619 Y-31.503
X-6.727 Y-31.285
X-7.827 Y-31.028
X-8.917 Y-30.733
X-9.996 Y-30.399
X-11.063 Y-30.027
X-12.115 Y-29.618
X-13.153 Y-29.172
X-14.174 Y-28.69
X-15.178 Y-28.171
X-16.163 Y-27.618
X-17.127 Y-27.031
X-18.071 Y-26.409
X-18.991 Y-25.755
X-19.889 Y-25.069
X-20.761 Y-24.351
X-21.607 Y-23.604
X-22.427 Y-22.826
X-23.219 Y-22.021
X-23.981 Y-21.187
X-24.714 Y-20.328
X-25.416 Y-19.443
X-26.086 Y-18.534
X-26.724 Y-17.602
X-27.329 Y-16.648
X-27.899 Y-15.673
X-28.435 Y-14.679
X-28.935 Y-13.666
X-29.399 Y-12.636
X-29.827 Y-11.591
X-30.218 Y-10.531
X-30.57 Y-9.458
X-30.885 Y-8.373
X-31.161 Y-7.278
X-31.399 Y-6.174
X-31.597 Y-5.062
X-31.756 Y-3.943
X-31.875 Y-2.82
X-31.955 Y-1.694
X-31.995 Y-0.565
Y0.565
X-31.955 Y1.694
X-31.875 Y2.82
X-31.756 Y3.943
X-31.597 Y5.062
X-31.399 Y6.174
X-31.161 Y7.278
X-30.885 Y8.373
X-30.57 Y9.458
X-30.218 Y10.531
X-29.827 Y11.591
X-29.399 Y12.636
X-28.935 Y13.666
X-28.435 Y14.679
X-27.899 Y15.673
X-27.329 Y16.648
X-26.724 Y17.602
X-26.086 Y18.534
X-25.416 Y19.443
X-24.714 Y20.328
X-23.981 Y21.187
X-23.219 Y22.021
X-22.427 Y22.826
X-21.607 Y23.604
X-20.761 Y24.351
X-19.889 Y25.069
X-18.991 Y25.755
X-18.071 Y26.409
X-17.127 Y27.031
X-16.163 Y27.618
X-15.178 Y28.171
X-14.174 Y28.69
X-13.153 Y29.172
X-12.115 Y29.618
X-11.063 Y30.027
X-9.996 Y30.399
X-8.917 Y30.733
X-7.827 Y31.028
X-6.727 Y31.285
X-5.619 Y31.503
X-4.503 Y31.682
X-3.382 Y31.821
X-2.257 Y31.92
X-1.129 Y31.98
X0 Y32
X1.129 Y31.98
X2.257 Y31.92
X3.382 Y31.821
X4.503 Y31.682
X5.619 Y31.503
X6.727 Y31.285
X7.827 Y31.028
X8.917 Y30.733
X9.996 Y30.399
X11.063 Y30.027
X12.115 Y29.618
X13.153 Y29.172
X14.174 Y28.69
X15.178 Y28.171
X16.163 Y27.618
X17.127 Y27.031
X18.071 Y26.409
X18.991 Y25.755
X19.889 Y25.069
X20.761 Y24.351
X21.607 Y23.604
X22.427 Y22.826
X23.219 Y22.021
X23.981 Y21.187
X24.714 Y20.328
X25.416 Y19.443
X26.086 Y18.534
X26.724 Y17.602
X27.329 Y16.648
X27.899 Y15.673
X28.435 Y14.679
X28.935 Y13.666
X29.399 Y12.636
X29.827 Y11.591
X30.218 Y10.531
X30.57 Y9.458
X30.885 Y8.373
X31.161 Y7.278
X31.399 Y6.174
X31.597 Y5.062
X31.756 Y3.943
X31.875 Y2.82
X31.955 Y1.694
X31.995 Y0.565
Y-0.565
X31.955 Y-1.694
X31.875 Y-2.82
X31.756 Y-3.943
X31.597 Y-5.062
X31.399 Y-6.174
X31.161 Y-7.278
X30.885 Y-8.373
X30.57 Y-9.458
X30.218 Y-10.531
X29.827 Y-11.591
X29.399 Y-12.636
X28.935 Y-13.666
X28.435 Y-14.679
X27.899 Y-15.673
X27.329 Y-16.648
X26.724 Y-17.602
X26.086 Y-18.534
X25.416 Y-19.443
X24.714 Y-20.328
X23.981 Y-21.187
X23.219 Y-22.021
X22.427 Y-22.826
X21.607 Y-23.604
X20.761 Y-24.351
X19.889 Y-25.069
X18.991 Y-25.755
X18.071 Y-26.409
X17.127 Y-27.031
X16.163 Y-27.618
X15.178 Y-28.171
X14.174 Y-28.69
X13.153 Y-29.172
X12.115 Y-29.618
X11.063 Y-30.027
X9.996 Y-30.399
X8.917 Y-30.733
X7.827 Y-31.028
X6.727 Y-31.285
X5.619 Y-31.503
X4.503 Y-31.682
X3.382 Y-31.821
X2.257 Y-31.92
X1.129 Y-31.98
X0 Y-32
Z-2.5 F100
X-1.129 Y-31.98 F150
X-2.257 Y-31.92
X-3.382 Y-31.821
X-4.503 Y-31.682
X-5.619 Y-31.503
X-6.727 Y-31.285
X-7.827 Y-31.028
X-8.917 Y-30.733
X-9.996 Y-30.399
X-11.063 Y-30.027
X-12.115 Y-29.618
X-13.153 Y-29.172
X-14.174 Y-28.69
X-15.178 Y-28.171
X-16.163 Y-27.618
X-17.127 Y-27.031
X-18.071 Y-26.409
X-18.991 Y-25.755
X-19.889 Y-25.069
X-20.761 Y-24.351
X-21.607 Y-23.604
X-22.427 Y-22.826
X-23.219 Y-22.021
X-23.981 Y-21.187
X-24.714 Y-20.328
X-25.416 Y-19.443
X-26.086 Y-18.534
X-26.724 Y-17.602
X-27.329 Y-16.648
X-27.899 Y-15.673
X-28.435 Y-14.679
X-28.935 Y-13.666
X-29.399 Y-12.636
X-29.827 Y-11.591
X-30.218 Y-10.531
X-30.57 Y-9.458
X-30.885 Y-8.373
X-31.161 Y-7.278
X-31.399 Y-6.174
X-31.597 Y-5.062
X-31.756 Y-3.943
X-31.875 Y-2.82
X-31.955 Y-1.694
X-31.995 Y-0.565
Y0.565
X-31.955 Y1.694
X-31.875 Y2.82
X-31.756 Y3.943
X-31.597 Y5.062
X-31.399 Y6.174
X-31.161 Y7.278
X-30.885 Y8.373
X-30.57 Y9.458
X-30.218 Y10.531
X-29.827 Y11.591
X-29.399 Y12.636
X-28.935 Y13.666
X-28.435 Y14.679
X-27.899 Y15.673
X-27.329 Y16.648
X-26.724 Y17.602
X-26.086 Y18.534
X-25.416 Y19.443
X-24.714 Y20.328
X-23.981 Y21.187
X-23.219 Y22.021
X-22.427 Y22.826
X-21.607 Y23.604
X-20.761 Y24.351
X-19.889 Y25.069
X-18.991 Y25.755
X-18.071 Y26.409
X-17.127 Y27.031
X-16.163 Y27.618
X-15.178 Y28.171
X-14.174 Y28.69
X-13.153 Y29.172
X-12.115 Y29.618
X-11.063 Y30.027
X-9.996 Y30.399
X-8.917 Y30.733
X-7.827 Y31.028
X-6.727 Y31.285
X-5.619 Y31.503
X-4.503 Y31.682
X-3.382 Y31.821
X-2.257 Y31.92
X-1.129 Y31.98
X0 Y32
X1.129 Y31.98
X2.257 Y31.92
X3.382 Y31.821
X4.503 Y31.682
X5.619 Y31.503
X6.727 Y31.285
X7.827 Y31.028
X8.917 Y30.733
X9.996 Y30.399
X11.063 Y30.027
X12.115 Y29.618
X13.153 Y29.172
X14.174 Y28.69
X15.178 Y28.171
X16.163 Y27.618
X17.127 Y27.031
X18.071 Y26.409
X18.991 Y25.755
X19.889 Y25.069
X20.761 Y24.351
X21.607 Y23.604
X22.427 Y22.826
X23.219 Y22.021
X23.981 Y21.187
X24.714 Y20.328
X25.416 Y19.443
X26.086 Y18.534
X26.724 Y17.602
X27.329 Y16.648
X27.899 Y15.673
X28.435 Y14.679
X28.935 Y13.666
X29.399 Y12.636
X29.827 Y11.591
X30.218 Y10.531
X30.57 Y9.458
X30.885 Y8.373
X31.161 Y7.278
X31.399 Y6.174
X31.597 Y5.062
X31.756 Y3.943
X31.875 Y2.82
X31.955 Y1.694
X31.995 Y0.565
Y-0.565
X31.955 Y-1.694
X31.875 Y-2.82
X31.756 Y-3.943
X31.597 Y-5.062
X31.399 Y-6.174
X31.161 Y-7.278
X30.885 Y-8.373
X30.57 Y-9.458
X30.218 Y-10.531
X29.827 Y-11.591
X29.399 Y-12.636
X28.935 Y-13.666
X28.435 Y-14.679
X27.899 Y-15.673
X27.329 Y-16.648
X26.724 Y-17.602
X26.086 Y-18.534
X25.416 Y-19.443
X24.714 Y-20.328
X23.981 Y-21.187
X23.219 Y-22.021
X22.427 Y-22.826
X21.607 Y-23.604
X20.761 Y-24.351
X19.889 Y-25.069
X18.991 Y-25.755
X18.071 Y-26.409
X17.127 Y-27.031
X16.163 Y-27.618
X15.178 Y-28.171
X14.174 Y-28.69
X13.153 Y-29.172
X12.115 Y-29.618
X11.063 Y-30.027
X9.996 Y-30.399
X8.917 Y-30.733
X7.827 Y-31.028
X6.727 Y-31.285
X5.619 Y-31.503
X4.503 Y-31.682
X3.382 Y-31.821
X2.257 Y-31.92
X1.129 Y-31.98
X0 Y-32
Z-2.9 F100
X-1.129 Y-31.98 F150
X-2.257 Y-31.92
X-3.382 Y-31.821
X-4.503 Y-31.682
X-5.619 Y-31.503
X-6.727 Y-31.285
X-7.827 Y-31.028
X-8.917 Y-30.733
X-9.996 Y-30.399
X-11.063 Y-30.027
X-12.115 Y-29.618
X-13.153 Y-29.172
X-14.174 Y-28.69
X-15.178 Y-28.171
X-16.163 Y-27.618
X-17.127 Y-27.031
X-18.071 Y-26.409
X-18.991 Y-25.755
X-19.889 Y-25.069
X-20.761 Y-24.351
X-21.607 Y-23.604
X-22.427 Y-22.826
X-23.219 Y-22.021
X-23.981 Y-21.187
X-24.714 Y-20.328
X-25.416 Y-19.443
X-26.086 Y-18.534
X-26.724 Y-17.602
X-27.329 Y-16.648
X-27.899 Y-15.673
X-28.435 Y-14.679
X-28.935 Y-13.666
X-29.399 Y-12.636
X-29.827 Y-11.591
X-30.218 Y-10.531
X-30.57 Y-9.458
X-30.885 Y-8.373
X-31.161 Y-7.278
X-31.399 Y-6.174
X-31.597 Y-5.062
X-31.756 Y-3.943
X-31.875 Y-2.82
X-31.955 Y-1.694
X-31.995 Y-0.565
Y0.565
X-31.955 Y1.694
X-31.875 Y2.82
X-31.756 Y3.943
X-31.597 Y5.062
X-31.399 Y6.174
X-31.161 Y7.278
X-30.885 Y8.373
X-30.57 Y9.458
X-30.218 Y10.531
X-29.827 Y11.591
X-29.399 Y12.636
X-28.935 Y13.666
X-28.435 Y14.679
X-27.899 Y15.673
X-27.329 Y16.648
X-26.724 Y17.602
X-26.086 Y18.534
X-25.416 Y19.443
X-24.714 Y20.328
X-23.981 Y21.187
X-23.219 Y22.021
X-22.427 Y22.826
X-21.607 Y23.604
X-20.761 Y24.351
X-19.889 Y25.069
X-18.991 Y25.755
X-18.071 Y26.409
X-17.127 Y27.031
X-16.163 Y27.618
X-15.178 Y28.171
X-14.174 Y28.69
X-13.153 Y29.172
X-12.115 Y29.618
X-11.063 Y30.027
X-9.996 Y30.399
X-8.917 Y30.733
X-7.827 Y31.028
X-6.727 Y31.285
X-5.619 Y31.503
X-4.503 Y31.682
X-3.382 Y31.821
X-2.257 Y31.92
X-1.129 Y31.98
X0 Y32
X1.129 Y31.98
X2.257 Y31.92
X3.382 Y31.821
X4.503 Y31.682
X5.619 Y31.503
X6.727 Y31.285
X7.827 Y31.028
X8.917 Y30.733
X9.996 Y30.399
X11.063 Y30.027
X12.115 Y29.618
X13.153 Y29.172
X14.174 Y28.69
X15.178 Y28.171
X16.163 Y27.618
X17.127 Y27.031
X18.071 Y26.409
X18.991 Y25.755
X19.889 Y25.069
X20.761 Y24.351
X21.607 Y23.604
X22.427 Y22.826
X23.219 Y22.021
X23.981 Y21.187
X24.714 Y20.328
X25.416 Y19.443
X26.086 Y18.534
X26.724 Y17.602
X27.329 Y16.648
X27.899 Y15.673
X28.435 Y14.679
X28.935 Y13.666
X29.399 Y12.636
X29.827 Y11.591
X30.218 Y10.531
X30.57 Y9.458
X30.885 Y8.373
X31.161 Y7.278
X31.399 Y6.174
X31.597 Y5.062
X31.756 Y3.943
X31.875 Y2.82
X31.955 Y1.694
X31.995 Y0.565
Y-0.565
X31.955 Y-1.694
X31.875 Y-2.82
X31.756 Y-3.943
X31.597 Y-5.062
X31.399 Y-6.174
X31.161 Y-7.278
X30.885 Y-8.373
X30.57 Y-9.458
X30.218 Y-10.531
X29.827 Y-11.591
X29.399 Y-12.636
X28.935 Y-13.666
X28.435 Y-14.679
X27.899 Y-15.673
X27.329 Y-16.648
X26.724 Y-17.602
X26.086 Y-18.534
X25.416 Y-19.443
X24.714 Y-20.328
X23.981 Y-21.187
X23.219 Y-22.021
X22.427 Y-22.826
X21.607 Y-23.604
X20.761 Y-24.351
X19.889 Y-25.069
X18.991 Y-25.755
X18.071 Y-26.409
X17.127 Y-27.031
X16.163 Y-27.618
X15.178 Y-28.171
X14.174 Y-28.69
X13.153 Y-29.172
X12.115 Y-29.618
X11.063 Y-30.027
X9.996 Y-30.399
X8.917 Y-30.733
X7.827 Y-31.028
X6.727 Y-31.285
X5.619 Y-31.503
X4.503 Y-31.682
X3.382 Y-31.821
X2.257 Y-31.92
X1.129 Y-31.98
X0 Y-32
Z-3.3 F100
X-1.129 Y-31.98 F150
X-2.257 Y-31.92
X-3.382 Y-31.821
X-4.503 Y-31.682
X-5.619 Y-31.503
X-6.727 Y-31.285
X-7.827 Y-31.028
X-8.917 Y-30.733
X-9.996 Y-30.399
X-11.063 Y-30.027
X-12.115 Y-29.618
X-13.153 Y-29.172
X-14.174 Y-28.69
X-15.178 Y-28.171
X-16.163 Y-27.618
X-17.127 Y-27.031
X-18.071 Y-26.409
X-18.991 Y-25.755
X-19.889 Y-25.069
X-20.761 Y-24.351
X-21.607 Y-23.604
X-22.427 Y-22.826
X-23.219 Y-22.021
X-23.981 Y-21.187
X-24.714 Y-20.328
X-25.416 Y-19.443
X-26.086 Y-18.534
X-26.724 Y-17.602
X-27.329 Y-16.648
X-27.899 Y-15.673
X-28.435 Y-14.679
X-28.935 Y-13.666
X-29.399 Y-12.636
X-29.827 Y-11.591
X-30.218 Y-10.531
X-30.57 Y-9.458
X-30.885 Y-8.373
X-31.161 Y-7.278
X-31.399 Y-6.174
X-31.597 Y-5.062
X-31.756 Y-3.943
X-31.875 Y-2.82
X-31.955 Y-1.694
X-31.995 Y-0.565
Y0.565
X-31.955 Y1.694
X-31.875 Y2.82
X-31.756 Y3.943
X-31.597 Y5.062
X-31.399 Y6.174
X-31.161 Y7.278
X-30.885 Y8.373
X-30.57 Y9.458
X-30.218 Y10.531
X-29.827 Y11.591
X-29.399 Y12.636
X-28.935 Y13.666
X-28.435 Y14.679
X-27.899 Y15.673
X-27.329 Y16.648
X-26.724 Y17.602
X-26.086 Y18.534
X-25.416 Y19.443
X-24.714 Y20.328
X-23.981 Y21.187
X-23.219 Y22.021
X-22.427 Y22.826
X-21.607 Y23.604
X-20.761 Y24.351
X-19.889 Y25.069
X-18.991 Y25.755
X-18.071 Y26.409
X-17.127 Y27.031
X-16.163 Y27.618
X-15.178 Y28.171
X-14.174 Y28.69
X-13.153 Y29.172
X-12.115 Y29.618
X-11.063 Y30.027
X-9.996 Y30.399
X-8.917 Y30.733
X-7.827 Y31.028
X-6.727 Y31.285
X-5.619 Y31.503
X-4.503 Y31.682
X-3.382 Y31.821
X-2.257 Y31.92
X-1.129 Y31.98
X0 Y32
X1.129 Y31.98
X2.257 Y31.92
X3.382 Y31.821
X4.503 Y31.682
X5.619 Y31.503
X6.727 Y31.285
X7.827 Y31.028
X8.917 Y30.733
X9.996 Y30.399
X11.063 Y30.027
X12.115 Y29.618
X13.153 Y29.172
X14.174 Y28.69
X15.178 Y28.171
X16.163 Y27.618
X17.127 Y27.031
X18.071 Y26.409
X18.991 Y25.755
X19.889 Y25.069
X20.761 Y24.351
X21.607 Y23.604
X22.427 Y22.826
X23.219 Y22.021
X23.981 Y21.187
X24.714 Y20.328
X25.416 Y19.443
X26.086 Y18.534
X26.724 Y17.602
X27.329 Y16.648
X27.899 Y15.673
X28.435 Y14.679
X28.935 Y13.666
X29.399 Y12.636
X29.827 Y11.591
X30.218 Y10.531
X30.57 Y9.458
X30.885 Y8.373
X31.161 Y7.278
X31.399 Y6.174
X31.597 Y5.062
X31.756 Y3.943
X31.875 Y2.82
X31.955 Y1.694
X31.995 Y0.565
Y-0.565
X31.955 Y-1.694
X31.875 Y-2.82
X31.756 Y-3.943
X31.597 Y-5.062
X31.399 Y-6.174
X31.161 Y-7.278
X30.885 Y-8.373
X30.57 Y-9.458
X30.218 Y-10.531
X29.827 Y-11.591
X29.399 Y-12.636
X28.935 Y-13.666
X28.435 Y-14.679
X27.899 Y-15.673
X27.329 Y-16.648
X26.724 Y-17.602
X26.086 Y-18.534
X25.416 Y-19.443
X24.714 Y-20.328
X23.981 Y-21.187
X23.219 Y-22.021
X22.427 Y-22.826
X21.607 Y-23.604
X20.761 Y-24.351
X19.889 Y-25.069
X18.991 Y-25.755
X18.071 Y-26.409
X17.127 Y-27.031
X16.163 Y-27.618
X15.178 Y-28.171
X14.174 Y-28.69
X13.153 Y-29.172
X12.115 Y-29.618
X11.063 Y-30.027
X9.996 Y-30.399
X8.917 Y-30.733
X7.827 Y-31.028
X6.727 Y-31.285
X5.619 Y-31.503
X4.503 Y-31.682
X3.382 Y-31.821
X2.257 Y-31.92
X1.129 Y-31.98
X0 Y-32
Z-3.7 F100
X-1.129 Y-31.98 F150
X-2.257 Y-31.92
X-3.382 Y-31.821
X-4.503 Y-31.682
X-5.619 Y-31.503
X-6.727 Y-31.285
X-7.827 Y-31.028
X-8.917 Y-30.733
X-9.996 Y-30.399
X-11.063 Y-30.027
X-12.115 Y-29.618
X-13.153 Y-29.172
X-14.174 Y-28.69
X-15.178 Y-28.171
X-16.163 Y-27.618
X-17.127 Y-27.031
X-18.071 Y-26.409
X-18.991 Y-25.755
X-19.889 Y-25.069
X-20.761 Y-24.351
X-21.607 Y-23.604
X-22.427 Y-22.826
X-23.219 Y-22.021
X-23.981 Y-21.187
X-24.714 Y-20.328
X-25.416 Y-19.443
X-26.086 Y-18.534
X-26.724 Y-17.602
X-27.329 Y-16.648
X-27.899 Y-15.673
X-28.435 Y-14.679
X-28.935 Y-13.666
X-29.399 Y-12.636
X-29.827 Y-11.591
X-30.218 Y-10.531
X-30.57 Y-9.458
X-30.885 Y-8.373
X-31.161 Y-7.278
X-31.399 Y-6.174
X-31.597 Y-5.062
X-31.756 Y-3.943
X-31.875 Y-2.82
X-31.955 Y-1.694
X-31.995 Y-0.565
Y0.565
X-31.955 Y1.694
X-31.875 Y2.82
X-31.756 Y3.943
X-31.597 Y5.062
X-31.399 Y6.174
X-31.161 Y7.278
X-30.885 Y8.373
X-30.57 Y9.458
X-30.218 Y10.531
X-29.827 Y11.591
X-29.399 Y12.636
X-28.935 Y13.666
X-28.435 Y14.679
X-27.899 Y15.673
X-27.329 Y16.648
X-26.724 Y17.602
X-26.086 Y18.534
X-25.416 Y19.443
X-24.714 Y20.328
X-23.981 Y21.187
X-23.219 Y22.021
X-22.427 Y22.826
X-21.607 Y23.604
X-20.761 Y24.351
X-19.889 Y25.069
X-18.991 Y25.755
X-18.071 Y26.409
X-17.127 Y27.031
X-16.163 Y27.618
X-15.178 Y28.171
X-14.174 Y28.69
X-13.153 Y29.172
X-12.115 Y29.618
X-11.063 Y30.027
X-9.996 Y30.399
X-8.917 Y30.733
X-7.827 Y31.028
X-6.727 Y31.285
X-5.619 Y31.503
X-4.503 Y31.682
X-3.382 Y31.821
X-2.257 Y31.92
X-1.129 Y31.98
X0 Y32
X1.129 Y31.98
X2.257 Y31.92
X3.382 Y31.821
X4.503 Y31.682
X5.619 Y31.503
X6.727 Y31.285
X7.827 Y31.028
X8.917 Y30.733
X9.996 Y30.399
X11.063 Y30.027
X12.115 Y29.618
X13.153 Y29.172
X14.174 Y28.69
X15.178 Y28.171
X16.163 Y27.618
X17.127 Y27.031
X18.071 Y26.409
X18.991 Y25.755
X19.889 Y25.069
X20.761 Y24.351
X21.607 Y23.604
X22.427 Y22.826
X23.219 Y22.021
X23.981 Y21.187
X24.714 Y20.328
X25.416 Y19.443
X26.086 Y18.534
X26.724 Y17.602
X27.329 Y16.648
X27.899 Y15.673
X28.435 Y14.679
X28.935 Y13.666
X29.399 Y12.636
X29.827 Y11.591
X30.218 Y10.531
X30.57 Y9.458
X30.885 Y8.373
X31.161 Y7.278
X31.399 Y6.174
X31.597 Y5.062
X31.756 Y3.943
X31.875 Y2.82
X31.955 Y1.694
X31.995 Y0.565
Y-0.565
X31.955 Y-1.694
X31.875 Y-2.82
X31.756 Y-3.943
X31.597 Y-5.062
X31.399 Y-6.174
X31.161 Y-7.278
X30.885 Y-8.373
X30.57 Y-9.458
X30.218 Y-10.531
X29.827 Y-11.591
X29.399 Y-12.636
X28.935 Y-13.666
X28.435 Y-14.679
X27.899 Y-15.673
X27.329 Y-16.648
X26.724 Y-17.602
X26.086 Y-18.534
X25.416 Y-19.443
X24.714 Y-20.328
X23.981 Y-21.187
X23.219 Y-22.021
X22.427 Y-22.826
X21.607 Y-23.604
X20.761 Y-24.351
X19.889 Y-25.069
X18.991 Y-25.755
X18.071 Y-26.409
X17.127 Y-27.031
X16.163 Y-27.618
X15.178 Y-28.171
X14.174 Y-28.69
X13.153 Y-29.172
X12.115 Y-29.618
X11.063 Y-30.027
X9.996 Y-30.399
X8.917 Y-30.733
X7.827 Y-31.028
X6.727 Y-31.285
X5.619 Y-31.503
X4.503 Y-31.682
X3.382 Y-31.821
X2.257 Y-31.92
X1.129 Y-31.98
X0 Y-32
Z-4.1 F100
X-1.129 Y-31.98 F150
X-2.257 Y-31.92
X-3.382 Y-31.821
X-4.503 Y-31.682
X-5.619 Y-31.503
X-6.727 Y-31.285
X-7.827 Y-31.028
X-8.917 Y-30.733
X-9.996 Y-30.399
X-11.063 Y-30.027
X-12.115 Y-29.618
X-13.153 Y-29.172
X-14.174 Y-28.69
X-15.178 Y-28.171
X-16.163 Y-27.618
X-17.127 Y-27.031
X-18.071 Y-26.409
X-18.991 Y-25.755
X-19.889 Y-25.069
X-20.761 Y-24.351
X-21.607 Y-23.604
X-22.427 Y-22.826
X-23.219 Y-22.021
X-23.981 Y-21.187
X-24.714 Y-20.328
X-25.416 Y-19.443
X-26.086 Y-18.534
X-26.724 Y-17.602
X-27.329 Y-16.648
X-27.899 Y-15.673
X-28.435 Y-14.679
X-28.935 Y-13.666
X-29.399 Y-12.636
X-29.827 Y-11.591
X-30.218 Y-10.531
X-30.57 Y-9.458
X-30.885 Y-8.373
X-31.161 Y-7.278
X-31.399 Y-6.174
X-31.597 Y-5.062
X-31.756 Y-3.943
X-31.875 Y-2.82
X-31.955 Y-1.694
X-31.995 Y-0.565
Y0.565
X-31.955 Y1.694
X-31.875 Y2.82
X-31.756 Y3.943
X-31.597 Y5.062
X-31.399 Y6.174
X-31.161 Y7.278
X-30.885 Y8.373
X-30.57 Y9.458
X-30.218 Y10.531
X-29.827 Y11.591
X-29.399 Y12.636
X-28.935 Y13.666
X-28.435 Y14.679
X-27.899 Y15.673
X-27.329 Y16.648
X-26.724 Y17.602
X-26.086 Y18.534
X-25.416 Y19.443
X-24.714 Y20.328
X-23.981 Y21.187
X-23.219 Y22.021
X-22.427 Y22.826
X-21.607 Y23.604
X-20.761 Y24.351
X-19.889 Y25.069
X-18.991 Y25.755
X-18.071 Y26.409
X-17.127 Y27.031
X-16.163 Y27.618
X-15.178 Y28.171
X-14.174 Y28.69
X-13.153 Y29.172
X-12.115 Y29.618
X-11.063 Y30.027
X-9.996 Y30.399
X-8.917 Y30.733
X-7.827 Y31.028
X-6.727 Y31.285
X-5.619 Y31.503
X-4.503 Y31.682
X-3.382 Y31.821
X-2.257 Y31.92
X-1.129 Y31.98
X0 Y32
X1.129 Y31.98
X2.257 Y31.92
X3.382 Y31.821
X4.503 Y31.682
X5.619 Y31.503
X6.727 Y31.285
X7.827 Y31.028
X8.917 Y30.733
X9.996 Y30.399
X11.063 Y30.027
X12.115 Y29.618
X13.153 Y29.172
X14.174 Y28.69
X15.178 Y28.171
X16.163 Y27.618
X17.127 Y27.031
X18.071 Y26.409
X18.991 Y25.755
X19.889 Y25.069
X20.761 Y24.351
X21.607 Y23.604
X22.427 Y22.826
X23.219 Y22.021
X23.981 Y21.187
X24.714 Y20.328
X25.416 Y19.443
X26.086 Y18.534
X26.724 Y17.602
X27.329 Y16.648
X27.899 Y15.673
X28.435 Y14.679
X28.935 Y13.666
X29.399 Y12.636
X29.827 Y11.591
X30.218 Y10.531
X30.57 Y9.458
X30.885 Y8.373
X31.161 Y7.278
X31.399 Y6.174
X31.597 Y5.062
X31.756 Y3.943
X31.875 Y2.82
X31.955 Y1.694
X31.995 Y0.565
Y-0.565
X31.955 Y-1.694
X31.875 Y-2.82
X31.756 Y-3.943
X31.597 Y-5.062
X31.399 Y-6.174
X31.161 Y-7.278
X30.885 Y-8.373
X30.57 Y-9.458
X30.218 Y-10.531
X29.827 Y-11.591
X29.399 Y-12.636
X28.935 Y-13.666
X28.435 Y-14.679
X27.899 Y-15.673
X27.329 Y-16.648
X26.724 Y-17.602
X26.086 Y-18.534
X25.416 Y-19.443
X24.714 Y-20.328
X23.981 Y-21.187
X23.219 Y-22.021
X22.427 Y-22.826
X21.607 Y-23.604
X20.761 Y-24.351
X19.889 Y-25.069
X18.991 Y-25.755
X18.071 Y-26.409
X17.127 Y-27.031
X16.163 Y-27.618
X15.178 Y-28.171
X14.174 Y-28.69
X13.153 Y-29.172
X12.115 Y-29.618
X11.063 Y-30.027
X9.996 Y-30.399
X8.917 Y-30.733
X7.827 Y-31.028
X6.727 Y-31.285
X5.619 Y-31.503
X4.503 Y-31.682
X3.382 Y-31.821
X2.257 Y-31.92
X1.129 Y-31.98
X0 Y-32
Z-4.5 F100
X-1.129 Y-31.98 F150
X-2.257 Y-31.92
X-3.382 Y-31.821
X-4.503 Y-31.682
X-5.619 Y-31.503
X-6.727 Y-31.285
X-7.827 Y-31.028
X-8.917 Y-30.733
X-9.996 Y-30.399
X-11.063 Y-30.027
X-12.115 Y-29.618
X-13.153 Y-29.172
X-14.174 Y-28.69
X-15.178 Y-28.171
X-16.163 Y-27.618
X-17.127 Y-27.031
X-18.071 Y-26.409
X-18.991 Y-25.755
X-19.889 Y-25.069
X-20.761 Y-24.351
X-21.607 Y-23.604
X-22.427 Y-22.826
X-23.219 Y-22.021
X-23.981 Y-21.187
X-24.714 Y-20.328
X-25.416 Y-19.443
X-26.086 Y-18.534
X-26.724 Y-17.602
X-27.329 Y-16.648
X-27.899 Y-15.673
X-28.435 Y-14.679
X-28.935 Y-13.666
X-29.399 Y-12.636
X-29.827 Y-11.591
X-30.218 Y-10.531
X-30.57 Y-9.458
X-30.885 Y-8.373
X-31.161 Y-7.278
X-31.399 Y-6.174
X-31.597 Y-5.062
X-31.756 Y-3.943
X-31.875 Y-2.82
X-31.955 Y-1.694
X-31.995 Y-0.565
Y0.565
X-31.955 Y1.694
X-31.875 Y2.82
X-31.756 Y3.943
X-31.597 Y5.062
X-31.399 Y6.174
X-31.161 Y7.278
X-30.885 Y8.373
X-30.57 Y9.458
X-30.218 Y10.531
X-29.827 Y11.591
X-29.399 Y12.636
X-28.935 Y13.666
X-28.435 Y14.679
X-27.899 Y15.673
X-27.329 Y16.648
X-26.724 Y17.602
X-26.086 Y18.534
X-25.416 Y19.443
X-24.714 Y20.328
X-23.981 Y21.187
X-23.219 Y22.021
X-22.427 Y22.826
X-21.607 Y23.604
X-20.761 Y24.351
X-19.889 Y25.069
X-18.991 Y25.755
X-18.071 Y26.409
X-17.127 Y27.031
X-16.163 Y27.618
X-15.178 Y28.171
X-14.174 Y28.69
X-13.153 Y29.172
X-12.115 Y29.618
X-11.063 Y30.027
X-9.996 Y30.399
X-8.917 Y30.733
X-7.827 Y31.028
X-6.727 Y31.285
X-5.619 Y31.503
X-4.503 Y31.682
X-3.382 Y31.821
X-2.257 Y31.92
X-1.129 Y31.98
X0 Y32
X1.129 Y31.98
X2.257 Y31.92
X3.382 Y31.821
X4.503 Y31.682
X5.619 Y31.503
X6.727 Y31.285
X7.827 Y31.028
X8.917 Y30.733
X9.996 Y30.399
X11.063 Y30.027
X12.115 Y29.618
X13.153 Y29.172
X14.174 Y28.69
X15.178 Y28.171
X16.163 Y27.618
X17.127 Y27.031
X18.071 Y26.409
X18.991 Y25.755
X19.889 Y25.069
X20.761 Y24.351
X21.607 Y23.604
X22.427 Y22.826
X23.219 Y22.021
X23.981 Y21.187
X24.714 Y20.328
X25.416 Y19.443
X26.086 Y18.534
X26.724 Y17.602
X27.329 Y16.648
X27.899 Y15.673
X28.435 Y14.679
X28.935 Y13.666
X29.399 Y12.636
X29.827 Y11.591
X30.218 Y10.531
X30.57 Y9.458
X30.885 Y8.373
X31.161 Y7.278
X31.399 Y6.174
X31.597 Y5.062
X31.756 Y3.943
X31.875 Y2.82
X31.955 Y1.694
X31.995 Y0.565
Y-0.565
X31.955 Y-1.694
X31.875 Y-2.82
X31.756 Y-3.943
X31.597 Y-5.062
X31.399 Y-6.174
X31.161 Y-7.278
X30.885 Y-8.373
X30.57 Y-9.458
X30.218 Y-10.531
X29.827 Y-11.591
X29.399 Y-12.636
X28.935 Y-13.666
X28.435 Y-14.679
X27.899 Y-15.673
X27.329 Y-16.648
X26.724 Y-17.602
X26.086 Y-18.534
X25.416 Y-19.443
X24.714 Y-20.328
X23.981 Y-21.187
X23.219 Y-22.021
X22.427 Y-22.826
X21.607 Y-23.604
X20.761 Y-24.351
X19.889 Y-25.069
X18.991 Y-25.755
X18.071 Y-26.409
X17.127 Y-27.031
X16.163 Y-27.618
X15.178 Y-28.171
X14.174 Y-28.69
X13.153 Y-29.172
X12.115 Y-29.618
X11.063 Y-30.027
X9.996 Y-30.399
X8.917 Y-30.733
X7.827 Y-31.028
X6.727 Y-31.285
X5.619 Y-31.503
X4.503 Y-31.682
X3.382 Y-31.821
X2.257 Y-31.92
X1.129 Y-31.98
X0 Y-32
Z-4.9 F100
X-1.129 Y-31.98 F150
X-2.257 Y-31.92
X-3.382 Y-31.821
X-4.503 Y-31.682
X-5.619 Y-31.503
X-6.727 Y-31.285
X-7.827 Y-31.028
X-8.917 Y-30.733
X-9.996 Y-30.399
X-11.063 Y-30.027
X-12.115 Y-29.618
X-13.153 Y-29.172
X-14.174 Y-28.69
X-15.178 Y-28.171
X-16.163 Y-27.618
X-17.127 Y-27.031
X-18.071 Y-26.409
X-18.991 Y-25.755
X-19.889 Y-25.069
X-20.761 Y-24.351
X-21.607 Y-23.604
X-22.427 Y-22.826
X-23.219 Y-22.021
X-23.981 Y-21.187
X-24.714 Y-20.328
X-25.416 Y-19.443
X-26.086 Y-18.534
X-26.724 Y-17.602
X-27.329 Y-16.648
X-27.899 Y-15.673
X-28.435 Y-14.679
X-28.935 Y-13.666
X-29.399 Y-12.636
X-29.827 Y-11.591
X-30.218 Y-10.531
X-30.57 Y-9.458
X-30.885 Y-8.373
X-31.161 Y-7.278
X-31.399 Y-6.174
X-31.597 Y-5.062
X-31.756 Y-3.943
X-31.875 Y-2.82
X-31.955 Y-1.694
X-31.995 Y-0.565
Y0.565
X-31.955 Y1.694
X-31.875 Y2.82
X-31.756 Y3.943
X-31.597 Y5.062
X-31.399 Y6.174
X-31.161 Y7.278
X-30.885 Y8.373
X-30.57 Y9.458
X-30.218 Y10.531
X-29.827 Y11.591
X-29.399 Y12.636
X-28.935 Y13.666
X-28.435 Y14.679
X-27.899 Y15.673
X-27.329 Y16.648
X-26.724 Y17.602
X-26.086 Y18.534
X-25.416 Y19.443
X-24.714 Y20.328
X-23.981 Y21.187
X-23.219 Y22.021
X-22.427 Y22.826
X-21.607 Y23.604
X-20.761 Y24.351
X-19.889 Y25.069
X-18.991 Y25.755
X-18.071 Y26.409
X-17.127 Y27.031
X-16.163 Y27.618
X-15.178 Y28.171
X-14.174 Y28.69
X-13.153 Y29.172
X-12.115 Y29.618
X-11.063 Y30.027
X-9.996 Y30.399
X-8.917 Y30.733
X-7.827 Y31.028
X-6.727 Y31.285
X-5.619 Y31.503
X-4.503 Y31.682
X-3.382 Y31.821
X-2.257 Y31.92
X-1.129 Y31.98
X0 Y32
X1.129 Y31.98
X2.257 Y31.92
X3.382 Y31.821
X4.503 Y31.682
X5.619 Y31.503
X6.727 Y31.285
X7.827 Y31.028
X8.917 Y30.733
X9.996 Y30.399
X11.063 Y30.027
X12.115 Y29.618
X13.153 Y29.172
X14.174 Y28.69
X15.178 Y28.171
X16.163 Y27.618
X17.127 Y27.031
X18.071 Y26.409
X18.991 Y25.755
X19.889 Y25.069
X20.761 Y24.351
X21.607 Y23.604
X22.427 Y22.826
X23.219 Y22.021
X23.981 Y21.187
X24.714 Y20.328
X25.416 Y19.443
X26.086 Y18.534
X26.724 Y17.602
X27.329 Y16.648
X27.899 Y15.673
X28.435 Y14.679
X28.935 Y13.666
X29.399 Y12.636
X29.827 Y11.591
X30.218 Y10.531
X30.57 Y9.458
X30.885 Y8.373
X31.161 Y7.278
X31.399 Y6.174
X31.597 Y5.062
X31.756 Y3.943
X31.875 Y2.82
X31.955 Y1.694
X31.995 Y0.565
Y-0.565
X31.955 Y-1.694
X31.875 Y-2.82
X31.756 Y-3.943
X31.597 Y-5.062
X31.399 Y-6.174
X31.161 Y-7.278
X30.885 Y-8.373
X30.57 Y-9.458
X30.218 Y-10.531
X29.827 Y-11.591
X29.399 Y-12.636
X28.935 Y-13.666
X28.435 Y-14.679
X27.899 Y-15.673
X27.329 Y-16.648
X26.724 Y-17.602
X26.086 Y-18.534
X25.416 Y-19.443
X24.714 Y-20.328
X23.981 Y-21.187
X23.219 Y-22.021
X22.427 Y-22.826
X21.607 Y-23.604
X20.761 Y-24.351
X19.889 Y-25.069
X18.991 Y-25.755
X18.071 Y-26.409
X17.127 Y-27.031
X16.163 Y-27.618
X15.178 Y-28.171
X14.174 Y-28.69
X13.153 Y-29.172
X12.115 Y-29.618
X11.063 Y-30.027
X9.996 Y-30.399
X8.917 Y-30.733
X7.827 Y-31.028
X6.727 Y-31.285
X5.619 Y-31.503
X4.503 Y-31.682
X3.382 Y-31.821
X2.257 Y-31.92
X1.129 Y-31.98
X0 Y-32
Z-5.3 F100
X-1.129 Y-31.98 F150
X-2.257 Y-31.92
X-3.382 Y-31.821
X-4.503 Y-31.682
X-5.619 Y-31.503
X-6.727 Y-31.285
X-7.827 Y-31.028
X-8.917 Y-30.733
X-9.996 Y-30.399
X-11.063 Y-30.027
X-12.115 Y-29.618
X-13.153 Y-29.172
X-14.174 Y-28.69
X-15.178 Y-28.171
X-16.163 Y-27.618
X-17.127 Y-27.031
X-18.071 Y-26.409
X-18.991 Y-25.755
X-19.889 Y-25.069
X-20.761 Y-24.351
X-21.607 Y-23.604
X-22.427 Y-22.826
X-23.219 Y-22.021
X-23.981 Y-21.187
X-24.714 Y-20.328
X-25.416 Y-19.443
X-26.086 Y-18.534
X-26.724 Y-17.602
X-27.329 Y-16.648
X-27.899 Y-15.673
X-28.435 Y-14.679
X-28.935 Y-13.666
X-29.399 Y-12.636
X-29.827 Y-11.591
X-30.218 Y-10.531
X-30.57 Y-9.458
X-30.885 Y-8.373
X-31.161 Y-7.278
X-31.399 Y-6.174
X-31.597 Y-5.062
X-31.756 Y-3.943
X-31.875 Y-2.82
X-31.955 Y-1.694
X-31.995 Y-0.565
Y0.565
X-31.955 Y1.694
X-31.875 Y2.82
X-31.756 Y3.943
X-31.597 Y5.062
X-31.399 Y6.174
X-31.161 Y7.278
X-30.885 Y8.373
X-30.57 Y9.458
X-30.218 Y10.531
X-29.827 Y11.591
X-29.399 Y12.636
X-28.935 Y13.666
X-28.435 Y14.679
X-27.899 Y15.673
X-27.329 Y16.648
X-26.724 Y17.602
X-26.086 Y18.534
X-25.416 Y19.443
X-24.714 Y20.328
X-23.981 Y21.187
X-23.219 Y22.021
X-22.427 Y22.826
X-21.607 Y23.604
X-20.761 Y24.351
X-19.889 Y25.069
X-18.991 Y25.755
X-18.071 Y26.409
X-17.127 Y27.031
X-16.163 Y27.618
X-15.178 Y28.171
X-14.174 Y28.69
X-13.153 Y29.172
X-12.115 Y29.618
X-11.063 Y30.027
X-9.996 Y30.399
X-8.917 Y30.733
X-7.827 Y31.028
X-6.727 Y31.285
X-5.619 Y31.503
X-4.503 Y31.682
X-3.382 Y31.821
X-2.257 Y31.92
X-1.129 Y31.98
X0 Y32
X1.129 Y31.98
X2.257 Y31.92
X3.382 Y31.821
X4.503 Y31.682
X5.619 Y31.503
X6.727 Y31.285
X7.827 Y31.028
X8.917 Y30.733
X9.996 Y30.399
X11.063 Y30.027
X12.115 Y29.618
X13.153 Y29.172
X14.174 Y28.69
X15.178 Y28.171
X16.163 Y27.618
X17.127 Y27.031
X18.071 Y26.409
X18.991 Y25.755
X19.889 Y25.069
X20.761 Y24.351
X21.607 Y23.604
X22.427 Y22.826
X23.219 Y22.021
X23.981 Y21.187
X24.714 Y20.328
X25.416 Y19.443
X26.086 Y18.534
X26.724 Y17.602
X27.329 Y16.648
X27.899 Y15.673
X28.435 Y14.679
X28.935 Y13.666
X29.399 Y12.636
X29.827 Y11.591
X30.218 Y10.531
X30.57 Y9.458
X30.885 Y8.373
X31.161 Y7.278
X31.399 Y6.174
X31.597 Y5.062
X31.756 Y3.943
X31.875 Y2.82
X31.955 Y1.694
X31.995 Y0.565
Y-0.565
X31.955 Y-1.694
X31.875 Y-2.82
X31.756 Y-3.943
X31.597 Y-5.062
X31.399 Y-6.174
X31.161 Y-7.278
X30.885 Y-8.373
X30.57 Y-9.458
X30.218 Y-10.531
X29.827 Y-11.591
X29.399 Y-12.636
X28.935 Y-13.666
X28.435 Y-14.679
X27.899 Y-15.673
X27.329 Y-16.648
X26.724 Y-17.602
X26.086 Y-18.534
X25.416 Y-19.443
X24.714 Y-20.328
X23.981 Y-21.187
X23.219 Y-22.021
X22.427 Y-22.826
X21.607 Y-23.604
X20.761 Y-24.351
X19.889 Y-25.069
X18.991 Y-25.755
X18.071 Y-26.409
X17.127 Y-27.031
X16.163 Y-27.618
X15.178 Y-28.171
X14.174 Y-28.69
X13.153 Y-29.172
X12.115 Y-29.618
X11.063 Y-30.027
X9.996 Y-30.399
X8.917 Y-30.733
X7.827 Y-31.028
X6.727 Y-31.285
X5.619 Y-31.503
X4.503 Y-31.682
X3.382 Y-31.821
X2.257 Y-31.92
X1.129 Y-31.98
X0 Y-32
Z-5.7 F100
X-1.129 Y-31.98 F150
X-2.257 Y-31.92
X-3.382 Y-31.821
X-4.503 Y-31.682
X-5.619 Y-31.503
X-6.727 Y-31.285
X-7.827 Y-31.028
X-8.917 Y-30.733
X-9.996 Y-30.399
X-11.063 Y-30.027
X-12.115 Y-29.618
X-13.153 Y-29.172
X-14.174 Y-28.69
X-15.178 Y-28.171
X-16.163 Y-27.618
X-17.127 Y-27.031
X-18.071 Y-26.409
X-18.991 Y-25.755
X-19.889 Y-25.069
X-20.761 Y-24.351
X-21.607 Y-23.604
X-22.427 Y-22.826
X-23.219 Y-22.021
X-23.981 Y-21.187
X-24.714 Y-20.328
X-25.416 Y-19.443
X-26.086 Y-18.534
X-26.724 Y-17.602
X-27.329 Y-16.648
X-27.899 Y-15.673
X-28.435 Y-14.679
X-28.935 Y-13.666
X-29.399 Y-12.636
X-29.827 Y-11.591
X-30.218 Y-10.531
X-30.57 Y-9.458
X-30.885 Y-8.373
X-31.161 Y-7.278
X-31.399 Y-6.174
X-31.597 Y-5.062
X-31.756 Y-3.943
X-31.875 Y-2.82
X-31.955 Y-1.694
X-31.995 Y-0.565
Y0.565
X-31.955 Y1.694
X-31.875 Y2.82
X-31.756 Y3.943
X-31.597 Y5.062
X-31.399 Y6.174
X-31.161 Y7.278
X-30.885 Y8.373
X-30.57 Y9.458
X-30.218 Y10.531
X-29.827 Y11.591
X-29.399 Y12.636
X-28.935 Y13.666
X-28.435 Y14.679
X-27.899 Y15.673
X-27.329 Y16.648
X-26.724 Y17.602
X-26.086 Y18.534
X-25.416 Y19.443
X-24.714 Y20.328
X-23.981 Y21.187
X-23.219 Y22.021
X-22.427 Y22.826
X-21.607 Y23.604
X-20.761 Y24.351
X-19.889 Y25.069
X-18.991 Y25.755
X-18.071 Y26.409
X-17.127 Y27.031
X-16.163 Y27.618
X-15.178 Y28.171
X-14.174 Y28.69
X-13.153 Y29.172
X-12.115 Y29.618
X-11.063 Y30.027
X-9.996 Y30.399
X-8.917 Y30.733
X-7.827 Y31.028
X-6.727 Y31.285
X-5.619 Y31.503
X-4.503 Y31.682
X-3.382 Y31.821
X-2.257 Y31.92
X-1.129 Y31.98
X0 Y32
X1.129 Y31.98
X2.257 Y31.92
X3.382 Y31.821
X4.503 Y31.682
X5.619 Y31.503
X6.727 Y31.285
X7.827 Y31.028
X8.917 Y30.733
X9.996 Y30.399
X11.063 Y30.027
X12.115 Y29.618
X13.153 Y29.172
X14.174 Y28.69
X15.178 Y28.171
X16.163 Y27.618
X17.127 Y27.031
X18.071 Y26.409
X18.991 Y25.755
X19.889 Y25.069
X20.761 Y24.351
X21.607 Y23.604
X22.427 Y22.826
X23.219 Y22.021
X23.981 Y21.187
X24.714 Y20.328
X25.416 Y19.443
X26.086 Y18.534
X26.724 Y17.602
X27.329 Y16.648
X27.899 Y15.673
X28.435 Y14.679
X28.935 Y13.666
X29.399 Y12.636
X29.827 Y11.591
X30.218 Y10.531
X30.57 Y9.458
X30.885 Y8.373
X31.161 Y7.278
X31.399 Y6.174
X31.597 Y5.062
X31.756 Y3.943
X31.875 Y2.82
X31.955 Y1.694
X31.995 Y0.565
Y-0.565
X31.955 Y-1.694
X31.875 Y-2.82
X31.756 Y-3.943
X31.597 Y-5.062
X31.399 Y-6.174
X31.161 Y-7.278
X30.885 Y-8.373
X30.57 Y-9.458
X30.218 Y-10.531
X29.827 Y-11.591
X29.399 Y-12.636
X28.935 Y-13.666
X28.435 Y-14.679
X27.899 Y-15.673
X27.329 Y-16.648
X26.724 Y-17.602
X26.086 Y-18.534
X25.416 Y-19.443
X24.714 Y-20.328
X23.981 Y-21.187
X23.219 Y-22.021
X22.427 Y-22.826
X21.607 Y-23.604
X20.761 Y-24.351
X19.889 Y-25.069
X18.991 Y-25.755
X18.071 Y-26.409
X17.127 Y-27.031
X16.163 Y-27.618
X15.178 Y-28.171
X14.174 Y-28.69
X13.153 Y-29.172
X12.115 Y-29.618
X11.063 Y-30.027
X9.996 Y-30.399
X8.917 Y-30.733
X7.827 Y-31.028
X6.727 Y-31.285
X5.619 Y-31.503
X4.503 Y-31.682
X3.382 Y-31.821
X2.257 Y-31.92
X1.129 Y-31.98
X0 Y-32
Z-6.1 F100
X-1.129 Y-31.98 F150
X-2.257 Y-31.92
X-3.382 Y-31.821
X-4.503 Y-31.682
X-5.619 Y-31.503
X-6.727 Y-31.285
X-7.827 Y-31.028
X-8.917 Y-30.733
X-9.996 Y-30.399
X-11.063 Y-30.027
X-12.115 Y-29.618
X-13.153 Y-29.172
X-14.174 Y-28.69
X-15.178 Y-28.171
X-16.163 Y-27.618
X-17.127 Y-27.031
X-18.071 Y-26.409
X-18.991 Y-25.755
X-19.889 Y-25.069
X-20.761 Y-24.351
X-21.607 Y-23.604
X-22.427 Y-22.826
X-23.219 Y-22.021
X-23.981 Y-21.187
X-24.714 Y-20.328
X-25.416 Y-19.443
X-26.086 Y-18.534
X-26.724 Y-17.602
X-27.329 Y-16.648
X-27.899 Y-15.673
X-28.435 Y-14.679
X-28.935 Y-13.666
X-29.399 Y-12.636
X-29.827 Y-11.591
X-30.218 Y-10.531
X-30.57 Y-9.458
X-30.885 Y-8.373
X-31.161 Y-7.278
X-31.399 Y-6.174
X-31.597 Y-5.062
X-31.756 Y-3.943
X-31.875 Y-2.82
X-31.955 Y-1.694
X-31.995 Y-0.565
Y0.565
X-31.955 Y1.694
X-31.875 Y2.82
X-31.756 Y3.943
X-31.597 Y5.062
X-31.399 Y6.174
X-31.161 Y7.278
X-30.885 Y8.373
X-30.57 Y9.458
X-30.218 Y10.531
X-29.827 Y11.591
X-29.399 Y12.636
X-28.935 Y13.666
X-28.435 Y14.679
X-27.899 Y15.673
X-27.329 Y16.648
X-26.724 Y17.602
X-26.086 Y18.534
X-25.416 Y19.443
X-24.714 Y20.328
X-23.981 Y21.187
X-23.219 Y22.021
X-22.427 Y22.826
X-21.607 Y23.604
X-20.761 Y24.351
X-19.889 Y25.069
X-18.991 Y25.755
X-18.071 Y26.409
X-17.127 Y27.031
X-16.163 Y27.618
X-15.178 Y28.171
X-14.174 Y28.69
X-13.153 Y29.172
X-12.115 Y29.618
X-11.063 Y30.027
X-9.996 Y30.399
X-8.917 Y30.733
X-7.827 Y31.028
X-6.727 Y31.285
X-5.619 Y31.503
X-4.503 Y31.682
X-3.382 Y31.821
X-2.257 Y31.92
X-1.129 Y31.98
X0 Y32
X1.129 Y31.98
X2.257 Y31.92
X3.382 Y31.821
X4.503 Y31.682
X5.619 Y31.503
X6.727 Y31.285
X7.827 Y31.028
X8.917 Y30.733
X9.996 Y30.399
X11.063 Y30.027
X12.115 Y29.618
X13.153 Y29.172
X14.174 Y28.69
X15.178 Y28.171
X16.163 Y27.618
X17.127 Y27.031
X18.071 Y26.409
X18.991 Y25.755
X19.889 Y25.069
X20.761 Y24.351
X21.607 Y23.604
X22.427 Y22.826
X23.219 Y22.021
X23.981 Y21.187
X24.714 Y20.328
X25.416 Y19.443
X26.086 Y18.534
X26.724 Y17.602
X27.329 Y16.648
X27.899 Y15.673
X28.435 Y14.679
X28.935 Y13.666
X29.399 Y12.636
X29.827 Y11.591
X30.218 Y10.531
X30.57 Y9.458
X30.885 Y8.373
X31.161 Y7.278
X31.399 Y6.174
X31.597 Y5.062
X31.756 Y3.943
X31.875 Y2.82
X31.955 Y1.694
X31.995 Y0.565
Y-0.565
X31.955 Y-1.694
X31.875 Y-2.82
X31.756 Y-3.943
X31.597 Y-5.062
X31.399 Y-6.174
X31.161 Y-7.278
X30.885 Y-8.373
X30.57 Y-9.458
X30.218 Y-10.531
X29.827 Y-11.591
X29.399 Y-12.636
X28.935 Y-13.666
X28.435 Y-14.679
X27.899 Y-15.673
X27.329 Y-16.648
X26.724 Y-17.602
X26.086 Y-18.534
X25.416 Y-19.443
X24.714 Y-20.328
X23.981 Y-21.187
X23.219 Y-22.021
X22.427 Y-22.826
X21.607 Y-23.604
X20.761 Y-24.351
X19.889 Y-25.069
X18.991 Y-25.755
X18.071 Y-26.409
X17.127 Y-27.031
X16.163 Y-27.618
X15.178 Y-28.171
X14.174 Y-28.69
X13.153 Y-29.172
X12.115 Y-29.618
X11.063 Y-30.027
X9.996 Y-30.399
X8.917 Y-30.733
X7.827 Y-31.028
X6.727 Y-31.285
X5.619 Y-31.503
X4.503 Y-31.682
X3.382 Y-31.821
X2.257 Y-31.92
X1.129 Y-31.98
X0 Y-32
Z-6.5 F100
X-1.129 Y-31.98 F150
X-2.257 Y-31.92
X-3.382 Y-31.821
X-4.503 Y-31.682
X-5.619 Y-31.503
X-6.727 Y-31.285
X-7.827 Y-31.028
X-8.917 Y-30.733
X-9.996 Y-30.399
X-11.063 Y-30.027
X-12.115 Y-29.618
X-13.153 Y-29.172
X-14.174 Y-28.69
X-15.178 Y-28.171
X-16.163 Y-27.618
X-17.127 Y-27.031
X-18.071 Y-26.409
X-18.991 Y-25.755
X-19.889 Y-25.069
X-20.761 Y-24.351
X-21.607 Y-23.604
X-22.427 Y-22.826
X-23.219 Y-22.021
X-23.981 Y-21.187
X-24.714 Y-20.328
X-25.416 Y-19.443
X-26.086 Y-18.534
X-26.724 Y-17.602
X-27.329 Y-16.648
X-27.899 Y-15.673
X-28.435 Y-14.679
X-28.935 Y-13.666
X-29.399 Y-12.636
X-29.827 Y-11.591
X-30.218 Y-10.531
X-30.57 Y-9.458
X-30.885 Y-8.373
X-31.161 Y-7.278
X-31.399 Y-6.174
X-31.597 Y-5.062
X-31.756 Y-3.943
X-31.875 Y-2.82
X-31.955 Y-1.694
X-31.995 Y-0.565
Y0.565
X-31.955 Y1.694
X-31.875 Y2.82
X-31.756 Y3.943
X-31.597 Y5.062
X-31.399 Y6.174
X-31.161 Y7.278
X-30.885 Y8.373
X-30.57 Y9.458
X-30.218 Y10.531
X-29.827 Y11.591
X-29.399 Y12.636
X-28.935 Y13.666
X-28.435 Y14.679
X-27.899 Y15.673
X-27.329 Y16.648
X-26.724 Y17.602
X-26.086 Y18.534
X-25.416 Y19.443
X-24.714 Y20.328
X-23.981 Y21.187
X-23.219 Y22.021
X-22.427 Y22.826
X-21.607 Y23.604
X-20.761 Y24.351
X-19.889 Y25.069
X-18.991 Y25.755
X-18.071 Y26.409
X-17.127 Y27.031
X-16.163 Y27.618
X-15.178 Y28.171
X-14.174 Y28.69
X-13.153 Y29.172
X-12.115 Y29.618
X-11.063 Y30.027
X-9.996 Y30.399
X-8.917 Y30.733
X-7.827 Y31.028
X-6.727 Y31.285
X-5.619 Y31.503
X-4.503 Y31.682
X-3.382 Y31.821
X-2.257 Y31.92
X-1.129 Y31.98
X0 Y32
X1.129 Y31.98
X2.257 Y31.92
X3.382 Y31.821
X4.503 Y31.682
X5.619 Y31.503
X6.727 Y31.285
X7.827 Y31.028
X8.917 Y30.733
X9.996 Y30.399
X11.063 Y30.027
X12.115 Y29.618
X13.153 Y29.172
X14.174 Y28.69
X15.178 Y28.171
X16.163 Y27.618
X17.127 Y27.031
X18.071 Y26.409
X18.991 Y25.755
X19.889 Y25.069
X20.761 Y24.351
X21.607 Y23.604
X22.427 Y22.826
X23.219 Y22.021
X23.981 Y21.187
X24.714 Y20.328
X25.416 Y19.443
X26.086 Y18.534
X26.724 Y17.602
X27.329 Y16.648
X27.899 Y15.673
X28.435 Y14.679
X28.935 Y13.666
X29.399 Y12.636
X29.827 Y11.591
X30.218 Y10.531
X30.57 Y9.458
X30.885 Y8.373
X31.161 Y7.278
X31.399 Y6.174
X31.597 Y5.062
X31.756 Y3.943
X31.875 Y2.82
X31.955 Y1.694
X31.995 Y0.565
Y-0.565
X31.955 Y-1.694
X31.875 Y-2.82
X31.756 Y-3.943
X31.597 Y-5.062
X31.399 Y-6.174
X31.161 Y-7.278
X30.885 Y-8.373
X30.57 Y-9.458
X30.218 Y-10.531
X29.827 Y-11.591
X29.399 Y-12.636
X28.935 Y-13.666
X28.435 Y-14.679
X27.899 Y-15.673
X27.329 Y-16.648
X26.724 Y-17.602
X26.086 Y-18.534
X25.416 Y-19.443
X24.714 Y-20.328
X23.981 Y-21.187
X23.219 Y-22.021
X22.427 Y-22.826
X21.607 Y-23.604
X20.761 Y-24.351
X19.889 Y-25.069
X18.991 Y-25.755
X18.071 Y-26.409
X17.127 Y-27.031
X16.163 Y-27.618
X15.178 Y-28.171
X14.174 Y-28.69
X13.153 Y-29.172
X12.115 Y-29.618
X11.063 Y-30.027
X9.996 Y-30.399
X8.917 Y-30.733
X7.827 Y-31.028
X6.727 Y-31.285
X5.619 Y-31.503
X4.503 Y-31.682
X3.382 Y-31.821
X2.257 Y-31.92
X1.129 Y-31.98
X0 Y-32
Z5 F100
Z16 F150
M9
G28 G91 Z0
G90
G28 G91 X0 Y0
G90
M5
M30
