(actuator_link_outline)
(Machine)
(  vendor: Autodesk)
(  model: Generic 3-axis)
(  description: This machine has XY axis on the Table and Z axis on the Head)
(T1  D=4.765 CR=0 - ZMIN=-6.5 - flat end mill)
G90 G94
G17
G21
(When using Fusion 360 for Personal Use, the feedrate of)
(rapid moves is reduced to match the feedrate of cutting)
(moves, which can increase machining time. Unrestricted rapid)
(moves are available with a Fusion 360 Subscription.)
G28 G91 Z0
G90

(Circular1)
T1
S24000 M3
G54
M8
G0 X0.477 Y-37.574
Z15
G1 Z1.95 F150
Z0.426 F100
G19 G3 Y-37.097 Z-0.05 J0.476 K0
G1 Y-36.859
G17 G3 X0 Y-36.382 I-0.477 J0
G2 X0 Y36.382 I0 J36.382 F150
X0 Y-36.382 I0 J-36.382
G3 X-0.477 Y-36.859 I0 J-0.477 F100
G1 Y-37.097
G19 G2 Y-37.574 Z0.426 J0 K0.476
G1 Z5 F150
X0.477
Z1.5
Z-0.023 F100
G3 Y-37.097 Z-0.5 J0.476 K0
G1 Y-36.859
G17 G3 X0 Y-36.382 I-0.477 J0
G2 X0 Y36.382 I0 J36.382 F150
X0 Y-36.382 I0 J-36.382
G3 X-0.477 Y-36.859 I0 J-0.477 F100
G1 Y-37.097
G19 G2 Y-37.574 Z-0.023 J0 K0.477
G1 Z5 F150
X0.477
Z1.05
Z-0.474 F100
G3 Y-37.097 Z-0.95 J0.476 K0
G1 Y-36.859
G17 G3 X0 Y-36.382 I-0.477 J0
G2 X0 Y36.382 I0 J36.382 F150
X0 Y-36.382 I0 J-36.382
G3 X-0.477 Y-36.859 I0 J-0.477 F100
G1 Y-37.097
G19 G2 Y-37.574 Z-0.474 J0 K0.476
G1 Z5 F150
X0.477
Z0.6
Z-0.924 F100
G3 Y-37.097 Z-1.4 J0.476 K0
G1 Y-36.859
G17 G3 X0 Y-36.382 I-0.477 J0
G2 X0 Y36.382 I0 J36.382 F150
X0 Y-36.382 I0 J-36.382
G3 X-0.477 Y-36.859 I0 J-0.477 F100
G1 Y-37.097
G19 G2 Y-37.574 Z-0.924 J0 K0.476
G1 Z5 F150
X0.477
Z0.15
Z-1.373 F100
G3 Y-37.097 Z-1.85 J0.476 K0
G1 Y-36.859
G17 G3 X0 Y-36.382 I-0.477 J0
G2 X0 Y36.382 I0 J36.382 F150
X0 Y-36.382 I0 J-36.382
G3 X-0.477 Y-36.859 I0 J-0.477 F100
G1 Y-37.097
G19 G2 Y-37.574 Z-1.373 J0 K0.477
G1 Z5 F150
X0.477
Z-0.3
Z-1.824 F100
G3 Y-37.097 Z-2.3 J0.476 K0
G1 Y-36.859
G17 G3 X0 Y-36.382 I-0.477 J0
G2 X0 Y36.382 I0 J36.382 F150
X0 Y-36.382 I0 J-36.382
G3 X-0.477 Y-36.859 I0 J-0.477 F100
G1 Y-37.097
G19 G2 Y-37.574 Z-1.824 J0 K0.476
G1 Z5 F150
X0.477
Z-0.75
Z-2.273 F100
G3 Y-37.097 Z-2.75 J0.476 K0
G1 Y-36.859
G17 G3 X0 Y-36.382 I-0.477 J0
G2 X0 Y36.382 I0 J36.382 F150
X0 Y-36.382 I0 J-36.382
G3 X-0.477 Y-36.859 I0 J-0.477 F100
G1 Y-37.097
G19 G2 Y-37.574 Z-2.273 J0 K0.477
G1 Z5 F150
X0.477
Z-1.2
Z-2.724 F100
G3 Y-37.097 Z-3.2 J0.476 K0
G1 Y-36.859
G17 G3 X0 Y-36.382 I-0.477 J0
G2 X0 Y36.382 I0 J36.382 F150
X0 Y-36.382 I0 J-36.382
G3 X-0.477 Y-36.859 I0 J-0.477 F100
G1 Y-37.097
G19 G2 Y-37.574 Z-2.724 J0 K0.477
G1 Z5 F150
X0.477
Z-1.65
Z-3.174 F100
G3 Y-37.097 Z-3.65 J0.476 K0
G1 Y-36.859
G17 G3 X0 Y-36.382 I-0.477 J0
G2 X0 Y36.382 I0 J36.382 F150
X0 Y-36.382 I0 J-36.382
G3 X-0.477 Y-36.859 I0 J-0.477 F100
G1 Y-37.097
G19 G2 Y-37.574 Z-3.174 J0 K0.477
G1 Z5 F150
X0.477
Z-2.1
Z-3.624 F100
G3 Y-37.097 Z-4.1 J0.476 K0
G1 Y-36.859
G17 G3 X0 Y-36.382 I-0.477 J0
G2 X0 Y36.382 I0 J36.382 F150
X0 Y-36.382 I0 J-36.382
G3 X-0.477 Y-36.859 I0 J-0.477 F100
G1 Y-37.097
G19 G2 Y-37.574 Z-3.624 J0 K0.476
G1 Z5 F150
X0.477
Z-2.55
Z-4.074 F100
G3 Y-37.097 Z-4.55 J0.476 K0
G1 Y-36.859
G17 G3 X0 Y-36.382 I-0.477 J0
G2 X0 Y36.382 I0 J36.382 F150
X0 Y-36.382 I0 J-36.382
G3 X-0.477 Y-36.859 I0 J-0.477 F100
G1 Y-37.097
G19 G2 Y-37.574 Z-4.074 J0 K0.477
G1 Z5 F150
X0.477
Z-3
Z-4.523 F100
G3 Y-37.097 Z-5 J0.476 K0
G1 Y-36.859
G17 G3 X0 Y-36.382 I-0.477 J0
G2 X0 Y36.382 I0 J36.382 F150
X0 Y-36.382 I0 J-36.382
G3 X-0.477 Y-36.859 I0 J-0.477 F100
G1 Y-37.097
G19 G2 Y-37.574 Z-4.523 J0 K0.477
G1 Z5 F150
X0.477
Z-3.45
Z-4.973 F100
G3 Y-37.097 Z-5.45 J0.476 K0
G1 Y-36.859
G17 G3 X0 Y-36.382 I-0.477 J0
G2 X0 Y36.382 I0 J36.382 F150
X0 Y-36.382 I0 J-36.382
G3 X-0.477 Y-36.859 I0 J-0.477 F100
G1 Y-37.097
G19 G2 Y-37.574 Z-4.973 J0 K0.477
G1 Z5 F150
X0.477
Z-3.9
Z-5.424 F100
G3 Y-37.097 Z-5.9 J0.476 K0
G1 Y-36.859
G17 G3 X0 Y-36.382 I-0.477 J0
G2 X0 Y36.382 I0 J36.382 F150
X0 Y-36.382 I0 J-36.382
G3 X-0.477 Y-36.859 I0 J-0.477 F100
G1 Y-37.097
G19 G2 Y-37.574 Z-5.424 J0 K0.477
G1 Z5 F150
X0.477
Z-4.2
Z-5.723 F100
G3 Y-37.097 Z-6.2 J0.476 K0
G1 Y-36.859
G17 G3 X0 Y-36.382 I-0.477 J0
G2 X0 Y36.382 I0 J36.382 F150
X0 Y-36.382 I0 J-36.382
G3 X-0.477 Y-36.859 I0 J-0.477 F100
G1 Y-37.097
G19 G2 Y-37.574 Z-5.723 J0 K0.477
G1 Z5 F150
X0.477
Z-4.5
Z-6.023 F100
G3 Y-37.097 Z-6.5 J0.476 K0
G1 Y-36.859
G17 G3 X0 Y-36.382 I-0.477 J0
G2 X0 Y36.382 I0 J36.382 F150
X0 Y-36.382 I0 J-36.382
G3 X-0.477 Y-36.859 I0 J-0.477 F100
G1 Y-37.097
G19 G2 Y-37.574 Z-6.023 J0 K0.477
G1 Z15 F150
G17
M9
G28 G91 Z0
G90
G28 G91 X0 Y0
G90
M5
M30
