(actuator_link_drill)
(Machine)
(  vendor: Autodesk)
(  model: Generic 3-axis)
(  description: This machine has XY axis on the Table and Z axis on the Head)
(T1  D=3.175 CR=1.587 - ZMIN=-6.5 - ball end mill)
G90 G94
G17
G21
(When using Fusion 360 for Personal Use, the feedrate of)
(rapid moves is reduced to match the feedrate of cutting)
(moves, which can increase machining time. Unrestricted rapid)
(moves are available with a Fusion 360 Subscription.)
G28 G91 Z0
G90

(Bore1)
T1
S24000 M3
G54
M8
G0 X0.259 Y-28.784
Z16
G1 Z2 F150
Z0.317 F100
G18 G3 X-0.058 Z0 I-0.317 K0
G1 X-0.217
G17 G3 X-0.423 Y-28.99 I0 J-0.206
X0.402 Y-28.99 Z-0.15 I0.413 J0 F150
X-0.423 Y-28.99 Z-0.3 I-0.413 J0
X0.402 Y-28.99 Z-0.45 I0.412 J0
X-0.423 Y-28.99 Z-0.6 I-0.412 J0
X0.402 Y-28.99 Z-0.75 I0.412 J0
X-0.423 Y-28.99 Z-0.9 I-0.412 J0
X0.402 Y-28.99 Z-1.05 I0.412 J0
X-0.423 Y-28.99 Z-1.2 I-0.412 J0
X0.402 Y-28.99 Z-1.35 I0.412 J0
X-0.423 Y-28.99 Z-1.5 I-0.412 J0
X0.402 Y-28.99 Z-1.65 I0.412 J0
X-0.423 Y-28.99 Z-1.8 I-0.412 J0
X0.402 Y-28.99 Z-1.95 I0.412 J0
X-0.423 Y-28.99 Z-2.1 I-0.412 J0
X0.402 Y-28.99 Z-2.25 I0.412 J0
X-0.423 Y-28.99 Z-2.4 I-0.412 J0
X0.402 Y-28.99 Z-2.55 I0.412 J0
X-0.423 Y-28.99 Z-2.7 I-0.412 J0
X0.402 Y-28.99 Z-2.85 I0.412 J0
X-0.423 Y-28.99 Z-3 I-0.412 J0
X0.402 Y-28.99 Z-3.15 I0.412 J0
X-0.423 Y-28.99 Z-3.3 I-0.412 J0
X0.402 Y-28.99 Z-3.45 I0.412 J0
X-0.423 Y-28.99 Z-3.6 I-0.412 J0
X0.402 Y-28.99 Z-3.75 I0.412 J0
X-0.423 Y-28.99 Z-3.9 I-0.412 J0
X0.402 Y-28.99 Z-4.05 I0.412 J0
X-0.423 Y-28.99 Z-4.2 I-0.412 J0
X0.402 Y-28.99 Z-4.35 I0.412 J0
X-0.423 Y-28.99 Z-4.5 I-0.412 J0
X0.402 Y-28.99 Z-4.65 I0.412 J0
X-0.423 Y-28.99 Z-4.8 I-0.412 J0
X0.402 Y-28.99 Z-4.95 I0.412 J0
X-0.423 Y-28.99 Z-5.1 I-0.412 J0
X0.402 Y-28.99 Z-5.25 I0.412 J0
X-0.423 Y-28.99 Z-5.4 I-0.412 J0
X0.402 Y-28.99 Z-5.55 I0.412 J0
X-0.423 Y-28.99 Z-5.7 I-0.412 J0
X0.402 Y-28.99 Z-5.85 I0.412 J0
X-0.423 Y-28.99 Z-6 I-0.412 J0
X0.402 Y-28.99 Z-6.15 I0.412 J0
X-0.423 Y-28.99 Z-6.3 I-0.412 J0
X0.402 Y-28.99 Z-6.45 I0.412 J0
X0.195 Y-28.633 Z-6.5 I-0.412 J0
X-0.217 Y-29.347 I-0.206 J-0.357
X0.195 Y-28.633 I0.206 J0.357
X-0.086 Y-28.708 I-0.103 J-0.179 F100
G1 X-0.166 Y-28.846
X-0.201 Y-28.907 Z-6.492
X-0.235 Y-28.965 Z-6.469
X-0.265 Y-29.017 Z-6.431
X-0.29 Y-29.061 Z-6.38
X-0.309 Y-29.094 Z-6.32
X-0.321 Y-29.114 Z-6.253
X-0.325 Y-29.121 Z-6.182
Z6 F150
X-24.835 Y14.698
Z2
Z0.317 F100
G18 G3 X-25.153 Z0 I-0.317 K0
G1 X-25.312
G17 G3 X-25.518 Y14.492 I0 J-0.206
X-24.693 Y14.492 Z-0.15 I0.413 J0 F150
X-25.518 Y14.492 Z-0.3 I-0.413 J0
X-24.693 Y14.492 Z-0.45 I0.413 J0
X-25.518 Y14.492 Z-0.6 I-0.413 J0
X-24.693 Y14.492 Z-0.75 I0.413 J0
X-25.518 Y14.492 Z-0.9 I-0.413 J0
X-24.693 Y14.492 Z-1.05 I0.413 J0
X-25.518 Y14.492 Z-1.2 I-0.413 J0
X-24.693 Y14.492 Z-1.35 I0.413 J0
X-25.518 Y14.492 Z-1.5 I-0.413 J0
X-24.693 Y14.492 Z-1.65 I0.413 J0
X-25.518 Y14.492 Z-1.8 I-0.413 J0
X-24.693 Y14.492 Z-1.95 I0.413 J0
X-25.518 Y14.492 Z-2.1 I-0.413 J0
X-24.693 Y14.492 Z-2.25 I0.412 J0
X-25.518 Y14.492 Z-2.4 I-0.412 J0
X-24.693 Y14.492 Z-2.55 I0.412 J0
X-25.518 Y14.492 Z-2.7 I-0.412 J0
X-24.693 Y14.492 Z-2.85 I0.412 J0
X-25.518 Y14.492 Z-3 I-0.412 J0
X-24.693 Y14.492 Z-3.15 I0.412 J0
X-25.518 Y14.492 Z-3.3 I-0.412 J0
X-24.693 Y14.492 Z-3.45 I0.412 J0
X-25.518 Y14.492 Z-3.6 I-0.412 J0
X-24.693 Y14.492 Z-3.75 I0.412 J0
X-25.518 Y14.492 Z-3.9 I-0.412 J0
X-24.693 Y14.492 Z-4.05 I0.412 J0
X-25.518 Y14.492 Z-4.2 I-0.412 J0
X-24.693 Y14.492 Z-4.35 I0.412 J0
X-25.518 Y14.492 Z-4.5 I-0.412 J0
X-24.693 Y14.492 Z-4.65 I0.412 J0
X-25.518 Y14.492 Z-4.8 I-0.412 J0
X-24.693 Y14.492 Z-4.95 I0.412 J0
X-25.518 Y14.492 Z-5.1 I-0.412 J0
X-24.693 Y14.492 Z-5.25 I0.412 J0
X-25.518 Y14.492 Z-5.4 I-0.412 J0
X-24.693 Y14.492 Z-5.55 I0.412 J0
X-25.518 Y14.492 Z-5.7 I-0.412 J0
X-24.693 Y14.492 Z-5.85 I0.412 J0
X-25.518 Y14.492 Z-6 I-0.412 J0
X-24.693 Y14.492 Z-6.15 I0.412 J0
X-25.518 Y14.492 Z-6.3 I-0.412 J0
X-24.693 Y14.492 Z-6.45 I0.412 J0
X-24.899 Y14.849 Z-6.5 I-0.412 J0
X-25.312 Y14.135 I-0.206 J-0.357
X-24.899 Y14.849 I0.206 J0.357
X-25.181 Y14.774 I-0.103 J-0.179 F100
G1 X-25.26 Y14.636
X-25.295 Y14.575 Z-6.492
X-25.329 Y14.517 Z-6.469
X-25.359 Y14.465 Z-6.431
X-25.384 Y14.422 Z-6.38
X-25.403 Y14.389 Z-6.32
X-25.415 Y14.368 Z-6.253
X-25.419 Y14.362 Z-6.182
Z6 F150
X25.38 Y14.695
Z2
Z0.317 F100
G18 G3 X25.063 Z0 I-0.317 K0
G1 X24.904
G17 G3 X24.698 Y14.489 I0 J-0.206
X25.523 Y14.489 Z-0.15 I0.413 J0 F150
X24.698 Y14.489 Z-0.3 I-0.413 J0
X25.523 Y14.489 Z-0.45 I0.413 J0
X24.698 Y14.489 Z-0.6 I-0.413 J0
X25.523 Y14.489 Z-0.75 I0.413 J0
X24.698 Y14.489 Z-0.9 I-0.413 J0
X25.523 Y14.489 Z-1.05 I0.413 J0
X24.698 Y14.489 Z-1.2 I-0.413 J0
X25.523 Y14.489 Z-1.35 I0.413 J0
X24.698 Y14.489 Z-1.5 I-0.413 J0
X25.523 Y14.489 Z-1.65 I0.413 J0
X24.698 Y14.489 Z-1.8 I-0.413 J0
X25.523 Y14.489 Z-1.95 I0.413 J0
X24.698 Y14.489 Z-2.1 I-0.413 J0
X25.523 Y14.489 Z-2.25 I0.413 J0
X24.698 Y14.489 Z-2.4 I-0.413 J0
X25.523 Y14.489 Z-2.55 I0.413 J0
X24.698 Y14.489 Z-2.7 I-0.413 J0
X25.523 Y14.489 Z-2.85 I0.413 J0
X24.698 Y14.489 Z-3 I-0.413 J0
X25.523 Y14.489 Z-3.15 I0.413 J0
X24.698 Y14.489 Z-3.3 I-0.413 J0
X25.523 Y14.489 Z-3.45 I0.413 J0
X24.698 Y14.489 Z-3.6 I-0.413 J0
X25.523 Y14.489 Z-3.75 I0.413 J0
X24.698 Y14.489 Z-3.9 I-0.413 J0
X25.523 Y14.489 Z-4.05 I0.413 J0
X24.698 Y14.489 Z-4.2 I-0.413 J0
X25.523 Y14.489 Z-4.35 I0.413 J0
X24.698 Y14.489 Z-4.5 I-0.413 J0
X25.523 Y14.489 Z-4.65 I0.413 J0
X24.698 Y14.489 Z-4.8 I-0.413 J0
X25.523 Y14.489 Z-4.95 I0.413 J0
X24.698 Y14.489 Z-5.1 I-0.413 J0
X25.523 Y14.489 Z-5.25 I0.413 J0
X24.698 Y14.489 Z-5.4 I-0.413 J0
X25.523 Y14.489 Z-5.55 I0.413 J0
X24.698 Y14.489 Z-5.7 I-0.413 J0
X25.523 Y14.489 Z-5.85 I0.413 J0
X24.698 Y14.489 Z-6 I-0.413 J0
X25.523 Y14.489 Z-6.15 I0.413 J0
X24.698 Y14.489 Z-6.3 I-0.413 J0
X25.523 Y14.489 Z-6.45 I0.413 J0
X25.317 Y14.846 Z-6.5 I-0.413 J0
X24.904 Y14.131 I-0.206 J-0.357
X25.317 Y14.846 I0.206 J0.357
X25.035 Y14.77 I-0.103 J-0.179 F100
G1 X24.955 Y14.633
X24.92 Y14.572 Z-6.492
X24.887 Y14.514 Z-6.469
X24.857 Y14.461 Z-6.431
X24.831 Y14.418 Z-6.38
X24.812 Y14.385 Z-6.32
X24.801 Y14.365 Z-6.253
X24.797 Y14.358 Z-6.182
Z16 F150
M9
G28 G91 Z0
G90
G28 G91 X0 Y0
G90
M5
M30
