(actuator_link_drill)
(Machine)
(  vendor: Autodesk)
(  model: Generic 3-axis)
(  description: This machine has XY axis on the Table and Z axis on the Head)
(T1  D=3.175 CR=1.587 - ZMIN=-4 - ball end mill)
G90 G94
G17
G21
(When using Fusion 360 for Personal Use, the feedrate of)
(rapid moves is reduced to match the feedrate of cutting)
(moves, which can increase machining time. Unrestricted rapid)
(moves are available with a Fusion 360 Subscription.)
G28 G91 Z0
G90

(Bore1)
T1
S24000 M3
G54
M8
G0 X0.259 Y-28.784
Z16
G1 Z2 F150
Z0.317 F100
G18 G3 X-0.058 Z0 I-0.317 K0
G1 X-0.217
G17 G3 X-0.423 Y-28.99 I0 J-0.206
X0.402 Y-28.99 Z-0.15 I0.413 J0 F150
X-0.423 Y-28.99 Z-0.3 I-0.412 J0
X0.402 Y-28.99 Z-0.45 I0.412 J0
X-0.423 Y-28.99 Z-0.6 I-0.412 J0
X0.402 Y-28.99 Z-0.75 I0.412 J0
X-0.423 Y-28.99 Z-0.9 I-0.412 J0
X0.402 Y-28.99 Z-1.05 I0.412 J0
X-0.423 Y-28.99 Z-1.2 I-0.412 J0
X0.402 Y-28.99 Z-1.35 I0.412 J0
X-0.423 Y-28.99 Z-1.5 I-0.412 J0
X0.402 Y-28.99 Z-1.65 I0.412 J0
X-0.423 Y-28.99 Z-1.8 I-0.412 J0
X0.402 Y-28.99 Z-1.95 I0.412 J0
X-0.423 Y-28.99 Z-2.1 I-0.412 J0
X0.402 Y-28.99 Z-2.25 I0.412 J0
X-0.423 Y-28.99 Z-2.4 I-0.412 J0
X0.402 Y-28.99 Z-2.55 I0.412 J0
X-0.423 Y-28.99 Z-2.7 I-0.412 J0
X0.402 Y-28.99 Z-2.85 I0.412 J0
X-0.423 Y-28.99 Z-3 I-0.412 J0
X0.402 Y-28.99 Z-3.15 I0.412 J0
X-0.423 Y-28.99 Z-3.3 I-0.412 J0
X0.402 Y-28.99 Z-3.45 I0.412 J0
X-0.423 Y-28.99 Z-3.6 I-0.412 J0
X0.402 Y-28.99 Z-3.75 I0.412 J0
X-0.423 Y-28.99 Z-3.9 I-0.412 J0
X0.195 Y-29.347 Z-4 I0.412 J0
X-0.217 Y-28.633 I-0.206 J0.357
X0.195 Y-29.347 I0.206 J-0.357
X0.271 Y-29.066 I-0.103 J0.179 F100
G1 X0.191 Y-28.928
X0.156 Y-28.867 Z-3.992
X0.123 Y-28.809 Z-3.969
X0.092 Y-28.757 Z-3.931
X0.067 Y-28.713 Z-3.88
X0.048 Y-28.68 Z-3.82
X0.037 Y-28.66 Z-3.753
X0.033 Y-28.653 Z-3.682
Z6 F150
X-24.835 Y14.698
Z2
Z0.317 F100
G18 G3 X-25.153 Z0 I-0.317 K0
G1 X-25.312
G17 G3 X-25.518 Y14.492 I0 J-0.206
X-24.693 Y14.492 Z-0.15 I0.413 J0 F150
X-25.518 Y14.492 Z-0.3 I-0.413 J0
X-24.693 Y14.492 Z-0.45 I0.413 J0
X-25.518 Y14.492 Z-0.6 I-0.413 J0
X-24.693 Y14.492 Z-0.75 I0.413 J0
X-25.518 Y14.492 Z-0.9 I-0.413 J0
X-24.693 Y14.492 Z-1.05 I0.413 J0
X-25.518 Y14.492 Z-1.2 I-0.413 J0
X-24.693 Y14.492 Z-1.35 I0.413 J0
X-25.518 Y14.492 Z-1.5 I-0.413 J0
X-24.693 Y14.492 Z-1.65 I0.413 J0
X-25.518 Y14.492 Z-1.8 I-0.413 J0
X-24.693 Y14.492 Z-1.95 I0.413 J0
X-25.518 Y14.492 Z-2.1 I-0.413 J0
X-24.693 Y14.492 Z-2.25 I0.413 J0
X-25.518 Y14.492 Z-2.4 I-0.413 J0
X-24.693 Y14.492 Z-2.55 I0.413 J0
X-25.518 Y14.492 Z-2.7 I-0.413 J0
X-24.693 Y14.492 Z-2.85 I0.413 J0
X-25.518 Y14.492 Z-3 I-0.413 J0
X-24.693 Y14.492 Z-3.15 I0.413 J0
X-25.518 Y14.492 Z-3.3 I-0.413 J0
X-24.693 Y14.492 Z-3.45 I0.413 J0
X-25.518 Y14.492 Z-3.6 I-0.413 J0
X-24.693 Y14.492 Z-3.75 I0.413 J0
X-25.518 Y14.492 Z-3.9 I-0.413 J0
X-24.899 Y14.135 Z-4 I0.413 J0
X-25.312 Y14.849 I-0.206 J0.357
X-24.899 Y14.135 I0.206 J-0.357
X-24.824 Y14.417 I-0.103 J0.179 F100
G1 X-24.903 Y14.554
X-24.938 Y14.615 Z-3.992
X-24.972 Y14.674 Z-3.969
X-25.002 Y14.726 Z-3.931
X-25.027 Y14.769 Z-3.88
X-25.046 Y14.802 Z-3.82
X-25.058 Y14.822 Z-3.753
X-25.062 Y14.829 Z-3.682
Z6 F150
X25.38 Y14.695
Z2
Z0.317 F100
G18 G3 X25.063 Z0 I-0.317 K0
G1 X24.904
G17 G3 X24.698 Y14.489 I0 J-0.206
X25.523 Y14.489 Z-0.15 I0.413 J0 F150
X24.698 Y14.489 Z-0.3 I-0.413 J0
X25.523 Y14.489 Z-0.45 I0.413 J0
X24.698 Y14.489 Z-0.6 I-0.413 J0
X25.523 Y14.489 Z-0.75 I0.413 J0
X24.698 Y14.489 Z-0.9 I-0.413 J0
X25.523 Y14.489 Z-1.05 I0.413 J0
X24.698 Y14.489 Z-1.2 I-0.413 J0
X25.523 Y14.489 Z-1.35 I0.413 J0
X24.698 Y14.489 Z-1.5 I-0.413 J0
X25.523 Y14.489 Z-1.65 I0.413 J0
X24.698 Y14.489 Z-1.8 I-0.413 J0
X25.523 Y14.489 Z-1.95 I0.413 J0
X24.698 Y14.489 Z-2.1 I-0.413 J0
X25.523 Y14.489 Z-2.25 I0.413 J0
X24.698 Y14.489 Z-2.4 I-0.413 J0
X25.523 Y14.489 Z-2.55 I0.413 J0
X24.698 Y14.489 Z-2.7 I-0.413 J0
X25.523 Y14.489 Z-2.85 I0.413 J0
X24.698 Y14.489 Z-3 I-0.413 J0
X25.523 Y14.489 Z-3.15 I0.413 J0
X24.698 Y14.489 Z-3.3 I-0.413 J0
X25.523 Y14.489 Z-3.45 I0.413 J0
X24.698 Y14.489 Z-3.6 I-0.413 J0
X25.523 Y14.489 Z-3.75 I0.413 J0
X24.698 Y14.489 Z-3.9 I-0.413 J0
X25.317 Y14.131 Z-4 I0.413 J0
X24.904 Y14.846 I-0.206 J0.357
X25.317 Y14.131 I0.206 J-0.357
X25.392 Y14.413 I-0.103 J0.179 F100
G1 X25.313 Y14.551
X25.277 Y14.612 Z-3.992
X25.244 Y14.67 Z-3.969
X25.214 Y14.722 Z-3.931
X25.189 Y14.766 Z-3.88
X25.17 Y14.798 Z-3.82
X25.158 Y14.819 Z-3.753
X25.154 Y14.826 Z-3.682
Z16 F150
M9
G28 G91 Z0
G90
G28 G91 X0 Y0
G90
M5
M30
