(actuator_link_center)
(Machine)
(  vendor: Autodesk)
(  model: Generic 3-axis)
(  description: This machine has XY axis on the Table and Z axis on the Head)
(T1  D=4.765 CR=0 - ZMIN=-6.5 - flat end mill)
G90 G94
G17
G21
(When using Fusion 360 for Personal Use, the feedrate of)
(rapid moves is reduced to match the feedrate of cutting)
(moves, which can increase machining time. Unrestricted rapid)
(moves are available with a Fusion 360 Subscription.)
G28 G91 Z0
G90

(Trace2)
T1
S24000 M3
G54
M8
G0 X12 Y0
Z15
G1 Z0.1 F300
X11.98 Y0.691
X11.92 Y1.38
X11.821 Y2.065
X11.682 Y2.742
X11.505 Y3.411
X11.289 Y4.068
X11.036 Y4.712
X10.747 Y5.34
X10.421 Y5.95
X10.061 Y6.541
X9.667 Y7.109
X9.242 Y7.654
X8.785 Y8.174
X8.3 Y8.667
X7.787 Y9.13
X7.248 Y9.564
X6.685 Y9.966
X6.1 Y10.334
X5.494 Y10.668
X4.87 Y10.967
X4.23 Y11.23
X3.576 Y11.455
X2.911 Y11.642
X2.235 Y11.79
X1.552 Y11.899
X0.864 Y11.969
X0.173 Y11.999
X-0.519 Y11.989
X-1.208 Y11.939
X-1.894 Y11.849
X-2.574 Y11.721
X-3.245 Y11.553
X-3.905 Y11.347
X-4.552 Y11.103
X-5.184 Y10.822
X-5.799 Y10.506
X-6.395 Y10.154
X-6.969 Y9.769
X-7.52 Y9.351
X-8.047 Y8.902
X-8.546 Y8.424
X-9.017 Y7.918
X-9.458 Y7.385
X-9.868 Y6.828
X-10.245 Y6.248
X-10.588 Y5.647
X-10.896 Y5.028
X-11.167 Y4.392
X-11.402 Y3.741
X-11.599 Y3.078
X-11.757 Y2.405
X-11.876 Y1.723
X-11.955 Y1.036
X-11.995 Y0.346
Y-0.346
X-11.955 Y-1.036
X-11.876 Y-1.723
X-11.757 Y-2.405
X-11.599 Y-3.078
X-11.402 Y-3.741
X-11.167 Y-4.392
X-10.896 Y-5.028
X-10.588 Y-5.647
X-10.245 Y-6.248
X-9.868 Y-6.828
X-9.458 Y-7.385
X-9.017 Y-7.918
X-8.546 Y-8.424
X-8.047 Y-8.902
X-7.52 Y-9.351
X-6.969 Y-9.769
X-6.395 Y-10.154
X-5.799 Y-10.506
X-5.184 Y-10.822
X-4.552 Y-11.103
X-3.905 Y-11.347
X-3.245 Y-11.553
X-2.574 Y-11.721
X-1.894 Y-11.849
X-1.208 Y-11.939
X-0.519 Y-11.989
X0.173 Y-11.999
X0.864 Y-11.969
X1.552 Y-11.899
X2.235 Y-11.79
X2.911 Y-11.642
X3.576 Y-11.455
X4.23 Y-11.23
X4.87 Y-10.967
X5.494 Y-10.668
X6.1 Y-10.334
X6.685 Y-9.966
X7.248 Y-9.564
X7.787 Y-9.13
X8.3 Y-8.667
X8.785 Y-8.174
X9.242 Y-7.654
X9.667 Y-7.109
X10.061 Y-6.541
X10.421 Y-5.95
X10.747 Y-5.34
X11.036 Y-4.712
X11.289 Y-4.068
X11.505 Y-3.411
X11.682 Y-2.742
X11.821 Y-2.065
X11.92 Y-1.38
X11.98 Y-0.691
X12 Y0
Z-0.05 F100
X11.98 Y0.691 F300
X11.92 Y1.38
X11.821 Y2.065
X11.682 Y2.742
X11.505 Y3.411
X11.289 Y4.068
X11.036 Y4.712
X10.747 Y5.34
X10.421 Y5.95
X10.061 Y6.541
X9.667 Y7.109
X9.242 Y7.654
X8.785 Y8.174
X8.3 Y8.667
X7.787 Y9.13
X7.248 Y9.564
X6.685 Y9.966
X6.1 Y10.334
X5.494 Y10.668
X4.87 Y10.967
X4.23 Y11.23
X3.576 Y11.455
X2.911 Y11.642
X2.235 Y11.79
X1.552 Y11.899
X0.864 Y11.969
X0.173 Y11.999
X-0.519 Y11.989
X-1.208 Y11.939
X-1.894 Y11.849
X-2.574 Y11.721
X-3.245 Y11.553
X-3.905 Y11.347
X-4.552 Y11.103
X-5.184 Y10.822
X-5.799 Y10.506
X-6.395 Y10.154
X-6.969 Y9.769
X-7.52 Y9.351
X-8.047 Y8.902
X-8.546 Y8.424
X-9.017 Y7.918
X-9.458 Y7.385
X-9.868 Y6.828
X-10.245 Y6.248
X-10.588 Y5.647
X-10.896 Y5.028
X-11.167 Y4.392
X-11.402 Y3.741
X-11.599 Y3.078
X-11.757 Y2.405
X-11.876 Y1.723
X-11.955 Y1.036
X-11.995 Y0.346
Y-0.346
X-11.955 Y-1.036
X-11.876 Y-1.723
X-11.757 Y-2.405
X-11.599 Y-3.078
X-11.402 Y-3.741
X-11.167 Y-4.392
X-10.896 Y-5.028
X-10.588 Y-5.647
X-10.245 Y-6.248
X-9.868 Y-6.828
X-9.458 Y-7.385
X-9.017 Y-7.918
X-8.546 Y-8.424
X-8.047 Y-8.902
X-7.52 Y-9.351
X-6.969 Y-9.769
X-6.395 Y-10.154
X-5.799 Y-10.506
X-5.184 Y-10.822
X-4.552 Y-11.103
X-3.905 Y-11.347
X-3.245 Y-11.553
X-2.574 Y-11.721
X-1.894 Y-11.849
X-1.208 Y-11.939
X-0.519 Y-11.989
X0.173 Y-11.999
X0.864 Y-11.969
X1.552 Y-11.899
X2.235 Y-11.79
X2.911 Y-11.642
X3.576 Y-11.455
X4.23 Y-11.23
X4.87 Y-10.967
X5.494 Y-10.668
X6.1 Y-10.334
X6.685 Y-9.966
X7.248 Y-9.564
X7.787 Y-9.13
X8.3 Y-8.667
X8.785 Y-8.174
X9.242 Y-7.654
X9.667 Y-7.109
X10.061 Y-6.541
X10.421 Y-5.95
X10.747 Y-5.34
X11.036 Y-4.712
X11.289 Y-4.068
X11.505 Y-3.411
X11.682 Y-2.742
X11.821 Y-2.065
X11.92 Y-1.38
X11.98 Y-0.691
X12 Y0
Z-0.2 F100
X11.98 Y0.691 F300
X11.92 Y1.38
X11.821 Y2.065
X11.682 Y2.742
X11.505 Y3.411
X11.289 Y4.068
X11.036 Y4.712
X10.747 Y5.34
X10.421 Y5.95
X10.061 Y6.541
X9.667 Y7.109
X9.242 Y7.654
X8.785 Y8.174
X8.3 Y8.667
X7.787 Y9.13
X7.248 Y9.564
X6.685 Y9.966
X6.1 Y10.334
X5.494 Y10.668
X4.87 Y10.967
X4.23 Y11.23
X3.576 Y11.455
X2.911 Y11.642
X2.235 Y11.79
X1.552 Y11.899
X0.864 Y11.969
X0.173 Y11.999
X-0.519 Y11.989
X-1.208 Y11.939
X-1.894 Y11.849
X-2.574 Y11.721
X-3.245 Y11.553
X-3.905 Y11.347
X-4.552 Y11.103
X-5.184 Y10.822
X-5.799 Y10.506
X-6.395 Y10.154
X-6.969 Y9.769
X-7.52 Y9.351
X-8.047 Y8.902
X-8.546 Y8.424
X-9.017 Y7.918
X-9.458 Y7.385
X-9.868 Y6.828
X-10.245 Y6.248
X-10.588 Y5.647
X-10.896 Y5.028
X-11.167 Y4.392
X-11.402 Y3.741
X-11.599 Y3.078
X-11.757 Y2.405
X-11.876 Y1.723
X-11.955 Y1.036
X-11.995 Y0.346
Y-0.346
X-11.955 Y-1.036
X-11.876 Y-1.723
X-11.757 Y-2.405
X-11.599 Y-3.078
X-11.402 Y-3.741
X-11.167 Y-4.392
X-10.896 Y-5.028
X-10.588 Y-5.647
X-10.245 Y-6.248
X-9.868 Y-6.828
X-9.458 Y-7.385
X-9.017 Y-7.918
X-8.546 Y-8.424
X-8.047 Y-8.902
X-7.52 Y-9.351
X-6.969 Y-9.769
X-6.395 Y-10.154
X-5.799 Y-10.506
X-5.184 Y-10.822
X-4.552 Y-11.103
X-3.905 Y-11.347
X-3.245 Y-11.553
X-2.574 Y-11.721
X-1.894 Y-11.849
X-1.208 Y-11.939
X-0.519 Y-11.989
X0.173 Y-11.999
X0.864 Y-11.969
X1.552 Y-11.899
X2.235 Y-11.79
X2.911 Y-11.642
X3.576 Y-11.455
X4.23 Y-11.23
X4.87 Y-10.967
X5.494 Y-10.668
X6.1 Y-10.334
X6.685 Y-9.966
X7.248 Y-9.564
X7.787 Y-9.13
X8.3 Y-8.667
X8.785 Y-8.174
X9.242 Y-7.654
X9.667 Y-7.109
X10.061 Y-6.541
X10.421 Y-5.95
X10.747 Y-5.34
X11.036 Y-4.712
X11.289 Y-4.068
X11.505 Y-3.411
X11.682 Y-2.742
X11.821 Y-2.065
X11.92 Y-1.38
X11.98 Y-0.691
X12 Y0
Z-0.35 F100
X11.98 Y0.691 F300
X11.92 Y1.38
X11.821 Y2.065
X11.682 Y2.742
X11.505 Y3.411
X11.289 Y4.068
X11.036 Y4.712
X10.747 Y5.34
X10.421 Y5.95
X10.061 Y6.541
X9.667 Y7.109
X9.242 Y7.654
X8.785 Y8.174
X8.3 Y8.667
X7.787 Y9.13
X7.248 Y9.564
X6.685 Y9.966
X6.1 Y10.334
X5.494 Y10.668
X4.87 Y10.967
X4.23 Y11.23
X3.576 Y11.455
X2.911 Y11.642
X2.235 Y11.79
X1.552 Y11.899
X0.864 Y11.969
X0.173 Y11.999
X-0.519 Y11.989
X-1.208 Y11.939
X-1.894 Y11.849
X-2.574 Y11.721
X-3.245 Y11.553
X-3.905 Y11.347
X-4.552 Y11.103
X-5.184 Y10.822
X-5.799 Y10.506
X-6.395 Y10.154
X-6.969 Y9.769
X-7.52 Y9.351
X-8.047 Y8.902
X-8.546 Y8.424
X-9.017 Y7.918
X-9.458 Y7.385
X-9.868 Y6.828
X-10.245 Y6.248
X-10.588 Y5.647
X-10.896 Y5.028
X-11.167 Y4.392
X-11.402 Y3.741
X-11.599 Y3.078
X-11.757 Y2.405
X-11.876 Y1.723
X-11.955 Y1.036
X-11.995 Y0.346
Y-0.346
X-11.955 Y-1.036
X-11.876 Y-1.723
X-11.757 Y-2.405
X-11.599 Y-3.078
X-11.402 Y-3.741
X-11.167 Y-4.392
X-10.896 Y-5.028
X-10.588 Y-5.647
X-10.245 Y-6.248
X-9.868 Y-6.828
X-9.458 Y-7.385
X-9.017 Y-7.918
X-8.546 Y-8.424
X-8.047 Y-8.902
X-7.52 Y-9.351
X-6.969 Y-9.769
X-6.395 Y-10.154
X-5.799 Y-10.506
X-5.184 Y-10.822
X-4.552 Y-11.103
X-3.905 Y-11.347
X-3.245 Y-11.553
X-2.574 Y-11.721
X-1.894 Y-11.849
X-1.208 Y-11.939
X-0.519 Y-11.989
X0.173 Y-11.999
X0.864 Y-11.969
X1.552 Y-11.899
X2.235 Y-11.79
X2.911 Y-11.642
X3.576 Y-11.455
X4.23 Y-11.23
X4.87 Y-10.967
X5.494 Y-10.668
X6.1 Y-10.334
X6.685 Y-9.966
X7.248 Y-9.564
X7.787 Y-9.13
X8.3 Y-8.667
X8.785 Y-8.174
X9.242 Y-7.654
X9.667 Y-7.109
X10.061 Y-6.541
X10.421 Y-5.95
X10.747 Y-5.34
X11.036 Y-4.712
X11.289 Y-4.068
X11.505 Y-3.411
X11.682 Y-2.742
X11.821 Y-2.065
X11.92 Y-1.38
X11.98 Y-0.691
X12 Y0
Z-0.5 F100
X11.98 Y0.691 F300
X11.92 Y1.38
X11.821 Y2.065
X11.682 Y2.742
X11.505 Y3.411
X11.289 Y4.068
X11.036 Y4.712
X10.747 Y5.34
X10.421 Y5.95
X10.061 Y6.541
X9.667 Y7.109
X9.242 Y7.654
X8.785 Y8.174
X8.3 Y8.667
X7.787 Y9.13
X7.248 Y9.564
X6.685 Y9.966
X6.1 Y10.334
X5.494 Y10.668
X4.87 Y10.967
X4.23 Y11.23
X3.576 Y11.455
X2.911 Y11.642
X2.235 Y11.79
X1.552 Y11.899
X0.864 Y11.969
X0.173 Y11.999
X-0.519 Y11.989
X-1.208 Y11.939
X-1.894 Y11.849
X-2.574 Y11.721
X-3.245 Y11.553
X-3.905 Y11.347
X-4.552 Y11.103
X-5.184 Y10.822
X-5.799 Y10.506
X-6.395 Y10.154
X-6.969 Y9.769
X-7.52 Y9.351
X-8.047 Y8.902
X-8.546 Y8.424
X-9.017 Y7.918
X-9.458 Y7.385
X-9.868 Y6.828
X-10.245 Y6.248
X-10.588 Y5.647
X-10.896 Y5.028
X-11.167 Y4.392
X-11.402 Y3.741
X-11.599 Y3.078
X-11.757 Y2.405
X-11.876 Y1.723
X-11.955 Y1.036
X-11.995 Y0.346
Y-0.346
X-11.955 Y-1.036
X-11.876 Y-1.723
X-11.757 Y-2.405
X-11.599 Y-3.078
X-11.402 Y-3.741
X-11.167 Y-4.392
X-10.896 Y-5.028
X-10.588 Y-5.647
X-10.245 Y-6.248
X-9.868 Y-6.828
X-9.458 Y-7.385
X-9.017 Y-7.918
X-8.546 Y-8.424
X-8.047 Y-8.902
X-7.52 Y-9.351
X-6.969 Y-9.769
X-6.395 Y-10.154
X-5.799 Y-10.506
X-5.184 Y-10.822
X-4.552 Y-11.103
X-3.905 Y-11.347
X-3.245 Y-11.553
X-2.574 Y-11.721
X-1.894 Y-11.849
X-1.208 Y-11.939
X-0.519 Y-11.989
X0.173 Y-11.999
X0.864 Y-11.969
X1.552 Y-11.899
X2.235 Y-11.79
X2.911 Y-11.642
X3.576 Y-11.455
X4.23 Y-11.23
X4.87 Y-10.967
X5.494 Y-10.668
X6.1 Y-10.334
X6.685 Y-9.966
X7.248 Y-9.564
X7.787 Y-9.13
X8.3 Y-8.667
X8.785 Y-8.174
X9.242 Y-7.654
X9.667 Y-7.109
X10.061 Y-6.541
X10.421 Y-5.95
X10.747 Y-5.34
X11.036 Y-4.712
X11.289 Y-4.068
X11.505 Y-3.411
X11.682 Y-2.742
X11.821 Y-2.065
X11.92 Y-1.38
X11.98 Y-0.691
X12 Y0
Z-0.65 F100
X11.98 Y0.691 F300
X11.92 Y1.38
X11.821 Y2.065
X11.682 Y2.742
X11.505 Y3.411
X11.289 Y4.068
X11.036 Y4.712
X10.747 Y5.34
X10.421 Y5.95
X10.061 Y6.541
X9.667 Y7.109
X9.242 Y7.654
X8.785 Y8.174
X8.3 Y8.667
X7.787 Y9.13
X7.248 Y9.564
X6.685 Y9.966
X6.1 Y10.334
X5.494 Y10.668
X4.87 Y10.967
X4.23 Y11.23
X3.576 Y11.455
X2.911 Y11.642
X2.235 Y11.79
X1.552 Y11.899
X0.864 Y11.969
X0.173 Y11.999
X-0.519 Y11.989
X-1.208 Y11.939
X-1.894 Y11.849
X-2.574 Y11.721
X-3.245 Y11.553
X-3.905 Y11.347
X-4.552 Y11.103
X-5.184 Y10.822
X-5.799 Y10.506
X-6.395 Y10.154
X-6.969 Y9.769
X-7.52 Y9.351
X-8.047 Y8.902
X-8.546 Y8.424
X-9.017 Y7.918
X-9.458 Y7.385
X-9.868 Y6.828
X-10.245 Y6.248
X-10.588 Y5.647
X-10.896 Y5.028
X-11.167 Y4.392
X-11.402 Y3.741
X-11.599 Y3.078
X-11.757 Y2.405
X-11.876 Y1.723
X-11.955 Y1.036
X-11.995 Y0.346
Y-0.346
X-11.955 Y-1.036
X-11.876 Y-1.723
X-11.757 Y-2.405
X-11.599 Y-3.078
X-11.402 Y-3.741
X-11.167 Y-4.392
X-10.896 Y-5.028
X-10.588 Y-5.647
X-10.245 Y-6.248
X-9.868 Y-6.828
X-9.458 Y-7.385
X-9.017 Y-7.918
X-8.546 Y-8.424
X-8.047 Y-8.902
X-7.52 Y-9.351
X-6.969 Y-9.769
X-6.395 Y-10.154
X-5.799 Y-10.506
X-5.184 Y-10.822
X-4.552 Y-11.103
X-3.905 Y-11.347
X-3.245 Y-11.553
X-2.574 Y-11.721
X-1.894 Y-11.849
X-1.208 Y-11.939
X-0.519 Y-11.989
X0.173 Y-11.999
X0.864 Y-11.969
X1.552 Y-11.899
X2.235 Y-11.79
X2.911 Y-11.642
X3.576 Y-11.455
X4.23 Y-11.23
X4.87 Y-10.967
X5.494 Y-10.668
X6.1 Y-10.334
X6.685 Y-9.966
X7.248 Y-9.564
X7.787 Y-9.13
X8.3 Y-8.667
X8.785 Y-8.174
X9.242 Y-7.654
X9.667 Y-7.109
X10.061 Y-6.541
X10.421 Y-5.95
X10.747 Y-5.34
X11.036 Y-4.712
X11.289 Y-4.068
X11.505 Y-3.411
X11.682 Y-2.742
X11.821 Y-2.065
X11.92 Y-1.38
X11.98 Y-0.691
X12 Y0
Z-0.8 F100
X11.98 Y0.691 F300
X11.92 Y1.38
X11.821 Y2.065
X11.682 Y2.742
X11.505 Y3.411
X11.289 Y4.068
X11.036 Y4.712
X10.747 Y5.34
X10.421 Y5.95
X10.061 Y6.541
X9.667 Y7.109
X9.242 Y7.654
X8.785 Y8.174
X8.3 Y8.667
X7.787 Y9.13
X7.248 Y9.564
X6.685 Y9.966
X6.1 Y10.334
X5.494 Y10.668
X4.87 Y10.967
X4.23 Y11.23
X3.576 Y11.455
X2.911 Y11.642
X2.235 Y11.79
X1.552 Y11.899
X0.864 Y11.969
X0.173 Y11.999
X-0.519 Y11.989
X-1.208 Y11.939
X-1.894 Y11.849
X-2.574 Y11.721
X-3.245 Y11.553
X-3.905 Y11.347
X-4.552 Y11.103
X-5.184 Y10.822
X-5.799 Y10.506
X-6.395 Y10.154
X-6.969 Y9.769
X-7.52 Y9.351
X-8.047 Y8.902
X-8.546 Y8.424
X-9.017 Y7.918
X-9.458 Y7.385
X-9.868 Y6.828
X-10.245 Y6.248
X-10.588 Y5.647
X-10.896 Y5.028
X-11.167 Y4.392
X-11.402 Y3.741
X-11.599 Y3.078
X-11.757 Y2.405
X-11.876 Y1.723
X-11.955 Y1.036
X-11.995 Y0.346
Y-0.346
X-11.955 Y-1.036
X-11.876 Y-1.723
X-11.757 Y-2.405
X-11.599 Y-3.078
X-11.402 Y-3.741
X-11.167 Y-4.392
X-10.896 Y-5.028
X-10.588 Y-5.647
X-10.245 Y-6.248
X-9.868 Y-6.828
X-9.458 Y-7.385
X-9.017 Y-7.918
X-8.546 Y-8.424
X-8.047 Y-8.902
X-7.52 Y-9.351
X-6.969 Y-9.769
X-6.395 Y-10.154
X-5.799 Y-10.506
X-5.184 Y-10.822
X-4.552 Y-11.103
X-3.905 Y-11.347
X-3.245 Y-11.553
X-2.574 Y-11.721
X-1.894 Y-11.849
X-1.208 Y-11.939
X-0.519 Y-11.989
X0.173 Y-11.999
X0.864 Y-11.969
X1.552 Y-11.899
X2.235 Y-11.79
X2.911 Y-11.642
X3.576 Y-11.455
X4.23 Y-11.23
X4.87 Y-10.967
X5.494 Y-10.668
X6.1 Y-10.334
X6.685 Y-9.966
X7.248 Y-9.564
X7.787 Y-9.13
X8.3 Y-8.667
X8.785 Y-8.174
X9.242 Y-7.654
X9.667 Y-7.109
X10.061 Y-6.541
X10.421 Y-5.95
X10.747 Y-5.34
X11.036 Y-4.712
X11.289 Y-4.068
X11.505 Y-3.411
X11.682 Y-2.742
X11.821 Y-2.065
X11.92 Y-1.38
X11.98 Y-0.691
X12 Y0
Z-0.95 F100
X11.98 Y0.691 F300
X11.92 Y1.38
X11.821 Y2.065
X11.682 Y2.742
X11.505 Y3.411
X11.289 Y4.068
X11.036 Y4.712
X10.747 Y5.34
X10.421 Y5.95
X10.061 Y6.541
X9.667 Y7.109
X9.242 Y7.654
X8.785 Y8.174
X8.3 Y8.667
X7.787 Y9.13
X7.248 Y9.564
X6.685 Y9.966
X6.1 Y10.334
X5.494 Y10.668
X4.87 Y10.967
X4.23 Y11.23
X3.576 Y11.455
X2.911 Y11.642
X2.235 Y11.79
X1.552 Y11.899
X0.864 Y11.969
X0.173 Y11.999
X-0.519 Y11.989
X-1.208 Y11.939
X-1.894 Y11.849
X-2.574 Y11.721
X-3.245 Y11.553
X-3.905 Y11.347
X-4.552 Y11.103
X-5.184 Y10.822
X-5.799 Y10.506
X-6.395 Y10.154
X-6.969 Y9.769
X-7.52 Y9.351
X-8.047 Y8.902
X-8.546 Y8.424
X-9.017 Y7.918
X-9.458 Y7.385
X-9.868 Y6.828
X-10.245 Y6.248
X-10.588 Y5.647
X-10.896 Y5.028
X-11.167 Y4.392
X-11.402 Y3.741
X-11.599 Y3.078
X-11.757 Y2.405
X-11.876 Y1.723
X-11.955 Y1.036
X-11.995 Y0.346
Y-0.346
X-11.955 Y-1.036
X-11.876 Y-1.723
X-11.757 Y-2.405
X-11.599 Y-3.078
X-11.402 Y-3.741
X-11.167 Y-4.392
X-10.896 Y-5.028
X-10.588 Y-5.647
X-10.245 Y-6.248
X-9.868 Y-6.828
X-9.458 Y-7.385
X-9.017 Y-7.918
X-8.546 Y-8.424
X-8.047 Y-8.902
X-7.52 Y-9.351
X-6.969 Y-9.769
X-6.395 Y-10.154
X-5.799 Y-10.506
X-5.184 Y-10.822
X-4.552 Y-11.103
X-3.905 Y-11.347
X-3.245 Y-11.553
X-2.574 Y-11.721
X-1.894 Y-11.849
X-1.208 Y-11.939
X-0.519 Y-11.989
X0.173 Y-11.999
X0.864 Y-11.969
X1.552 Y-11.899
X2.235 Y-11.79
X2.911 Y-11.642
X3.576 Y-11.455
X4.23 Y-11.23
X4.87 Y-10.967
X5.494 Y-10.668
X6.1 Y-10.334
X6.685 Y-9.966
X7.248 Y-9.564
X7.787 Y-9.13
X8.3 Y-8.667
X8.785 Y-8.174
X9.242 Y-7.654
X9.667 Y-7.109
X10.061 Y-6.541
X10.421 Y-5.95
X10.747 Y-5.34
X11.036 Y-4.712
X11.289 Y-4.068
X11.505 Y-3.411
X11.682 Y-2.742
X11.821 Y-2.065
X11.92 Y-1.38
X11.98 Y-0.691
X12 Y0
Z-1.1 F100
X11.98 Y0.691 F300
X11.92 Y1.38
X11.821 Y2.065
X11.682 Y2.742
X11.505 Y3.411
X11.289 Y4.068
X11.036 Y4.712
X10.747 Y5.34
X10.421 Y5.95
X10.061 Y6.541
X9.667 Y7.109
X9.242 Y7.654
X8.785 Y8.174
X8.3 Y8.667
X7.787 Y9.13
X7.248 Y9.564
X6.685 Y9.966
X6.1 Y10.334
X5.494 Y10.668
X4.87 Y10.967
X4.23 Y11.23
X3.576 Y11.455
X2.911 Y11.642
X2.235 Y11.79
X1.552 Y11.899
X0.864 Y11.969
X0.173 Y11.999
X-0.519 Y11.989
X-1.208 Y11.939
X-1.894 Y11.849
X-2.574 Y11.721
X-3.245 Y11.553
X-3.905 Y11.347
X-4.552 Y11.103
X-5.184 Y10.822
X-5.799 Y10.506
X-6.395 Y10.154
X-6.969 Y9.769
X-7.52 Y9.351
X-8.047 Y8.902
X-8.546 Y8.424
X-9.017 Y7.918
X-9.458 Y7.385
X-9.868 Y6.828
X-10.245 Y6.248
X-10.588 Y5.647
X-10.896 Y5.028
X-11.167 Y4.392
X-11.402 Y3.741
X-11.599 Y3.078
X-11.757 Y2.405
X-11.876 Y1.723
X-11.955 Y1.036
X-11.995 Y0.346
Y-0.346
X-11.955 Y-1.036
X-11.876 Y-1.723
X-11.757 Y-2.405
X-11.599 Y-3.078
X-11.402 Y-3.741
X-11.167 Y-4.392
X-10.896 Y-5.028
X-10.588 Y-5.647
X-10.245 Y-6.248
X-9.868 Y-6.828
X-9.458 Y-7.385
X-9.017 Y-7.918
X-8.546 Y-8.424
X-8.047 Y-8.902
X-7.52 Y-9.351
X-6.969 Y-9.769
X-6.395 Y-10.154
X-5.799 Y-10.506
X-5.184 Y-10.822
X-4.552 Y-11.103
X-3.905 Y-11.347
X-3.245 Y-11.553
X-2.574 Y-11.721
X-1.894 Y-11.849
X-1.208 Y-11.939
X-0.519 Y-11.989
X0.173 Y-11.999
X0.864 Y-11.969
X1.552 Y-11.899
X2.235 Y-11.79
X2.911 Y-11.642
X3.576 Y-11.455
X4.23 Y-11.23
X4.87 Y-10.967
X5.494 Y-10.668
X6.1 Y-10.334
X6.685 Y-9.966
X7.248 Y-9.564
X7.787 Y-9.13
X8.3 Y-8.667
X8.785 Y-8.174
X9.242 Y-7.654
X9.667 Y-7.109
X10.061 Y-6.541
X10.421 Y-5.95
X10.747 Y-5.34
X11.036 Y-4.712
X11.289 Y-4.068
X11.505 Y-3.411
X11.682 Y-2.742
X11.821 Y-2.065
X11.92 Y-1.38
X11.98 Y-0.691
X12 Y0
Z-1.25 F100
X11.98 Y0.691 F300
X11.92 Y1.38
X11.821 Y2.065
X11.682 Y2.742
X11.505 Y3.411
X11.289 Y4.068
X11.036 Y4.712
X10.747 Y5.34
X10.421 Y5.95
X10.061 Y6.541
X9.667 Y7.109
X9.242 Y7.654
X8.785 Y8.174
X8.3 Y8.667
X7.787 Y9.13
X7.248 Y9.564
X6.685 Y9.966
X6.1 Y10.334
X5.494 Y10.668
X4.87 Y10.967
X4.23 Y11.23
X3.576 Y11.455
X2.911 Y11.642
X2.235 Y11.79
X1.552 Y11.899
X0.864 Y11.969
X0.173 Y11.999
X-0.519 Y11.989
X-1.208 Y11.939
X-1.894 Y11.849
X-2.574 Y11.721
X-3.245 Y11.553
X-3.905 Y11.347
X-4.552 Y11.103
X-5.184 Y10.822
X-5.799 Y10.506
X-6.395 Y10.154
X-6.969 Y9.769
X-7.52 Y9.351
X-8.047 Y8.902
X-8.546 Y8.424
X-9.017 Y7.918
X-9.458 Y7.385
X-9.868 Y6.828
X-10.245 Y6.248
X-10.588 Y5.647
X-10.896 Y5.028
X-11.167 Y4.392
X-11.402 Y3.741
X-11.599 Y3.078
X-11.757 Y2.405
X-11.876 Y1.723
X-11.955 Y1.036
X-11.995 Y0.346
Y-0.346
X-11.955 Y-1.036
X-11.876 Y-1.723
X-11.757 Y-2.405
X-11.599 Y-3.078
X-11.402 Y-3.741
X-11.167 Y-4.392
X-10.896 Y-5.028
X-10.588 Y-5.647
X-10.245 Y-6.248
X-9.868 Y-6.828
X-9.458 Y-7.385
X-9.017 Y-7.918
X-8.546 Y-8.424
X-8.047 Y-8.902
X-7.52 Y-9.351
X-6.969 Y-9.769
X-6.395 Y-10.154
X-5.799 Y-10.506
X-5.184 Y-10.822
X-4.552 Y-11.103
X-3.905 Y-11.347
X-3.245 Y-11.553
X-2.574 Y-11.721
X-1.894 Y-11.849
X-1.208 Y-11.939
X-0.519 Y-11.989
X0.173 Y-11.999
X0.864 Y-11.969
X1.552 Y-11.899
X2.235 Y-11.79
X2.911 Y-11.642
X3.576 Y-11.455
X4.23 Y-11.23
X4.87 Y-10.967
X5.494 Y-10.668
X6.1 Y-10.334
X6.685 Y-9.966
X7.248 Y-9.564
X7.787 Y-9.13
X8.3 Y-8.667
X8.785 Y-8.174
X9.242 Y-7.654
X9.667 Y-7.109
X10.061 Y-6.541
X10.421 Y-5.95
X10.747 Y-5.34
X11.036 Y-4.712
X11.289 Y-4.068
X11.505 Y-3.411
X11.682 Y-2.742
X11.821 Y-2.065
X11.92 Y-1.38
X11.98 Y-0.691
X12 Y0
Z-1.4 F100
X11.98 Y0.691 F300
X11.92 Y1.38
X11.821 Y2.065
X11.682 Y2.742
X11.505 Y3.411
X11.289 Y4.068
X11.036 Y4.712
X10.747 Y5.34
X10.421 Y5.95
X10.061 Y6.541
X9.667 Y7.109
X9.242 Y7.654
X8.785 Y8.174
X8.3 Y8.667
X7.787 Y9.13
X7.248 Y9.564
X6.685 Y9.966
X6.1 Y10.334
X5.494 Y10.668
X4.87 Y10.967
X4.23 Y11.23
X3.576 Y11.455
X2.911 Y11.642
X2.235 Y11.79
X1.552 Y11.899
X0.864 Y11.969
X0.173 Y11.999
X-0.519 Y11.989
X-1.208 Y11.939
X-1.894 Y11.849
X-2.574 Y11.721
X-3.245 Y11.553
X-3.905 Y11.347
X-4.552 Y11.103
X-5.184 Y10.822
X-5.799 Y10.506
X-6.395 Y10.154
X-6.969 Y9.769
X-7.52 Y9.351
X-8.047 Y8.902
X-8.546 Y8.424
X-9.017 Y7.918
X-9.458 Y7.385
X-9.868 Y6.828
X-10.245 Y6.248
X-10.588 Y5.647
X-10.896 Y5.028
X-11.167 Y4.392
X-11.402 Y3.741
X-11.599 Y3.078
X-11.757 Y2.405
X-11.876 Y1.723
X-11.955 Y1.036
X-11.995 Y0.346
Y-0.346
X-11.955 Y-1.036
X-11.876 Y-1.723
X-11.757 Y-2.405
X-11.599 Y-3.078
X-11.402 Y-3.741
X-11.167 Y-4.392
X-10.896 Y-5.028
X-10.588 Y-5.647
X-10.245 Y-6.248
X-9.868 Y-6.828
X-9.458 Y-7.385
X-9.017 Y-7.918
X-8.546 Y-8.424
X-8.047 Y-8.902
X-7.52 Y-9.351
X-6.969 Y-9.769
X-6.395 Y-10.154
X-5.799 Y-10.506
X-5.184 Y-10.822
X-4.552 Y-11.103
X-3.905 Y-11.347
X-3.245 Y-11.553
X-2.574 Y-11.721
X-1.894 Y-11.849
X-1.208 Y-11.939
X-0.519 Y-11.989
X0.173 Y-11.999
X0.864 Y-11.969
X1.552 Y-11.899
X2.235 Y-11.79
X2.911 Y-11.642
X3.576 Y-11.455
X4.23 Y-11.23
X4.87 Y-10.967
X5.494 Y-10.668
X6.1 Y-10.334
X6.685 Y-9.966
X7.248 Y-9.564
X7.787 Y-9.13
X8.3 Y-8.667
X8.785 Y-8.174
X9.242 Y-7.654
X9.667 Y-7.109
X10.061 Y-6.541
X10.421 Y-5.95
X10.747 Y-5.34
X11.036 Y-4.712
X11.289 Y-4.068
X11.505 Y-3.411
X11.682 Y-2.742
X11.821 Y-2.065
X11.92 Y-1.38
X11.98 Y-0.691
X12 Y0
Z-1.55 F100
X11.98 Y0.691 F300
X11.92 Y1.38
X11.821 Y2.065
X11.682 Y2.742
X11.505 Y3.411
X11.289 Y4.068
X11.036 Y4.712
X10.747 Y5.34
X10.421 Y5.95
X10.061 Y6.541
X9.667 Y7.109
X9.242 Y7.654
X8.785 Y8.174
X8.3 Y8.667
X7.787 Y9.13
X7.248 Y9.564
X6.685 Y9.966
X6.1 Y10.334
X5.494 Y10.668
X4.87 Y10.967
X4.23 Y11.23
X3.576 Y11.455
X2.911 Y11.642
X2.235 Y11.79
X1.552 Y11.899
X0.864 Y11.969
X0.173 Y11.999
X-0.519 Y11.989
X-1.208 Y11.939
X-1.894 Y11.849
X-2.574 Y11.721
X-3.245 Y11.553
X-3.905 Y11.347
X-4.552 Y11.103
X-5.184 Y10.822
X-5.799 Y10.506
X-6.395 Y10.154
X-6.969 Y9.769
X-7.52 Y9.351
X-8.047 Y8.902
X-8.546 Y8.424
X-9.017 Y7.918
X-9.458 Y7.385
X-9.868 Y6.828
X-10.245 Y6.248
X-10.588 Y5.647
X-10.896 Y5.028
X-11.167 Y4.392
X-11.402 Y3.741
X-11.599 Y3.078
X-11.757 Y2.405
X-11.876 Y1.723
X-11.955 Y1.036
X-11.995 Y0.346
Y-0.346
X-11.955 Y-1.036
X-11.876 Y-1.723
X-11.757 Y-2.405
X-11.599 Y-3.078
X-11.402 Y-3.741
X-11.167 Y-4.392
X-10.896 Y-5.028
X-10.588 Y-5.647
X-10.245 Y-6.248
X-9.868 Y-6.828
X-9.458 Y-7.385
X-9.017 Y-7.918
X-8.546 Y-8.424
X-8.047 Y-8.902
X-7.52 Y-9.351
X-6.969 Y-9.769
X-6.395 Y-10.154
X-5.799 Y-10.506
X-5.184 Y-10.822
X-4.552 Y-11.103
X-3.905 Y-11.347
X-3.245 Y-11.553
X-2.574 Y-11.721
X-1.894 Y-11.849
X-1.208 Y-11.939
X-0.519 Y-11.989
X0.173 Y-11.999
X0.864 Y-11.969
X1.552 Y-11.899
X2.235 Y-11.79
X2.911 Y-11.642
X3.576 Y-11.455
X4.23 Y-11.23
X4.87 Y-10.967
X5.494 Y-10.668
X6.1 Y-10.334
X6.685 Y-9.966
X7.248 Y-9.564
X7.787 Y-9.13
X8.3 Y-8.667
X8.785 Y-8.174
X9.242 Y-7.654
X9.667 Y-7.109
X10.061 Y-6.541
X10.421 Y-5.95
X10.747 Y-5.34
X11.036 Y-4.712
X11.289 Y-4.068
X11.505 Y-3.411
X11.682 Y-2.742
X11.821 Y-2.065
X11.92 Y-1.38
X11.98 Y-0.691
X12 Y0
Z-1.7 F100
X11.98 Y0.691 F300
X11.92 Y1.38
X11.821 Y2.065
X11.682 Y2.742
X11.505 Y3.411
X11.289 Y4.068
X11.036 Y4.712
X10.747 Y5.34
X10.421 Y5.95
X10.061 Y6.541
X9.667 Y7.109
X9.242 Y7.654
X8.785 Y8.174
X8.3 Y8.667
X7.787 Y9.13
X7.248 Y9.564
X6.685 Y9.966
X6.1 Y10.334
X5.494 Y10.668
X4.87 Y10.967
X4.23 Y11.23
X3.576 Y11.455
X2.911 Y11.642
X2.235 Y11.79
X1.552 Y11.899
X0.864 Y11.969
X0.173 Y11.999
X-0.519 Y11.989
X-1.208 Y11.939
X-1.894 Y11.849
X-2.574 Y11.721
X-3.245 Y11.553
X-3.905 Y11.347
X-4.552 Y11.103
X-5.184 Y10.822
X-5.799 Y10.506
X-6.395 Y10.154
X-6.969 Y9.769
X-7.52 Y9.351
X-8.047 Y8.902
X-8.546 Y8.424
X-9.017 Y7.918
X-9.458 Y7.385
X-9.868 Y6.828
X-10.245 Y6.248
X-10.588 Y5.647
X-10.896 Y5.028
X-11.167 Y4.392
X-11.402 Y3.741
X-11.599 Y3.078
X-11.757 Y2.405
X-11.876 Y1.723
X-11.955 Y1.036
X-11.995 Y0.346
Y-0.346
X-11.955 Y-1.036
X-11.876 Y-1.723
X-11.757 Y-2.405
X-11.599 Y-3.078
X-11.402 Y-3.741
X-11.167 Y-4.392
X-10.896 Y-5.028
X-10.588 Y-5.647
X-10.245 Y-6.248
X-9.868 Y-6.828
X-9.458 Y-7.385
X-9.017 Y-7.918
X-8.546 Y-8.424
X-8.047 Y-8.902
X-7.52 Y-9.351
X-6.969 Y-9.769
X-6.395 Y-10.154
X-5.799 Y-10.506
X-5.184 Y-10.822
X-4.552 Y-11.103
X-3.905 Y-11.347
X-3.245 Y-11.553
X-2.574 Y-11.721
X-1.894 Y-11.849
X-1.208 Y-11.939
X-0.519 Y-11.989
X0.173 Y-11.999
X0.864 Y-11.969
X1.552 Y-11.899
X2.235 Y-11.79
X2.911 Y-11.642
X3.576 Y-11.455
X4.23 Y-11.23
X4.87 Y-10.967
X5.494 Y-10.668
X6.1 Y-10.334
X6.685 Y-9.966
X7.248 Y-9.564
X7.787 Y-9.13
X8.3 Y-8.667
X8.785 Y-8.174
X9.242 Y-7.654
X9.667 Y-7.109
X10.061 Y-6.541
X10.421 Y-5.95
X10.747 Y-5.34
X11.036 Y-4.712
X11.289 Y-4.068
X11.505 Y-3.411
X11.682 Y-2.742
X11.821 Y-2.065
X11.92 Y-1.38
X11.98 Y-0.691
X12 Y0
Z-1.85 F100
X11.98 Y0.691 F300
X11.92 Y1.38
X11.821 Y2.065
X11.682 Y2.742
X11.505 Y3.411
X11.289 Y4.068
X11.036 Y4.712
X10.747 Y5.34
X10.421 Y5.95
X10.061 Y6.541
X9.667 Y7.109
X9.242 Y7.654
X8.785 Y8.174
X8.3 Y8.667
X7.787 Y9.13
X7.248 Y9.564
X6.685 Y9.966
X6.1 Y10.334
X5.494 Y10.668
X4.87 Y10.967
X4.23 Y11.23
X3.576 Y11.455
X2.911 Y11.642
X2.235 Y11.79
X1.552 Y11.899
X0.864 Y11.969
X0.173 Y11.999
X-0.519 Y11.989
X-1.208 Y11.939
X-1.894 Y11.849
X-2.574 Y11.721
X-3.245 Y11.553
X-3.905 Y11.347
X-4.552 Y11.103
X-5.184 Y10.822
X-5.799 Y10.506
X-6.395 Y10.154
X-6.969 Y9.769
X-7.52 Y9.351
X-8.047 Y8.902
X-8.546 Y8.424
X-9.017 Y7.918
X-9.458 Y7.385
X-9.868 Y6.828
X-10.245 Y6.248
X-10.588 Y5.647
X-10.896 Y5.028
X-11.167 Y4.392
X-11.402 Y3.741
X-11.599 Y3.078
X-11.757 Y2.405
X-11.876 Y1.723
X-11.955 Y1.036
X-11.995 Y0.346
Y-0.346
X-11.955 Y-1.036
X-11.876 Y-1.723
X-11.757 Y-2.405
X-11.599 Y-3.078
X-11.402 Y-3.741
X-11.167 Y-4.392
X-10.896 Y-5.028
X-10.588 Y-5.647
X-10.245 Y-6.248
X-9.868 Y-6.828
X-9.458 Y-7.385
X-9.017 Y-7.918
X-8.546 Y-8.424
X-8.047 Y-8.902
X-7.52 Y-9.351
X-6.969 Y-9.769
X-6.395 Y-10.154
X-5.799 Y-10.506
X-5.184 Y-10.822
X-4.552 Y-11.103
X-3.905 Y-11.347
X-3.245 Y-11.553
X-2.574 Y-11.721
X-1.894 Y-11.849
X-1.208 Y-11.939
X-0.519 Y-11.989
X0.173 Y-11.999
X0.864 Y-11.969
X1.552 Y-11.899
X2.235 Y-11.79
X2.911 Y-11.642
X3.576 Y-11.455
X4.23 Y-11.23
X4.87 Y-10.967
X5.494 Y-10.668
X6.1 Y-10.334
X6.685 Y-9.966
X7.248 Y-9.564
X7.787 Y-9.13
X8.3 Y-8.667
X8.785 Y-8.174
X9.242 Y-7.654
X9.667 Y-7.109
X10.061 Y-6.541
X10.421 Y-5.95
X10.747 Y-5.34
X11.036 Y-4.712
X11.289 Y-4.068
X11.505 Y-3.411
X11.682 Y-2.742
X11.821 Y-2.065
X11.92 Y-1.38
X11.98 Y-0.691
X12 Y0
Z-2 F100
X11.98 Y0.691 F300
X11.92 Y1.38
X11.821 Y2.065
X11.682 Y2.742
X11.505 Y3.411
X11.289 Y4.068
X11.036 Y4.712
X10.747 Y5.34
X10.421 Y5.95
X10.061 Y6.541
X9.667 Y7.109
X9.242 Y7.654
X8.785 Y8.174
X8.3 Y8.667
X7.787 Y9.13
X7.248 Y9.564
X6.685 Y9.966
X6.1 Y10.334
X5.494 Y10.668
X4.87 Y10.967
X4.23 Y11.23
X3.576 Y11.455
X2.911 Y11.642
X2.235 Y11.79
X1.552 Y11.899
X0.864 Y11.969
X0.173 Y11.999
X-0.519 Y11.989
X-1.208 Y11.939
X-1.894 Y11.849
X-2.574 Y11.721
X-3.245 Y11.553
X-3.905 Y11.347
X-4.552 Y11.103
X-5.184 Y10.822
X-5.799 Y10.506
X-6.395 Y10.154
X-6.969 Y9.769
X-7.52 Y9.351
X-8.047 Y8.902
X-8.546 Y8.424
X-9.017 Y7.918
X-9.458 Y7.385
X-9.868 Y6.828
X-10.245 Y6.248
X-10.588 Y5.647
X-10.896 Y5.028
X-11.167 Y4.392
X-11.402 Y3.741
X-11.599 Y3.078
X-11.757 Y2.405
X-11.876 Y1.723
X-11.955 Y1.036
X-11.995 Y0.346
Y-0.346
X-11.955 Y-1.036
X-11.876 Y-1.723
X-11.757 Y-2.405
X-11.599 Y-3.078
X-11.402 Y-3.741
X-11.167 Y-4.392
X-10.896 Y-5.028
X-10.588 Y-5.647
X-10.245 Y-6.248
X-9.868 Y-6.828
X-9.458 Y-7.385
X-9.017 Y-7.918
X-8.546 Y-8.424
X-8.047 Y-8.902
X-7.52 Y-9.351
X-6.969 Y-9.769
X-6.395 Y-10.154
X-5.799 Y-10.506
X-5.184 Y-10.822
X-4.552 Y-11.103
X-3.905 Y-11.347
X-3.245 Y-11.553
X-2.574 Y-11.721
X-1.894 Y-11.849
X-1.208 Y-11.939
X-0.519 Y-11.989
X0.173 Y-11.999
X0.864 Y-11.969
X1.552 Y-11.899
X2.235 Y-11.79
X2.911 Y-11.642
X3.576 Y-11.455
X4.23 Y-11.23
X4.87 Y-10.967
X5.494 Y-10.668
X6.1 Y-10.334
X6.685 Y-9.966
X7.248 Y-9.564
X7.787 Y-9.13
X8.3 Y-8.667
X8.785 Y-8.174
X9.242 Y-7.654
X9.667 Y-7.109
X10.061 Y-6.541
X10.421 Y-5.95
X10.747 Y-5.34
X11.036 Y-4.712
X11.289 Y-4.068
X11.505 Y-3.411
X11.682 Y-2.742
X11.821 Y-2.065
X11.92 Y-1.38
X11.98 Y-0.691
X12 Y0
Z-2.15 F100
X11.98 Y0.691 F300
X11.92 Y1.38
X11.821 Y2.065
X11.682 Y2.742
X11.505 Y3.411
X11.289 Y4.068
X11.036 Y4.712
X10.747 Y5.34
X10.421 Y5.95
X10.061 Y6.541
X9.667 Y7.109
X9.242 Y7.654
X8.785 Y8.174
X8.3 Y8.667
X7.787 Y9.13
X7.248 Y9.564
X6.685 Y9.966
X6.1 Y10.334
X5.494 Y10.668
X4.87 Y10.967
X4.23 Y11.23
X3.576 Y11.455
X2.911 Y11.642
X2.235 Y11.79
X1.552 Y11.899
X0.864 Y11.969
X0.173 Y11.999
X-0.519 Y11.989
X-1.208 Y11.939
X-1.894 Y11.849
X-2.574 Y11.721
X-3.245 Y11.553
X-3.905 Y11.347
X-4.552 Y11.103
X-5.184 Y10.822
X-5.799 Y10.506
X-6.395 Y10.154
X-6.969 Y9.769
X-7.52 Y9.351
X-8.047 Y8.902
X-8.546 Y8.424
X-9.017 Y7.918
X-9.458 Y7.385
X-9.868 Y6.828
X-10.245 Y6.248
X-10.588 Y5.647
X-10.896 Y5.028
X-11.167 Y4.392
X-11.402 Y3.741
X-11.599 Y3.078
X-11.757 Y2.405
X-11.876 Y1.723
X-11.955 Y1.036
X-11.995 Y0.346
Y-0.346
X-11.955 Y-1.036
X-11.876 Y-1.723
X-11.757 Y-2.405
X-11.599 Y-3.078
X-11.402 Y-3.741
X-11.167 Y-4.392
X-10.896 Y-5.028
X-10.588 Y-5.647
X-10.245 Y-6.248
X-9.868 Y-6.828
X-9.458 Y-7.385
X-9.017 Y-7.918
X-8.546 Y-8.424
X-8.047 Y-8.902
X-7.52 Y-9.351
X-6.969 Y-9.769
X-6.395 Y-10.154
X-5.799 Y-10.506
X-5.184 Y-10.822
X-4.552 Y-11.103
X-3.905 Y-11.347
X-3.245 Y-11.553
X-2.574 Y-11.721
X-1.894 Y-11.849
X-1.208 Y-11.939
X-0.519 Y-11.989
X0.173 Y-11.999
X0.864 Y-11.969
X1.552 Y-11.899
X2.235 Y-11.79
X2.911 Y-11.642
X3.576 Y-11.455
X4.23 Y-11.23
X4.87 Y-10.967
X5.494 Y-10.668
X6.1 Y-10.334
X6.685 Y-9.966
X7.248 Y-9.564
X7.787 Y-9.13
X8.3 Y-8.667
X8.785 Y-8.174
X9.242 Y-7.654
X9.667 Y-7.109
X10.061 Y-6.541
X10.421 Y-5.95
X10.747 Y-5.34
X11.036 Y-4.712
X11.289 Y-4.068
X11.505 Y-3.411
X11.682 Y-2.742
X11.821 Y-2.065
X11.92 Y-1.38
X11.98 Y-0.691
X12 Y0
Z-2.3 F100
X11.98 Y0.691 F300
X11.92 Y1.38
X11.821 Y2.065
X11.682 Y2.742
X11.505 Y3.411
X11.289 Y4.068
X11.036 Y4.712
X10.747 Y5.34
X10.421 Y5.95
X10.061 Y6.541
X9.667 Y7.109
X9.242 Y7.654
X8.785 Y8.174
X8.3 Y8.667
X7.787 Y9.13
X7.248 Y9.564
X6.685 Y9.966
X6.1 Y10.334
X5.494 Y10.668
X4.87 Y10.967
X4.23 Y11.23
X3.576 Y11.455
X2.911 Y11.642
X2.235 Y11.79
X1.552 Y11.899
X0.864 Y11.969
X0.173 Y11.999
X-0.519 Y11.989
X-1.208 Y11.939
X-1.894 Y11.849
X-2.574 Y11.721
X-3.245 Y11.553
X-3.905 Y11.347
X-4.552 Y11.103
X-5.184 Y10.822
X-5.799 Y10.506
X-6.395 Y10.154
X-6.969 Y9.769
X-7.52 Y9.351
X-8.047 Y8.902
X-8.546 Y8.424
X-9.017 Y7.918
X-9.458 Y7.385
X-9.868 Y6.828
X-10.245 Y6.248
X-10.588 Y5.647
X-10.896 Y5.028
X-11.167 Y4.392
X-11.402 Y3.741
X-11.599 Y3.078
X-11.757 Y2.405
X-11.876 Y1.723
X-11.955 Y1.036
X-11.995 Y0.346
Y-0.346
X-11.955 Y-1.036
X-11.876 Y-1.723
X-11.757 Y-2.405
X-11.599 Y-3.078
X-11.402 Y-3.741
X-11.167 Y-4.392
X-10.896 Y-5.028
X-10.588 Y-5.647
X-10.245 Y-6.248
X-9.868 Y-6.828
X-9.458 Y-7.385
X-9.017 Y-7.918
X-8.546 Y-8.424
X-8.047 Y-8.902
X-7.52 Y-9.351
X-6.969 Y-9.769
X-6.395 Y-10.154
X-5.799 Y-10.506
X-5.184 Y-10.822
X-4.552 Y-11.103
X-3.905 Y-11.347
X-3.245 Y-11.553
X-2.574 Y-11.721
X-1.894 Y-11.849
X-1.208 Y-11.939
X-0.519 Y-11.989
X0.173 Y-11.999
X0.864 Y-11.969
X1.552 Y-11.899
X2.235 Y-11.79
X2.911 Y-11.642
X3.576 Y-11.455
X4.23 Y-11.23
X4.87 Y-10.967
X5.494 Y-10.668
X6.1 Y-10.334
X6.685 Y-9.966
X7.248 Y-9.564
X7.787 Y-9.13
X8.3 Y-8.667
X8.785 Y-8.174
X9.242 Y-7.654
X9.667 Y-7.109
X10.061 Y-6.541
X10.421 Y-5.95
X10.747 Y-5.34
X11.036 Y-4.712
X11.289 Y-4.068
X11.505 Y-3.411
X11.682 Y-2.742
X11.821 Y-2.065
X11.92 Y-1.38
X11.98 Y-0.691
X12 Y0
Z-2.45 F100
X11.98 Y0.691 F300
X11.92 Y1.38
X11.821 Y2.065
X11.682 Y2.742
X11.505 Y3.411
X11.289 Y4.068
X11.036 Y4.712
X10.747 Y5.34
X10.421 Y5.95
X10.061 Y6.541
X9.667 Y7.109
X9.242 Y7.654
X8.785 Y8.174
X8.3 Y8.667
X7.787 Y9.13
X7.248 Y9.564
X6.685 Y9.966
X6.1 Y10.334
X5.494 Y10.668
X4.87 Y10.967
X4.23 Y11.23
X3.576 Y11.455
X2.911 Y11.642
X2.235 Y11.79
X1.552 Y11.899
X0.864 Y11.969
X0.173 Y11.999
X-0.519 Y11.989
X-1.208 Y11.939
X-1.894 Y11.849
X-2.574 Y11.721
X-3.245 Y11.553
X-3.905 Y11.347
X-4.552 Y11.103
X-5.184 Y10.822
X-5.799 Y10.506
X-6.395 Y10.154
X-6.969 Y9.769
X-7.52 Y9.351
X-8.047 Y8.902
X-8.546 Y8.424
X-9.017 Y7.918
X-9.458 Y7.385
X-9.868 Y6.828
X-10.245 Y6.248
X-10.588 Y5.647
X-10.896 Y5.028
X-11.167 Y4.392
X-11.402 Y3.741
X-11.599 Y3.078
X-11.757 Y2.405
X-11.876 Y1.723
X-11.955 Y1.036
X-11.995 Y0.346
Y-0.346
X-11.955 Y-1.036
X-11.876 Y-1.723
X-11.757 Y-2.405
X-11.599 Y-3.078
X-11.402 Y-3.741
X-11.167 Y-4.392
X-10.896 Y-5.028
X-10.588 Y-5.647
X-10.245 Y-6.248
X-9.868 Y-6.828
X-9.458 Y-7.385
X-9.017 Y-7.918
X-8.546 Y-8.424
X-8.047 Y-8.902
X-7.52 Y-9.351
X-6.969 Y-9.769
X-6.395 Y-10.154
X-5.799 Y-10.506
X-5.184 Y-10.822
X-4.552 Y-11.103
X-3.905 Y-11.347
X-3.245 Y-11.553
X-2.574 Y-11.721
X-1.894 Y-11.849
X-1.208 Y-11.939
X-0.519 Y-11.989
X0.173 Y-11.999
X0.864 Y-11.969
X1.552 Y-11.899
X2.235 Y-11.79
X2.911 Y-11.642
X3.576 Y-11.455
X4.23 Y-11.23
X4.87 Y-10.967
X5.494 Y-10.668
X6.1 Y-10.334
X6.685 Y-9.966
X7.248 Y-9.564
X7.787 Y-9.13
X8.3 Y-8.667
X8.785 Y-8.174
X9.242 Y-7.654
X9.667 Y-7.109
X10.061 Y-6.541
X10.421 Y-5.95
X10.747 Y-5.34
X11.036 Y-4.712
X11.289 Y-4.068
X11.505 Y-3.411
X11.682 Y-2.742
X11.821 Y-2.065
X11.92 Y-1.38
X11.98 Y-0.691
X12 Y0
Z-2.6 F100
X11.98 Y0.691 F300
X11.92 Y1.38
X11.821 Y2.065
X11.682 Y2.742
X11.505 Y3.411
X11.289 Y4.068
X11.036 Y4.712
X10.747 Y5.34
X10.421 Y5.95
X10.061 Y6.541
X9.667 Y7.109
X9.242 Y7.654
X8.785 Y8.174
X8.3 Y8.667
X7.787 Y9.13
X7.248 Y9.564
X6.685 Y9.966
X6.1 Y10.334
X5.494 Y10.668
X4.87 Y10.967
X4.23 Y11.23
X3.576 Y11.455
X2.911 Y11.642
X2.235 Y11.79
X1.552 Y11.899
X0.864 Y11.969
X0.173 Y11.999
X-0.519 Y11.989
X-1.208 Y11.939
X-1.894 Y11.849
X-2.574 Y11.721
X-3.245 Y11.553
X-3.905 Y11.347
X-4.552 Y11.103
X-5.184 Y10.822
X-5.799 Y10.506
X-6.395 Y10.154
X-6.969 Y9.769
X-7.52 Y9.351
X-8.047 Y8.902
X-8.546 Y8.424
X-9.017 Y7.918
X-9.458 Y7.385
X-9.868 Y6.828
X-10.245 Y6.248
X-10.588 Y5.647
X-10.896 Y5.028
X-11.167 Y4.392
X-11.402 Y3.741
X-11.599 Y3.078
X-11.757 Y2.405
X-11.876 Y1.723
X-11.955 Y1.036
X-11.995 Y0.346
Y-0.346
X-11.955 Y-1.036
X-11.876 Y-1.723
X-11.757 Y-2.405
X-11.599 Y-3.078
X-11.402 Y-3.741
X-11.167 Y-4.392
X-10.896 Y-5.028
X-10.588 Y-5.647
X-10.245 Y-6.248
X-9.868 Y-6.828
X-9.458 Y-7.385
X-9.017 Y-7.918
X-8.546 Y-8.424
X-8.047 Y-8.902
X-7.52 Y-9.351
X-6.969 Y-9.769
X-6.395 Y-10.154
X-5.799 Y-10.506
X-5.184 Y-10.822
X-4.552 Y-11.103
X-3.905 Y-11.347
X-3.245 Y-11.553
X-2.574 Y-11.721
X-1.894 Y-11.849
X-1.208 Y-11.939
X-0.519 Y-11.989
X0.173 Y-11.999
X0.864 Y-11.969
X1.552 Y-11.899
X2.235 Y-11.79
X2.911 Y-11.642
X3.576 Y-11.455
X4.23 Y-11.23
X4.87 Y-10.967
X5.494 Y-10.668
X6.1 Y-10.334
X6.685 Y-9.966
X7.248 Y-9.564
X7.787 Y-9.13
X8.3 Y-8.667
X8.785 Y-8.174
X9.242 Y-7.654
X9.667 Y-7.109
X10.061 Y-6.541
X10.421 Y-5.95
X10.747 Y-5.34
X11.036 Y-4.712
X11.289 Y-4.068
X11.505 Y-3.411
X11.682 Y-2.742
X11.821 Y-2.065
X11.92 Y-1.38
X11.98 Y-0.691
X12 Y0
Z-2.75 F100
X11.98 Y0.691 F300
X11.92 Y1.38
X11.821 Y2.065
X11.682 Y2.742
X11.505 Y3.411
X11.289 Y4.068
X11.036 Y4.712
X10.747 Y5.34
X10.421 Y5.95
X10.061 Y6.541
X9.667 Y7.109
X9.242 Y7.654
X8.785 Y8.174
X8.3 Y8.667
X7.787 Y9.13
X7.248 Y9.564
X6.685 Y9.966
X6.1 Y10.334
X5.494 Y10.668
X4.87 Y10.967
X4.23 Y11.23
X3.576 Y11.455
X2.911 Y11.642
X2.235 Y11.79
X1.552 Y11.899
X0.864 Y11.969
X0.173 Y11.999
X-0.519 Y11.989
X-1.208 Y11.939
X-1.894 Y11.849
X-2.574 Y11.721
X-3.245 Y11.553
X-3.905 Y11.347
X-4.552 Y11.103
X-5.184 Y10.822
X-5.799 Y10.506
X-6.395 Y10.154
X-6.969 Y9.769
X-7.52 Y9.351
X-8.047 Y8.902
X-8.546 Y8.424
X-9.017 Y7.918
X-9.458 Y7.385
X-9.868 Y6.828
X-10.245 Y6.248
X-10.588 Y5.647
X-10.896 Y5.028
X-11.167 Y4.392
X-11.402 Y3.741
X-11.599 Y3.078
X-11.757 Y2.405
X-11.876 Y1.723
X-11.955 Y1.036
X-11.995 Y0.346
Y-0.346
X-11.955 Y-1.036
X-11.876 Y-1.723
X-11.757 Y-2.405
X-11.599 Y-3.078
X-11.402 Y-3.741
X-11.167 Y-4.392
X-10.896 Y-5.028
X-10.588 Y-5.647
X-10.245 Y-6.248
X-9.868 Y-6.828
X-9.458 Y-7.385
X-9.017 Y-7.918
X-8.546 Y-8.424
X-8.047 Y-8.902
X-7.52 Y-9.351
X-6.969 Y-9.769
X-6.395 Y-10.154
X-5.799 Y-10.506
X-5.184 Y-10.822
X-4.552 Y-11.103
X-3.905 Y-11.347
X-3.245 Y-11.553
X-2.574 Y-11.721
X-1.894 Y-11.849
X-1.208 Y-11.939
X-0.519 Y-11.989
X0.173 Y-11.999
X0.864 Y-11.969
X1.552 Y-11.899
X2.235 Y-11.79
X2.911 Y-11.642
X3.576 Y-11.455
X4.23 Y-11.23
X4.87 Y-10.967
X5.494 Y-10.668
X6.1 Y-10.334
X6.685 Y-9.966
X7.248 Y-9.564
X7.787 Y-9.13
X8.3 Y-8.667
X8.785 Y-8.174
X9.242 Y-7.654
X9.667 Y-7.109
X10.061 Y-6.541
X10.421 Y-5.95
X10.747 Y-5.34
X11.036 Y-4.712
X11.289 Y-4.068
X11.505 Y-3.411
X11.682 Y-2.742
X11.821 Y-2.065
X11.92 Y-1.38
X11.98 Y-0.691
X12 Y0
Z-2.9 F100
X11.98 Y0.691 F300
X11.92 Y1.38
X11.821 Y2.065
X11.682 Y2.742
X11.505 Y3.411
X11.289 Y4.068
X11.036 Y4.712
X10.747 Y5.34
X10.421 Y5.95
X10.061 Y6.541
X9.667 Y7.109
X9.242 Y7.654
X8.785 Y8.174
X8.3 Y8.667
X7.787 Y9.13
X7.248 Y9.564
X6.685 Y9.966
X6.1 Y10.334
X5.494 Y10.668
X4.87 Y10.967
X4.23 Y11.23
X3.576 Y11.455
X2.911 Y11.642
X2.235 Y11.79
X1.552 Y11.899
X0.864 Y11.969
X0.173 Y11.999
X-0.519 Y11.989
X-1.208 Y11.939
X-1.894 Y11.849
X-2.574 Y11.721
X-3.245 Y11.553
X-3.905 Y11.347
X-4.552 Y11.103
X-5.184 Y10.822
X-5.799 Y10.506
X-6.395 Y10.154
X-6.969 Y9.769
X-7.52 Y9.351
X-8.047 Y8.902
X-8.546 Y8.424
X-9.017 Y7.918
X-9.458 Y7.385
X-9.868 Y6.828
X-10.245 Y6.248
X-10.588 Y5.647
X-10.896 Y5.028
X-11.167 Y4.392
X-11.402 Y3.741
X-11.599 Y3.078
X-11.757 Y2.405
X-11.876 Y1.723
X-11.955 Y1.036
X-11.995 Y0.346
Y-0.346
X-11.955 Y-1.036
X-11.876 Y-1.723
X-11.757 Y-2.405
X-11.599 Y-3.078
X-11.402 Y-3.741
X-11.167 Y-4.392
X-10.896 Y-5.028
X-10.588 Y-5.647
X-10.245 Y-6.248
X-9.868 Y-6.828
X-9.458 Y-7.385
X-9.017 Y-7.918
X-8.546 Y-8.424
X-8.047 Y-8.902
X-7.52 Y-9.351
X-6.969 Y-9.769
X-6.395 Y-10.154
X-5.799 Y-10.506
X-5.184 Y-10.822
X-4.552 Y-11.103
X-3.905 Y-11.347
X-3.245 Y-11.553
X-2.574 Y-11.721
X-1.894 Y-11.849
X-1.208 Y-11.939
X-0.519 Y-11.989
X0.173 Y-11.999
X0.864 Y-11.969
X1.552 Y-11.899
X2.235 Y-11.79
X2.911 Y-11.642
X3.576 Y-11.455
X4.23 Y-11.23
X4.87 Y-10.967
X5.494 Y-10.668
X6.1 Y-10.334
X6.685 Y-9.966
X7.248 Y-9.564
X7.787 Y-9.13
X8.3 Y-8.667
X8.785 Y-8.174
X9.242 Y-7.654
X9.667 Y-7.109
X10.061 Y-6.541
X10.421 Y-5.95
X10.747 Y-5.34
X11.036 Y-4.712
X11.289 Y-4.068
X11.505 Y-3.411
X11.682 Y-2.742
X11.821 Y-2.065
X11.92 Y-1.38
X11.98 Y-0.691
X12 Y0
Z-3.05 F100
X11.98 Y0.691 F300
X11.92 Y1.38
X11.821 Y2.065
X11.682 Y2.742
X11.505 Y3.411
X11.289 Y4.068
X11.036 Y4.712
X10.747 Y5.34
X10.421 Y5.95
X10.061 Y6.541
X9.667 Y7.109
X9.242 Y7.654
X8.785 Y8.174
X8.3 Y8.667
X7.787 Y9.13
X7.248 Y9.564
X6.685 Y9.966
X6.1 Y10.334
X5.494 Y10.668
X4.87 Y10.967
X4.23 Y11.23
X3.576 Y11.455
X2.911 Y11.642
X2.235 Y11.79
X1.552 Y11.899
X0.864 Y11.969
X0.173 Y11.999
X-0.519 Y11.989
X-1.208 Y11.939
X-1.894 Y11.849
X-2.574 Y11.721
X-3.245 Y11.553
X-3.905 Y11.347
X-4.552 Y11.103
X-5.184 Y10.822
X-5.799 Y10.506
X-6.395 Y10.154
X-6.969 Y9.769
X-7.52 Y9.351
X-8.047 Y8.902
X-8.546 Y8.424
X-9.017 Y7.918
X-9.458 Y7.385
X-9.868 Y6.828
X-10.245 Y6.248
X-10.588 Y5.647
X-10.896 Y5.028
X-11.167 Y4.392
X-11.402 Y3.741
X-11.599 Y3.078
X-11.757 Y2.405
X-11.876 Y1.723
X-11.955 Y1.036
X-11.995 Y0.346
Y-0.346
X-11.955 Y-1.036
X-11.876 Y-1.723
X-11.757 Y-2.405
X-11.599 Y-3.078
X-11.402 Y-3.741
X-11.167 Y-4.392
X-10.896 Y-5.028
X-10.588 Y-5.647
X-10.245 Y-6.248
X-9.868 Y-6.828
X-9.458 Y-7.385
X-9.017 Y-7.918
X-8.546 Y-8.424
X-8.047 Y-8.902
X-7.52 Y-9.351
X-6.969 Y-9.769
X-6.395 Y-10.154
X-5.799 Y-10.506
X-5.184 Y-10.822
X-4.552 Y-11.103
X-3.905 Y-11.347
X-3.245 Y-11.553
X-2.574 Y-11.721
X-1.894 Y-11.849
X-1.208 Y-11.939
X-0.519 Y-11.989
X0.173 Y-11.999
X0.864 Y-11.969
X1.552 Y-11.899
X2.235 Y-11.79
X2.911 Y-11.642
X3.576 Y-11.455
X4.23 Y-11.23
X4.87 Y-10.967
X5.494 Y-10.668
X6.1 Y-10.334
X6.685 Y-9.966
X7.248 Y-9.564
X7.787 Y-9.13
X8.3 Y-8.667
X8.785 Y-8.174
X9.242 Y-7.654
X9.667 Y-7.109
X10.061 Y-6.541
X10.421 Y-5.95
X10.747 Y-5.34
X11.036 Y-4.712
X11.289 Y-4.068
X11.505 Y-3.411
X11.682 Y-2.742
X11.821 Y-2.065
X11.92 Y-1.38
X11.98 Y-0.691
X12 Y0
Z-3.2 F100
X11.98 Y0.691 F300
X11.92 Y1.38
X11.821 Y2.065
X11.682 Y2.742
X11.505 Y3.411
X11.289 Y4.068
X11.036 Y4.712
X10.747 Y5.34
X10.421 Y5.95
X10.061 Y6.541
X9.667 Y7.109
X9.242 Y7.654
X8.785 Y8.174
X8.3 Y8.667
X7.787 Y9.13
X7.248 Y9.564
X6.685 Y9.966
X6.1 Y10.334
X5.494 Y10.668
X4.87 Y10.967
X4.23 Y11.23
X3.576 Y11.455
X2.911 Y11.642
X2.235 Y11.79
X1.552 Y11.899
X0.864 Y11.969
X0.173 Y11.999
X-0.519 Y11.989
X-1.208 Y11.939
X-1.894 Y11.849
X-2.574 Y11.721
X-3.245 Y11.553
X-3.905 Y11.347
X-4.552 Y11.103
X-5.184 Y10.822
X-5.799 Y10.506
X-6.395 Y10.154
X-6.969 Y9.769
X-7.52 Y9.351
X-8.047 Y8.902
X-8.546 Y8.424
X-9.017 Y7.918
X-9.458 Y7.385
X-9.868 Y6.828
X-10.245 Y6.248
X-10.588 Y5.647
X-10.896 Y5.028
X-11.167 Y4.392
X-11.402 Y3.741
X-11.599 Y3.078
X-11.757 Y2.405
X-11.876 Y1.723
X-11.955 Y1.036
X-11.995 Y0.346
Y-0.346
X-11.955 Y-1.036
X-11.876 Y-1.723
X-11.757 Y-2.405
X-11.599 Y-3.078
X-11.402 Y-3.741
X-11.167 Y-4.392
X-10.896 Y-5.028
X-10.588 Y-5.647
X-10.245 Y-6.248
X-9.868 Y-6.828
X-9.458 Y-7.385
X-9.017 Y-7.918
X-8.546 Y-8.424
X-8.047 Y-8.902
X-7.52 Y-9.351
X-6.969 Y-9.769
X-6.395 Y-10.154
X-5.799 Y-10.506
X-5.184 Y-10.822
X-4.552 Y-11.103
X-3.905 Y-11.347
X-3.245 Y-11.553
X-2.574 Y-11.721
X-1.894 Y-11.849
X-1.208 Y-11.939
X-0.519 Y-11.989
X0.173 Y-11.999
X0.864 Y-11.969
X1.552 Y-11.899
X2.235 Y-11.79
X2.911 Y-11.642
X3.576 Y-11.455
X4.23 Y-11.23
X4.87 Y-10.967
X5.494 Y-10.668
X6.1 Y-10.334
X6.685 Y-9.966
X7.248 Y-9.564
X7.787 Y-9.13
X8.3 Y-8.667
X8.785 Y-8.174
X9.242 Y-7.654
X9.667 Y-7.109
X10.061 Y-6.541
X10.421 Y-5.95
X10.747 Y-5.34
X11.036 Y-4.712
X11.289 Y-4.068
X11.505 Y-3.411
X11.682 Y-2.742
X11.821 Y-2.065
X11.92 Y-1.38
X11.98 Y-0.691
X12 Y0
Z-3.35 F100
X11.98 Y0.691 F300
X11.92 Y1.38
X11.821 Y2.065
X11.682 Y2.742
X11.505 Y3.411
X11.289 Y4.068
X11.036 Y4.712
X10.747 Y5.34
X10.421 Y5.95
X10.061 Y6.541
X9.667 Y7.109
X9.242 Y7.654
X8.785 Y8.174
X8.3 Y8.667
X7.787 Y9.13
X7.248 Y9.564
X6.685 Y9.966
X6.1 Y10.334
X5.494 Y10.668
X4.87 Y10.967
X4.23 Y11.23
X3.576 Y11.455
X2.911 Y11.642
X2.235 Y11.79
X1.552 Y11.899
X0.864 Y11.969
X0.173 Y11.999
X-0.519 Y11.989
X-1.208 Y11.939
X-1.894 Y11.849
X-2.574 Y11.721
X-3.245 Y11.553
X-3.905 Y11.347
X-4.552 Y11.103
X-5.184 Y10.822
X-5.799 Y10.506
X-6.395 Y10.154
X-6.969 Y9.769
X-7.52 Y9.351
X-8.047 Y8.902
X-8.546 Y8.424
X-9.017 Y7.918
X-9.458 Y7.385
X-9.868 Y6.828
X-10.245 Y6.248
X-10.588 Y5.647
X-10.896 Y5.028
X-11.167 Y4.392
X-11.402 Y3.741
X-11.599 Y3.078
X-11.757 Y2.405
X-11.876 Y1.723
X-11.955 Y1.036
X-11.995 Y0.346
Y-0.346
X-11.955 Y-1.036
X-11.876 Y-1.723
X-11.757 Y-2.405
X-11.599 Y-3.078
X-11.402 Y-3.741
X-11.167 Y-4.392
X-10.896 Y-5.028
X-10.588 Y-5.647
X-10.245 Y-6.248
X-9.868 Y-6.828
X-9.458 Y-7.385
X-9.017 Y-7.918
X-8.546 Y-8.424
X-8.047 Y-8.902
X-7.52 Y-9.351
X-6.969 Y-9.769
X-6.395 Y-10.154
X-5.799 Y-10.506
X-5.184 Y-10.822
X-4.552 Y-11.103
X-3.905 Y-11.347
X-3.245 Y-11.553
X-2.574 Y-11.721
X-1.894 Y-11.849
X-1.208 Y-11.939
X-0.519 Y-11.989
X0.173 Y-11.999
X0.864 Y-11.969
X1.552 Y-11.899
X2.235 Y-11.79
X2.911 Y-11.642
X3.576 Y-11.455
X4.23 Y-11.23
X4.87 Y-10.967
X5.494 Y-10.668
X6.1 Y-10.334
X6.685 Y-9.966
X7.248 Y-9.564
X7.787 Y-9.13
X8.3 Y-8.667
X8.785 Y-8.174
X9.242 Y-7.654
X9.667 Y-7.109
X10.061 Y-6.541
X10.421 Y-5.95
X10.747 Y-5.34
X11.036 Y-4.712
X11.289 Y-4.068
X11.505 Y-3.411
X11.682 Y-2.742
X11.821 Y-2.065
X11.92 Y-1.38
X11.98 Y-0.691
X12 Y0
Z-3.5 F100
X11.98 Y0.691 F300
X11.92 Y1.38
X11.821 Y2.065
X11.682 Y2.742
X11.505 Y3.411
X11.289 Y4.068
X11.036 Y4.712
X10.747 Y5.34
X10.421 Y5.95
X10.061 Y6.541
X9.667 Y7.109
X9.242 Y7.654
X8.785 Y8.174
X8.3 Y8.667
X7.787 Y9.13
X7.248 Y9.564
X6.685 Y9.966
X6.1 Y10.334
X5.494 Y10.668
X4.87 Y10.967
X4.23 Y11.23
X3.576 Y11.455
X2.911 Y11.642
X2.235 Y11.79
X1.552 Y11.899
X0.864 Y11.969
X0.173 Y11.999
X-0.519 Y11.989
X-1.208 Y11.939
X-1.894 Y11.849
X-2.574 Y11.721
X-3.245 Y11.553
X-3.905 Y11.347
X-4.552 Y11.103
X-5.184 Y10.822
X-5.799 Y10.506
X-6.395 Y10.154
X-6.969 Y9.769
X-7.52 Y9.351
X-8.047 Y8.902
X-8.546 Y8.424
X-9.017 Y7.918
X-9.458 Y7.385
X-9.868 Y6.828
X-10.245 Y6.248
X-10.588 Y5.647
X-10.896 Y5.028
X-11.167 Y4.392
X-11.402 Y3.741
X-11.599 Y3.078
X-11.757 Y2.405
X-11.876 Y1.723
X-11.955 Y1.036
X-11.995 Y0.346
Y-0.346
X-11.955 Y-1.036
X-11.876 Y-1.723
X-11.757 Y-2.405
X-11.599 Y-3.078
X-11.402 Y-3.741
X-11.167 Y-4.392
X-10.896 Y-5.028
X-10.588 Y-5.647
X-10.245 Y-6.248
X-9.868 Y-6.828
X-9.458 Y-7.385
X-9.017 Y-7.918
X-8.546 Y-8.424
X-8.047 Y-8.902
X-7.52 Y-9.351
X-6.969 Y-9.769
X-6.395 Y-10.154
X-5.799 Y-10.506
X-5.184 Y-10.822
X-4.552 Y-11.103
X-3.905 Y-11.347
X-3.245 Y-11.553
X-2.574 Y-11.721
X-1.894 Y-11.849
X-1.208 Y-11.939
X-0.519 Y-11.989
X0.173 Y-11.999
X0.864 Y-11.969
X1.552 Y-11.899
X2.235 Y-11.79
X2.911 Y-11.642
X3.576 Y-11.455
X4.23 Y-11.23
X4.87 Y-10.967
X5.494 Y-10.668
X6.1 Y-10.334
X6.685 Y-9.966
X7.248 Y-9.564
X7.787 Y-9.13
X8.3 Y-8.667
X8.785 Y-8.174
X9.242 Y-7.654
X9.667 Y-7.109
X10.061 Y-6.541
X10.421 Y-5.95
X10.747 Y-5.34
X11.036 Y-4.712
X11.289 Y-4.068
X11.505 Y-3.411
X11.682 Y-2.742
X11.821 Y-2.065
X11.92 Y-1.38
X11.98 Y-0.691
X12 Y0
Z-3.65 F100
X11.98 Y0.691 F300
X11.92 Y1.38
X11.821 Y2.065
X11.682 Y2.742
X11.505 Y3.411
X11.289 Y4.068
X11.036 Y4.712
X10.747 Y5.34
X10.421 Y5.95
X10.061 Y6.541
X9.667 Y7.109
X9.242 Y7.654
X8.785 Y8.174
X8.3 Y8.667
X7.787 Y9.13
X7.248 Y9.564
X6.685 Y9.966
X6.1 Y10.334
X5.494 Y10.668
X4.87 Y10.967
X4.23 Y11.23
X3.576 Y11.455
X2.911 Y11.642
X2.235 Y11.79
X1.552 Y11.899
X0.864 Y11.969
X0.173 Y11.999
X-0.519 Y11.989
X-1.208 Y11.939
X-1.894 Y11.849
X-2.574 Y11.721
X-3.245 Y11.553
X-3.905 Y11.347
X-4.552 Y11.103
X-5.184 Y10.822
X-5.799 Y10.506
X-6.395 Y10.154
X-6.969 Y9.769
X-7.52 Y9.351
X-8.047 Y8.902
X-8.546 Y8.424
X-9.017 Y7.918
X-9.458 Y7.385
X-9.868 Y6.828
X-10.245 Y6.248
X-10.588 Y5.647
X-10.896 Y5.028
X-11.167 Y4.392
X-11.402 Y3.741
X-11.599 Y3.078
X-11.757 Y2.405
X-11.876 Y1.723
X-11.955 Y1.036
X-11.995 Y0.346
Y-0.346
X-11.955 Y-1.036
X-11.876 Y-1.723
X-11.757 Y-2.405
X-11.599 Y-3.078
X-11.402 Y-3.741
X-11.167 Y-4.392
X-10.896 Y-5.028
X-10.588 Y-5.647
X-10.245 Y-6.248
X-9.868 Y-6.828
X-9.458 Y-7.385
X-9.017 Y-7.918
X-8.546 Y-8.424
X-8.047 Y-8.902
X-7.52 Y-9.351
X-6.969 Y-9.769
X-6.395 Y-10.154
X-5.799 Y-10.506
X-5.184 Y-10.822
X-4.552 Y-11.103
X-3.905 Y-11.347
X-3.245 Y-11.553
X-2.574 Y-11.721
X-1.894 Y-11.849
X-1.208 Y-11.939
X-0.519 Y-11.989
X0.173 Y-11.999
X0.864 Y-11.969
X1.552 Y-11.899
X2.235 Y-11.79
X2.911 Y-11.642
X3.576 Y-11.455
X4.23 Y-11.23
X4.87 Y-10.967
X5.494 Y-10.668
X6.1 Y-10.334
X6.685 Y-9.966
X7.248 Y-9.564
X7.787 Y-9.13
X8.3 Y-8.667
X8.785 Y-8.174
X9.242 Y-7.654
X9.667 Y-7.109
X10.061 Y-6.541
X10.421 Y-5.95
X10.747 Y-5.34
X11.036 Y-4.712
X11.289 Y-4.068
X11.505 Y-3.411
X11.682 Y-2.742
X11.821 Y-2.065
X11.92 Y-1.38
X11.98 Y-0.691
X12 Y0
Z-3.8 F100
X11.98 Y0.691 F300
X11.92 Y1.38
X11.821 Y2.065
X11.682 Y2.742
X11.505 Y3.411
X11.289 Y4.068
X11.036 Y4.712
X10.747 Y5.34
X10.421 Y5.95
X10.061 Y6.541
X9.667 Y7.109
X9.242 Y7.654
X8.785 Y8.174
X8.3 Y8.667
X7.787 Y9.13
X7.248 Y9.564
X6.685 Y9.966
X6.1 Y10.334
X5.494 Y10.668
X4.87 Y10.967
X4.23 Y11.23
X3.576 Y11.455
X2.911 Y11.642
X2.235 Y11.79
X1.552 Y11.899
X0.864 Y11.969
X0.173 Y11.999
X-0.519 Y11.989
X-1.208 Y11.939
X-1.894 Y11.849
X-2.574 Y11.721
X-3.245 Y11.553
X-3.905 Y11.347
X-4.552 Y11.103
X-5.184 Y10.822
X-5.799 Y10.506
X-6.395 Y10.154
X-6.969 Y9.769
X-7.52 Y9.351
X-8.047 Y8.902
X-8.546 Y8.424
X-9.017 Y7.918
X-9.458 Y7.385
X-9.868 Y6.828
X-10.245 Y6.248
X-10.588 Y5.647
X-10.896 Y5.028
X-11.167 Y4.392
X-11.402 Y3.741
X-11.599 Y3.078
X-11.757 Y2.405
X-11.876 Y1.723
X-11.955 Y1.036
X-11.995 Y0.346
Y-0.346
X-11.955 Y-1.036
X-11.876 Y-1.723
X-11.757 Y-2.405
X-11.599 Y-3.078
X-11.402 Y-3.741
X-11.167 Y-4.392
X-10.896 Y-5.028
X-10.588 Y-5.647
X-10.245 Y-6.248
X-9.868 Y-6.828
X-9.458 Y-7.385
X-9.017 Y-7.918
X-8.546 Y-8.424
X-8.047 Y-8.902
X-7.52 Y-9.351
X-6.969 Y-9.769
X-6.395 Y-10.154
X-5.799 Y-10.506
X-5.184 Y-10.822
X-4.552 Y-11.103
X-3.905 Y-11.347
X-3.245 Y-11.553
X-2.574 Y-11.721
X-1.894 Y-11.849
X-1.208 Y-11.939
X-0.519 Y-11.989
X0.173 Y-11.999
X0.864 Y-11.969
X1.552 Y-11.899
X2.235 Y-11.79
X2.911 Y-11.642
X3.576 Y-11.455
X4.23 Y-11.23
X4.87 Y-10.967
X5.494 Y-10.668
X6.1 Y-10.334
X6.685 Y-9.966
X7.248 Y-9.564
X7.787 Y-9.13
X8.3 Y-8.667
X8.785 Y-8.174
X9.242 Y-7.654
X9.667 Y-7.109
X10.061 Y-6.541
X10.421 Y-5.95
X10.747 Y-5.34
X11.036 Y-4.712
X11.289 Y-4.068
X11.505 Y-3.411
X11.682 Y-2.742
X11.821 Y-2.065
X11.92 Y-1.38
X11.98 Y-0.691
X12 Y0
Z-3.95 F100
X11.98 Y0.691 F300
X11.92 Y1.38
X11.821 Y2.065
X11.682 Y2.742
X11.505 Y3.411
X11.289 Y4.068
X11.036 Y4.712
X10.747 Y5.34
X10.421 Y5.95
X10.061 Y6.541
X9.667 Y7.109
X9.242 Y7.654
X8.785 Y8.174
X8.3 Y8.667
X7.787 Y9.13
X7.248 Y9.564
X6.685 Y9.966
X6.1 Y10.334
X5.494 Y10.668
X4.87 Y10.967
X4.23 Y11.23
X3.576 Y11.455
X2.911 Y11.642
X2.235 Y11.79
X1.552 Y11.899
X0.864 Y11.969
X0.173 Y11.999
X-0.519 Y11.989
X-1.208 Y11.939
X-1.894 Y11.849
X-2.574 Y11.721
X-3.245 Y11.553
X-3.905 Y11.347
X-4.552 Y11.103
X-5.184 Y10.822
X-5.799 Y10.506
X-6.395 Y10.154
X-6.969 Y9.769
X-7.52 Y9.351
X-8.047 Y8.902
X-8.546 Y8.424
X-9.017 Y7.918
X-9.458 Y7.385
X-9.868 Y6.828
X-10.245 Y6.248
X-10.588 Y5.647
X-10.896 Y5.028
X-11.167 Y4.392
X-11.402 Y3.741
X-11.599 Y3.078
X-11.757 Y2.405
X-11.876 Y1.723
X-11.955 Y1.036
X-11.995 Y0.346
Y-0.346
X-11.955 Y-1.036
X-11.876 Y-1.723
X-11.757 Y-2.405
X-11.599 Y-3.078
X-11.402 Y-3.741
X-11.167 Y-4.392
X-10.896 Y-5.028
X-10.588 Y-5.647
X-10.245 Y-6.248
X-9.868 Y-6.828
X-9.458 Y-7.385
X-9.017 Y-7.918
X-8.546 Y-8.424
X-8.047 Y-8.902
X-7.52 Y-9.351
X-6.969 Y-9.769
X-6.395 Y-10.154
X-5.799 Y-10.506
X-5.184 Y-10.822
X-4.552 Y-11.103
X-3.905 Y-11.347
X-3.245 Y-11.553
X-2.574 Y-11.721
X-1.894 Y-11.849
X-1.208 Y-11.939
X-0.519 Y-11.989
X0.173 Y-11.999
X0.864 Y-11.969
X1.552 Y-11.899
X2.235 Y-11.79
X2.911 Y-11.642
X3.576 Y-11.455
X4.23 Y-11.23
X4.87 Y-10.967
X5.494 Y-10.668
X6.1 Y-10.334
X6.685 Y-9.966
X7.248 Y-9.564
X7.787 Y-9.13
X8.3 Y-8.667
X8.785 Y-8.174
X9.242 Y-7.654
X9.667 Y-7.109
X10.061 Y-6.541
X10.421 Y-5.95
X10.747 Y-5.34
X11.036 Y-4.712
X11.289 Y-4.068
X11.505 Y-3.411
X11.682 Y-2.742
X11.821 Y-2.065
X11.92 Y-1.38
X11.98 Y-0.691
X12 Y0
Z-4.1 F100
X11.98 Y0.691 F300
X11.92 Y1.38
X11.821 Y2.065
X11.682 Y2.742
X11.505 Y3.411
X11.289 Y4.068
X11.036 Y4.712
X10.747 Y5.34
X10.421 Y5.95
X10.061 Y6.541
X9.667 Y7.109
X9.242 Y7.654
X8.785 Y8.174
X8.3 Y8.667
X7.787 Y9.13
X7.248 Y9.564
X6.685 Y9.966
X6.1 Y10.334
X5.494 Y10.668
X4.87 Y10.967
X4.23 Y11.23
X3.576 Y11.455
X2.911 Y11.642
X2.235 Y11.79
X1.552 Y11.899
X0.864 Y11.969
X0.173 Y11.999
X-0.519 Y11.989
X-1.208 Y11.939
X-1.894 Y11.849
X-2.574 Y11.721
X-3.245 Y11.553
X-3.905 Y11.347
X-4.552 Y11.103
X-5.184 Y10.822
X-5.799 Y10.506
X-6.395 Y10.154
X-6.969 Y9.769
X-7.52 Y9.351
X-8.047 Y8.902
X-8.546 Y8.424
X-9.017 Y7.918
X-9.458 Y7.385
X-9.868 Y6.828
X-10.245 Y6.248
X-10.588 Y5.647
X-10.896 Y5.028
X-11.167 Y4.392
X-11.402 Y3.741
X-11.599 Y3.078
X-11.757 Y2.405
X-11.876 Y1.723
X-11.955 Y1.036
X-11.995 Y0.346
Y-0.346
X-11.955 Y-1.036
X-11.876 Y-1.723
X-11.757 Y-2.405
X-11.599 Y-3.078
X-11.402 Y-3.741
X-11.167 Y-4.392
X-10.896 Y-5.028
X-10.588 Y-5.647
X-10.245 Y-6.248
X-9.868 Y-6.828
X-9.458 Y-7.385
X-9.017 Y-7.918
X-8.546 Y-8.424
X-8.047 Y-8.902
X-7.52 Y-9.351
X-6.969 Y-9.769
X-6.395 Y-10.154
X-5.799 Y-10.506
X-5.184 Y-10.822
X-4.552 Y-11.103
X-3.905 Y-11.347
X-3.245 Y-11.553
X-2.574 Y-11.721
X-1.894 Y-11.849
X-1.208 Y-11.939
X-0.519 Y-11.989
X0.173 Y-11.999
X0.864 Y-11.969
X1.552 Y-11.899
X2.235 Y-11.79
X2.911 Y-11.642
X3.576 Y-11.455
X4.23 Y-11.23
X4.87 Y-10.967
X5.494 Y-10.668
X6.1 Y-10.334
X6.685 Y-9.966
X7.248 Y-9.564
X7.787 Y-9.13
X8.3 Y-8.667
X8.785 Y-8.174
X9.242 Y-7.654
X9.667 Y-7.109
X10.061 Y-6.541
X10.421 Y-5.95
X10.747 Y-5.34
X11.036 Y-4.712
X11.289 Y-4.068
X11.505 Y-3.411
X11.682 Y-2.742
X11.821 Y-2.065
X11.92 Y-1.38
X11.98 Y-0.691
X12 Y0
Z-4.25 F100
X11.98 Y0.691 F300
X11.92 Y1.38
X11.821 Y2.065
X11.682 Y2.742
X11.505 Y3.411
X11.289 Y4.068
X11.036 Y4.712
X10.747 Y5.34
X10.421 Y5.95
X10.061 Y6.541
X9.667 Y7.109
X9.242 Y7.654
X8.785 Y8.174
X8.3 Y8.667
X7.787 Y9.13
X7.248 Y9.564
X6.685 Y9.966
X6.1 Y10.334
X5.494 Y10.668
X4.87 Y10.967
X4.23 Y11.23
X3.576 Y11.455
X2.911 Y11.642
X2.235 Y11.79
X1.552 Y11.899
X0.864 Y11.969
X0.173 Y11.999
X-0.519 Y11.989
X-1.208 Y11.939
X-1.894 Y11.849
X-2.574 Y11.721
X-3.245 Y11.553
X-3.905 Y11.347
X-4.552 Y11.103
X-5.184 Y10.822
X-5.799 Y10.506
X-6.395 Y10.154
X-6.969 Y9.769
X-7.52 Y9.351
X-8.047 Y8.902
X-8.546 Y8.424
X-9.017 Y7.918
X-9.458 Y7.385
X-9.868 Y6.828
X-10.245 Y6.248
X-10.588 Y5.647
X-10.896 Y5.028
X-11.167 Y4.392
X-11.402 Y3.741
X-11.599 Y3.078
X-11.757 Y2.405
X-11.876 Y1.723
X-11.955 Y1.036
X-11.995 Y0.346
Y-0.346
X-11.955 Y-1.036
X-11.876 Y-1.723
X-11.757 Y-2.405
X-11.599 Y-3.078
X-11.402 Y-3.741
X-11.167 Y-4.392
X-10.896 Y-5.028
X-10.588 Y-5.647
X-10.245 Y-6.248
X-9.868 Y-6.828
X-9.458 Y-7.385
X-9.017 Y-7.918
X-8.546 Y-8.424
X-8.047 Y-8.902
X-7.52 Y-9.351
X-6.969 Y-9.769
X-6.395 Y-10.154
X-5.799 Y-10.506
X-5.184 Y-10.822
X-4.552 Y-11.103
X-3.905 Y-11.347
X-3.245 Y-11.553
X-2.574 Y-11.721
X-1.894 Y-11.849
X-1.208 Y-11.939
X-0.519 Y-11.989
X0.173 Y-11.999
X0.864 Y-11.969
X1.552 Y-11.899
X2.235 Y-11.79
X2.911 Y-11.642
X3.576 Y-11.455
X4.23 Y-11.23
X4.87 Y-10.967
X5.494 Y-10.668
X6.1 Y-10.334
X6.685 Y-9.966
X7.248 Y-9.564
X7.787 Y-9.13
X8.3 Y-8.667
X8.785 Y-8.174
X9.242 Y-7.654
X9.667 Y-7.109
X10.061 Y-6.541
X10.421 Y-5.95
X10.747 Y-5.34
X11.036 Y-4.712
X11.289 Y-4.068
X11.505 Y-3.411
X11.682 Y-2.742
X11.821 Y-2.065
X11.92 Y-1.38
X11.98 Y-0.691
X12 Y0
Z-4.4 F100
X11.98 Y0.691 F300
X11.92 Y1.38
X11.821 Y2.065
X11.682 Y2.742
X11.505 Y3.411
X11.289 Y4.068
X11.036 Y4.712
X10.747 Y5.34
X10.421 Y5.95
X10.061 Y6.541
X9.667 Y7.109
X9.242 Y7.654
X8.785 Y8.174
X8.3 Y8.667
X7.787 Y9.13
X7.248 Y9.564
X6.685 Y9.966
X6.1 Y10.334
X5.494 Y10.668
X4.87 Y10.967
X4.23 Y11.23
X3.576 Y11.455
X2.911 Y11.642
X2.235 Y11.79
X1.552 Y11.899
X0.864 Y11.969
X0.173 Y11.999
X-0.519 Y11.989
X-1.208 Y11.939
X-1.894 Y11.849
X-2.574 Y11.721
X-3.245 Y11.553
X-3.905 Y11.347
X-4.552 Y11.103
X-5.184 Y10.822
X-5.799 Y10.506
X-6.395 Y10.154
X-6.969 Y9.769
X-7.52 Y9.351
X-8.047 Y8.902
X-8.546 Y8.424
X-9.017 Y7.918
X-9.458 Y7.385
X-9.868 Y6.828
X-10.245 Y6.248
X-10.588 Y5.647
X-10.896 Y5.028
X-11.167 Y4.392
X-11.402 Y3.741
X-11.599 Y3.078
X-11.757 Y2.405
X-11.876 Y1.723
X-11.955 Y1.036
X-11.995 Y0.346
Y-0.346
X-11.955 Y-1.036
X-11.876 Y-1.723
X-11.757 Y-2.405
X-11.599 Y-3.078
X-11.402 Y-3.741
X-11.167 Y-4.392
X-10.896 Y-5.028
X-10.588 Y-5.647
X-10.245 Y-6.248
X-9.868 Y-6.828
X-9.458 Y-7.385
X-9.017 Y-7.918
X-8.546 Y-8.424
X-8.047 Y-8.902
X-7.52 Y-9.351
X-6.969 Y-9.769
X-6.395 Y-10.154
X-5.799 Y-10.506
X-5.184 Y-10.822
X-4.552 Y-11.103
X-3.905 Y-11.347
X-3.245 Y-11.553
X-2.574 Y-11.721
X-1.894 Y-11.849
X-1.208 Y-11.939
X-0.519 Y-11.989
X0.173 Y-11.999
X0.864 Y-11.969
X1.552 Y-11.899
X2.235 Y-11.79
X2.911 Y-11.642
X3.576 Y-11.455
X4.23 Y-11.23
X4.87 Y-10.967
X5.494 Y-10.668
X6.1 Y-10.334
X6.685 Y-9.966
X7.248 Y-9.564
X7.787 Y-9.13
X8.3 Y-8.667
X8.785 Y-8.174
X9.242 Y-7.654
X9.667 Y-7.109
X10.061 Y-6.541
X10.421 Y-5.95
X10.747 Y-5.34
X11.036 Y-4.712
X11.289 Y-4.068
X11.505 Y-3.411
X11.682 Y-2.742
X11.821 Y-2.065
X11.92 Y-1.38
X11.98 Y-0.691
X12 Y0
Z-4.55 F100
X11.98 Y0.691 F300
X11.92 Y1.38
X11.821 Y2.065
X11.682 Y2.742
X11.505 Y3.411
X11.289 Y4.068
X11.036 Y4.712
X10.747 Y5.34
X10.421 Y5.95
X10.061 Y6.541
X9.667 Y7.109
X9.242 Y7.654
X8.785 Y8.174
X8.3 Y8.667
X7.787 Y9.13
X7.248 Y9.564
X6.685 Y9.966
X6.1 Y10.334
X5.494 Y10.668
X4.87 Y10.967
X4.23 Y11.23
X3.576 Y11.455
X2.911 Y11.642
X2.235 Y11.79
X1.552 Y11.899
X0.864 Y11.969
X0.173 Y11.999
X-0.519 Y11.989
X-1.208 Y11.939
X-1.894 Y11.849
X-2.574 Y11.721
X-3.245 Y11.553
X-3.905 Y11.347
X-4.552 Y11.103
X-5.184 Y10.822
X-5.799 Y10.506
X-6.395 Y10.154
X-6.969 Y9.769
X-7.52 Y9.351
X-8.047 Y8.902
X-8.546 Y8.424
X-9.017 Y7.918
X-9.458 Y7.385
X-9.868 Y6.828
X-10.245 Y6.248
X-10.588 Y5.647
X-10.896 Y5.028
X-11.167 Y4.392
X-11.402 Y3.741
X-11.599 Y3.078
X-11.757 Y2.405
X-11.876 Y1.723
X-11.955 Y1.036
X-11.995 Y0.346
Y-0.346
X-11.955 Y-1.036
X-11.876 Y-1.723
X-11.757 Y-2.405
X-11.599 Y-3.078
X-11.402 Y-3.741
X-11.167 Y-4.392
X-10.896 Y-5.028
X-10.588 Y-5.647
X-10.245 Y-6.248
X-9.868 Y-6.828
X-9.458 Y-7.385
X-9.017 Y-7.918
X-8.546 Y-8.424
X-8.047 Y-8.902
X-7.52 Y-9.351
X-6.969 Y-9.769
X-6.395 Y-10.154
X-5.799 Y-10.506
X-5.184 Y-10.822
X-4.552 Y-11.103
X-3.905 Y-11.347
X-3.245 Y-11.553
X-2.574 Y-11.721
X-1.894 Y-11.849
X-1.208 Y-11.939
X-0.519 Y-11.989
X0.173 Y-11.999
X0.864 Y-11.969
X1.552 Y-11.899
X2.235 Y-11.79
X2.911 Y-11.642
X3.576 Y-11.455
X4.23 Y-11.23
X4.87 Y-10.967
X5.494 Y-10.668
X6.1 Y-10.334
X6.685 Y-9.966
X7.248 Y-9.564
X7.787 Y-9.13
X8.3 Y-8.667
X8.785 Y-8.174
X9.242 Y-7.654
X9.667 Y-7.109
X10.061 Y-6.541
X10.421 Y-5.95
X10.747 Y-5.34
X11.036 Y-4.712
X11.289 Y-4.068
X11.505 Y-3.411
X11.682 Y-2.742
X11.821 Y-2.065
X11.92 Y-1.38
X11.98 Y-0.691
X12 Y0
Z-4.7 F100
X11.98 Y0.691 F300
X11.92 Y1.38
X11.821 Y2.065
X11.682 Y2.742
X11.505 Y3.411
X11.289 Y4.068
X11.036 Y4.712
X10.747 Y5.34
X10.421 Y5.95
X10.061 Y6.541
X9.667 Y7.109
X9.242 Y7.654
X8.785 Y8.174
X8.3 Y8.667
X7.787 Y9.13
X7.248 Y9.564
X6.685 Y9.966
X6.1 Y10.334
X5.494 Y10.668
X4.87 Y10.967
X4.23 Y11.23
X3.576 Y11.455
X2.911 Y11.642
X2.235 Y11.79
X1.552 Y11.899
X0.864 Y11.969
X0.173 Y11.999
X-0.519 Y11.989
X-1.208 Y11.939
X-1.894 Y11.849
X-2.574 Y11.721
X-3.245 Y11.553
X-3.905 Y11.347
X-4.552 Y11.103
X-5.184 Y10.822
X-5.799 Y10.506
X-6.395 Y10.154
X-6.969 Y9.769
X-7.52 Y9.351
X-8.047 Y8.902
X-8.546 Y8.424
X-9.017 Y7.918
X-9.458 Y7.385
X-9.868 Y6.828
X-10.245 Y6.248
X-10.588 Y5.647
X-10.896 Y5.028
X-11.167 Y4.392
X-11.402 Y3.741
X-11.599 Y3.078
X-11.757 Y2.405
X-11.876 Y1.723
X-11.955 Y1.036
X-11.995 Y0.346
Y-0.346
X-11.955 Y-1.036
X-11.876 Y-1.723
X-11.757 Y-2.405
X-11.599 Y-3.078
X-11.402 Y-3.741
X-11.167 Y-4.392
X-10.896 Y-5.028
X-10.588 Y-5.647
X-10.245 Y-6.248
X-9.868 Y-6.828
X-9.458 Y-7.385
X-9.017 Y-7.918
X-8.546 Y-8.424
X-8.047 Y-8.902
X-7.52 Y-9.351
X-6.969 Y-9.769
X-6.395 Y-10.154
X-5.799 Y-10.506
X-5.184 Y-10.822
X-4.552 Y-11.103
X-3.905 Y-11.347
X-3.245 Y-11.553
X-2.574 Y-11.721
X-1.894 Y-11.849
X-1.208 Y-11.939
X-0.519 Y-11.989
X0.173 Y-11.999
X0.864 Y-11.969
X1.552 Y-11.899
X2.235 Y-11.79
X2.911 Y-11.642
X3.576 Y-11.455
X4.23 Y-11.23
X4.87 Y-10.967
X5.494 Y-10.668
X6.1 Y-10.334
X6.685 Y-9.966
X7.248 Y-9.564
X7.787 Y-9.13
X8.3 Y-8.667
X8.785 Y-8.174
X9.242 Y-7.654
X9.667 Y-7.109
X10.061 Y-6.541
X10.421 Y-5.95
X10.747 Y-5.34
X11.036 Y-4.712
X11.289 Y-4.068
X11.505 Y-3.411
X11.682 Y-2.742
X11.821 Y-2.065
X11.92 Y-1.38
X11.98 Y-0.691
X12 Y0
Z-4.85 F100
X11.98 Y0.691 F300
X11.92 Y1.38
X11.821 Y2.065
X11.682 Y2.742
X11.505 Y3.411
X11.289 Y4.068
X11.036 Y4.712
X10.747 Y5.34
X10.421 Y5.95
X10.061 Y6.541
X9.667 Y7.109
X9.242 Y7.654
X8.785 Y8.174
X8.3 Y8.667
X7.787 Y9.13
X7.248 Y9.564
X6.685 Y9.966
X6.1 Y10.334
X5.494 Y10.668
X4.87 Y10.967
X4.23 Y11.23
X3.576 Y11.455
X2.911 Y11.642
X2.235 Y11.79
X1.552 Y11.899
X0.864 Y11.969
X0.173 Y11.999
X-0.519 Y11.989
X-1.208 Y11.939
X-1.894 Y11.849
X-2.574 Y11.721
X-3.245 Y11.553
X-3.905 Y11.347
X-4.552 Y11.103
X-5.184 Y10.822
X-5.799 Y10.506
X-6.395 Y10.154
X-6.969 Y9.769
X-7.52 Y9.351
X-8.047 Y8.902
X-8.546 Y8.424
X-9.017 Y7.918
X-9.458 Y7.385
X-9.868 Y6.828
X-10.245 Y6.248
X-10.588 Y5.647
X-10.896 Y5.028
X-11.167 Y4.392
X-11.402 Y3.741
X-11.599 Y3.078
X-11.757 Y2.405
X-11.876 Y1.723
X-11.955 Y1.036
X-11.995 Y0.346
Y-0.346
X-11.955 Y-1.036
X-11.876 Y-1.723
X-11.757 Y-2.405
X-11.599 Y-3.078
X-11.402 Y-3.741
X-11.167 Y-4.392
X-10.896 Y-5.028
X-10.588 Y-5.647
X-10.245 Y-6.248
X-9.868 Y-6.828
X-9.458 Y-7.385
X-9.017 Y-7.918
X-8.546 Y-8.424
X-8.047 Y-8.902
X-7.52 Y-9.351
X-6.969 Y-9.769
X-6.395 Y-10.154
X-5.799 Y-10.506
X-5.184 Y-10.822
X-4.552 Y-11.103
X-3.905 Y-11.347
X-3.245 Y-11.553
X-2.574 Y-11.721
X-1.894 Y-11.849
X-1.208 Y-11.939
X-0.519 Y-11.989
X0.173 Y-11.999
X0.864 Y-11.969
X1.552 Y-11.899
X2.235 Y-11.79
X2.911 Y-11.642
X3.576 Y-11.455
X4.23 Y-11.23
X4.87 Y-10.967
X5.494 Y-10.668
X6.1 Y-10.334
X6.685 Y-9.966
X7.248 Y-9.564
X7.787 Y-9.13
X8.3 Y-8.667
X8.785 Y-8.174
X9.242 Y-7.654
X9.667 Y-7.109
X10.061 Y-6.541
X10.421 Y-5.95
X10.747 Y-5.34
X11.036 Y-4.712
X11.289 Y-4.068
X11.505 Y-3.411
X11.682 Y-2.742
X11.821 Y-2.065
X11.92 Y-1.38
X11.98 Y-0.691
X12 Y0
Z-5 F100
X11.98 Y0.691 F300
X11.92 Y1.38
X11.821 Y2.065
X11.682 Y2.742
X11.505 Y3.411
X11.289 Y4.068
X11.036 Y4.712
X10.747 Y5.34
X10.421 Y5.95
X10.061 Y6.541
X9.667 Y7.109
X9.242 Y7.654
X8.785 Y8.174
X8.3 Y8.667
X7.787 Y9.13
X7.248 Y9.564
X6.685 Y9.966
X6.1 Y10.334
X5.494 Y10.668
X4.87 Y10.967
X4.23 Y11.23
X3.576 Y11.455
X2.911 Y11.642
X2.235 Y11.79
X1.552 Y11.899
X0.864 Y11.969
X0.173 Y11.999
X-0.519 Y11.989
X-1.208 Y11.939
X-1.894 Y11.849
X-2.574 Y11.721
X-3.245 Y11.553
X-3.905 Y11.347
X-4.552 Y11.103
X-5.184 Y10.822
X-5.799 Y10.506
X-6.395 Y10.154
X-6.969 Y9.769
X-7.52 Y9.351
X-8.047 Y8.902
X-8.546 Y8.424
X-9.017 Y7.918
X-9.458 Y7.385
X-9.868 Y6.828
X-10.245 Y6.248
X-10.588 Y5.647
X-10.896 Y5.028
X-11.167 Y4.392
X-11.402 Y3.741
X-11.599 Y3.078
X-11.757 Y2.405
X-11.876 Y1.723
X-11.955 Y1.036
X-11.995 Y0.346
Y-0.346
X-11.955 Y-1.036
X-11.876 Y-1.723
X-11.757 Y-2.405
X-11.599 Y-3.078
X-11.402 Y-3.741
X-11.167 Y-4.392
X-10.896 Y-5.028
X-10.588 Y-5.647
X-10.245 Y-6.248
X-9.868 Y-6.828
X-9.458 Y-7.385
X-9.017 Y-7.918
X-8.546 Y-8.424
X-8.047 Y-8.902
X-7.52 Y-9.351
X-6.969 Y-9.769
X-6.395 Y-10.154
X-5.799 Y-10.506
X-5.184 Y-10.822
X-4.552 Y-11.103
X-3.905 Y-11.347
X-3.245 Y-11.553
X-2.574 Y-11.721
X-1.894 Y-11.849
X-1.208 Y-11.939
X-0.519 Y-11.989
X0.173 Y-11.999
X0.864 Y-11.969
X1.552 Y-11.899
X2.235 Y-11.79
X2.911 Y-11.642
X3.576 Y-11.455
X4.23 Y-11.23
X4.87 Y-10.967
X5.494 Y-10.668
X6.1 Y-10.334
X6.685 Y-9.966
X7.248 Y-9.564
X7.787 Y-9.13
X8.3 Y-8.667
X8.785 Y-8.174
X9.242 Y-7.654
X9.667 Y-7.109
X10.061 Y-6.541
X10.421 Y-5.95
X10.747 Y-5.34
X11.036 Y-4.712
X11.289 Y-4.068
X11.505 Y-3.411
X11.682 Y-2.742
X11.821 Y-2.065
X11.92 Y-1.38
X11.98 Y-0.691
X12 Y0
Z-5.15 F100
X11.98 Y0.691 F300
X11.92 Y1.38
X11.821 Y2.065
X11.682 Y2.742
X11.505 Y3.411
X11.289 Y4.068
X11.036 Y4.712
X10.747 Y5.34
X10.421 Y5.95
X10.061 Y6.541
X9.667 Y7.109
X9.242 Y7.654
X8.785 Y8.174
X8.3 Y8.667
X7.787 Y9.13
X7.248 Y9.564
X6.685 Y9.966
X6.1 Y10.334
X5.494 Y10.668
X4.87 Y10.967
X4.23 Y11.23
X3.576 Y11.455
X2.911 Y11.642
X2.235 Y11.79
X1.552 Y11.899
X0.864 Y11.969
X0.173 Y11.999
X-0.519 Y11.989
X-1.208 Y11.939
X-1.894 Y11.849
X-2.574 Y11.721
X-3.245 Y11.553
X-3.905 Y11.347
X-4.552 Y11.103
X-5.184 Y10.822
X-5.799 Y10.506
X-6.395 Y10.154
X-6.969 Y9.769
X-7.52 Y9.351
X-8.047 Y8.902
X-8.546 Y8.424
X-9.017 Y7.918
X-9.458 Y7.385
X-9.868 Y6.828
X-10.245 Y6.248
X-10.588 Y5.647
X-10.896 Y5.028
X-11.167 Y4.392
X-11.402 Y3.741
X-11.599 Y3.078
X-11.757 Y2.405
X-11.876 Y1.723
X-11.955 Y1.036
X-11.995 Y0.346
Y-0.346
X-11.955 Y-1.036
X-11.876 Y-1.723
X-11.757 Y-2.405
X-11.599 Y-3.078
X-11.402 Y-3.741
X-11.167 Y-4.392
X-10.896 Y-5.028
X-10.588 Y-5.647
X-10.245 Y-6.248
X-9.868 Y-6.828
X-9.458 Y-7.385
X-9.017 Y-7.918
X-8.546 Y-8.424
X-8.047 Y-8.902
X-7.52 Y-9.351
X-6.969 Y-9.769
X-6.395 Y-10.154
X-5.799 Y-10.506
X-5.184 Y-10.822
X-4.552 Y-11.103
X-3.905 Y-11.347
X-3.245 Y-11.553
X-2.574 Y-11.721
X-1.894 Y-11.849
X-1.208 Y-11.939
X-0.519 Y-11.989
X0.173 Y-11.999
X0.864 Y-11.969
X1.552 Y-11.899
X2.235 Y-11.79
X2.911 Y-11.642
X3.576 Y-11.455
X4.23 Y-11.23
X4.87 Y-10.967
X5.494 Y-10.668
X6.1 Y-10.334
X6.685 Y-9.966
X7.248 Y-9.564
X7.787 Y-9.13
X8.3 Y-8.667
X8.785 Y-8.174
X9.242 Y-7.654
X9.667 Y-7.109
X10.061 Y-6.541
X10.421 Y-5.95
X10.747 Y-5.34
X11.036 Y-4.712
X11.289 Y-4.068
X11.505 Y-3.411
X11.682 Y-2.742
X11.821 Y-2.065
X11.92 Y-1.38
X11.98 Y-0.691
X12 Y0
Z-5.3 F100
X11.98 Y0.691 F300
X11.92 Y1.38
X11.821 Y2.065
X11.682 Y2.742
X11.505 Y3.411
X11.289 Y4.068
X11.036 Y4.712
X10.747 Y5.34
X10.421 Y5.95
X10.061 Y6.541
X9.667 Y7.109
X9.242 Y7.654
X8.785 Y8.174
X8.3 Y8.667
X7.787 Y9.13
X7.248 Y9.564
X6.685 Y9.966
X6.1 Y10.334
X5.494 Y10.668
X4.87 Y10.967
X4.23 Y11.23
X3.576 Y11.455
X2.911 Y11.642
X2.235 Y11.79
X1.552 Y11.899
X0.864 Y11.969
X0.173 Y11.999
X-0.519 Y11.989
X-1.208 Y11.939
X-1.894 Y11.849
X-2.574 Y11.721
X-3.245 Y11.553
X-3.905 Y11.347
X-4.552 Y11.103
X-5.184 Y10.822
X-5.799 Y10.506
X-6.395 Y10.154
X-6.969 Y9.769
X-7.52 Y9.351
X-8.047 Y8.902
X-8.546 Y8.424
X-9.017 Y7.918
X-9.458 Y7.385
X-9.868 Y6.828
X-10.245 Y6.248
X-10.588 Y5.647
X-10.896 Y5.028
X-11.167 Y4.392
X-11.402 Y3.741
X-11.599 Y3.078
X-11.757 Y2.405
X-11.876 Y1.723
X-11.955 Y1.036
X-11.995 Y0.346
Y-0.346
X-11.955 Y-1.036
X-11.876 Y-1.723
X-11.757 Y-2.405
X-11.599 Y-3.078
X-11.402 Y-3.741
X-11.167 Y-4.392
X-10.896 Y-5.028
X-10.588 Y-5.647
X-10.245 Y-6.248
X-9.868 Y-6.828
X-9.458 Y-7.385
X-9.017 Y-7.918
X-8.546 Y-8.424
X-8.047 Y-8.902
X-7.52 Y-9.351
X-6.969 Y-9.769
X-6.395 Y-10.154
X-5.799 Y-10.506
X-5.184 Y-10.822
X-4.552 Y-11.103
X-3.905 Y-11.347
X-3.245 Y-11.553
X-2.574 Y-11.721
X-1.894 Y-11.849
X-1.208 Y-11.939
X-0.519 Y-11.989
X0.173 Y-11.999
X0.864 Y-11.969
X1.552 Y-11.899
X2.235 Y-11.79
X2.911 Y-11.642
X3.576 Y-11.455
X4.23 Y-11.23
X4.87 Y-10.967
X5.494 Y-10.668
X6.1 Y-10.334
X6.685 Y-9.966
X7.248 Y-9.564
X7.787 Y-9.13
X8.3 Y-8.667
X8.785 Y-8.174
X9.242 Y-7.654
X9.667 Y-7.109
X10.061 Y-6.541
X10.421 Y-5.95
X10.747 Y-5.34
X11.036 Y-4.712
X11.289 Y-4.068
X11.505 Y-3.411
X11.682 Y-2.742
X11.821 Y-2.065
X11.92 Y-1.38
X11.98 Y-0.691
X12 Y0
Z-5.45 F100
X11.98 Y0.691 F300
X11.92 Y1.38
X11.821 Y2.065
X11.682 Y2.742
X11.505 Y3.411
X11.289 Y4.068
X11.036 Y4.712
X10.747 Y5.34
X10.421 Y5.95
X10.061 Y6.541
X9.667 Y7.109
X9.242 Y7.654
X8.785 Y8.174
X8.3 Y8.667
X7.787 Y9.13
X7.248 Y9.564
X6.685 Y9.966
X6.1 Y10.334
X5.494 Y10.668
X4.87 Y10.967
X4.23 Y11.23
X3.576 Y11.455
X2.911 Y11.642
X2.235 Y11.79
X1.552 Y11.899
X0.864 Y11.969
X0.173 Y11.999
X-0.519 Y11.989
X-1.208 Y11.939
X-1.894 Y11.849
X-2.574 Y11.721
X-3.245 Y11.553
X-3.905 Y11.347
X-4.552 Y11.103
X-5.184 Y10.822
X-5.799 Y10.506
X-6.395 Y10.154
X-6.969 Y9.769
X-7.52 Y9.351
X-8.047 Y8.902
X-8.546 Y8.424
X-9.017 Y7.918
X-9.458 Y7.385
X-9.868 Y6.828
X-10.245 Y6.248
X-10.588 Y5.647
X-10.896 Y5.028
X-11.167 Y4.392
X-11.402 Y3.741
X-11.599 Y3.078
X-11.757 Y2.405
X-11.876 Y1.723
X-11.955 Y1.036
X-11.995 Y0.346
Y-0.346
X-11.955 Y-1.036
X-11.876 Y-1.723
X-11.757 Y-2.405
X-11.599 Y-3.078
X-11.402 Y-3.741
X-11.167 Y-4.392
X-10.896 Y-5.028
X-10.588 Y-5.647
X-10.245 Y-6.248
X-9.868 Y-6.828
X-9.458 Y-7.385
X-9.017 Y-7.918
X-8.546 Y-8.424
X-8.047 Y-8.902
X-7.52 Y-9.351
X-6.969 Y-9.769
X-6.395 Y-10.154
X-5.799 Y-10.506
X-5.184 Y-10.822
X-4.552 Y-11.103
X-3.905 Y-11.347
X-3.245 Y-11.553
X-2.574 Y-11.721
X-1.894 Y-11.849
X-1.208 Y-11.939
X-0.519 Y-11.989
X0.173 Y-11.999
X0.864 Y-11.969
X1.552 Y-11.899
X2.235 Y-11.79
X2.911 Y-11.642
X3.576 Y-11.455
X4.23 Y-11.23
X4.87 Y-10.967
X5.494 Y-10.668
X6.1 Y-10.334
X6.685 Y-9.966
X7.248 Y-9.564
X7.787 Y-9.13
X8.3 Y-8.667
X8.785 Y-8.174
X9.242 Y-7.654
X9.667 Y-7.109
X10.061 Y-6.541
X10.421 Y-5.95
X10.747 Y-5.34
X11.036 Y-4.712
X11.289 Y-4.068
X11.505 Y-3.411
X11.682 Y-2.742
X11.821 Y-2.065
X11.92 Y-1.38
X11.98 Y-0.691
X12 Y0
Z-5.6 F100
X11.98 Y0.691 F300
X11.92 Y1.38
X11.821 Y2.065
X11.682 Y2.742
X11.505 Y3.411
X11.289 Y4.068
X11.036 Y4.712
X10.747 Y5.34
X10.421 Y5.95
X10.061 Y6.541
X9.667 Y7.109
X9.242 Y7.654
X8.785 Y8.174
X8.3 Y8.667
X7.787 Y9.13
X7.248 Y9.564
X6.685 Y9.966
X6.1 Y10.334
X5.494 Y10.668
X4.87 Y10.967
X4.23 Y11.23
X3.576 Y11.455
X2.911 Y11.642
X2.235 Y11.79
X1.552 Y11.899
X0.864 Y11.969
X0.173 Y11.999
X-0.519 Y11.989
X-1.208 Y11.939
X-1.894 Y11.849
X-2.574 Y11.721
X-3.245 Y11.553
X-3.905 Y11.347
X-4.552 Y11.103
X-5.184 Y10.822
X-5.799 Y10.506
X-6.395 Y10.154
X-6.969 Y9.769
X-7.52 Y9.351
X-8.047 Y8.902
X-8.546 Y8.424
X-9.017 Y7.918
X-9.458 Y7.385
X-9.868 Y6.828
X-10.245 Y6.248
X-10.588 Y5.647
X-10.896 Y5.028
X-11.167 Y4.392
X-11.402 Y3.741
X-11.599 Y3.078
X-11.757 Y2.405
X-11.876 Y1.723
X-11.955 Y1.036
X-11.995 Y0.346
Y-0.346
X-11.955 Y-1.036
X-11.876 Y-1.723
X-11.757 Y-2.405
X-11.599 Y-3.078
X-11.402 Y-3.741
X-11.167 Y-4.392
X-10.896 Y-5.028
X-10.588 Y-5.647
X-10.245 Y-6.248
X-9.868 Y-6.828
X-9.458 Y-7.385
X-9.017 Y-7.918
X-8.546 Y-8.424
X-8.047 Y-8.902
X-7.52 Y-9.351
X-6.969 Y-9.769
X-6.395 Y-10.154
X-5.799 Y-10.506
X-5.184 Y-10.822
X-4.552 Y-11.103
X-3.905 Y-11.347
X-3.245 Y-11.553
X-2.574 Y-11.721
X-1.894 Y-11.849
X-1.208 Y-11.939
X-0.519 Y-11.989
X0.173 Y-11.999
X0.864 Y-11.969
X1.552 Y-11.899
X2.235 Y-11.79
X2.911 Y-11.642
X3.576 Y-11.455
X4.23 Y-11.23
X4.87 Y-10.967
X5.494 Y-10.668
X6.1 Y-10.334
X6.685 Y-9.966
X7.248 Y-9.564
X7.787 Y-9.13
X8.3 Y-8.667
X8.785 Y-8.174
X9.242 Y-7.654
X9.667 Y-7.109
X10.061 Y-6.541
X10.421 Y-5.95
X10.747 Y-5.34
X11.036 Y-4.712
X11.289 Y-4.068
X11.505 Y-3.411
X11.682 Y-2.742
X11.821 Y-2.065
X11.92 Y-1.38
X11.98 Y-0.691
X12 Y0
Z-5.75 F100
X11.98 Y0.691 F300
X11.92 Y1.38
X11.821 Y2.065
X11.682 Y2.742
X11.505 Y3.411
X11.289 Y4.068
X11.036 Y4.712
X10.747 Y5.34
X10.421 Y5.95
X10.061 Y6.541
X9.667 Y7.109
X9.242 Y7.654
X8.785 Y8.174
X8.3 Y8.667
X7.787 Y9.13
X7.248 Y9.564
X6.685 Y9.966
X6.1 Y10.334
X5.494 Y10.668
X4.87 Y10.967
X4.23 Y11.23
X3.576 Y11.455
X2.911 Y11.642
X2.235 Y11.79
X1.552 Y11.899
X0.864 Y11.969
X0.173 Y11.999
X-0.519 Y11.989
X-1.208 Y11.939
X-1.894 Y11.849
X-2.574 Y11.721
X-3.245 Y11.553
X-3.905 Y11.347
X-4.552 Y11.103
X-5.184 Y10.822
X-5.799 Y10.506
X-6.395 Y10.154
X-6.969 Y9.769
X-7.52 Y9.351
X-8.047 Y8.902
X-8.546 Y8.424
X-9.017 Y7.918
X-9.458 Y7.385
X-9.868 Y6.828
X-10.245 Y6.248
X-10.588 Y5.647
X-10.896 Y5.028
X-11.167 Y4.392
X-11.402 Y3.741
X-11.599 Y3.078
X-11.757 Y2.405
X-11.876 Y1.723
X-11.955 Y1.036
X-11.995 Y0.346
Y-0.346
X-11.955 Y-1.036
X-11.876 Y-1.723
X-11.757 Y-2.405
X-11.599 Y-3.078
X-11.402 Y-3.741
X-11.167 Y-4.392
X-10.896 Y-5.028
X-10.588 Y-5.647
X-10.245 Y-6.248
X-9.868 Y-6.828
X-9.458 Y-7.385
X-9.017 Y-7.918
X-8.546 Y-8.424
X-8.047 Y-8.902
X-7.52 Y-9.351
X-6.969 Y-9.769
X-6.395 Y-10.154
X-5.799 Y-10.506
X-5.184 Y-10.822
X-4.552 Y-11.103
X-3.905 Y-11.347
X-3.245 Y-11.553
X-2.574 Y-11.721
X-1.894 Y-11.849
X-1.208 Y-11.939
X-0.519 Y-11.989
X0.173 Y-11.999
X0.864 Y-11.969
X1.552 Y-11.899
X2.235 Y-11.79
X2.911 Y-11.642
X3.576 Y-11.455
X4.23 Y-11.23
X4.87 Y-10.967
X5.494 Y-10.668
X6.1 Y-10.334
X6.685 Y-9.966
X7.248 Y-9.564
X7.787 Y-9.13
X8.3 Y-8.667
X8.785 Y-8.174
X9.242 Y-7.654
X9.667 Y-7.109
X10.061 Y-6.541
X10.421 Y-5.95
X10.747 Y-5.34
X11.036 Y-4.712
X11.289 Y-4.068
X11.505 Y-3.411
X11.682 Y-2.742
X11.821 Y-2.065
X11.92 Y-1.38
X11.98 Y-0.691
X12 Y0
Z-5.9 F100
X11.98 Y0.691 F300
X11.92 Y1.38
X11.821 Y2.065
X11.682 Y2.742
X11.505 Y3.411
X11.289 Y4.068
X11.036 Y4.712
X10.747 Y5.34
X10.421 Y5.95
X10.061 Y6.541
X9.667 Y7.109
X9.242 Y7.654
X8.785 Y8.174
X8.3 Y8.667
X7.787 Y9.13
X7.248 Y9.564
X6.685 Y9.966
X6.1 Y10.334
X5.494 Y10.668
X4.87 Y10.967
X4.23 Y11.23
X3.576 Y11.455
X2.911 Y11.642
X2.235 Y11.79
X1.552 Y11.899
X0.864 Y11.969
X0.173 Y11.999
X-0.519 Y11.989
X-1.208 Y11.939
X-1.894 Y11.849
X-2.574 Y11.721
X-3.245 Y11.553
X-3.905 Y11.347
X-4.552 Y11.103
X-5.184 Y10.822
X-5.799 Y10.506
X-6.395 Y10.154
X-6.969 Y9.769
X-7.52 Y9.351
X-8.047 Y8.902
X-8.546 Y8.424
X-9.017 Y7.918
X-9.458 Y7.385
X-9.868 Y6.828
X-10.245 Y6.248
X-10.588 Y5.647
X-10.896 Y5.028
X-11.167 Y4.392
X-11.402 Y3.741
X-11.599 Y3.078
X-11.757 Y2.405
X-11.876 Y1.723
X-11.955 Y1.036
X-11.995 Y0.346
Y-0.346
X-11.955 Y-1.036
X-11.876 Y-1.723
X-11.757 Y-2.405
X-11.599 Y-3.078
X-11.402 Y-3.741
X-11.167 Y-4.392
X-10.896 Y-5.028
X-10.588 Y-5.647
X-10.245 Y-6.248
X-9.868 Y-6.828
X-9.458 Y-7.385
X-9.017 Y-7.918
X-8.546 Y-8.424
X-8.047 Y-8.902
X-7.52 Y-9.351
X-6.969 Y-9.769
X-6.395 Y-10.154
X-5.799 Y-10.506
X-5.184 Y-10.822
X-4.552 Y-11.103
X-3.905 Y-11.347
X-3.245 Y-11.553
X-2.574 Y-11.721
X-1.894 Y-11.849
X-1.208 Y-11.939
X-0.519 Y-11.989
X0.173 Y-11.999
X0.864 Y-11.969
X1.552 Y-11.899
X2.235 Y-11.79
X2.911 Y-11.642
X3.576 Y-11.455
X4.23 Y-11.23
X4.87 Y-10.967
X5.494 Y-10.668
X6.1 Y-10.334
X6.685 Y-9.966
X7.248 Y-9.564
X7.787 Y-9.13
X8.3 Y-8.667
X8.785 Y-8.174
X9.242 Y-7.654
X9.667 Y-7.109
X10.061 Y-6.541
X10.421 Y-5.95
X10.747 Y-5.34
X11.036 Y-4.712
X11.289 Y-4.068
X11.505 Y-3.411
X11.682 Y-2.742
X11.821 Y-2.065
X11.92 Y-1.38
X11.98 Y-0.691
X12 Y0
Z-6.05 F100
X11.98 Y0.691 F300
X11.92 Y1.38
X11.821 Y2.065
X11.682 Y2.742
X11.505 Y3.411
X11.289 Y4.068
X11.036 Y4.712
X10.747 Y5.34
X10.421 Y5.95
X10.061 Y6.541
X9.667 Y7.109
X9.242 Y7.654
X8.785 Y8.174
X8.3 Y8.667
X7.787 Y9.13
X7.248 Y9.564
X6.685 Y9.966
X6.1 Y10.334
X5.494 Y10.668
X4.87 Y10.967
X4.23 Y11.23
X3.576 Y11.455
X2.911 Y11.642
X2.235 Y11.79
X1.552 Y11.899
X0.864 Y11.969
X0.173 Y11.999
X-0.519 Y11.989
X-1.208 Y11.939
X-1.894 Y11.849
X-2.574 Y11.721
X-3.245 Y11.553
X-3.905 Y11.347
X-4.552 Y11.103
X-5.184 Y10.822
X-5.799 Y10.506
X-6.395 Y10.154
X-6.969 Y9.769
X-7.52 Y9.351
X-8.047 Y8.902
X-8.546 Y8.424
X-9.017 Y7.918
X-9.458 Y7.385
X-9.868 Y6.828
X-10.245 Y6.248
X-10.588 Y5.647
X-10.896 Y5.028
X-11.167 Y4.392
X-11.402 Y3.741
X-11.599 Y3.078
X-11.757 Y2.405
X-11.876 Y1.723
X-11.955 Y1.036
X-11.995 Y0.346
Y-0.346
X-11.955 Y-1.036
X-11.876 Y-1.723
X-11.757 Y-2.405
X-11.599 Y-3.078
X-11.402 Y-3.741
X-11.167 Y-4.392
X-10.896 Y-5.028
X-10.588 Y-5.647
X-10.245 Y-6.248
X-9.868 Y-6.828
X-9.458 Y-7.385
X-9.017 Y-7.918
X-8.546 Y-8.424
X-8.047 Y-8.902
X-7.52 Y-9.351
X-6.969 Y-9.769
X-6.395 Y-10.154
X-5.799 Y-10.506
X-5.184 Y-10.822
X-4.552 Y-11.103
X-3.905 Y-11.347
X-3.245 Y-11.553
X-2.574 Y-11.721
X-1.894 Y-11.849
X-1.208 Y-11.939
X-0.519 Y-11.989
X0.173 Y-11.999
X0.864 Y-11.969
X1.552 Y-11.899
X2.235 Y-11.79
X2.911 Y-11.642
X3.576 Y-11.455
X4.23 Y-11.23
X4.87 Y-10.967
X5.494 Y-10.668
X6.1 Y-10.334
X6.685 Y-9.966
X7.248 Y-9.564
X7.787 Y-9.13
X8.3 Y-8.667
X8.785 Y-8.174
X9.242 Y-7.654
X9.667 Y-7.109
X10.061 Y-6.541
X10.421 Y-5.95
X10.747 Y-5.34
X11.036 Y-4.712
X11.289 Y-4.068
X11.505 Y-3.411
X11.682 Y-2.742
X11.821 Y-2.065
X11.92 Y-1.38
X11.98 Y-0.691
X12 Y0
Z-6.2 F100
X11.98 Y0.691 F300
X11.92 Y1.38
X11.821 Y2.065
X11.682 Y2.742
X11.505 Y3.411
X11.289 Y4.068
X11.036 Y4.712
X10.747 Y5.34
X10.421 Y5.95
X10.061 Y6.541
X9.667 Y7.109
X9.242 Y7.654
X8.785 Y8.174
X8.3 Y8.667
X7.787 Y9.13
X7.248 Y9.564
X6.685 Y9.966
X6.1 Y10.334
X5.494 Y10.668
X4.87 Y10.967
X4.23 Y11.23
X3.576 Y11.455
X2.911 Y11.642
X2.235 Y11.79
X1.552 Y11.899
X0.864 Y11.969
X0.173 Y11.999
X-0.519 Y11.989
X-1.208 Y11.939
X-1.894 Y11.849
X-2.574 Y11.721
X-3.245 Y11.553
X-3.905 Y11.347
X-4.552 Y11.103
X-5.184 Y10.822
X-5.799 Y10.506
X-6.395 Y10.154
X-6.969 Y9.769
X-7.52 Y9.351
X-8.047 Y8.902
X-8.546 Y8.424
X-9.017 Y7.918
X-9.458 Y7.385
X-9.868 Y6.828
X-10.245 Y6.248
X-10.588 Y5.647
X-10.896 Y5.028
X-11.167 Y4.392
X-11.402 Y3.741
X-11.599 Y3.078
X-11.757 Y2.405
X-11.876 Y1.723
X-11.955 Y1.036
X-11.995 Y0.346
Y-0.346
X-11.955 Y-1.036
X-11.876 Y-1.723
X-11.757 Y-2.405
X-11.599 Y-3.078
X-11.402 Y-3.741
X-11.167 Y-4.392
X-10.896 Y-5.028
X-10.588 Y-5.647
X-10.245 Y-6.248
X-9.868 Y-6.828
X-9.458 Y-7.385
X-9.017 Y-7.918
X-8.546 Y-8.424
X-8.047 Y-8.902
X-7.52 Y-9.351
X-6.969 Y-9.769
X-6.395 Y-10.154
X-5.799 Y-10.506
X-5.184 Y-10.822
X-4.552 Y-11.103
X-3.905 Y-11.347
X-3.245 Y-11.553
X-2.574 Y-11.721
X-1.894 Y-11.849
X-1.208 Y-11.939
X-0.519 Y-11.989
X0.173 Y-11.999
X0.864 Y-11.969
X1.552 Y-11.899
X2.235 Y-11.79
X2.911 Y-11.642
X3.576 Y-11.455
X4.23 Y-11.23
X4.87 Y-10.967
X5.494 Y-10.668
X6.1 Y-10.334
X6.685 Y-9.966
X7.248 Y-9.564
X7.787 Y-9.13
X8.3 Y-8.667
X8.785 Y-8.174
X9.242 Y-7.654
X9.667 Y-7.109
X10.061 Y-6.541
X10.421 Y-5.95
X10.747 Y-5.34
X11.036 Y-4.712
X11.289 Y-4.068
X11.505 Y-3.411
X11.682 Y-2.742
X11.821 Y-2.065
X11.92 Y-1.38
X11.98 Y-0.691
X12 Y0
Z-6.35 F100
X11.98 Y0.691 F300
X11.92 Y1.38
X11.821 Y2.065
X11.682 Y2.742
X11.505 Y3.411
X11.289 Y4.068
X11.036 Y4.712
X10.747 Y5.34
X10.421 Y5.95
X10.061 Y6.541
X9.667 Y7.109
X9.242 Y7.654
X8.785 Y8.174
X8.3 Y8.667
X7.787 Y9.13
X7.248 Y9.564
X6.685 Y9.966
X6.1 Y10.334
X5.494 Y10.668
X4.87 Y10.967
X4.23 Y11.23
X3.576 Y11.455
X2.911 Y11.642
X2.235 Y11.79
X1.552 Y11.899
X0.864 Y11.969
X0.173 Y11.999
X-0.519 Y11.989
X-1.208 Y11.939
X-1.894 Y11.849
X-2.574 Y11.721
X-3.245 Y11.553
X-3.905 Y11.347
X-4.552 Y11.103
X-5.184 Y10.822
X-5.799 Y10.506
X-6.395 Y10.154
X-6.969 Y9.769
X-7.52 Y9.351
X-8.047 Y8.902
X-8.546 Y8.424
X-9.017 Y7.918
X-9.458 Y7.385
X-9.868 Y6.828
X-10.245 Y6.248
X-10.588 Y5.647
X-10.896 Y5.028
X-11.167 Y4.392
X-11.402 Y3.741
X-11.599 Y3.078
X-11.757 Y2.405
X-11.876 Y1.723
X-11.955 Y1.036
X-11.995 Y0.346
Y-0.346
X-11.955 Y-1.036
X-11.876 Y-1.723
X-11.757 Y-2.405
X-11.599 Y-3.078
X-11.402 Y-3.741
X-11.167 Y-4.392
X-10.896 Y-5.028
X-10.588 Y-5.647
X-10.245 Y-6.248
X-9.868 Y-6.828
X-9.458 Y-7.385
X-9.017 Y-7.918
X-8.546 Y-8.424
X-8.047 Y-8.902
X-7.52 Y-9.351
X-6.969 Y-9.769
X-6.395 Y-10.154
X-5.799 Y-10.506
X-5.184 Y-10.822
X-4.552 Y-11.103
X-3.905 Y-11.347
X-3.245 Y-11.553
X-2.574 Y-11.721
X-1.894 Y-11.849
X-1.208 Y-11.939
X-0.519 Y-11.989
X0.173 Y-11.999
X0.864 Y-11.969
X1.552 Y-11.899
X2.235 Y-11.79
X2.911 Y-11.642
X3.576 Y-11.455
X4.23 Y-11.23
X4.87 Y-10.967
X5.494 Y-10.668
X6.1 Y-10.334
X6.685 Y-9.966
X7.248 Y-9.564
X7.787 Y-9.13
X8.3 Y-8.667
X8.785 Y-8.174
X9.242 Y-7.654
X9.667 Y-7.109
X10.061 Y-6.541
X10.421 Y-5.95
X10.747 Y-5.34
X11.036 Y-4.712
X11.289 Y-4.068
X11.505 Y-3.411
X11.682 Y-2.742
X11.821 Y-2.065
X11.92 Y-1.38
X11.98 Y-0.691
X12 Y0
Z-6.5 F100
X11.98 Y0.691 F300
X11.92 Y1.38
X11.821 Y2.065
X11.682 Y2.742
X11.505 Y3.411
X11.289 Y4.068
X11.036 Y4.712
X10.747 Y5.34
X10.421 Y5.95
X10.061 Y6.541
X9.667 Y7.109
X9.242 Y7.654
X8.785 Y8.174
X8.3 Y8.667
X7.787 Y9.13
X7.248 Y9.564
X6.685 Y9.966
X6.1 Y10.334
X5.494 Y10.668
X4.87 Y10.967
X4.23 Y11.23
X3.576 Y11.455
X2.911 Y11.642
X2.235 Y11.79
X1.552 Y11.899
X0.864 Y11.969
X0.173 Y11.999
X-0.519 Y11.989
X-1.208 Y11.939
X-1.894 Y11.849
X-2.574 Y11.721
X-3.245 Y11.553
X-3.905 Y11.347
X-4.552 Y11.103
X-5.184 Y10.822
X-5.799 Y10.506
X-6.395 Y10.154
X-6.969 Y9.769
X-7.52 Y9.351
X-8.047 Y8.902
X-8.546 Y8.424
X-9.017 Y7.918
X-9.458 Y7.385
X-9.868 Y6.828
X-10.245 Y6.248
X-10.588 Y5.647
X-10.896 Y5.028
X-11.167 Y4.392
X-11.402 Y3.741
X-11.599 Y3.078
X-11.757 Y2.405
X-11.876 Y1.723
X-11.955 Y1.036
X-11.995 Y0.346
Y-0.346
X-11.955 Y-1.036
X-11.876 Y-1.723
X-11.757 Y-2.405
X-11.599 Y-3.078
X-11.402 Y-3.741
X-11.167 Y-4.392
X-10.896 Y-5.028
X-10.588 Y-5.647
X-10.245 Y-6.248
X-9.868 Y-6.828
X-9.458 Y-7.385
X-9.017 Y-7.918
X-8.546 Y-8.424
X-8.047 Y-8.902
X-7.52 Y-9.351
X-6.969 Y-9.769
X-6.395 Y-10.154
X-5.799 Y-10.506
X-5.184 Y-10.822
X-4.552 Y-11.103
X-3.905 Y-11.347
X-3.245 Y-11.553
X-2.574 Y-11.721
X-1.894 Y-11.849
X-1.208 Y-11.939
X-0.519 Y-11.989
X0.173 Y-11.999
X0.864 Y-11.969
X1.552 Y-11.899
X2.235 Y-11.79
X2.911 Y-11.642
X3.576 Y-11.455
X4.23 Y-11.23
X4.87 Y-10.967
X5.494 Y-10.668
X6.1 Y-10.334
X6.685 Y-9.966
X7.248 Y-9.564
X7.787 Y-9.13
X8.3 Y-8.667
X8.785 Y-8.174
X9.242 Y-7.654
X9.667 Y-7.109
X10.061 Y-6.541
X10.421 Y-5.95
X10.747 Y-5.34
X11.036 Y-4.712
X11.289 Y-4.068
X11.505 Y-3.411
X11.682 Y-2.742
X11.821 Y-2.065
X11.92 Y-1.38
X11.98 Y-0.691
X12 Y0
Z0 F100
Z15 F300
M9
G28 G91 Z0
G90
G28 G91 X0 Y0
G90
M5
M30
