(actuator_link_outline)
(Machine)
(  vendor: Autodesk)
(  model: Generic 3-axis)
(  description: This machine has XY axis on the Table and Z axis on the Head)
(T1  D=4.765 CR=0 - ZMIN=-6.5 - flat end mill)
G90 G94
G17
G21
(When using Fusion 360 for Personal Use, the feedrate of)
(rapid moves is reduced to match the feedrate of cutting)
(moves, which can increase machining time. Unrestricted rapid)
(moves are available with a Fusion 360 Subscription.)
G28 G91 Z0
G90

(Circular1)
T1
S24000 M3
G54
M8
G0 X0.477 Y-37.574
Z15
G1 Z2 F150
Z0.477 F100
G19 G3 Y-37.097 Z0 J0.476 K0
G1 Y-36.859
G17 G3 X0 Y-36.382 I-0.477 J0
G2 X0 Y36.382 I0 J36.382 F150
X0 Y-36.382 I0 J-36.382
G3 X-0.477 Y-36.859 I0 J-0.477 F100
G1 Y-37.097
G19 G2 Y-37.574 Z0.477 J0 K0.477
G1 Z5 F150
X0.477
Z1.6
Z0.076 F100
G3 Y-37.097 Z-0.4 J0.476 K0
G1 Y-36.859
G17 G3 X0 Y-36.382 I-0.477 J0
G2 X0 Y36.382 I0 J36.382 F150
X0 Y-36.382 I0 J-36.382
G3 X-0.477 Y-36.859 I0 J-0.477 F100
G1 Y-37.097
G19 G2 Y-37.574 Z0.076 J0 K0.477
G1 Z5 F150
X0.477
Z1.2
Z-0.324 F100
G3 Y-37.097 Z-0.8 J0.476 K0
G1 Y-36.859
G17 G3 X0 Y-36.382 I-0.477 J0
G2 X0 Y36.382 I0 J36.382 F150
X0 Y-36.382 I0 J-36.382
G3 X-0.477 Y-36.859 I0 J-0.477 F100
G1 Y-37.097
G19 G2 Y-37.574 Z-0.324 J0 K0.477
G1 Z5 F150
X0.477
Z0.8
Z-0.724 F100
G3 Y-37.097 Z-1.2 J0.476 K0
G1 Y-36.859
G17 G3 X0 Y-36.382 I-0.477 J0
G2 X0 Y36.382 I0 J36.382 F150
X0 Y-36.382 I0 J-36.382
G3 X-0.477 Y-36.859 I0 J-0.477 F100
G1 Y-37.097
G19 G2 Y-37.574 Z-0.724 J0 K0.477
G1 Z5 F150
X0.477
Z0.4
Z-1.123 F100
G3 Y-37.097 Z-1.6 J0.476 K0
G1 Y-36.859
G17 G3 X0 Y-36.382 I-0.477 J0
G2 X0 Y36.382 I0 J36.382 F150
X0 Y-36.382 I0 J-36.382
G3 X-0.477 Y-36.859 I0 J-0.477 F100
G1 Y-37.097
G19 G2 Y-37.574 Z-1.123 J0 K0.477
G1 Z5 F150
X0.477
Z0
Z-1.523 F100
G3 Y-37.097 Z-2 J0.476 K0
G1 Y-36.859
G17 G3 X0 Y-36.382 I-0.477 J0
G2 X0 Y36.382 I0 J36.382 F150
X0 Y-36.382 I0 J-36.382
G3 X-0.477 Y-36.859 I0 J-0.477 F100
G1 Y-37.097
G19 G2 Y-37.574 Z-1.523 J0 K0.477
G1 Z5 F150
X0.477
Z-0.4
Z-1.923 F100
G3 Y-37.097 Z-2.4 J0.476 K0
G1 Y-36.859
G17 G3 X0 Y-36.382 I-0.477 J0
G2 X0 Y36.382 I0 J36.382 F150
X0 Y-36.382 I0 J-36.382
G3 X-0.477 Y-36.859 I0 J-0.477 F100
G1 Y-37.097
G19 G2 Y-37.574 Z-1.923 J0 K0.477
G1 Z5 F150
X0.477
Z-0.8
Z-2.323 F100
G3 Y-37.097 Z-2.8 J0.476 K0
G1 Y-36.859
G17 G3 X0 Y-36.382 I-0.477 J0
G2 X0 Y36.382 I0 J36.382 F150
X0 Y-36.382 I0 J-36.382
G3 X-0.477 Y-36.859 I0 J-0.477 F100
G1 Y-37.097
G19 G2 Y-37.574 Z-2.323 J0 K0.477
G1 Z5 F150
X0.477
Z-1.2
Z-2.724 F100
G3 Y-37.097 Z-3.2 J0.476 K0
G1 Y-36.859
G17 G3 X0 Y-36.382 I-0.477 J0
G2 X0 Y36.382 I0 J36.382 F150
X0 Y-36.382 I0 J-36.382
G3 X-0.477 Y-36.859 I0 J-0.477 F100
G1 Y-37.097
G19 G2 Y-37.574 Z-2.724 J0 K0.477
G1 Z5 F150
X0.477
Z-1.6
Z-3.124 F100
G3 Y-37.097 Z-3.6 J0.476 K0
G1 Y-36.859
G17 G3 X0 Y-36.382 I-0.477 J0
G2 X0 Y36.382 I0 J36.382 F150
X0 Y-36.382 I0 J-36.382
G3 X-0.477 Y-36.859 I0 J-0.477 F100
G1 Y-37.097
G19 G2 Y-37.574 Z-3.124 J0 K0.476
G1 Z5 F150
X0.477
Z-2
Z-3.523 F100
G3 Y-37.097 Z-4 J0.476 K0
G1 Y-36.859
G17 G3 X0 Y-36.382 I-0.477 J0
G2 X0 Y36.382 I0 J36.382 F150
X0 Y-36.382 I0 J-36.382
G3 X-0.477 Y-36.859 I0 J-0.477 F100
G1 Y-37.097
G19 G2 Y-37.574 Z-3.523 J0 K0.477
G1 Z5 F150
X0.477
Z-2.4
Z-3.924 F100
G3 Y-37.097 Z-4.4 J0.476 K0
G1 Y-36.859
G17 G3 X0 Y-36.382 I-0.477 J0
G2 X0 Y36.382 I0 J36.382 F150
X0 Y-36.382 I0 J-36.382
G3 X-0.477 Y-36.859 I0 J-0.477 F100
G1 Y-37.097
G19 G2 Y-37.574 Z-3.924 J0 K0.477
G1 Z5 F150
X0.477
Z-2.8
Z-4.324 F100
G3 Y-37.097 Z-4.8 J0.476 K0
G1 Y-36.859
G17 G3 X0 Y-36.382 I-0.477 J0
G2 X0 Y36.382 I0 J36.382 F150
X0 Y-36.382 I0 J-36.382
G3 X-0.477 Y-36.859 I0 J-0.477 F100
G1 Y-37.097
G19 G2 Y-37.574 Z-4.324 J0 K0.477
G1 Z5 F150
X0.477
Z-3.2
Z-4.723 F100
G3 Y-37.097 Z-5.2 J0.476 K0
G1 Y-36.859
G17 G3 X0 Y-36.382 I-0.477 J0
G2 X0 Y36.382 I0 J36.382 F150
X0 Y-36.382 I0 J-36.382
G3 X-0.477 Y-36.859 I0 J-0.477 F100
G1 Y-37.097
G19 G2 Y-37.574 Z-4.723 J0 K0.477
G1 Z5 F150
X0.477
Z-3.6
Z-5.123 F100
G3 Y-37.097 Z-5.6 J0.476 K0
G1 Y-36.859
G17 G3 X0 Y-36.382 I-0.477 J0
G2 X0 Y36.382 I0 J36.382 F150
X0 Y-36.382 I0 J-36.382
G3 X-0.477 Y-36.859 I0 J-0.477 F100
G1 Y-37.097
G19 G2 Y-37.574 Z-5.123 J0 K0.477
G1 Z5 F150
X0.477
Z-4
Z-5.523 F100
G3 Y-37.097 Z-6 J0.476 K0
G1 Y-36.859
G17 G3 X0 Y-36.382 I-0.477 J0
G2 X0 Y36.382 I0 J36.382 F150
X0 Y-36.382 I0 J-36.382
G3 X-0.477 Y-36.859 I0 J-0.477 F100
G1 Y-37.097
G19 G2 Y-37.574 Z-5.523 J0 K0.477
G1 Z5 F150
X0.477
Z-4.25
Z-5.773 F100
G3 Y-37.097 Z-6.25 J0.476 K0
G1 Y-36.859
G17 G3 X0 Y-36.382 I-0.477 J0
G2 X0 Y36.382 I0 J36.382 F150
X0 Y-36.382 I0 J-36.382
G3 X-0.477 Y-36.859 I0 J-0.477 F100
G1 Y-37.097
G19 G2 Y-37.574 Z-5.773 J0 K0.477
G1 Z5 F150
X0.477
Z-4.5
Z-6.023 F100
G3 Y-37.097 Z-6.5 J0.476 K0
G1 Y-36.859
G17 G3 X0 Y-36.382 I-0.477 J0
G2 X0 Y36.382 I0 J36.382 F150
X0 Y-36.382 I0 J-36.382
G3 X-0.477 Y-36.859 I0 J-0.477 F100
G1 Y-37.097
G19 G2 Y-37.574 Z-6.023 J0 K0.477
G1 Z15 F150
G17
M9
G28 G91 Z0
G90
G28 G91 X0 Y0
G90
M5
M30
