(actuator_link_drill)
(Machine)
(  vendor: Autodesk)
(  model: Generic 3-axis)
(  description: This machine has XY axis on the Table and Z axis on the Head)
(T1  D=4.765 CR=0 - ZMIN=-6.5 - flat end mill)
G90 G94
G17
G21
(When using Fusion 360 for Personal Use, the feedrate of)
(rapid moves is reduced to match the feedrate of cutting)
(moves, which can increase machining time. Unrestricted rapid)
(moves are available with a Fusion 360 Subscription.)
G28 G91 Z0
G90

(Bore1)
T1
S24000 M3
G54
M8
G0 X-0.011 Y-28.99
Z15
G1 Z1.523 F150
Z0 F100
X-0.07 Y-28.931
X-0.092 Y-28.936
X-0.111 Y-28.949
X-0.124 Y-28.968
X-0.128 Y-28.99
X-0.121 Y-29.032 Z-0.018 F150
X-0.098 Y-29.069 Z-0.035
X-0.064 Y-29.095 Z-0.053
X-0.022 Y-29.107 Z-0.07
X0.021 Y-29.103 Z-0.088
X0.059 Y-29.084 Z-0.106
X0.089 Y-29.052 Z-0.123
X0.104 Y-29.012 Z-0.141
X0.105 Y-28.969 Z-0.159
X0.089 Y-28.929 Z-0.176
X0.061 Y-28.897 Z-0.194
X0.022 Y-28.877 Z-0.211
X-0.021 Y-28.873 Z-0.229
X-0.062 Y-28.884 Z-0.247
X-0.097 Y-28.91 Z-0.264
X-0.12 Y-28.946 Z-0.282
X-0.128 Y-28.989 Z-0.299
X-0.121 Y-29.031 Z-0.317
X-0.099 Y-29.068 Z-0.335
X-0.065 Y-29.095 Z-0.352
X-0.023 Y-29.107 Z-0.37
X0.02 Y-29.104 Z-0.388
X0.058 Y-29.085 Z-0.405
X0.088 Y-29.054 Z-0.423
X0.104 Y-29.014 Z-0.44
X0.105 Y-28.971 Z-0.458
X0.09 Y-28.93 Z-0.476
X0.062 Y-28.898 Z-0.493
X0.023 Y-28.878 Z-0.511
X-0.019 Y-28.873 Z-0.528
X-0.061 Y-28.884 Z-0.546
X-0.096 Y-28.909 Z-0.564
X-0.12 Y-28.945 Z-0.581
X-0.128 Y-28.987 Z-0.599
X-0.121 Y-29.03 Z-0.617
X-0.1 Y-29.067 Z-0.634
X-0.066 Y-29.094 Z-0.652
X-0.025 Y-29.107 Z-0.669
X0.018 Y-29.104 Z-0.687
X0.057 Y-29.086 Z-0.705
X0.087 Y-29.055 Z-0.722
X0.104 Y-29.015 Z-0.74
X0.105 Y-28.972 Z-0.757
X0.091 Y-28.931 Z-0.775
X0.063 Y-28.898 Z-0.793
X0.025 Y-28.878 Z-0.81
X-0.018 Y-28.873 Z-0.828
X-0.06 Y-28.883 Z-0.846
X-0.095 Y-28.908 Z-0.863
X-0.119 Y-28.944 Z-0.881
X-0.128 Y-28.986 Z-0.898
X-0.122 Y-29.029 Z-0.916
X-0.101 Y-29.066 Z-0.934
X-0.067 Y-29.093 Z-0.951
X-0.026 Y-29.107 Z-0.969
X0.017 Y-29.104 Z-0.986
X0.056 Y-29.086 Z-1.004
X0.086 Y-29.056 Z-1.022
X0.104 Y-29.016 Z-1.039
X0.105 Y-28.973 Z-1.057
X0.091 Y-28.932 Z-1.075
X0.064 Y-28.899 Z-1.092
X0.026 Y-28.879 Z-1.11
X-0.017 Y-28.873 Z-1.127
X-0.059 Y-28.883 Z-1.145
X-0.094 Y-28.907 Z-1.163
X-0.119 Y-28.943 Z-1.18
X-0.128 Y-28.985 Z-1.198
X-0.122 Y-29.027 Z-1.215
X-0.101 Y-29.065 Z-1.233
X-0.068 Y-29.093 Z-1.251
X-0.027 Y-29.106 Z-1.268
X0.016 Y-29.105 Z-1.286
X0.055 Y-29.087 Z-1.304
X0.086 Y-29.057 Z-1.321
X0.103 Y-29.018 Z-1.339
X0.106 Y-28.974 Z-1.356
X0.092 Y-28.934 Z-1.374
X0.065 Y-28.9 Z-1.392
X0.027 Y-28.879 Z-1.409
X-0.015 Y-28.873 Z-1.427
X-0.057 Y-28.882 Z-1.444
X-0.093 Y-28.906 Z-1.462
X-0.118 Y-28.942 Z-1.48
X-0.128 Y-28.983 Z-1.497
X-0.123 Y-29.026 Z-1.515
X-0.102 Y-29.064 Z-1.533
X-0.069 Y-29.092 Z-1.55
X-0.029 Y-29.106 Z-1.568
X0.014 Y-29.105 Z-1.585
X0.054 Y-29.088 Z-1.603
X0.085 Y-29.058 Z-1.621
X0.103 Y-29.019 Z-1.638
X0.106 Y-28.976 Z-1.656
X0.093 Y-28.935 Z-1.673
X0.066 Y-28.901 Z-1.691
X0.028 Y-28.879 Z-1.709
X-0.014 Y-28.873 Z-1.726
X-0.056 Y-28.882 Z-1.744
X-0.092 Y-28.905 Z-1.762
X-0.117 Y-28.94 Z-1.779
X-0.128 Y-28.982 Z-1.797
X-0.123 Y-29.025 Z-1.814
X-0.103 Y-29.063 Z-1.832
X-0.071 Y-29.091 Z-1.85
X-0.03 Y-29.106 Z-1.867
X0.013 Y-29.105 Z-1.885
X0.053 Y-29.089 Z-1.902
X0.084 Y-29.059 Z-1.92
X0.103 Y-29.02 Z-1.938
X0.106 Y-28.977 Z-1.955
X0.093 Y-28.936 Z-1.973
X0.067 Y-28.902 Z-1.991
X0.03 Y-28.88 Z-2.008
X-0.013 Y-28.873 Z-2.026
X-0.055 Y-28.881 Z-2.043
X-0.091 Y-28.904 Z-2.061
X-0.117 Y-28.939 Z-2.079
X-0.128 Y-28.981 Z-2.096
X-0.124 Y-29.024 Z-2.114
X-0.104 Y-29.062 Z-2.131
X-0.072 Y-29.091 Z-2.149
X-0.031 Y-29.106 Z-2.167
X0.012 Y-29.105 Z-2.184
X0.052 Y-29.089 Z-2.202
X0.083 Y-29.06 Z-2.22
X0.102 Y-29.021 Z-2.237
X0.106 Y-28.978 Z-2.255
X0.094 Y-28.937 Z-2.272
X0.068 Y-28.903 Z-2.29
X0.031 Y-28.88 Z-2.308
X-0.011 Y-28.873 Z-2.325
X-0.054 Y-28.881 Z-2.343
X-0.09 Y-28.903 Z-2.36
X-0.116 Y-28.938 Z-2.378
X-0.128 Y-28.979 Z-2.396
X-0.124 Y-29.022 Z-2.413
X-0.105 Y-29.061 Z-2.431
X-0.073 Y-29.09 Z-2.449
X-0.033 Y-29.106 Z-2.466
X0.01 Z-2.484
X0.051 Y-29.09 Z-2.501
X0.083 Y-29.061 Z-2.519
X0.102 Y-29.023 Z-2.537
X0.106 Y-28.98 Z-2.554
X0.094 Y-28.938 Z-2.572
X0.069 Y-28.904 Z-2.589
X0.032 Y-28.881 Z-2.607
X-0.01 Y-28.873 Z-2.625
X-0.053 Y-28.88 Z-2.642
X-0.089 Y-28.903 Z-2.66
X-0.116 Y-28.937 Z-2.678
X-0.128 Y-28.978 Z-2.695
X-0.124 Y-29.021 Z-2.713
X-0.106 Y-29.06 Z-2.73
X-0.074 Y-29.089 Z-2.748
X-0.034 Y-29.105 Z-2.766
X0.009 Y-29.106 Z-2.783
X0.05 Y-29.091 Z-2.801
X0.082 Y-29.062 Z-2.818
X0.102 Y-29.024 Z-2.836
X0.106 Y-28.981 Z-2.854
X0.095 Y-28.939 Z-2.871
X0.07 Y-28.905 Z-2.889
X0.033 Y-28.881 Z-2.907
X-0.009 Y-28.873 Z-2.924
X-0.051 Y-28.88 Z-2.942
X-0.088 Y-28.902 Z-2.959
X-0.115 Y-28.936 Z-2.977
X-0.128 Y-28.977 Z-2.995
X-0.125 Y-29.02 Z-3.012
X-0.106 Y-29.059 Z-3.03
X-0.075 Y-29.089 Z-3.047
X-0.035 Y-29.105 Z-3.065
X0.008 Y-29.106 Z-3.083
X0.048 Y-29.092 Z-3.1
X0.081 Y-29.063 Z-3.118
X0.101 Y-29.025 Z-3.136
X0.106 Y-28.982 Z-3.153
X0.096 Y-28.941 Z-3.171
X0.071 Y-28.906 Z-3.188
X0.035 Y-28.882 Z-3.206
X-0.007 Y-28.873 Z-3.224
X-0.05 Y-28.879 Z-3.241
X-0.087 Y-28.901 Z-3.259
X-0.114 Y-28.934 Z-3.276
X-0.128 Y-28.975 Z-3.294
X-0.125 Y-29.018 Z-3.312
X-0.107 Y-29.058 Z-3.329
X-0.076 Y-29.088 Z-3.347
X-0.037 Y-29.105 Z-3.364
X0.006 Y-29.106 Z-3.382
X0.047 Y-29.092 Z-3.4
X0.08 Y-29.064 Z-3.417
X0.101 Y-29.026 Z-3.435
X0.106 Y-28.984 Z-3.453
X0.096 Y-28.942 Z-3.47
X0.072 Y-28.906 Z-3.488
X0.036 Y-28.882 Z-3.505
X-0.006 Y-28.873 Z-3.523
X-0.049 Y-28.879 Z-3.541
X-0.086 Y-28.9 Z-3.558
X-0.114 Y-28.933 Z-3.576
X-0.127 Y-28.974 Z-3.593
X-0.125 Y-29.017 Z-3.611
X-0.108 Y-29.057 Z-3.629
X-0.077 Y-29.087 Z-3.646
X-0.038 Y-29.104 Z-3.664
X0.005 Y-29.106 Z-3.682
X0.046 Y-29.093 Z-3.699
X0.079 Y-29.065 Z-3.717
X0.1 Y-29.028 Z-3.734
X0.106 Y-28.985 Z-3.752
X0.097 Y-28.943 Z-3.77
X0.073 Y-28.907 Z-3.787
X0.037 Y-28.883 Z-3.805
X-0.005 Y-28.873 Z-3.822
X-0.048 Y-28.878 Z-3.84
X-0.085 Y-28.899 Z-3.858
X-0.113 Y-28.932 Z-3.875
X-0.127 Y-28.973 Z-3.893
X-0.126 Y-29.016 Z-3.911
X-0.109 Y-29.055 Z-3.928
X-0.078 Y-29.086 Z-3.946
X-0.039 Y-29.104 Z-3.963
X0.004 Y-29.107 Z-3.981
X0.045 Y-29.093 Z-3.999
X0.078 Y-29.066 Z-4.016
X0.1 Y-29.029 Z-4.034
X0.106 Y-28.986 Z-4.051
X0.097 Y-28.944 Z-4.069
X0.073 Y-28.908 Z-4.087
X0.038 Y-28.883 Z-4.104
X-0.003 Y-28.873 Z-4.122
X-0.046 Y-28.878 Z-4.14
X-0.084 Y-28.898 Z-4.157
X-0.112 Y-28.931 Z-4.175
X-0.127 Y-28.971 Z-4.192
X-0.126 Y-29.015 Z-4.21
X-0.109 Y-29.054 Z-4.228
X-0.08 Y-29.086 Z-4.245
X-0.04 Y-29.104 Z-4.263
X0.003 Y-29.107 Z-4.28
X0.044 Y-29.094 Z-4.298
X0.078 Y-29.067 Z-4.316
X0.099 Y-29.03 Z-4.333
X0.107 Y-28.988 Z-4.351
X0.098 Y-28.946 Z-4.369
X0.074 Y-28.909 Z-4.386
X0.04 Y-28.884 Z-4.404
X-0.002 Y-28.873 Z-4.421
X-0.045 Y-28.878 Z-4.439
X-0.083 Y-28.897 Z-4.457
X-0.112 Y-28.93 Z-4.474
X-0.127 Y-28.97 Z-4.492
X-0.126 Y-29.013 Z-4.509
X-0.11 Y-29.053 Z-4.527
X-0.081 Y-29.085 Z-4.545
X-0.042 Y-29.103 Z-4.562
X0.001 Y-29.107 Z-4.58
X0.043 Y-29.095 Z-4.598
X0.077 Y-29.068 Z-4.615
X0.099 Y-29.032 Z-4.633
X0.107 Y-28.989 Z-4.65
X0.098 Y-28.947 Z-4.668
X0.075 Y-28.91 Z-4.686
X0.041 Y-28.885 Z-4.703
X-0.001 Y-28.873 Z-4.721
X-0.044 Y-28.877 Z-4.738
X-0.082 Y-28.897 Z-4.756
X-0.111 Y-28.929 Z-4.774
X-0.127 Y-28.969 Z-4.791
X-0.126 Y-29.012 Z-4.809
X-0.111 Y-29.052 Z-4.827
X-0.082 Y-29.084 Z-4.844
X-0.043 Y-29.103 Z-4.862
X0 Y-29.107 Z-4.879
X0.041 Y-29.095 Z-4.897
X0.076 Y-29.069 Z-4.915
X0.099 Y-29.033 Z-4.932
X0.107 Y-28.99 Z-4.95
X0.099 Y-28.948 Z-4.967
X0.076 Y-28.911 Z-4.985
X0.042 Y-28.885 Z-5.003
X0.001 Y-28.873 Z-5.02
X-0.042 Y-28.877 Z-5.038
X-0.081 Y-28.896 Z-5.056
X-0.11 Y-28.927 Z-5.073
X-0.126 Y-28.968 Z-5.091
X-0.127 Y-29.011 Z-5.108
X-0.111 Y-29.051 Z-5.126
X-0.083 Y-29.083 Z-5.144
X-0.044 Y-29.103 Z-5.161
X-0.001 Y-29.107 Z-5.179
X0.04 Y-29.096 Z-5.196
X0.075 Y-29.07 Z-5.214
X0.098 Y-29.034 Z-5.232
X0.107 Y-28.992 Z-5.249
X0.099 Y-28.949 Z-5.267
X0.077 Y-28.912 Z-5.285
X0.043 Y-28.886 Z-5.302
X0.002 Y-28.873 Z-5.32
X-0.041 Y-28.877 Z-5.337
X-0.08 Y-28.895 Z-5.355
X-0.11 Y-28.926 Z-5.373
X-0.126 Y-28.966 Z-5.39
X-0.127 Y-29.009 Z-5.408
X-0.112 Y-29.05 Z-5.425
X-0.084 Y-29.082 Z-5.443
X-0.046 Y-29.102 Z-5.461
X-0.003 Y-29.107 Z-5.478
X0.039 Y-29.096 Z-5.496
X0.074 Y-29.071 Z-5.514
X0.098 Y-29.035 Z-5.531
X0.107 Y-28.993 Z-5.549
X0.1 Y-28.951 Z-5.566
X0.078 Y-28.913 Z-5.584
X0.044 Y-28.886 Z-5.602
X0.003 Y-28.873 Z-5.619
X-0.04 Y-28.876 Z-5.637
X-0.079 Y-28.894 Z-5.654
X-0.109 Y-28.925 Z-5.672
X-0.126 Y-28.965 Z-5.69
X-0.127 Y-29.008 Z-5.707
X-0.113 Y-29.049 Z-5.725
X-0.085 Y-29.081 Z-5.743
X-0.047 Y-29.102 Z-5.76
X-0.004 Y-29.107 Z-5.778
X0.038 Y-29.097 Z-5.795
X0.073 Y-29.072 Z-5.813
X0.097 Y-29.036 Z-5.831
X0.106 Y-28.994 Z-5.848
X0.1 Y-28.952 Z-5.866
X0.079 Y-28.914 Z-5.883
X0.045 Y-28.887 Z-5.901
X0.005 Y-28.874 Z-5.919
X-0.039 Y-28.876 Z-5.936
X-0.078 Y-28.894 Z-5.954
X-0.108 Y-28.924 Z-5.972
X-0.125 Y-28.964 Z-5.989
X-0.127 Y-29.007 Z-6.007
X-0.113 Y-29.048 Z-6.024
X-0.086 Y-29.081 Z-6.042
X-0.048 Y-29.102 Z-6.06
X-0.005 Y-29.107 Z-6.077
X0.037 Y-29.098 Z-6.095
X0.072 Y-29.073 Z-6.112
X0.096 Y-29.038 Z-6.13
X0.106 Y-28.996 Z-6.148
X0.101 Y-28.953 Z-6.165
X0.08 Y-28.915 Z-6.183
X0.047 Y-28.888 Z-6.201
X0.006 Y-28.874 Z-6.218
X-0.037 Y-28.876 Z-6.236
X-0.077 Y-28.893 Z-6.253
X-0.107 Y-28.923 Z-6.271
X-0.125 Y-28.962 Z-6.289
X-0.127 Y-29.005 Z-6.306
X-0.114 Y-29.046 Z-6.324
X-0.087 Y-29.08 Z-6.341
X-0.049 Y-29.101 Z-6.359
X-0.007 Y-29.108 Z-6.377
X0.035 Y-29.098 Z-6.394
X0.071 Y-29.074 Z-6.412
X0.096 Y-29.039 Z-6.43
X0.106 Y-28.997 Z-6.447
X0.101 Y-28.954 Z-6.465
X0.081 Y-28.916 Z-6.482
X0.048 Y-28.888 Z-6.5
G3 X-0.07 Y-29.092 I-0.059 J-0.102
X0.048 Y-28.888 I0.059 J0.102
G1 X0.026 Y-28.881 F100
X0.003 Y-28.882
X-0.017 Y-28.893
X-0.032 Y-28.91
X-0.011 Y-28.99
Z5 F150
X-25.105 Y14.492
Z1.523
Z0 F100
X-25.164 Y14.551
X-25.187 Y14.547
X-25.206 Y14.534
X-25.218 Y14.515
X-25.223 Y14.492
X-25.215 Y14.45 Z-0.018 F150
X-25.192 Y14.413 Z-0.035
X-25.158 Y14.387 Z-0.053
X-25.116 Y14.375 Z-0.07
X-25.074 Y14.379 Z-0.088
X-25.035 Y14.398 Z-0.106
X-25.006 Y14.43 Z-0.123
X-24.99 Y14.47 Z-0.141
Y14.513 Z-0.159
X-25.005 Y14.553 Z-0.176
X-25.034 Y14.585 Z-0.194
X-25.072 Y14.605 Z-0.211
X-25.115 Y14.609 Z-0.229
X-25.157 Y14.598 Z-0.247
X-25.191 Y14.572 Z-0.264
X-25.214 Y14.536 Z-0.282
X-25.223 Y14.494 Z-0.299
X-25.215 Y14.451 Z-0.317
X-25.193 Y14.414 Z-0.335
X-25.159 Y14.388 Z-0.352
X-25.118 Y14.375 Z-0.37
X-25.075 Y14.379 Z-0.388
X-25.036 Y14.397 Z-0.405
X-25.006 Y14.429 Z-0.423
X-24.99 Y14.469 Z-0.44
X-24.989 Y14.512 Z-0.458
X-25.004 Y14.552 Z-0.476
X-25.033 Y14.585 Z-0.493
X-25.071 Y14.605 Z-0.511
X-25.114 Y14.609 Z-0.528
X-25.155 Y14.598 Z-0.546
X-25.19 Y14.573 Z-0.564
X-25.214 Y14.537 Z-0.581
X-25.223 Y14.495 Z-0.599
X-25.216 Y14.452 Z-0.617
X-25.194 Y14.415 Z-0.634
X-25.16 Y14.388 Z-0.652
X-25.119 Y14.376 Z-0.669
X-25.076 Y14.378 Z-0.687
X-25.037 Y14.397 Z-0.705
X-25.007 Y14.428 Z-0.722
X-24.99 Y14.467 Z-0.74
X-24.989 Y14.51 Z-0.757
X-25.004 Y14.551 Z-0.775
X-25.032 Y14.584 Z-0.793
X-25.07 Y14.604 Z-0.81
X-25.112 Y14.61 Z-0.828
X-25.154 Y14.599 Z-0.846
X-25.189 Y14.574 Z-0.863
X-25.213 Y14.538 Z-0.881
X-25.223 Y14.496 Z-0.898
X-25.216 Y14.454 Z-0.916
X-25.195 Y14.416 Z-0.934
X-25.161 Y14.389 Z-0.951
X-25.12 Y14.376 Z-0.969
X-25.077 Y14.378 Z-0.986
X-25.038 Y14.396 Z-1.004
X-25.008 Y14.427 Z-1.022
X-24.991 Y14.466 Z-1.039
X-24.989 Y14.509 Z-1.057
X-25.003 Y14.55 Z-1.075
X-25.031 Y14.583 Z-1.092
X-25.068 Y14.604 Z-1.11
X-25.111 Y14.61 Z-1.127
X-25.153 Y14.6 Z-1.145
X-25.189 Y14.575 Z-1.163
X-25.213 Y14.54 Z-1.18
X-25.223 Y14.498 Z-1.198
X-25.217 Y14.455 Z-1.215
X-25.196 Y14.417 Z-1.233
X-25.163 Y14.39 Z-1.251
X-25.122 Y14.376 Z-1.268
X-25.079 Y14.378 Z-1.286
X-25.039 Y14.395 Z-1.304
X-25.009 Y14.425 Z-1.321
X-24.991 Y14.465 Z-1.339
X-24.989 Y14.508 Z-1.356
X-25.002 Y14.549 Z-1.374
X-25.03 Y14.582 Z-1.392
X-25.067 Y14.603 Z-1.409
X-25.11 Y14.61 Z-1.427
X-25.152 Y14.6 Z-1.444
X-25.188 Y14.576 Z-1.462
X-25.212 Y14.541 Z-1.48
X-25.223 Y14.499 Z-1.497
X-25.217 Y14.456 Z-1.515
X-25.197 Y14.418 Z-1.533
X-25.164 Y14.39 Z-1.55
X-25.123 Y14.376 Z-1.568
X-25.08 Y14.377 Z-1.585
X-25.04 Y14.394 Z-1.603
X-25.009 Y14.424 Z-1.621
X-24.991 Y14.464 Z-1.638
X-24.989 Y14.507 Z-1.656
X-25.002 Y14.548 Z-1.673
X-25.029 Y14.581 Z-1.691
X-25.066 Y14.603 Z-1.709
X-25.108 Y14.61 Z-1.726
X-25.151 Y14.601 Z-1.744
X-25.187 Y14.577 Z-1.762
X-25.212 Y14.542 Z-1.779
X-25.223 Y14.5 Z-1.797
X-25.218 Y14.457 Z-1.814
X-25.197 Y14.419 Z-1.832
X-25.165 Y14.391 Z-1.85
X-25.124 Y14.376 Z-1.867
X-25.081 Y14.377 Z-1.885
X-25.041 Y14.394 Z-1.902
X-25.01 Y14.423 Z-1.92
X-24.992 Y14.462 Z-1.938
X-24.989 Y14.505 Z-1.955
X-25.001 Y14.546 Z-1.973
X-25.028 Y14.58 Z-1.991
X-25.065 Y14.602 Z-2.008
X-25.107 Y14.61 Z-2.026
X-25.149 Y14.601 Z-2.043
X-25.186 Y14.578 Z-2.061
X-25.211 Y14.543 Z-2.079
X-25.222 Y14.502 Z-2.096
X-25.218 Y14.459 Z-2.114
X-25.198 Y14.42 Z-2.131
X-25.166 Y14.392 Z-2.149
X-25.126 Y14.377 Z-2.167
X-25.083 Z-2.184
X-25.043 Y14.393 Z-2.202
X-25.011 Y14.422 Z-2.22
X-24.992 Y14.461 Z-2.237
X-24.988 Y14.504 Z-2.255
X-25 Y14.545 Z-2.272
X-25.027 Y14.58 Z-2.29
X-25.063 Y14.602 Z-2.308
X-25.106 Y14.61 Z-2.325
X-25.148 Y14.602 Z-2.343
X-25.185 Y14.579 Z-2.36
X-25.211 Y14.544 Z-2.378
X-25.222 Y14.503 Z-2.396
X-25.218 Y14.46 Z-2.413
X-25.199 Y14.421 Z-2.431
X-25.167 Y14.392 Z-2.449
X-25.127 Y14.377 Z-2.466
X-25.084 Z-2.484
X-25.044 Y14.392 Z-2.501
X-25.012 Y14.421 Z-2.519
X-24.992 Y14.46 Z-2.537
X-24.988 Y14.503 Z-2.554
X-25 Y14.544 Z-2.572
X-25.026 Y14.579 Z-2.589
X-25.062 Y14.602 Z-2.607
X-25.104 Y14.61 Z-2.625
X-25.147 Y14.602 Z-2.642
X-25.184 Y14.58 Z-2.66
X-25.21 Y14.546 Z-2.678
X-25.222 Y14.504 Z-2.695
X-25.219 Y14.461 Z-2.713
X-25.2 Y14.422 Z-2.73
X-25.168 Y14.393 Z-2.748
X-25.128 Y14.377 Z-2.766
X-25.085 Y14.376 Z-2.783
X-25.045 Y14.391 Z-2.801
X-25.013 Y14.42 Z-2.818
X-24.993 Y14.458 Z-2.836
X-24.988 Y14.501 Z-2.854
X-24.999 Y14.543 Z-2.871
X-25.025 Y14.578 Z-2.889
X-25.061 Y14.601 Z-2.907
X-25.103 Y14.61 Z-2.924
X-25.146 Y14.603 Z-2.942
X-25.183 Y14.581 Z-2.959
X-25.209 Y14.547 Z-2.977
X-25.222 Y14.506 Z-2.995
X-25.219 Y14.463 Z-3.012
X-25.201 Y14.424 Z-3.03
X-25.169 Y14.394 Z-3.047
X-25.13 Y14.377 Z-3.065
X-25.087 Y14.376 Z-3.083
X-25.046 Y14.391 Z-3.1
X-25.013 Y14.419 Z-3.118
X-24.993 Y14.457 Z-3.136
X-24.988 Y14.5 Z-3.153
X-24.999 Y14.542 Z-3.171
X-25.024 Y14.577 Z-3.188
X-25.06 Y14.601 Z-3.206
X-25.102 Y14.61 Z-3.224
X-25.144 Y14.603 Z-3.241
X-25.182 Y14.581 Z-3.259
X-25.209 Y14.548 Z-3.276
X-25.222 Y14.507 Z-3.294
X-25.219 Y14.464 Z-3.312
X-25.201 Y14.425 Z-3.329
X-25.171 Y14.395 Z-3.347
X-25.131 Y14.378 Z-3.364
X-25.088 Y14.376 Z-3.382
X-25.047 Y14.39 Z-3.4
X-25.014 Y14.418 Z-3.417
X-24.994 Y14.456 Z-3.435
X-24.988 Y14.499 Z-3.453
X-24.998 Y14.54 Z-3.47
X-25.023 Y14.576 Z-3.488
X-25.058 Y14.6 Z-3.505
X-25.1 Y14.61 Z-3.523
X-25.143 Y14.603 Z-3.541
X-25.181 Y14.582 Z-3.558
X-25.208 Y14.549 Z-3.576
X-25.222 Y14.508 Z-3.593
X-25.22 Y14.465 Z-3.611
X-25.202 Y14.426 Z-3.629
X-25.172 Y14.395 Z-3.646
X-25.132 Y14.378 Z-3.664
X-25.089 Y14.376 Z-3.682
X-25.048 Y14.389 Z-3.699
X-25.015 Y14.417 Z-3.717
X-24.994 Y14.455 Z-3.734
X-24.988 Y14.497 Z-3.752
X-24.998 Y14.539 Z-3.77
X-25.022 Y14.575 Z-3.787
X-25.057 Y14.599 Z-3.805
X-25.099 Y14.61 Z-3.822
X-25.142 Y14.604 Z-3.84
X-25.18 Y14.583 Z-3.858
X-25.207 Y14.55 Z-3.875
X-25.222 Y14.51 Z-3.893
X-25.22 Y14.466 Z-3.911
X-25.203 Y14.427 Z-3.928
X-25.173 Y14.396 Z-3.946
X-25.134 Y14.378 Z-3.963
X-25.09 Y14.376 Z-3.981
X-25.049 Y14.389 Z-3.999
X-25.016 Y14.416 Z-4.016
X-24.994 Y14.453 Z-4.034
X-24.988 Y14.496 Z-4.051
X-24.997 Y14.538 Z-4.069
X-25.021 Y14.574 Z-4.087
X-25.056 Y14.599 Z-4.104
X-25.098 Y14.609 Z-4.122
X-25.141 Y14.604 Z-4.14
X-25.179 Y14.584 Z-4.157
X-25.207 Y14.551 Z-4.175
X-25.221 Y14.511 Z-4.192
X-25.22 Y14.468 Z-4.21
X-25.204 Y14.428 Z-4.228
X-25.174 Y14.397 Z-4.245
X-25.135 Y14.378 Z-4.263
X-25.092 Y14.376 Z-4.28
X-25.051 Y14.388 Z-4.298
X-25.017 Y14.415 Z-4.316
X-24.995 Y14.452 Z-4.333
X-24.988 Y14.495 Z-4.351
X-24.997 Y14.537 Z-4.369
X-25.02 Y14.573 Z-4.386
X-25.055 Y14.598 Z-4.404
X-25.096 Y14.609 Z-4.421
X-25.139 Y14.605 Z-4.439
X-25.178 Y14.585 Z-4.457
X-25.206 Y14.553 Z-4.474
X-25.221 Y14.512 Z-4.492
X-25.22 Y14.469 Z-4.509
X-25.204 Y14.429 Z-4.527
X-25.175 Y14.398 Z-4.545
X-25.136 Y14.379 Z-4.562
X-25.093 Y14.375 Z-4.58
X-25.052 Y14.388 Z-4.598
X-25.018 Y14.414 Z-4.615
X-24.995 Y14.451 Z-4.633
X-24.988 Y14.493 Z-4.65
X-24.996 Y14.536 Z-4.668
X-25.019 Y14.572 Z-4.686
X-25.054 Y14.598 Z-4.703
X-25.095 Y14.609 Z-4.721
X-25.138 Y14.605 Z-4.738
X-25.177 Y14.586 Z-4.756
X-25.205 Y14.554 Z-4.774
X-25.221 Y14.513 Z-4.791
Y14.47 Z-4.809
X-25.205 Y14.43 Z-4.827
X-25.176 Y14.398 Z-4.844
X-25.137 Y14.379 Z-4.862
X-25.094 Y14.375 Z-4.879
X-25.053 Y14.387 Z-4.897
X-25.019 Y14.413 Z-4.915
X-24.996 Y14.45 Z-4.932
X-24.988 Y14.492 Z-4.95
X-24.996 Y14.534 Z-4.967
X-25.018 Y14.571 Z-4.985
X-25.052 Y14.597 Z-5.003
X-25.094 Y14.609 Z-5.02
X-25.137 Y14.605 Z-5.038
X-25.175 Y14.586 Z-5.056
X-25.205 Y14.555 Z-5.073
X-25.221 Y14.515 Z-5.091
Y14.472 Z-5.108
X-25.206 Y14.431 Z-5.126
X-25.177 Y14.399 Z-5.144
X-25.139 Y14.38 Z-5.161
X-25.096 Y14.375 Z-5.179
X-25.054 Y14.386 Z-5.196
X-25.019 Y14.412 Z-5.214
X-24.996 Y14.448 Z-5.232
X-24.988 Y14.491 Z-5.249
X-24.995 Y14.533 Z-5.267
X-25.017 Y14.57 Z-5.285
X-25.051 Y14.597 Z-5.302
X-25.092 Y14.609 Z-5.32
X-25.135 Y14.606 Z-5.337
X-25.174 Y14.587 Z-5.355
X-25.204 Y14.556 Z-5.373
X-25.22 Y14.516 Z-5.39
X-25.221 Y14.473 Z-5.408
X-25.206 Y14.432 Z-5.425
X-25.178 Y14.4 Z-5.443
X-25.14 Y14.38 Z-5.461
X-25.097 Y14.375 Z-5.478
X-25.055 Y14.386 Z-5.496
X-25.02 Y14.411 Z-5.514
X-24.997 Y14.447 Z-5.531
X-24.988 Y14.489 Z-5.549
X-24.995 Y14.532 Z-5.566
X-25.016 Y14.569 Z-5.584
X-25.05 Y14.596 Z-5.602
X-25.091 Y14.609 Z-5.619
X-25.134 Y14.606 Z-5.637
X-25.173 Y14.588 Z-5.654
X-25.203 Y14.557 Z-5.672
X-25.22 Y14.517 Z-5.69
X-25.221 Y14.474 Z-5.707
X-25.207 Y14.434 Z-5.725
X-25.179 Y14.401 Z-5.743
X-25.141 Y14.38 Z-5.76
X-25.098 Y14.375 Z-5.778
X-25.057 Y14.385 Z-5.795
X-25.021 Y14.41 Z-5.813
X-24.997 Y14.446 Z-5.831
X-24.988 Y14.488 Z-5.848
X-24.994 Y14.531 Z-5.866
X-25.015 Y14.568 Z-5.883
X-25.049 Y14.595 Z-5.901
X-25.09 Y14.609 Z-5.919
X-25.133 Y14.606 Z-5.936
X-25.172 Y14.589 Z-5.954
X-25.203 Y14.558 Z-5.972
X-25.22 Y14.519 Z-5.989
X-25.222 Y14.476 Z-6.007
X-25.208 Y14.435 Z-6.024
X-25.18 Y14.402 Z-6.042
X-25.142 Y14.381 Z-6.06
X-25.1 Y14.375 Z-6.077
X-25.058 Y14.385 Z-6.095
X-25.022 Y14.409 Z-6.112
X-24.998 Y14.445 Z-6.13
X-24.988 Y14.487 Z-6.148
X-24.994 Y14.529 Z-6.165
X-25.015 Y14.567 Z-6.183
X-25.048 Y14.595 Z-6.201
X-25.089 Y14.609 Z-6.218
X-25.132 Y14.607 Z-6.236
X-25.171 Y14.59 Z-6.253
X-25.202 Y14.559 Z-6.271
X-25.219 Y14.52 Z-6.289
X-25.222 Y14.477 Z-6.306
X-25.208 Y14.436 Z-6.324
X-25.181 Y14.403 Z-6.341
X-25.144 Y14.381 Z-6.359
X-25.101 Y14.375 Z-6.377
X-25.059 Y14.384 Z-6.394
X-25.023 Y14.408 Z-6.412
X-24.998 Y14.443 Z-6.43
X-24.988 Y14.485 Z-6.447
X-24.993 Y14.528 Z-6.465
X-25.014 Y14.566 Z-6.482
X-25.047 Y14.594 Z-6.5
G3 X-25.164 Y14.39 I-0.059 J-0.102
X-25.047 Y14.594 I0.059 J0.102
G1 X-25.068 Y14.601 F100
X-25.091 Y14.6
X-25.112 Y14.59
X-25.127 Y14.572
X-25.105 Y14.492
Z5 F150
X25.11 Y14.489
Z1.523
Z0 F100
X25.052 Y14.547
X25.029 Y14.543
X25.01 Y14.53
X24.997 Y14.511
X24.993 Y14.489
X25.001 Y14.446 Z-0.018 F150
X25.023 Y14.41 Z-0.035
X25.058 Y14.383 Z-0.053
X25.099 Y14.372 Z-0.07
X25.142 Y14.375 Z-0.088
X25.181 Y14.395 Z-0.106
X25.21 Y14.426 Z-0.123
X25.226 Y14.466 Z-0.141
Y14.509 Z-0.159
X25.211 Y14.55 Z-0.176
X25.182 Y14.582 Z-0.194
X25.143 Y14.601 Z-0.211
X25.101 Y14.606 Z-0.229
X25.059 Y14.594 Z-0.247
X25.024 Y14.569 Z-0.264
X25.001 Y14.532 Z-0.282
X24.993 Y14.49 Z-0.299
X25 Y14.447 Z-0.317
X25.023 Y14.411 Z-0.335
X25.057 Y14.384 Z-0.352
X25.098 Y14.372 Z-0.37
X25.141 Y14.375 Z-0.388
X25.18 Y14.394 Z-0.405
X25.209 Y14.425 Z-0.423
X25.225 Y14.465 Z-0.44
X25.226 Y14.508 Z-0.458
X25.211 Y14.549 Z-0.476
X25.183 Y14.581 Z-0.493
X25.145 Y14.601 Z-0.511
X25.102 Y14.606 Z-0.528
X25.06 Y14.595 Z-0.546
X25.025 Y14.57 Z-0.564
X25.002 Y14.533 Z-0.581
X24.993 Y14.491 Z-0.599
X25 Y14.449 Z-0.617
X25.022 Y14.412 Z-0.634
X25.055 Y14.385 Z-0.652
X25.097 Y14.372 Z-0.669
X25.14 Y14.375 Z-0.687
X25.179 Y14.393 Z-0.705
X25.209 Y14.424 Z-0.722
X25.225 Y14.464 Z-0.74
X25.226 Y14.507 Z-0.757
X25.212 Y14.547 Z-0.775
X25.184 Y14.58 Z-0.793
X25.146 Y14.601 Z-0.81
X25.103 Y14.606 Z-0.828
X25.061 Y14.595 Z-0.846
X25.026 Y14.571 Z-0.863
X25.002 Y14.535 Z-0.881
X24.993 Y14.493 Z-0.898
X24.999 Y14.45 Z-0.916
X25.021 Y14.413 Z-0.934
X25.054 Y14.385 Z-0.951
X25.095 Y14.372 Z-0.969
X25.138 Y14.374 Z-0.986
X25.178 Y14.392 Z-1.004
X25.208 Y14.423 Z-1.022
X25.225 Y14.462 Z-1.039
X25.227 Y14.506 Z-1.057
X25.213 Y14.546 Z-1.075
X25.185 Y14.579 Z-1.092
X25.147 Y14.6 Z-1.11
X25.105 Y14.606 Z-1.127
X25.063 Y14.596 Z-1.145
X25.027 Y14.571 Z-1.163
X25.003 Y14.536 Z-1.18
X24.993 Y14.494 Z-1.198
X24.999 Y14.451 Z-1.215
X25.02 Y14.414 Z-1.233
X25.053 Y14.386 Z-1.251
X25.094 Y14.372 Z-1.268
X25.137 Y14.374 Z-1.286
X25.176 Y14.391 Z-1.304
X25.207 Y14.422 Z-1.321
X25.225 Y14.461 Z-1.339
X25.227 Y14.504 Z-1.356
X25.213 Y14.545 Z-1.374
X25.186 Y14.578 Z-1.392
X25.149 Y14.6 Z-1.409
X25.106 Y14.606 Z-1.427
X25.064 Y14.596 Z-1.444
X25.028 Y14.572 Z-1.462
X25.003 Y14.537 Z-1.48
X24.993 Y14.495 Z-1.497
X24.999 Y14.452 Z-1.515
X25.019 Y14.415 Z-1.533
X25.052 Y14.387 Z-1.55
X25.093 Y14.372 Z-1.568
X25.136 Y14.374 Z-1.585
X25.175 Y14.391 Z-1.603
X25.206 Y14.421 Z-1.621
X25.224 Y14.46 Z-1.638
X25.227 Y14.503 Z-1.656
X25.214 Y14.544 Z-1.673
X25.187 Y14.578 Z-1.691
X25.15 Y14.599 Z-1.709
X25.107 Y14.606 Z-1.726
X25.065 Y14.597 Z-1.744
X25.029 Y14.573 Z-1.762
X25.004 Y14.538 Z-1.779
X24.993 Y14.497 Z-1.797
X24.998 Y14.454 Z-1.814
X25.018 Y14.416 Z-1.832
X25.051 Y14.387 Z-1.85
X25.091 Y14.373 Z-1.867
X25.134 Y14.374 Z-1.885
X25.174 Y14.39 Z-1.902
X25.205 Y14.42 Z-1.92
X25.224 Y14.459 Z-1.938
X25.227 Y14.502 Z-1.955
X25.215 Y14.543 Z-1.973
X25.188 Y14.577 Z-1.991
X25.151 Y14.599 Z-2.008
X25.109 Y14.606 Z-2.026
X25.066 Y14.597 Z-2.043
X25.03 Y14.574 Z-2.061
X25.004 Y14.54 Z-2.079
X24.993 Y14.498 Z-2.096
X24.998 Y14.455 Z-2.114
X25.017 Y14.417 Z-2.131
X25.05 Y14.388 Z-2.149
X25.09 Y14.373 Z-2.167
X25.133 Z-2.184
X25.173 Y14.389 Z-2.202
X25.205 Y14.419 Z-2.22
X25.224 Y14.457 Z-2.237
X25.227 Y14.5 Z-2.255
X25.215 Y14.542 Z-2.272
X25.189 Y14.576 Z-2.29
X25.152 Y14.598 Z-2.308
X25.11 Y14.606 Z-2.325
X25.068 Y14.598 Z-2.343
X25.031 Y14.575 Z-2.36
X25.005 Y14.541 Z-2.378
X24.993 Y14.499 Z-2.396
X24.997 Y14.456 Z-2.413
X25.017 Y14.418 Z-2.431
X25.048 Y14.389 Z-2.449
X25.089 Y14.373 Z-2.466
X25.132 Z-2.484
X25.172 Y14.389 Z-2.501
X25.204 Y14.417 Z-2.519
X25.223 Y14.456 Z-2.537
X25.227 Y14.499 Z-2.554
X25.216 Y14.54 Z-2.572
X25.19 Y14.575 Z-2.589
X25.154 Y14.598 Z-2.607
X25.111 Y14.606 Z-2.625
X25.069 Y14.598 Z-2.642
X25.032 Y14.576 Z-2.66
X25.006 Y14.542 Z-2.678
X24.993 Y14.501 Z-2.695
X24.997 Y14.458 Z-2.713
X25.016 Y14.419 Z-2.73
X25.047 Y14.389 Z-2.748
X25.087 Y14.373 Z-2.766
X25.13 Z-2.783
X25.171 Y14.388 Z-2.801
X25.203 Y14.416 Z-2.818
X25.223 Y14.455 Z-2.836
X25.228 Y14.498 Z-2.854
X25.216 Y14.539 Z-2.871
X25.191 Y14.574 Z-2.889
X25.155 Y14.597 Z-2.907
X25.113 Y14.606 Z-2.924
X25.07 Y14.599 Z-2.942
X25.033 Y14.577 Z-2.959
X25.006 Y14.543 Z-2.977
X24.994 Y14.502 Z-2.995
X24.997 Y14.459 Z-3.012
X25.015 Y14.42 Z-3.03
X25.046 Y14.39 Z-3.047
X25.086 Y14.374 Z-3.065
X25.129 Y14.373 Z-3.083
X25.17 Y14.387 Z-3.1
X25.202 Y14.415 Z-3.118
X25.222 Y14.453 Z-3.136
X25.228 Y14.496 Z-3.153
X25.217 Y14.538 Z-3.171
X25.192 Y14.573 Z-3.188
X25.156 Y14.597 Z-3.206
X25.114 Y14.606 Z-3.224
X25.071 Y14.599 Z-3.241
X25.034 Y14.578 Z-3.259
X25.007 Y14.544 Z-3.276
X24.994 Y14.503 Z-3.294
X24.996 Y14.46 Z-3.312
X25.014 Y14.421 Z-3.329
X25.045 Y14.391 Z-3.347
X25.085 Y14.374 Z-3.364
X25.128 Y14.372 Z-3.382
X25.169 Y14.386 Z-3.4
X25.201 Y14.414 Z-3.417
X25.222 Y14.452 Z-3.435
X25.228 Y14.495 Z-3.453
X25.218 Y14.537 Z-3.47
X25.193 Y14.572 Z-3.488
X25.157 Y14.596 Z-3.505
X25.115 Y14.606 Z-3.523
X25.073 Y14.6 Z-3.541
X25.035 Y14.579 Z-3.558
X25.008 Y14.545 Z-3.576
X24.994 Y14.505 Z-3.593
X24.996 Y14.461 Z-3.611
X25.013 Y14.422 Z-3.629
X25.044 Y14.392 Z-3.646
X25.083 Y14.374 Z-3.664
X25.126 Y14.372 Z-3.682
X25.167 Y14.386 Z-3.699
X25.201 Y14.413 Z-3.717
X25.222 Y14.451 Z-3.734
X25.228 Y14.494 Z-3.752
X25.218 Y14.536 Z-3.77
X25.194 Y14.571 Z-3.787
X25.158 Y14.596 Z-3.805
X25.117 Y14.606 Z-3.822
X25.074 Y14.6 Z-3.84
X25.036 Y14.58 Z-3.858
X25.008 Y14.547 Z-3.875
X24.994 Y14.506 Z-3.893
X24.996 Y14.463 Z-3.911
X25.013 Y14.423 Z-3.928
X25.043 Y14.392 Z-3.946
X25.082 Y14.375 Z-3.963
X25.125 Y14.372 Z-3.981
X25.166 Y14.385 Z-3.999
X25.2 Y14.412 Z-4.016
X25.221 Y14.45 Z-4.034
X25.228 Y14.492 Z-4.051
X25.219 Y14.534 Z-4.069
X25.195 Y14.57 Z-4.087
X25.16 Y14.595 Z-4.104
X25.118 Y14.606 Z-4.122
X25.075 Y14.601 Z-4.14
X25.037 Y14.58 Z-4.157
X25.009 Y14.548 Z-4.175
X24.994 Y14.507 Z-4.192
X24.995 Y14.464 Z-4.21
X25.012 Y14.424 Z-4.228
X25.042 Y14.393 Z-4.245
X25.081 Y14.375 Z-4.263
X25.124 Y14.372 Z-4.28
X25.165 Y14.385 Z-4.298
X25.199 Y14.411 Z-4.316
X25.221 Y14.448 Z-4.333
X25.228 Y14.491 Z-4.351
X25.219 Y14.533 Z-4.369
X25.196 Y14.569 Z-4.386
X25.161 Y14.595 Z-4.404
X25.119 Y14.606 Z-4.421
X25.076 Y14.601 Z-4.439
X25.038 Y14.581 Z-4.457
X25.01 Y14.549 Z-4.474
X24.995 Y14.508 Z-4.492
Y14.465 Z-4.509
X25.011 Y14.425 Z-4.527
X25.041 Y14.394 Z-4.545
X25.08 Y14.375 Z-4.562
X25.123 Y14.372 Z-4.58
X25.164 Y14.384 Z-4.598
X25.198 Y14.41 Z-4.615
X25.22 Y14.447 Z-4.633
X25.228 Y14.49 Z-4.65
X25.22 Y14.532 Z-4.668
X25.197 Y14.568 Z-4.686
X25.162 Y14.594 Z-4.703
X25.121 Y14.606 Z-4.721
X25.078 Y14.601 Z-4.738
X25.039 Y14.582 Z-4.756
X25.01 Y14.55 Z-4.774
X24.995 Y14.51 Z-4.791
Y14.467 Z-4.809
X25.011 Y14.427 Z-4.827
X25.04 Y14.395 Z-4.844
X25.078 Y14.376 Z-4.862
X25.121 Y14.372 Z-4.879
X25.163 Y14.383 Z-4.897
X25.197 Y14.409 Z-4.915
X25.22 Y14.446 Z-4.932
X25.228 Y14.488 Z-4.95
X25.22 Y14.531 Z-4.967
X25.198 Y14.567 Z-4.985
X25.163 Y14.593 Z-5.003
X25.122 Y14.605 Z-5.02
X25.079 Y14.602 Z-5.038
X25.04 Y14.583 Z-5.056
X25.011 Y14.551 Z-5.073
X24.995 Y14.511 Z-5.091
Y14.468 Z-5.108
X25.01 Y14.428 Z-5.126
X25.039 Y14.396 Z-5.144
X25.077 Y14.376 Z-5.161
X25.12 Y14.371 Z-5.179
X25.161 Y14.383 Z-5.196
X25.196 Y14.408 Z-5.214
X25.219 Y14.445 Z-5.232
X25.228 Y14.487 Z-5.249
X25.221 Y14.529 Z-5.267
X25.198 Y14.566 Z-5.285
X25.164 Y14.593 Z-5.302
X25.123 Y14.605 Z-5.32
X25.08 Y14.602 Z-5.337
X25.041 Y14.584 Z-5.355
X25.012 Y14.552 Z-5.373
X24.995 Y14.512 Z-5.39
X24.994 Y14.469 Z-5.408
X25.009 Y14.429 Z-5.425
X25.038 Y14.396 Z-5.443
X25.076 Y14.376 Z-5.461
X25.119 Y14.371 Z-5.478
X25.16 Y14.382 Z-5.496
X25.195 Y14.407 Z-5.514
X25.219 Y14.443 Z-5.531
X25.228 Y14.486 Z-5.549
X25.221 Y14.528 Z-5.566
X25.199 Y14.565 Z-5.584
X25.166 Y14.592 Z-5.602
X25.124 Y14.605 Z-5.619
X25.081 Y14.602 Z-5.637
X25.042 Y14.584 Z-5.654
X25.012 Y14.553 Z-5.672
X24.996 Y14.514 Z-5.69
X24.994 Y14.471 Z-5.707
X25.009 Y14.43 Z-5.725
X25.037 Y14.397 Z-5.743
X25.074 Y14.377 Z-5.76
X25.117 Y14.371 Z-5.778
X25.159 Y14.382 Z-5.795
X25.194 Y14.406 Z-5.813
X25.218 Y14.442 Z-5.831
X25.228 Y14.484 Z-5.848
X25.221 Y14.527 Z-5.866
X25.2 Y14.564 Z-5.883
X25.167 Y14.592 Z-5.901
X25.126 Y14.605 Z-5.919
X25.083 Y14.603 Z-5.936
X25.043 Y14.585 Z-5.954
X25.013 Y14.555 Z-5.972
X24.996 Y14.515 Z-5.989
X24.994 Y14.472 Z-6.007
X25.008 Y14.431 Z-6.024
X25.035 Y14.398 Z-6.042
X25.073 Y14.377 Z-6.06
X25.116 Y14.371 Z-6.077
X25.158 Y14.381 Z-6.095
X25.193 Y14.405 Z-6.112
X25.218 Y14.441 Z-6.13
X25.228 Y14.483 Z-6.148
X25.222 Y14.526 Z-6.165
X25.201 Y14.563 Z-6.183
X25.168 Y14.591 Z-6.201
X25.127 Y14.605 Z-6.218
X25.084 Y14.603 Z-6.236
X25.045 Y14.586 Z-6.253
X25.014 Y14.556 Z-6.271
X24.996 Y14.516 Z-6.289
X24.994 Y14.473 Z-6.306
X25.007 Y14.432 Z-6.324
X25.034 Y14.399 Z-6.341
X25.072 Y14.378 Z-6.359
X25.115 Y14.371 Z-6.377
X25.157 Y14.381 Z-6.394
X25.192 Y14.404 Z-6.412
X25.217 Y14.44 Z-6.43
X25.228 Y14.482 Z-6.447
X25.222 Y14.524 Z-6.465
X25.202 Y14.562 Z-6.482
X25.169 Y14.59 Z-6.5
G3 X25.052 Y14.387 I-0.059 J-0.102
X25.169 Y14.59 I0.059 J0.102
G1 X25.147 Y14.598 F100
X25.125 Y14.596
X25.104 Y14.586
X25.089 Y14.569
X25.11 Y14.489
Z15 F150
M9
G28 G91 Z0
G90
G28 G91 X0 Y0
G90
M5
M30
