(atc_gm6020_bottom)
(Machine)
(  vendor: Autodesk)
(  model: Generic 3-axis)
(  description: This machine has XY axis on the Table and Z axis on the Head)
(T3  D=3.1 CR=0 - ZMIN=-6.5 - flat end mill)
G90 G94
G17
G21
(When using Fusion 360 for Personal Use, the feedrate of)
(rapid moves is reduced to match the feedrate of cutting)
(moves, which can increase machining time. Unrestricted rapid)
(moves are available with a Fusion 360 Subscription.)

(2D Contour2)
T3
S24000 M3
G54
M8
G0 X-19.004 Y27.493
Z10
G1 Z5 F300
Z1.3 F150
Z0.01
G18 G2 X-18.694 Z-0.3 I0.31 K0
G1 X-18.384
G17 G3 X-18.074 Y27.803 I0 J0.31
X-37.532 Y27.803 I-9.729 J0 F300
X-18.074 Y27.803 I9.729 J0
X-18.384 Y28.113 I-0.31 J0
G1 X-18.694
G18 G3 X-19.004 Z0.01 I0 K0.31
G1 Z5
Y27.493
Z1 F150
Z-0.29
G2 X-18.694 Z-0.6 I0.31 K0
G1 X-18.384
G17 G3 X-18.074 Y27.803 I0 J0.31
X-37.532 Y27.803 I-9.729 J0 F300
X-18.074 Y27.803 I9.729 J0
X-18.384 Y28.113 I-0.31 J0
G1 X-18.694
G18 G3 X-19.004 Z-0.29 I0 K0.31
G1 Z5
Y27.493
Z0.7 F150
Z-0.59
G2 X-18.694 Z-0.9 I0.31 K0
G1 X-18.384
G17 G3 X-18.074 Y27.803 I0 J0.31
X-37.532 Y27.803 I-9.729 J0 F300
X-18.074 Y27.803 I9.729 J0
X-18.384 Y28.113 I-0.31 J0
G1 X-18.694
G18 G3 X-19.004 Z-0.59 I0 K0.31
G1 Z5
Y27.493
Z0.4 F150
Z-0.89
G2 X-18.694 Z-1.2 I0.31 K0
G1 X-18.384
G17 G3 X-18.074 Y27.803 I0 J0.31
X-37.532 Y27.803 I-9.729 J0 F300
X-18.074 Y27.803 I9.729 J0
X-18.384 Y28.113 I-0.31 J0
G1 X-18.694
G18 G3 X-19.004 Z-0.89 I0 K0.31
G1 Z5
Y27.493
Z0.1 F150
Z-1.19
G2 X-18.694 Z-1.5 I0.31 K0
G1 X-18.384
G17 G3 X-18.074 Y27.803 I0 J0.31
X-37.532 Y27.803 I-9.729 J0 F300
X-18.074 Y27.803 I9.729 J0
X-18.384 Y28.113 I-0.31 J0
G1 X-18.694
G18 G3 X-19.004 Z-1.19 I0 K0.31
G1 Z5
Y27.493
Z-0.2 F150
Z-1.49
G2 X-18.694 Z-1.8 I0.31 K0
G1 X-18.384
G17 G3 X-18.074 Y27.803 I0 J0.31
X-37.532 Y27.803 I-9.729 J0 F300
X-18.074 Y27.803 I9.729 J0
X-18.384 Y28.113 I-0.31 J0
G1 X-18.694
G18 G3 X-19.004 Z-1.49 I0 K0.31
G1 Z5
Y27.493
Z-0.5 F150
Z-1.79
G2 X-18.694 Z-2.1 I0.31 K0
G1 X-18.384
G17 G3 X-18.074 Y27.803 I0 J0.31
X-37.532 Y27.803 I-9.729 J0 F300
X-18.074 Y27.803 I9.729 J0
X-18.384 Y28.113 I-0.31 J0
G1 X-18.694
G18 G3 X-19.004 Z-1.79 I0 K0.31
G1 Z5
Y27.493
Z-0.8 F150
Z-2.09
G2 X-18.694 Z-2.4 I0.31 K0
G1 X-18.384
G17 G3 X-18.074 Y27.803 I0 J0.31
X-37.532 Y27.803 I-9.729 J0 F300
X-18.074 Y27.803 I9.729 J0
X-18.384 Y28.113 I-0.31 J0
G1 X-18.694
G18 G3 X-19.004 Z-2.09 I0 K0.31
G1 Z5
Y27.493
Z-1.1 F150
Z-2.39
G2 X-18.694 Z-2.7 I0.31 K0
G1 X-18.384
G17 G3 X-18.074 Y27.803 I0 J0.31
X-37.532 Y27.803 I-9.729 J0 F300
X-18.074 Y27.803 I9.729 J0
X-18.384 Y28.113 I-0.31 J0
G1 X-18.694
G18 G3 X-19.004 Z-2.39 I0 K0.31
G1 Z5
Y27.493
Z-1.4 F150
Z-2.69
G2 X-18.694 Z-3 I0.31 K0
G1 X-18.384
G17 G3 X-18.074 Y27.803 I0 J0.31
X-37.532 Y27.803 I-9.729 J0 F300
X-18.074 Y27.803 I9.729 J0
X-18.384 Y28.113 I-0.31 J0
G1 X-18.694
G18 G3 X-19.004 Z-2.69 I0 K0.31
G1 Z5
Y27.493
Z-1.7 F150
Z-2.99
G2 X-18.694 Z-3.3 I0.31 K0
G1 X-18.384
G17 G3 X-18.074 Y27.803 I0 J0.31
X-37.532 Y27.803 I-9.729 J0 F300
X-18.074 Y27.803 I9.729 J0
X-18.384 Y28.113 I-0.31 J0
G1 X-18.694
G18 G3 X-19.004 Z-2.99 I0 K0.31
G1 Z5
Y27.493
Z-2 F150
Z-3.29
G2 X-18.694 Z-3.6 I0.31 K0
G1 X-18.384
G17 G3 X-18.074 Y27.803 I0 J0.31
X-37.532 Y27.803 I-9.729 J0 F300
X-18.074 Y27.803 I9.729 J0
X-18.384 Y28.113 I-0.31 J0
G1 X-18.694
G18 G3 X-19.004 Z-3.29 I0 K0.31
G1 Z5
Y27.493
Z-2.3 F150
Z-3.59
G2 X-18.694 Z-3.9 I0.31 K0
G1 X-18.384
G17 G3 X-18.074 Y27.803 I0 J0.31
X-37.532 Y27.803 I-9.729 J0 F300
X-18.074 Y27.803 I9.729 J0
X-18.384 Y28.113 I-0.31 J0
G1 X-18.694
G18 G3 X-19.004 Z-3.59 I0 K0.31
G1 Z5
Y27.493
Z-2.6 F150
Z-3.89
G2 X-18.694 Z-4.2 I0.31 K0
G1 X-18.384
G17 G3 X-18.074 Y27.803 I0 J0.31
X-37.532 Y27.803 I-9.729 J0 F300
X-18.074 Y27.803 I9.729 J0
X-18.384 Y28.113 I-0.31 J0
G1 X-18.694
G18 G3 X-19.004 Z-3.89 I0 K0.31
G1 Z5
Y27.493
Z-2.9 F150
Z-4.19
G2 X-18.694 Z-4.5 I0.31 K0
G1 X-18.384
G17 G3 X-18.074 Y27.803 I0 J0.31
X-37.532 Y27.803 I-9.729 J0 F300
X-18.074 Y27.803 I9.729 J0
X-18.384 Y28.113 I-0.31 J0
G1 X-18.694
G18 G3 X-19.004 Z-4.19 I0 K0.31
G1 Z5
Y27.493
Z-3.2 F150
Z-4.49
G2 X-18.694 Z-4.8 I0.31 K0
G1 X-18.384
G17 G3 X-18.074 Y27.803 I0 J0.31
X-37.532 Y27.803 I-9.729 J0 F300
X-18.074 Y27.803 I9.729 J0
X-18.384 Y28.113 I-0.31 J0
G1 X-18.694
G18 G3 X-19.004 Z-4.49 I0 K0.31
G1 Z5
Y27.493
Z-3.5 F150
Z-4.79
G2 X-18.694 Z-5.1 I0.31 K0
G1 X-18.384
G17 G3 X-18.074 Y27.803 I0 J0.31
X-37.532 Y27.803 I-9.729 J0 F300
X-18.074 Y27.803 I9.729 J0
X-18.384 Y28.113 I-0.31 J0
G1 X-18.694
G18 G3 X-19.004 Z-4.79 I0 K0.31
G1 Z5
Y27.493
Z-3.8 F150
Z-5.09
G2 X-18.694 Z-5.4 I0.31 K0
G1 X-18.384
G17 G3 X-18.074 Y27.803 I0 J0.31
X-37.532 Y27.803 I-9.729 J0 F300
X-18.074 Y27.803 I9.729 J0
X-18.384 Y28.113 I-0.31 J0
G1 X-18.694
G18 G3 X-19.004 Z-5.09 I0 K0.31
G1 Z5
Y27.493
Z-4.1 F150
Z-5.39
G2 X-18.694 Z-5.7 I0.31 K0
G1 X-18.384
G17 G3 X-18.074 Y27.803 I0 J0.31
X-37.532 Y27.803 I-9.729 J0 F300
X-18.074 Y27.803 I9.729 J0
X-18.384 Y28.113 I-0.31 J0
G1 X-18.694
G18 G3 X-19.004 Z-5.39 I0 K0.31
G1 Z5
Y27.493
Z-4.4 F150
Z-5.69
G2 X-18.694 Z-6 I0.31 K0
G1 X-18.384
G17 G3 X-18.074 Y27.803 I0 J0.31
X-37.532 Y27.803 I-9.729 J0 F300
X-18.074 Y27.803 I9.729 J0
X-18.384 Y28.113 I-0.31 J0
G1 X-18.694
G18 G3 X-19.004 Z-5.69 I0 K0.31
G1 Z5
Y27.493
Z-4.7 F150
Z-5.99
G2 X-18.694 Z-6.3 I0.31 K0
G1 X-18.384
G17 G3 X-18.074 Y27.803 I0 J0.31
X-37.532 Y27.803 I-9.729 J0 F300
X-18.074 Y27.803 I9.729 J0
X-18.384 Y28.113 I-0.31 J0
G1 X-18.694
G18 G3 X-19.004 Z-5.99 I0 K0.31
G1 Z5
Y27.493
Z-5 F150
Z-6.19
G2 X-18.694 Z-6.5 I0.31 K0
G1 X-18.384
G17 G3 X-18.074 Y27.803 I0 J0.31
X-37.532 Y27.803 I-9.729 J0 F300
X-18.074 Y27.803 I9.729 J0
X-18.384 Y28.113 I-0.31 J0
G1 X-18.694
G18 G3 X-19.004 Z-6.19 I0 K0.31
G1 Z10
G17
(When using Fusion 360 for Personal Use, the feedrate of)
(rapid moves is reduced to match the feedrate of cutting)
(moves, which can increase machining time. Unrestricted rapid)
(moves are available with a Fusion 360 Subscription.)

(2D Pocket1)
G0 X-16.239 Y38.211
G1 Z10 F300
Z5
Z2.81 F150
X-16.221 Y38.225 Z2.694
X-16.171 Y38.265 Z2.594
X-16.099 Y38.331 Z2.527
X-16.021 Y38.415 Z2.5
G3 X-18 Y40.095 Z2.358 I-0.99 J0.84
X-16.021 Y38.415 Z2.215 I0.99 J-0.84
X-18 Y40.095 Z2.073 I-0.99 J0.84
X-16.021 Y38.415 Z1.93 I0.99 J-0.84
X-18 Y40.095 Z1.788 I-0.99 J0.84
X-16.021 Y38.415 Z1.646 I0.99 J-0.84
X-18 Y40.095 Z1.503 I-0.99 J0.84
X-16.021 Y38.415 Z1.361 I0.99 J-0.84
X-18 Y40.095 Z1.218 I-0.99 J0.84
X-16.021 Y38.415 Z1.076 I0.99 J-0.84
X-18 Y40.095 Z0.934 I-0.99 J0.84
X-16.021 Y38.415 Z0.791 I0.99 J-0.84
X-18 Y40.095 Z0.649 I-0.99 J0.84
X-16.021 Y38.415 Z0.507 I0.99 J-0.84
X-18 Y40.095 Z0.364 I-0.99 J0.84
X-16.021 Y38.415 Z0.222 I0.99 J-0.84
X-18 Y40.095 Z0.079 I-0.99 J0.84
X-16.021 Y38.415 Z-0.063 I0.99 J-0.84
X-18 Y40.095 Z-0.205 I-0.99 J0.84
X-16.982 Y37.957 Z-0.31 I0.99 J-0.84
X-17.038 Y40.553 I-0.028 J1.298 F300
X-16.982 Y37.957 I0.028 J-1.298
X-17.038 Y40.553 Z-0.452 I-0.028 J1.298 F150
X-16.982 Y37.957 Z-0.594 I0.028 J-1.298
X-16.312 Y38.161 Z-0.619 I-0.028 J1.298
X-17.708 Y40.349 I-0.698 J1.094 F300
X-16.312 Y38.161 I0.698 J-1.094
X-17.708 Y40.349 Z-0.761 I-0.698 J1.094 F150
X-16.312 Y38.161 Z-0.904 I0.698 J-1.094
X-15.846 Y38.682 Z-0.929 I-0.698 J1.094
X-18.175 Y39.828 I-1.165 J0.573 F300
X-15.846 Y38.682 I1.165 J-0.573
X-18.175 Y39.828 Z-1.071 I-1.165 J0.573 F150
X-15.846 Y38.682 Z-1.213 I1.165 J-0.573
X-15.717 Y39.37 Z-1.238 I-1.165 J0.573
X-18.303 Y39.14 I-1.293 J-0.115 F300
X-15.717 Y39.37 I1.293 J0.115
X-18.303 Y39.14 Z-1.38 I-1.293 J-0.115 F150
X-15.717 Y39.37 Z-1.523 I1.293 J0.115
X-15.965 Y40.024 Z-1.548 I-1.293 J-0.115
X-18.055 Y38.486 I-1.045 J-0.769 F300
X-15.965 Y40.024 I1.045 J0.769
X-18.055 Y38.486 Z-1.69 I-1.045 J-0.769 F150
X-15.965 Y40.024 Z-1.832 I1.045 J0.769
X-16.516 Y40.455 Z-1.857 I-1.045 J-0.769
X-17.504 Y38.055 I-0.494 J-1.2 F300
X-16.516 Y40.455 I0.494 J1.2
X-17.504 Y38.055 Z-2 I-0.494 J-1.2 F150
X-16.516 Y40.455 Z-2.142 I0.494 J1.2
X-17.211 Y40.537 Z-2.167 I-0.494 J-1.2
X-16.809 Y37.973 I0.201 J-1.282 F300
X-17.211 Y40.537 I-0.201 J1.282
X-16.809 Y37.973 Z-2.309 I0.201 J-1.282 F150
X-17.211 Y40.537 Z-2.451 I-0.201 J1.282
X-17.848 Y40.247 Z-2.476 I0.201 J-1.282
X-16.173 Y38.263 I0.837 J-0.992 F300
X-17.848 Y40.247 I-0.837 J0.992
X-16.173 Y38.263 Z-2.619 I0.837 J-0.992 F150
X-17.848 Y40.247 Z-2.761 I-0.837 J0.992
X-18.241 Y39.668 Z-2.786 I0.837 J-0.992
X-15.78 Y38.842 I1.231 J-0.413 F300
X-18.241 Y39.668 I-1.231 J0.413
X-15.78 Y38.842 Z-2.928 I1.231 J-0.413 F150
X-18.241 Y39.668 Z-3.07 I-1.231 J0.413
X-18.276 Y38.969 Z-3.095 I1.231 J-0.413
X-15.744 Y39.541 I1.266 J0.286 F300
X-18.276 Y38.969 I-1.266 J-0.286
X-15.744 Y39.541 Z-3.238 I1.266 J0.286 F150
X-18.276 Y38.969 Z-3.38 I-1.266 J-0.286
X-17.944 Y38.353 Z-3.405 I1.266 J0.286
X-16.077 Y40.157 I0.934 J0.902 F300
X-17.944 Y38.353 I-0.934 J-0.902
X-16.077 Y40.157 Z-3.547 I0.934 J0.902 F150
X-17.944 Y38.353 Z-3.69 I-0.934 J-0.902
X-17.34 Y38 Z-3.714 I0.934 J0.902
X-16.68 Y40.51 I0.33 J1.255 F300
X-17.34 Y38 I-0.33 J-1.255
X-16.68 Y40.51 Z-3.857 I0.33 J1.255 F150
X-17.34 Y38 Z-3.999 I-0.33 J-1.255
X-16.64 Y38.011 Z-4.024 I0.33 J1.255
X-17.38 Y40.499 I-0.37 J1.244 F300
X-16.64 Y38.011 I0.37 J-1.244
X-17.38 Y40.499 Z-4.166 I-0.37 J1.244 F150
X-16.64 Y38.011 Z-4.309 I0.37 J-1.244
X-16.048 Y38.384 Z-4.333 I-0.37 J1.244
X-17.972 Y40.126 I-0.962 J0.871 F300
X-16.048 Y38.384 I0.962 J-0.871
X-17.972 Y40.126 Z-4.476 I-0.962 J0.871 F150
X-16.048 Y38.384 Z-4.618 I0.962 J-0.871
X-15.736 Y39.01 Z-4.643 I-0.962 J0.871
X-18.285 Y39.5 I-1.275 J0.245 F300
X-15.736 Y39.01 I1.275 J-0.245
X-18.285 Y39.5 Z-4.785 I-1.275 J0.245 F150
X-15.736 Y39.01 Z-4.928 I1.275 J-0.245
X-15.793 Y39.707 Z-4.952 I-1.275 J0.245
X-18.227 Y38.803 I-1.217 J-0.452 F300
X-15.793 Y39.707 I1.217 J0.452
X-18.227 Y38.803 Z-5.095 I-1.217 J-0.452 F150
X-15.793 Y39.707 Z-5.237 I1.217 J0.452
X-16.205 Y40.273 Z-5.262 I-1.217 J-0.452
X-17.815 Y38.237 I-0.805 J-1.018 F300
X-16.205 Y40.273 I0.805 J1.018
X-17.815 Y38.237 Z-5.404 I-0.805 J-1.018 F150
X-16.205 Y40.273 Z-5.547 I0.805 J1.018
X-16.85 Y40.543 Z-5.571 I-0.805 J-1.018
X-17.17 Y37.967 I-0.16 J-1.288 F300
X-16.85 Y40.543 I0.16 J1.288
X-17.17 Y37.967 Z-5.714 I-0.16 J-1.288 F150
X-16.85 Y40.543 Z-5.856 I0.16 J1.288
X-17.542 Y40.439 Z-5.881 I-0.16 J-1.288
X-16.478 Y38.071 I0.532 J-1.184 F300
X-17.542 Y40.439 I-0.532 J1.184
X-16.478 Y38.071 Z-6.023 I0.532 J-1.184 F150
X-17.542 Y40.439 Z-6.166 I-0.532 J1.184
X-18.08 Y39.991 Z-6.19 I0.532 J-1.184
X-15.941 Y38.52 I1.069 J-0.735 F300
X-18.08 Y39.991 I-1.069 J0.735
X-15.941 Y38.52 Z-6.333 I1.069 J-0.735 F150
X-18.08 Y39.991 Z-6.475 I-1.069 J0.735
X-18.306 Y39.328 Z-6.5 I1.069 J-0.735
X-15.714 Y39.182 I1.296 J-0.073 F300
X-18.306 Y39.328 I-1.296 J0.073
G1 X-18.304 Y39.269 Z-6.488
X-18.29 Y39.212 Z-6.476
X-18.27 Y39.165 Z-6.443
X-18.243 Y39.123 Z-6.409
X-18.197 Y39.074 Z-6.309
X-18.178 Y39.06 Z-6.19
Z5
X-17.671 Y17.222
Z2.81 F150
X-17.675 Y17.2 Z2.694
X-17.685 Y17.136 Z2.594
X-17.694 Y17.039 Z2.527
X-17.695 Y16.924 Z2.5
G3 X-15.069 Y17.009 Z2.356 I1.313 J0.043
X-17.695 Y16.924 Z2.212 I-1.313 J-0.043
X-15.069 Y17.009 Z2.068 I1.313 J0.043
X-17.695 Y16.924 Z1.924 I-1.313 J-0.043
X-15.069 Y17.009 Z1.779 I1.313 J0.043
X-17.695 Y16.924 Z1.635 I-1.313 J-0.043
X-15.069 Y17.009 Z1.491 I1.313 J0.043
X-17.695 Y16.924 Z1.347 I-1.313 J-0.043
X-15.069 Y17.009 Z1.203 I1.313 J0.043
X-17.695 Y16.924 Z1.059 I-1.313 J-0.043
X-15.069 Y17.009 Z0.915 I1.313 J0.043
X-17.695 Y16.924 Z0.771 I-1.313 J-0.043
X-15.069 Y17.009 Z0.627 I1.313 J0.043
X-17.695 Y16.924 Z0.483 I-1.313 J-0.043
X-15.069 Y17.009 Z0.338 I1.313 J0.043
X-17.695 Y16.924 Z0.194 I-1.313 J-0.043
X-15.069 Y17.009 Z0.05 I1.313 J0.043
X-17.695 Y16.924 Z-0.094 I-1.313 J-0.043
X-15.069 Y17.009 Z-0.238 I1.313 J0.043
X-16.411 Y18.28 Z-0.31 I-1.313 J-0.043
X-16.354 Y15.654 I0.029 J-1.313 F300
X-16.411 Y18.28 I-0.029 J1.313
X-16.354 Y15.654 Z-0.454 I0.029 J-1.313 F150
X-16.411 Y18.28 Z-0.598 I-0.029 J1.313
X-16.996 Y18.128 Z-0.619 I0.029 J-1.313
X-15.768 Y15.806 I0.614 J-1.161 F300
X-16.996 Y18.128 I-0.614 J1.161
X-15.768 Y15.806 Z-0.763 I0.614 J-1.161 F150
X-16.996 Y18.128 Z-0.907 I-0.614 J1.161
X-17.452 Y17.73 Z-0.929 I0.614 J-1.161
X-15.313 Y16.204 I1.069 J-0.763 F300
X-17.452 Y17.73 I-1.069 J0.763
X-15.313 Y16.204 Z-1.073 I1.069 J-0.763 F150
X-17.452 Y17.73 Z-1.217 I-1.069 J0.763
X-17.68 Y17.169 Z-1.238 I1.069 J-0.763
X-15.084 Y16.764 I1.298 J-0.203 F300
X-17.68 Y17.169 I-1.298 J0.203
X-15.084 Y16.764 Z-1.382 I1.298 J-0.203 F150
X-17.68 Y17.169 Z-1.526 I-1.298 J0.203
X-17.633 Y16.566 Z-1.548 I1.298 J-0.203
X-15.131 Y17.367 I1.251 J0.401 F300
X-17.633 Y16.566 I-1.251 J-0.401
X-15.131 Y17.367 Z-1.692 I1.251 J0.401 F150
X-17.633 Y16.566 Z-1.836 I-1.251 J-0.401
X-17.321 Y16.048 Z-1.857 I1.251 J0.401
X-15.443 Y17.886 I0.939 J0.919 F300
X-17.321 Y16.048 I-0.939 J-0.919
X-15.443 Y17.886 Z-2.001 I0.939 J0.919 F150
X-17.321 Y16.048 Z-2.145 I-0.939 J-0.919
X-16.81 Y15.725 Z-2.167 I0.939 J0.919
X-15.955 Y18.209 I0.427 J1.242 F300
X-16.81 Y15.725 I-0.427 J-1.242
X-15.955 Y18.209 Z-2.311 I0.427 J1.242 F150
X-16.81 Y15.725 Z-2.455 I-0.427 J-1.242
X-16.208 Y15.665 Z-2.476 I0.427 J1.242
X-16.557 Y18.269 I-0.175 J1.302 F300
X-16.208 Y15.665 I0.175 J-1.302
X-16.557 Y18.269 Z-2.62 I-0.175 J1.302 F150
X-16.208 Y15.665 Z-2.764 I0.175 J-1.302
X-15.643 Y15.881 Z-2.786 I-0.175 J1.302
X-17.122 Y18.052 I-0.74 J1.086 F300
X-15.643 Y15.881 I0.74 J-1.086
X-17.122 Y18.052 Z-2.93 I-0.74 J1.086 F150
X-15.643 Y15.881 Z-3.074 I0.74 J-1.086
X-15.234 Y16.328 Z-3.095 I-0.74 J1.086
X-17.53 Y17.606 I-1.148 J0.639 F300
X-15.234 Y16.328 I1.148 J-0.639
X-17.53 Y17.606 Z-3.239 I-1.148 J0.639 F150
X-15.234 Y16.328 Z-3.383 I1.148 J-0.639
X-15.07 Y16.91 Z-3.405 I-1.148 J0.639
X-17.694 Y17.024 I-1.312 J0.057 F300
X-15.07 Y16.91 I1.312 J-0.057
X-17.694 Y17.024 Z-3.549 I-1.312 J0.057 F150
X-15.07 Y16.91 Z-3.693 I1.312 J-0.057
X-15.184 Y17.504 Z-3.714 I-1.312 J0.057
X-17.581 Y16.429 I-1.199 J-0.537 F300
X-15.184 Y17.504 I1.199 J0.537
X-17.581 Y16.429 Z-3.858 I-1.199 J-0.537 F150
X-15.184 Y17.504 Z-4.002 I1.199 J0.537
X-15.552 Y17.984 Z-4.024 I-1.199 J-0.537
X-17.213 Y15.949 I-0.831 J-1.018 F300
X-15.552 Y17.984 I0.831 J1.018
X-17.213 Y15.949 Z-4.168 I-0.831 J-1.018 F150
X-15.552 Y17.984 Z-4.312 I0.831 J1.018
X-16.096 Y18.249 Z-4.333 I-0.831 J-1.018
X-16.669 Y15.685 I-0.286 J-1.282 F300
X-16.096 Y18.249 I0.286 J1.282
X-16.669 Y15.685 Z-4.477 I-0.286 J-1.282 F150
X-16.096 Y18.249 Z-4.622 I0.286 J1.282
X-16.701 Y18.241 Z-4.643 I-0.286 J-1.282
X-16.064 Y15.692 I0.318 J-1.274 F300
X-16.701 Y18.241 I-0.318 J1.274
X-16.064 Y15.692 Z-4.787 I0.318 J-1.274 F150
X-16.701 Y18.241 Z-4.931 I-0.318 J1.274
X-17.238 Y17.963 Z-4.952 I0.318 J-1.274
X-15.526 Y15.97 I0.856 J-0.996 F300
X-17.238 Y17.963 I-0.856 J0.996
X-15.526 Y15.97 Z-5.096 I0.856 J-0.996 F150
X-17.238 Y17.963 Z-5.241 I-0.856 J0.996
X-17.594 Y17.474 Z-5.262 I0.856 J-0.996
X-15.17 Y16.46 I1.212 J-0.507 F300
X-17.594 Y17.474 I-1.212 J0.507
X-15.17 Y16.46 Z-5.406 I1.212 J-0.507 F150
X-17.594 Y17.474 Z-5.55 I-1.212 J0.507
X-17.693 Y16.877 Z-5.571 I1.212 J-0.507
X-15.072 Y17.056 I1.31 J0.09 F300
X-17.693 Y16.877 I-1.31 J-0.09
X-15.072 Y17.056 Z-5.716 I1.31 J0.09 F150
X-17.693 Y16.877 Z-5.86 I-1.31 J-0.09
X-17.513 Y16.299 Z-5.881 I1.31 J0.09
X-15.251 Y17.634 I1.131 J0.667 F300
X-17.513 Y16.299 I-1.131 J-0.667
X-15.251 Y17.634 Z-6.025 I1.131 J0.667 F150
X-17.513 Y16.299 Z-6.169 I-1.131 J-0.667
X-17.094 Y15.863 Z-6.19 I1.131 J0.667
X-15.67 Y18.071 I0.712 J1.104 F300
X-17.094 Y15.863 I-0.712 J-1.104
X-15.67 Y18.071 Z-6.335 I0.712 J1.104 F150
X-17.094 Y15.863 Z-6.479 I-0.712 J-1.104
X-16.524 Y15.661 Z-6.5 I0.712 J1.104
X-16.24 Y18.273 I0.142 J1.306 F300
X-16.524 Y15.661 I-0.142 J-1.306
G1 X-16.465 Y15.66 Z-6.488
X-16.407 Y15.671 Z-6.476
X-16.36 Y15.688 Z-6.443
X-16.316 Y15.713 Z-6.409
X-16.265 Y15.757 Z-6.309
X-16.249 Y15.774 Z-6.19
Z5
X-38.458 Y15.107
Z2.81 F150
X-38.435 Y15.109 Z2.694
X-38.372 Y15.119 Z2.594
X-38.277 Y15.139 Z2.527
X-38.167 Y15.173 Z2.5
G3 X-39.024 Y17.6 Z2.359 I-0.429 J1.214
X-38.167 Y15.173 Z2.218 I0.429 J-1.214
X-39.024 Y17.6 Z2.076 I-0.429 J1.214
X-38.167 Y15.173 Z1.935 I0.429 J-1.214
X-39.024 Y17.6 Z1.794 I-0.429 J1.214
X-38.167 Y15.173 Z1.653 I0.429 J-1.214
X-39.024 Y17.6 Z1.512 I-0.429 J1.214
X-38.167 Y15.173 Z1.37 I0.429 J-1.214
X-39.024 Y17.6 Z1.229 I-0.429 J1.214
X-38.167 Y15.173 Z1.088 I0.429 J-1.214
X-39.024 Y17.6 Z0.947 I-0.429 J1.214
X-38.167 Y15.173 Z0.806 I0.429 J-1.214
X-39.024 Y17.6 Z0.665 I-0.429 J1.214
X-38.167 Y15.173 Z0.523 I0.429 J-1.214
X-39.024 Y17.6 Z0.382 I-0.429 J1.214
X-38.167 Y15.173 Z0.241 I0.429 J-1.214
X-39.024 Y17.6 Z0.1 I-0.429 J1.214
X-38.167 Y15.173 Z-0.041 I0.429 J-1.214
X-39.024 Y17.6 Z-0.183 I-0.429 J1.214
X-38.567 Y15.1 Z-0.31 I0.429 J-1.214
X-38.623 Y17.673 I-0.028 J1.287 F300
X-38.567 Y15.1 I0.028 J-1.287
X-38.623 Y17.673 Z-0.451 I-0.028 J1.287 F150
X-38.567 Y15.1 Z-0.592 I0.028 J-1.287
X-37.841 Y15.343 Z-0.619 I-0.028 J1.287
X-39.349 Y17.429 I-0.754 J1.043 F300
X-37.841 Y15.343 I0.754 J-1.043
X-39.349 Y17.429 Z-0.76 I-0.754 J1.043 F150
X-37.841 Y15.343 Z-0.901 I0.754 J-1.043
X-37.382 Y15.956 Z-0.929 I-0.754 J1.043
X-39.808 Y16.817 I-1.213 J0.43 F300
X-37.382 Y15.956 I1.213 J-0.43
X-39.808 Y16.817 Z-1.07 I-1.213 J0.43 F150
X-37.382 Y15.956 Z-1.211 I1.213 J-0.43
X-37.352 Y16.721 Z-1.238 I-1.213 J0.43
X-39.838 Y16.052 I-1.243 J-0.335 F300
X-37.352 Y16.721 I1.243 J0.335
X-39.838 Y16.052 Z-1.379 I-1.243 J-0.335 F150
X-37.352 Y16.721 Z-1.52 I1.243 J0.335
X-37.762 Y17.368 Z-1.548 I-1.243 J-0.335
X-39.428 Y15.405 I-0.833 J-0.981 F300
X-37.762 Y17.368 I0.833 J0.981
X-39.428 Y15.405 Z-1.689 I-0.833 J-0.981 F150
X-37.762 Y17.368 Z-1.83 I0.833 J0.981
X-38.467 Y17.667 Z-1.857 I-0.833 J-0.981
X-38.723 Y15.106 I-0.128 J-1.281 F300
X-38.467 Y17.667 I0.128 J1.281
X-38.723 Y15.106 Z-1.998 I-0.128 J-1.281 F150
X-38.467 Y17.667 Z-2.14 I0.128 J1.281
X-39.217 Y17.513 Z-2.167 I-0.128 J-1.281
X-37.974 Y15.259 I0.622 J-1.127 F300
X-39.217 Y17.513 I-0.622 J1.127
X-37.974 Y15.259 Z-2.308 I0.622 J-1.127 F150
X-39.217 Y17.513 Z-2.449 I-0.622 J1.127
X-39.747 Y16.961 Z-2.476 I0.622 J-1.127
X-37.443 Y15.812 I1.152 J-0.575 F300
X-39.747 Y16.961 I-1.152 J0.575
X-37.443 Y15.812 Z-2.617 I1.152 J-0.575 F150
X-39.747 Y16.961 Z-2.759 I-1.152 J0.575
X-39.869 Y16.205 Z-2.786 I1.152 J-0.575
X-37.321 Y16.568 I1.274 J0.181 F300
X-39.869 Y16.205 I-1.274 J-0.181
X-37.321 Y16.568 Z-2.927 I1.274 J0.181 F150
X-39.869 Y16.205 Z-3.068 I-1.274 J-0.181
X-39.541 Y15.514 Z-3.095 I1.274 J0.181
X-37.649 Y17.259 I0.946 J0.873 F300
X-39.541 Y15.514 I-0.946 J-0.873
X-37.649 Y17.259 Z-3.236 I0.946 J0.873 F150
X-39.541 Y15.514 Z-3.378 I-0.946 J-0.873
X-38.878 Y15.131 Z-3.405 I0.946 J0.873
X-38.312 Y17.642 I0.283 J1.255 F300
X-38.878 Y15.131 I-0.283 J-1.255
X-38.312 Y17.642 Z-3.546 I0.283 J1.255 F150
X-38.878 Y15.131 Z-3.687 I-0.283 J-1.255
X-38.115 Y15.192 Z-3.714 I0.283 J1.255
X-39.075 Y17.58 I-0.48 J1.194 F300
X-38.115 Y15.192 I0.48 J-1.194
X-39.075 Y17.58 Z-3.855 I-0.48 J1.194 F150
X-38.115 Y15.192 Z-3.997 I0.48 J-1.194
X-37.522 Y15.676 Z-4.024 I-0.48 J1.194
X-39.668 Y17.097 I-1.073 J0.71 F300
X-37.522 Y15.676 I1.073 J-0.71
X-39.668 Y17.097 Z-4.165 I-1.073 J0.71 F150
X-37.522 Y15.676 Z-4.306 I1.073 J-0.71
X-37.308 Y16.411 Z-4.333 I-1.073 J0.71
X-39.882 Y16.361 I-1.287 J-0.025 F300
X-37.308 Y16.411 I1.287 J0.025
X-37.552 Y17.14 Z-4.36 I-1.287 J-0.025 F150
X-39.638 Y15.633 Z-4.502 I-1.043 J-0.754
X-37.552 Y17.14 Z-4.643 I1.043 J0.754
X-39.638 Y15.633 I-1.043 J-0.754 F300
X-37.552 Y17.14 I1.043 J0.754
X-39.638 Y15.633 Z-4.784 I-1.043 J-0.754 F150
X-37.552 Y17.14 Z-4.925 I1.043 J0.754
X-38.165 Y17.599 Z-4.952 I-1.043 J-0.754
X-39.026 Y15.174 I-0.43 J-1.213 F300
X-38.165 Y17.599 I0.43 J1.213
X-39.026 Y15.174 Z-5.094 I-0.43 J-1.213 F150
X-38.165 Y17.599 Z-5.235 I0.43 J1.213
X-38.93 Y17.629 Z-5.262 I-0.43 J-1.213
X-38.261 Y15.144 I0.335 J-1.243 F300
X-38.93 Y17.629 I-0.335 J1.243
X-38.261 Y15.144 Z-5.403 I0.335 J-1.243 F150
X-38.93 Y17.629 Z-5.544 I-0.335 J1.243
X-39.576 Y17.219 Z-5.571 I0.335 J-1.243
X-37.614 Y15.553 I0.981 J-0.833 F300
X-39.576 Y17.219 I-0.981 J0.833
X-37.614 Y15.553 Z-5.713 I0.981 J-0.833 F150
X-39.576 Y17.219 Z-5.854 I-0.981 J0.833
X-39.876 Y16.515 Z-5.881 I0.981 J-0.833
X-37.315 Y16.258 I1.281 J-0.128 F300
X-39.876 Y16.515 I-1.281 J0.128
X-37.315 Y16.258 Z-6.022 I1.281 J-0.128 F150
X-39.876 Y16.515 Z-6.163 I-1.281 J0.128
X-39.722 Y15.765 Z-6.19 I1.281 J-0.128
X-37.468 Y17.008 I1.127 J0.622 F300
X-39.722 Y15.765 I-1.127 J-0.622
X-37.468 Y17.008 Z-6.332 I1.127 J0.622 F150
X-39.722 Y15.765 Z-6.473 I-1.127 J-0.622
X-39.17 Y15.235 Z-6.5 I1.127 J0.622
X-38.021 Y17.538 I0.575 J1.152 F300
X-39.17 Y15.235 I-0.575 J-1.152
G1 X-39.114 Y15.214 Z-6.488
X-39.056 Y15.203 Z-6.476
X-39.006 Z-6.443
X-38.956 Y15.211 Z-6.409
X-38.893 Y15.235 Z-6.309
X-38.873 Y15.246 Z-6.19
Z5
X-40.397 Y38.049
Z2.81 F150
X-40.386 Y38.03 Z2.694
X-40.353 Y37.974 Z2.594
X-40.299 Y37.894 Z2.527
X-40.227 Y37.804 Z2.5
G3 X-38.278 Y39.508 Z2.358 I0.975 J0.852
X-40.227 Y37.804 Z2.216 I-0.975 J-0.852
X-38.278 Y39.508 Z2.074 I0.975 J0.852
X-40.227 Y37.804 Z1.932 I-0.975 J-0.852
X-38.278 Y39.508 Z1.79 I0.975 J0.852
X-40.227 Y37.804 Z1.648 I-0.975 J-0.852
X-38.278 Y39.508 Z1.506 I0.975 J0.852
X-40.227 Y37.804 Z1.364 I-0.975 J-0.852
X-38.278 Y39.508 Z1.222 I0.975 J0.852
X-40.227 Y37.804 Z1.079 I-0.975 J-0.852
X-38.278 Y39.508 Z0.937 I0.975 J0.852
X-40.227 Y37.804 Z0.795 I-0.975 J-0.852
X-38.278 Y39.508 Z0.653 I0.975 J0.852
X-40.227 Y37.804 Z0.511 I-0.975 J-0.852
X-38.278 Y39.508 Z0.369 I0.975 J0.852
X-40.227 Y37.804 Z0.227 I-0.975 J-0.852
X-38.278 Y39.508 Z0.085 I0.975 J0.852
X-40.227 Y37.804 Z-0.057 I-0.975 J-0.852
X-38.278 Y39.508 Z-0.199 I0.975 J0.852
X-40.547 Y38.628 Z-0.31 I-0.975 J-0.852
X-37.958 Y38.684 I1.295 J0.028 F300
X-40.547 Y38.628 I-1.295 J-0.028
X-37.958 Y38.684 Z-0.452 I1.295 J0.028 F150
X-40.547 Y38.628 Z-0.594 I-1.295 J-0.028
X-40.333 Y37.942 Z-0.619 I1.295 J0.028
X-38.172 Y39.37 I1.08 J0.714 F300
X-40.333 Y37.942 I-1.08 J-0.714
X-38.172 Y39.37 Z-0.761 I1.08 J0.714 F150
X-40.333 Y37.942 Z-0.903 I-1.08 J-0.714
X-39.786 Y37.476 Z-0.929 I1.08 J0.714
X-38.719 Y39.836 I0.533 J1.18 F300
X-39.786 Y37.476 I-0.533 J-1.18
X-38.719 Y39.836 Z-1.071 I0.533 J1.18 F150
X-39.786 Y37.476 Z-1.213 I-0.533 J-1.18
X-39.075 Y37.373 Z-1.238 I0.533 J1.18
X-39.43 Y39.939 I-0.178 J1.283 F300
X-39.075 Y37.373 I0.178 J-1.283
X-39.43 Y39.939 Z-1.38 I-0.178 J1.283 F150
X-39.075 Y37.373 Z-1.522 I0.178 J-1.283
X-38.419 Y37.666 Z-1.548 I-0.178 J1.283
X-40.087 Y39.646 I-0.834 J0.99 F300
X-38.419 Y37.666 I0.834 J-0.99
X-40.087 Y39.646 Z-1.69 I-0.834 J0.99 F150
X-38.419 Y37.666 Z-1.832 I0.834 J-0.99
X-38.019 Y38.263 Z-1.857 I-0.834 J0.99
X-40.486 Y39.049 I-1.234 J0.393 F300
X-38.019 Y38.263 I1.234 J-0.393
X-40.486 Y39.049 Z-1.999 I-1.234 J0.393 F150
X-38.019 Y38.263 Z-2.141 I1.234 J-0.393
X-37.999 Y38.981 Z-2.167 I-1.234 J0.393
X-40.506 Y38.331 I-1.253 J-0.325 F300
X-37.999 Y38.981 I1.253 J0.325
X-40.506 Y38.331 Z-2.309 I-1.253 J-0.325 F150
X-37.999 Y38.981 Z-2.451 I1.253 J0.325
X-38.365 Y39.599 Z-2.476 I-1.253 J-0.325
X-40.14 Y37.713 I-0.887 J-0.943 F300
X-38.365 Y39.599 I0.887 J0.943
X-40.14 Y37.713 Z-2.618 I-0.887 J-0.943 F150
X-38.365 Y39.599 Z-2.76 I0.887 J0.943
X-39.004 Y39.927 Z-2.786 I-0.887 J-0.943
X-39.501 Y37.385 I-0.248 J-1.271 F300
X-39.004 Y39.927 I0.248 J1.271
X-39.501 Y37.385 Z-2.928 I-0.248 J-1.271 F150
X-39.004 Y39.927 Z-3.07 I0.248 J1.271
X-39.72 Y39.864 Z-3.095 I-0.248 J-1.271
X-38.785 Y37.449 I0.467 J-1.208 F300
X-39.72 Y39.864 I-0.467 J1.208
X-38.785 Y37.449 Z-3.237 I0.467 J-1.208 F150
X-39.72 Y39.864 Z-3.379 I-0.467 J1.208
X-40.292 Y39.429 Z-3.405 I0.467 J-1.208
X-38.214 Y37.884 I1.039 J-0.773 F300
X-40.292 Y39.429 I-1.039 J0.773
X-38.214 Y37.884 Z-3.547 I1.039 J-0.773 F150
X-40.292 Y39.429 Z-3.689 I-1.039 J0.773
X-40.544 Y38.756 Z-3.714 I1.039 J-0.773
X-37.962 Y38.556 I1.291 J-0.1 F300
X-40.544 Y38.756 I-1.291 J0.1
X-37.962 Y38.556 Z-3.856 I1.291 J-0.1 F150
X-40.544 Y38.756 Z-3.998 I-1.291 J0.1
X-40.398 Y38.052 Z-4.024 I1.291 J-0.1
X-38.107 Y39.26 I1.145 J0.604 F300
X-40.398 Y38.052 I-1.145 J-0.604
X-38.107 Y39.26 Z-4.166 I1.145 J0.604 F150
X-40.398 Y38.052 Z-4.308 I-1.145 J-0.604
X-39.9 Y37.535 Z-4.333 I1.145 J0.604
X-38.605 Y39.777 I0.647 J1.121 F300
X-39.9 Y37.535 I-0.647 J-1.121
X-38.605 Y39.777 Z-4.475 I0.647 J1.121 F150
X-39.9 Y37.535 Z-4.617 I-0.647 J-1.121
X-39.203 Y37.362 Z-4.643 I0.647 J1.121
X-39.303 Y39.95 I-0.05 J1.294 F300
X-39.203 Y37.362 I0.05 J-1.294
X-39.303 Y39.95 Z-4.785 I-0.05 J1.294 F150
X-39.203 Y37.362 Z-4.927 I0.05 J-1.294
X-38.521 Y37.588 Z-4.952 I-0.05 J1.294
X-39.985 Y39.724 I-0.732 J1.068 F300
X-38.521 Y37.588 I0.732 J-1.068
X-39.985 Y39.724 Z-5.094 I-0.732 J1.068 F150
X-38.521 Y37.588 Z-5.236 I0.732 J-1.068
X-38.064 Y38.143 Z-5.262 I-0.732 J1.068
X-40.441 Y39.169 I-1.189 J0.513 F300
X-38.064 Y38.143 I1.189 J-0.513
X-40.441 Y39.169 Z-5.404 I-1.189 J0.513 F150
X-38.064 Y38.143 Z-5.546 I1.189 J-0.513
X-37.973 Y38.855 Z-5.571 I-1.189 J0.513
X-40.532 Y38.457 I-1.279 J-0.199 F300
X-37.973 Y38.855 I1.279 J0.199
X-40.532 Y38.457 Z-5.713 I-1.279 J-0.199 F150
X-37.973 Y38.855 Z-5.856 I1.279 J0.199
X-38.276 Y39.507 Z-5.881 I-1.279 J-0.199
X-40.229 Y37.805 I-0.976 J-0.851 F300
X-38.276 Y39.507 I0.976 J0.851
X-40.229 Y37.805 Z-6.023 I-0.976 J-0.851 F150
X-38.276 Y39.507 Z-6.165 I0.976 J0.851
X-38.88 Y39.896 Z-6.19 I-0.976 J-0.851
X-39.625 Y37.416 I-0.373 J-1.24 F300
X-38.88 Y39.896 I0.373 J1.24
X-39.625 Y37.416 Z-6.333 I-0.373 J-1.24 F150
X-38.88 Y39.896 Z-6.475 I0.373 J1.24
X-39.598 Y39.904 Z-6.5 I-0.373 J-1.24
X-38.907 Y37.408 I0.346 J-1.248 F300
X-39.598 Y39.904 I-0.346 J1.248
G1 X-39.654 Y39.883 Z-6.488
X-39.704 Y39.851 Z-6.476
X-39.741 Y39.818 Z-6.443
X-39.773 Y39.778 Z-6.409
X-39.804 Y39.719 Z-6.309
X-39.812 Y39.697 Z-6.19
Z10
(When using Fusion 360 for Personal Use, the feedrate of)
(rapid moves is reduced to match the feedrate of cutting)
(moves, which can increase machining time. Unrestricted rapid)
(moves are available with a Fusion 360 Subscription.)

(2D Pocket2)
G0 X-38.773 Y39.626
G1 Z10 F300
Z5
Z1.31 F150
Z0.01
X-38.774 Y39.633 Z-0.059
X-38.777 Y39.656 Z-0.125
X-38.781 Y39.693 Z-0.183
X-38.787 Y39.741 Z-0.232
X-38.794 Y39.8 Z-0.269
X-38.802 Y39.865 Z-0.292
X-38.811 Y39.933 Z-0.3
G3 X-39.078 Y40.197 I-0.301 J-0.037
X-40.761 Y38.281 I-0.175 J-1.543 F300
X-39.85 Y37.221 I1.509 J0.375
X-38.454 Y37.271 I0.644 J1.544
X-37.827 Y37.932 I-0.605 J1.201
X-37.88 Y39.381 I-1.526 J0.669
X-39.078 Y40.197 I-1.373 J-0.726
G2 X-40.134 Y40.956 I0.15 J1.325
G3 X-41.404 Y41.239 I-0.744 J-0.349
X-42.556 Y38.032 I2.152 J-2.583
G1 X-42.52 Y37.844
X-42.464 Y37.661
G3 X-37.741 Y35.654 I3.211 J0.995
G1 X-36.66 Y36.198
X-36.174 Y37.307
G3 X-41.404 Y41.239 I-3.079 J1.349
X-41.563 Y39.13 Z-0.371 I0.943 J-1.131 F150
G1 X-40.346 Y37.758 Z-0.427
G3 X-38.143 Y39.711 Z-0.567 I1.102 J0.977
X-39.093 Y40.199 Z-0.6 I-1.102 J-0.977
X-40.761 Y38.281 I-0.16 J-1.545 F300
X-39.85 Y37.221 I1.509 J0.375
X-38.454 Y37.271 I0.644 J1.544
X-37.827 Y37.932 I-0.605 J1.201
X-37.88 Y39.381 I-1.526 J0.669
X-39.078 Y40.197 I-1.373 J-0.726
G1 X-39.093 Y40.199
G2 X-40.157 Y40.947 I0.137 J1.326
G3 X-41.43 Y41.217 I-0.74 J-0.356
X-42.556 Y38.032 I2.177 J-2.561
G1 X-42.52 Y37.844
X-42.464 Y37.661
G3 X-37.741 Y35.654 I3.211 J0.995
G1 X-36.66 Y36.198
X-36.174 Y37.307
G3 X-41.43 Y41.217 I-3.079 J1.349
X-41.568 Y39.107 Z-0.671 I0.954 J-1.122 F150
G1 X-40.336 Y37.746 Z-0.727
G3 X-38.153 Y39.723 Z-0.867 I1.092 J0.988
X-39.093 Y40.199 Z-0.9 I-1.092 J-0.988
X-40.761 Y38.281 I-0.16 J-1.545 F300
X-39.85 Y37.221 I1.509 J0.375
X-38.454 Y37.271 I0.644 J1.544
X-37.827 Y37.932 I-0.605 J1.201
X-37.88 Y39.381 I-1.526 J0.669
X-39.078 Y40.197 I-1.373 J-0.726
G1 X-39.093 Y40.199
G2 X-40.157 Y40.947 I0.137 J1.326
G3 X-41.43 Y41.217 I-0.74 J-0.356
X-42.556 Y38.032 I2.177 J-2.561
G1 X-42.52 Y37.844
X-42.464 Y37.661
G3 X-37.741 Y35.654 I3.211 J0.995
G1 X-36.66 Y36.198
X-36.174 Y37.307
G3 X-41.43 Y41.217 I-3.079 J1.349
X-41.568 Y39.107 Z-0.971 I0.954 J-1.122 F150
G1 X-40.336 Y37.746 Z-1.027
G3 X-38.153 Y39.723 Z-1.167 I1.092 J0.988
X-39.093 Y40.199 Z-1.2 I-1.092 J-0.988
X-40.761 Y38.281 I-0.16 J-1.545 F300
X-39.85 Y37.221 I1.509 J0.375
X-38.454 Y37.271 I0.644 J1.544
X-37.827 Y37.932 I-0.605 J1.201
X-37.88 Y39.381 I-1.526 J0.669
X-39.078 Y40.197 I-1.373 J-0.726
G1 X-39.093 Y40.199
G2 X-40.157 Y40.947 I0.137 J1.326
G3 X-41.43 Y41.217 I-0.74 J-0.356
X-42.556 Y38.032 I2.177 J-2.561
G1 X-42.52 Y37.844
X-42.464 Y37.661
G3 X-37.741 Y35.654 I3.211 J0.995
G1 X-36.66 Y36.198
X-36.174 Y37.307
G3 X-41.43 Y41.217 I-3.079 J1.349
X-41.568 Y39.107 Z-1.271 I0.954 J-1.122 F150
G1 X-40.336 Y37.746 Z-1.327
G3 X-38.153 Y39.723 Z-1.467 I1.092 J0.988
X-39.093 Y40.199 Z-1.5 I-1.092 J-0.988
X-40.761 Y38.281 I-0.16 J-1.545 F300
X-39.85 Y37.221 I1.509 J0.375
X-38.454 Y37.271 I0.644 J1.544
X-37.827 Y37.932 I-0.605 J1.201
X-37.88 Y39.381 I-1.526 J0.669
X-39.078 Y40.197 I-1.373 J-0.726
G1 X-39.093 Y40.199
G2 X-40.157 Y40.947 I0.137 J1.326
G3 X-41.43 Y41.217 I-0.74 J-0.356
X-42.556 Y38.032 I2.177 J-2.561
G1 X-42.52 Y37.844
X-42.464 Y37.661
G3 X-37.741 Y35.654 I3.211 J0.995
G1 X-36.66 Y36.198
X-36.174 Y37.307
G3 X-41.43 Y41.217 I-3.079 J1.349
X-41.568 Y39.107 Z-1.571 I0.954 J-1.122 F150
G1 X-40.336 Y37.746 Z-1.627
G3 X-38.153 Y39.723 Z-1.767 I1.092 J0.988
X-39.093 Y40.199 Z-1.8 I-1.092 J-0.988
X-40.761 Y38.281 I-0.16 J-1.545 F300
X-39.85 Y37.221 I1.509 J0.375
X-38.454 Y37.271 I0.644 J1.544
X-37.827 Y37.932 I-0.605 J1.201
X-37.88 Y39.381 I-1.526 J0.669
X-39.078 Y40.197 I-1.373 J-0.726
G1 X-39.093 Y40.199
G2 X-40.157 Y40.947 I0.137 J1.326
G3 X-41.43 Y41.217 I-0.74 J-0.356
X-42.556 Y38.032 I2.177 J-2.561
G1 X-42.52 Y37.844
X-42.464 Y37.661
G3 X-37.741 Y35.654 I3.211 J0.995
G1 X-36.66 Y36.198
X-36.174 Y37.307
G3 X-41.43 Y41.217 I-3.079 J1.349
X-41.568 Y39.107 Z-1.871 I0.954 J-1.122 F150
G1 X-40.336 Y37.746 Z-1.927
G3 X-38.153 Y39.723 Z-2.067 I1.092 J0.988
X-39.093 Y40.199 Z-2.1 I-1.092 J-0.988
X-40.761 Y38.281 I-0.16 J-1.545 F300
X-39.85 Y37.221 I1.509 J0.375
X-38.454 Y37.271 I0.644 J1.544
X-37.827 Y37.932 I-0.605 J1.201
X-37.88 Y39.381 I-1.526 J0.669
X-39.078 Y40.197 I-1.373 J-0.726
G1 X-39.093 Y40.199
G2 X-40.157 Y40.947 I0.137 J1.326
G3 X-41.43 Y41.217 I-0.74 J-0.356
X-42.556 Y38.032 I2.177 J-2.561
G1 X-42.52 Y37.844
X-42.464 Y37.661
G3 X-37.741 Y35.654 I3.211 J0.995
G1 X-36.66 Y36.198
X-36.174 Y37.307
G3 X-41.43 Y41.217 I-3.079 J1.349
X-41.568 Y39.107 Z-2.171 I0.954 J-1.122 F150
G1 X-40.336 Y37.746 Z-2.227
G3 X-38.153 Y39.723 Z-2.367 I1.092 J0.988
X-39.093 Y40.199 Z-2.4 I-1.092 J-0.988
X-40.761 Y38.281 I-0.16 J-1.545 F300
X-39.85 Y37.221 I1.509 J0.375
X-38.454 Y37.271 I0.644 J1.544
X-37.827 Y37.932 I-0.605 J1.201
X-37.88 Y39.381 I-1.526 J0.669
X-39.078 Y40.197 I-1.373 J-0.726
G1 X-39.093 Y40.199
G2 X-40.157 Y40.947 I0.137 J1.326
G3 X-41.43 Y41.217 I-0.74 J-0.356
X-42.556 Y38.032 I2.177 J-2.561
G1 X-42.52 Y37.844
X-42.464 Y37.661
G3 X-37.741 Y35.654 I3.211 J0.995
G1 X-36.66 Y36.198
X-36.174 Y37.307
G3 X-41.43 Y41.217 I-3.079 J1.349
X-41.568 Y39.107 Z-2.471 I0.954 J-1.122 F150
G1 X-40.336 Y37.746 Z-2.527
G3 X-38.153 Y39.723 Z-2.667 I1.092 J0.988
X-39.093 Y40.199 Z-2.7 I-1.092 J-0.988
X-40.761 Y38.281 I-0.16 J-1.545 F300
X-39.85 Y37.221 I1.509 J0.375
X-38.454 Y37.271 I0.644 J1.544
X-37.827 Y37.932 I-0.605 J1.201
X-37.88 Y39.381 I-1.526 J0.669
X-39.078 Y40.197 I-1.373 J-0.726
G1 X-39.093 Y40.199
G2 X-40.157 Y40.947 I0.137 J1.326
G3 X-41.43 Y41.217 I-0.74 J-0.356
X-42.556 Y38.032 I2.177 J-2.561
G1 X-42.52 Y37.844
X-42.464 Y37.661
G3 X-37.741 Y35.654 I3.211 J0.995
G1 X-36.66 Y36.198
X-36.174 Y37.307
G3 X-41.43 Y41.217 I-3.079 J1.349
X-41.568 Y39.107 Z-2.771 I0.954 J-1.122 F150
G1 X-40.336 Y37.746 Z-2.827
G3 X-38.153 Y39.723 Z-2.967 I1.092 J0.988
X-39.093 Y40.199 Z-3 I-1.092 J-0.988
X-40.761 Y38.281 I-0.16 J-1.545 F300
X-39.85 Y37.221 I1.509 J0.375
X-38.454 Y37.271 I0.644 J1.544
X-37.827 Y37.932 I-0.605 J1.201
X-37.88 Y39.381 I-1.526 J0.669
X-39.078 Y40.197 I-1.373 J-0.726
G1 X-39.093 Y40.199
G2 X-40.157 Y40.947 I0.137 J1.326
G3 X-41.43 Y41.217 I-0.74 J-0.356
X-42.556 Y38.032 I2.177 J-2.561
G1 X-42.52 Y37.844
X-42.464 Y37.661
G3 X-37.741 Y35.654 I3.211 J0.995
G1 X-36.66 Y36.198
X-36.174 Y37.307
G3 X-41.43 Y41.217 I-3.079 J1.349
G1 X-41.471 Y41.174 Z-2.988
X-41.504 Y41.125 Z-2.976
X-41.523 Y41.079 Z-2.943
X-41.535 Y41.03 Z-2.909
X-41.539 Y40.963 Z-2.809
X-41.537 Y40.939 Z-2.69
Z10
X-18.358 Y38.886
Z5
Z2.81 F150
X-18.346 Y38.867 Z2.694
X-18.311 Y38.813 Z2.594
X-18.253 Y38.736 Z2.527
X-18.177 Y38.649 Z2.5
G3 X-16.03 Y40.664 Z2.338 I1.074 J1.008
X-18.177 Y38.649 Z2.177 I-1.074 J-1.008
X-16.03 Y40.664 Z2.015 I1.074 J1.008
X-18.177 Y38.649 Z1.854 I-1.074 J-1.008
X-16.03 Y40.664 Z1.692 I1.074 J1.008
X-18.177 Y38.649 Z1.531 I-1.074 J-1.008
X-16.03 Y40.664 Z1.369 I1.074 J1.008
X-18.177 Y38.649 Z1.208 I-1.074 J-1.008
X-16.03 Y40.664 Z1.046 I1.074 J1.008
X-18.177 Y38.649 Z0.885 I-1.074 J-1.008
X-16.03 Y40.664 Z0.723 I1.074 J1.008
X-18.177 Y38.649 Z0.561 I-1.074 J-1.008
X-16.03 Y40.664 Z0.4 I1.074 J1.008
X-18.177 Y38.649 Z0.238 I-1.074 J-1.008
X-16.03 Y40.664 Z0.077 I1.074 J1.008
X-18.177 Y38.649 Z-0.085 I-1.074 J-1.008
X-16.03 Y40.664 Z-0.246 I1.074 J1.008
X-17.437 Y41.091 Z-0.3 I-1.074 J-1.008
X-18.686 Y40.149 I0.437 J-1.878 F300
X-18.804 Y38.589 I1.636 J-0.909
G2 X-18.724 Y38.35 I-3.788 J-1.406
G3 X-18.644 Y38.111 I3.868 J1.167
X-18.056 Y37.557 I0.853 J0.317
X-17.812 Y37.491 I1.179 J3.864
G2 X-17.569 Y37.424 I-0.936 J-3.932
G3 X-16.136 Y37.55 I0.56 J1.837
X-15.185 Y38.628 I-0.888 J1.743
X-15.088 Y39.42 I-1.688 J0.61
G1 X-15.09 Y39.435
X-15.092 Y39.451
G3 X-15.894 Y40.801 I-1.855 J-0.189
X-17.437 Y41.091 I-1.101 J-1.61
G2 X-18.715 Y41.469 I-0.306 J1.314
G3 X-20.044 Y41.364 I-0.621 J-0.598
X-20.474 Y37.97 I3.034 J-2.109
G1 X-19.838 Y36.255
X-18.088 Y35.721
G3 X-13.535 Y38 I1.078 J3.534
G1 X-13.249 Y38.792
X-13.335 Y39.63
G3 X-20.044 Y41.364 I-3.675 J-0.375
X-19.494 Y39.207 Z-0.375 I1.209 J-0.84 F150
G1 X-17.763 Y38.34 Z-0.432
G3 X-16.444 Y40.973 Z-0.57 I0.659 J1.317
X-17.437 Y41.091 Z-0.6 I-0.659 J-1.317
X-18.686 Y40.149 I0.437 J-1.878 F300
X-18.804 Y38.589 I1.636 J-0.909
G2 X-18.724 Y38.35 I-3.788 J-1.406
G3 X-18.644 Y38.111 I3.868 J1.167
X-18.056 Y37.557 I0.853 J0.317
X-17.812 Y37.491 I1.179 J3.864
G2 X-17.569 Y37.424 I-0.936 J-3.932
G3 X-16.136 Y37.55 I0.56 J1.837
X-15.185 Y38.628 I-0.888 J1.743
X-15.088 Y39.42 I-1.688 J0.61
G1 X-15.09 Y39.435
X-15.092 Y39.451
G3 X-15.894 Y40.801 I-1.855 J-0.189
X-17.437 Y41.091 I-1.101 J-1.61
G2 X-18.715 Y41.469 I-0.306 J1.314
G3 X-20.044 Y41.364 I-0.621 J-0.598
X-20.474 Y37.97 I3.034 J-2.109
G1 X-19.838 Y36.255
X-18.088 Y35.721
G3 X-13.535 Y38 I1.078 J3.534
G1 X-13.249 Y38.792
X-13.335 Y39.63
G3 X-20.044 Y41.364 I-3.675 J-0.375
X-19.494 Y39.207 Z-0.675 I1.209 J-0.84 F150
G1 X-17.763 Y38.34 Z-0.732
G3 X-16.444 Y40.973 Z-0.87 I0.659 J1.317
X-17.437 Y41.091 Z-0.9 I-0.659 J-1.317
X-18.686 Y40.149 I0.437 J-1.878 F300
X-18.804 Y38.589 I1.636 J-0.909
G2 X-18.724 Y38.35 I-3.788 J-1.406
G3 X-18.644 Y38.111 I3.868 J1.167
X-18.056 Y37.557 I0.853 J0.317
X-17.812 Y37.491 I1.179 J3.864
G2 X-17.569 Y37.424 I-0.936 J-3.932
G3 X-16.136 Y37.55 I0.56 J1.837
X-15.185 Y38.628 I-0.888 J1.743
X-15.088 Y39.42 I-1.688 J0.61
G1 X-15.09 Y39.435
X-15.092 Y39.451
G3 X-15.894 Y40.801 I-1.855 J-0.189
X-17.437 Y41.091 I-1.101 J-1.61
G2 X-18.715 Y41.469 I-0.306 J1.314
G3 X-20.044 Y41.364 I-0.621 J-0.598
X-20.474 Y37.97 I3.034 J-2.109
G1 X-19.838 Y36.255
X-18.088 Y35.721
G3 X-13.535 Y38 I1.078 J3.534
G1 X-13.249 Y38.792
X-13.335 Y39.63
G3 X-20.044 Y41.364 I-3.675 J-0.375
X-19.494 Y39.207 Z-0.975 I1.209 J-0.84 F150
G1 X-17.763 Y38.34 Z-1.032
G3 X-16.444 Y40.973 Z-1.17 I0.659 J1.317
X-17.437 Y41.091 Z-1.2 I-0.659 J-1.317
X-18.686 Y40.149 I0.437 J-1.878 F300
X-18.804 Y38.589 I1.636 J-0.909
G2 X-18.724 Y38.35 I-3.788 J-1.406
G3 X-18.644 Y38.111 I3.868 J1.167
X-18.056 Y37.557 I0.853 J0.317
X-17.812 Y37.491 I1.179 J3.864
G2 X-17.569 Y37.424 I-0.936 J-3.932
G3 X-16.136 Y37.55 I0.56 J1.837
X-15.185 Y38.628 I-0.888 J1.743
X-15.088 Y39.42 I-1.688 J0.61
G1 X-15.09 Y39.435
X-15.092 Y39.451
G3 X-15.894 Y40.801 I-1.855 J-0.189
X-17.437 Y41.091 I-1.101 J-1.61
G2 X-18.715 Y41.469 I-0.306 J1.314
G3 X-20.044 Y41.364 I-0.621 J-0.598
X-20.474 Y37.97 I3.034 J-2.109
G1 X-19.838 Y36.255
X-18.088 Y35.721
G3 X-13.535 Y38 I1.078 J3.534
G1 X-13.249 Y38.792
X-13.335 Y39.63
G3 X-20.044 Y41.364 I-3.675 J-0.375
X-19.494 Y39.207 Z-1.275 I1.209 J-0.84 F150
G1 X-17.763 Y38.34 Z-1.332
G3 X-16.444 Y40.973 Z-1.47 I0.659 J1.317
X-17.437 Y41.091 Z-1.5 I-0.659 J-1.317
X-18.686 Y40.149 I0.437 J-1.878 F300
X-18.804 Y38.589 I1.636 J-0.909
G2 X-18.724 Y38.35 I-3.788 J-1.406
G3 X-18.644 Y38.111 I3.868 J1.167
X-18.056 Y37.557 I0.853 J0.317
X-17.812 Y37.491 I1.179 J3.864
G2 X-17.569 Y37.424 I-0.936 J-3.932
G3 X-16.136 Y37.55 I0.56 J1.837
X-15.185 Y38.628 I-0.888 J1.743
X-15.088 Y39.42 I-1.688 J0.61
G1 X-15.09 Y39.435
X-15.092 Y39.451
G3 X-15.894 Y40.801 I-1.855 J-0.189
X-17.437 Y41.091 I-1.101 J-1.61
G2 X-18.715 Y41.469 I-0.306 J1.314
G3 X-20.044 Y41.364 I-0.621 J-0.598
X-20.474 Y37.97 I3.034 J-2.109
G1 X-19.838 Y36.255
X-18.088 Y35.721
G3 X-13.535 Y38 I1.078 J3.534
G1 X-13.249 Y38.792
X-13.335 Y39.63
G3 X-20.044 Y41.364 I-3.675 J-0.375
X-19.494 Y39.207 Z-1.575 I1.209 J-0.84 F150
G1 X-17.763 Y38.34 Z-1.632
G3 X-16.444 Y40.973 Z-1.77 I0.659 J1.317
X-17.437 Y41.091 Z-1.8 I-0.659 J-1.317
X-18.686 Y40.149 I0.437 J-1.878 F300
X-18.804 Y38.589 I1.636 J-0.909
G2 X-18.724 Y38.35 I-3.788 J-1.406
G3 X-18.644 Y38.111 I3.868 J1.167
X-18.056 Y37.557 I0.853 J0.317
X-17.812 Y37.491 I1.179 J3.864
G2 X-17.569 Y37.424 I-0.936 J-3.932
G3 X-16.136 Y37.55 I0.56 J1.837
X-15.185 Y38.628 I-0.888 J1.743
X-15.088 Y39.42 I-1.688 J0.61
G1 X-15.09 Y39.435
X-15.092 Y39.451
G3 X-15.894 Y40.801 I-1.855 J-0.189
X-17.437 Y41.091 I-1.101 J-1.61
G2 X-18.715 Y41.469 I-0.306 J1.314
G3 X-20.044 Y41.364 I-0.621 J-0.598
X-20.474 Y37.97 I3.034 J-2.109
G1 X-19.838 Y36.255
X-18.088 Y35.721
G3 X-13.535 Y38 I1.078 J3.534
G1 X-13.249 Y38.792
X-13.335 Y39.63
G3 X-20.044 Y41.364 I-3.675 J-0.375
X-19.494 Y39.207 Z-1.875 I1.209 J-0.84 F150
G1 X-17.763 Y38.34 Z-1.932
G3 X-16.444 Y40.973 Z-2.07 I0.659 J1.317
X-17.437 Y41.091 Z-2.1 I-0.659 J-1.317
X-18.686 Y40.149 I0.437 J-1.878 F300
X-18.804 Y38.589 I1.636 J-0.909
G2 X-18.724 Y38.35 I-3.788 J-1.406
G3 X-18.644 Y38.111 I3.868 J1.167
X-18.056 Y37.557 I0.853 J0.317
X-17.812 Y37.491 I1.179 J3.864
G2 X-17.569 Y37.424 I-0.936 J-3.932
G3 X-16.136 Y37.55 I0.56 J1.837
X-15.185 Y38.628 I-0.888 J1.743
X-15.088 Y39.42 I-1.688 J0.61
G1 X-15.09 Y39.435
X-15.092 Y39.451
G3 X-15.894 Y40.801 I-1.855 J-0.189
X-17.437 Y41.091 I-1.101 J-1.61
G2 X-18.715 Y41.469 I-0.306 J1.314
G3 X-20.044 Y41.364 I-0.621 J-0.598
X-20.474 Y37.97 I3.034 J-2.109
G1 X-19.838 Y36.255
X-18.088 Y35.721
G3 X-13.535 Y38 I1.078 J3.534
G1 X-13.249 Y38.792
X-13.335 Y39.63
G3 X-20.044 Y41.364 I-3.675 J-0.375
X-19.494 Y39.207 Z-2.175 I1.209 J-0.84 F150
G1 X-17.763 Y38.34 Z-2.232
G3 X-16.444 Y40.973 Z-2.37 I0.659 J1.317
X-17.437 Y41.091 Z-2.4 I-0.659 J-1.317
X-18.686 Y40.149 I0.437 J-1.878 F300
X-18.804 Y38.589 I1.636 J-0.909
G2 X-18.724 Y38.35 I-3.788 J-1.406
G3 X-18.644 Y38.111 I3.868 J1.167
X-18.056 Y37.557 I0.853 J0.317
X-17.812 Y37.491 I1.179 J3.864
G2 X-17.569 Y37.424 I-0.936 J-3.932
G3 X-16.136 Y37.55 I0.56 J1.837
X-15.185 Y38.628 I-0.888 J1.743
X-15.088 Y39.42 I-1.688 J0.61
G1 X-15.09 Y39.435
X-15.092 Y39.451
G3 X-15.894 Y40.801 I-1.855 J-0.189
X-17.437 Y41.091 I-1.101 J-1.61
G2 X-18.715 Y41.469 I-0.306 J1.314
G3 X-20.044 Y41.364 I-0.621 J-0.598
X-20.474 Y37.97 I3.034 J-2.109
G1 X-19.838 Y36.255
X-18.088 Y35.721
G3 X-13.535 Y38 I1.078 J3.534
G1 X-13.249 Y38.792
X-13.335 Y39.63
G3 X-20.044 Y41.364 I-3.675 J-0.375
X-19.494 Y39.207 Z-2.475 I1.209 J-0.84 F150
G1 X-17.763 Y38.34 Z-2.532
G3 X-16.444 Y40.973 Z-2.67 I0.659 J1.317
X-17.437 Y41.091 Z-2.7 I-0.659 J-1.317
X-18.686 Y40.149 I0.437 J-1.878 F300
X-18.804 Y38.589 I1.636 J-0.909
G2 X-18.724 Y38.35 I-3.788 J-1.406
G3 X-18.644 Y38.111 I3.868 J1.167
X-18.056 Y37.557 I0.853 J0.317
X-17.812 Y37.491 I1.179 J3.864
G2 X-17.569 Y37.424 I-0.936 J-3.932
G3 X-16.136 Y37.55 I0.56 J1.837
X-15.185 Y38.628 I-0.888 J1.743
X-15.088 Y39.42 I-1.688 J0.61
G1 X-15.09 Y39.435
X-15.092 Y39.451
G3 X-15.894 Y40.801 I-1.855 J-0.189
X-17.437 Y41.091 I-1.101 J-1.61
G2 X-18.715 Y41.469 I-0.306 J1.314
G3 X-20.044 Y41.364 I-0.621 J-0.598
X-20.474 Y37.97 I3.034 J-2.109
G1 X-19.838 Y36.255
X-18.088 Y35.721
G3 X-13.535 Y38 I1.078 J3.534
G1 X-13.249 Y38.792
X-13.335 Y39.63
G3 X-20.044 Y41.364 I-3.675 J-0.375
X-19.494 Y39.207 Z-2.775 I1.209 J-0.84 F150
G1 X-17.763 Y38.34 Z-2.832
G3 X-16.444 Y40.973 Z-2.97 I0.659 J1.317
X-17.437 Y41.091 Z-3 I-0.659 J-1.317
X-18.686 Y40.149 I0.437 J-1.878 F300
X-18.804 Y38.589 I1.636 J-0.909
G2 X-18.724 Y38.35 I-3.788 J-1.406
G3 X-18.644 Y38.111 I3.868 J1.167
X-18.056 Y37.557 I0.853 J0.317
X-17.812 Y37.491 I1.179 J3.864
G2 X-17.569 Y37.424 I-0.936 J-3.932
G3 X-16.136 Y37.55 I0.56 J1.837
X-15.185 Y38.628 I-0.888 J1.743
X-15.088 Y39.42 I-1.688 J0.61
G1 X-15.09 Y39.435
X-15.092 Y39.451
G3 X-15.894 Y40.801 I-1.855 J-0.189
X-17.437 Y41.091 I-1.101 J-1.61
G2 X-18.715 Y41.469 I-0.306 J1.314
G3 X-20.044 Y41.364 I-0.621 J-0.598
X-20.474 Y37.97 I3.034 J-2.109
G1 X-19.838 Y36.255
X-18.088 Y35.721
G3 X-13.535 Y38 I1.078 J3.534
G1 X-13.249 Y38.792
X-13.335 Y39.63
G3 X-20.044 Y41.364 I-3.675 J-0.375
G1 X-20.073 Y41.312 Z-2.988
X-20.091 Y41.256 Z-2.976
X-20.099 Y41.206 Z-2.943
X-20.098 Y41.156 Z-2.909
X-20.084 Y41.09 Z-2.809
X-20.076 Y41.068 Z-2.69
Z10
X-16.033 Y15.909
Z5
Z1.31 F150
Z0.01
X-16.027 Y15.904 Z-0.059
X-16.008 Y15.891 Z-0.125
X-15.977 Y15.87 Z-0.183
X-15.937 Y15.843 Z-0.232
X-15.889 Y15.809 Z-0.269
X-15.835 Y15.772 Z-0.292
X-15.778 Y15.733 Z-0.3
G3 X-15.151 Y15.799 I0.275 J0.4
X-17.065 Y18.56 I-1.245 J1.181 F300
G1 X-17.182 Y18.515
X-17.299 Y18.469
G3 X-17.93 Y17.804 I0.456 J-1.065
G1 X-17.97 Y17.684
X-18.01 Y17.565
G3 X-15.151 Y15.799 I1.609 J-0.591
G2 X-13.894 Y16.191 I0.976 J-0.918
G3 X-12.876 Y17.028 I0.177 J0.822
X-17.763 Y20.19 I-3.506 J-0.061
G1 X-19.152 Y19.595
X-19.674 Y18.177
G3 X-13.091 Y15.757 I3.291 J-1.21
X-12.876 Y17.028 I-3.291 J1.21
X-14.497 Y18.467 Z-0.373 I-1.472 J-0.026 F150
G1 X-16.368 Y18.278 Z-0.43
G3 X-16.071 Y15.348 Z-0.569 I0.148 J-1.465
X-15.151 Y15.799 Z-0.6 I-0.148 J1.465
X-17.065 Y18.56 I-1.245 J1.181 F300
G1 X-17.182 Y18.515
X-17.299 Y18.469
G3 X-17.93 Y17.804 I0.456 J-1.065
G1 X-17.97 Y17.684
X-18.01 Y17.565
G3 X-15.151 Y15.799 I1.609 J-0.591
G2 X-13.894 Y16.191 I0.976 J-0.918
G3 X-12.876 Y17.028 I0.177 J0.822
X-17.763 Y20.19 I-3.506 J-0.061
G1 X-19.152 Y19.595
X-19.674 Y18.177
G3 X-13.091 Y15.757 I3.291 J-1.21
X-12.876 Y17.028 I-3.291 J1.21
X-14.497 Y18.467 Z-0.673 I-1.472 J-0.026 F150
G1 X-16.368 Y18.278 Z-0.73
G3 X-16.071 Y15.348 Z-0.869 I0.148 J-1.465
X-15.151 Y15.799 Z-0.9 I-0.148 J1.465
X-17.065 Y18.56 I-1.245 J1.181 F300
G1 X-17.182 Y18.515
X-17.299 Y18.469
G3 X-17.93 Y17.804 I0.456 J-1.065
G1 X-17.97 Y17.684
X-18.01 Y17.565
G3 X-15.151 Y15.799 I1.609 J-0.591
G2 X-13.894 Y16.191 I0.976 J-0.918
G3 X-12.876 Y17.028 I0.177 J0.822
X-17.763 Y20.19 I-3.506 J-0.061
G1 X-19.152 Y19.595
X-19.674 Y18.177
G3 X-13.091 Y15.757 I3.291 J-1.21
X-12.876 Y17.028 I-3.291 J1.21
X-14.497 Y18.467 Z-0.973 I-1.472 J-0.026 F150
G1 X-16.368 Y18.278 Z-1.03
G3 X-16.071 Y15.348 Z-1.169 I0.148 J-1.465
X-15.151 Y15.799 Z-1.2 I-0.148 J1.465
X-17.065 Y18.56 I-1.245 J1.181 F300
G1 X-17.182 Y18.515
X-17.299 Y18.469
G3 X-17.93 Y17.804 I0.456 J-1.065
G1 X-17.97 Y17.684
X-18.01 Y17.565
G3 X-15.151 Y15.799 I1.609 J-0.591
G2 X-13.894 Y16.191 I0.976 J-0.918
G3 X-12.876 Y17.028 I0.177 J0.822
X-17.763 Y20.19 I-3.506 J-0.061
G1 X-19.152 Y19.595
X-19.674 Y18.177
G3 X-13.091 Y15.757 I3.291 J-1.21
X-12.876 Y17.028 I-3.291 J1.21
X-14.497 Y18.467 Z-1.273 I-1.472 J-0.026 F150
G1 X-16.368 Y18.278 Z-1.33
G3 X-16.071 Y15.348 Z-1.469 I0.148 J-1.465
X-15.151 Y15.799 Z-1.5 I-0.148 J1.465
X-17.065 Y18.56 I-1.245 J1.181 F300
G1 X-17.182 Y18.515
X-17.299 Y18.469
G3 X-17.93 Y17.804 I0.456 J-1.065
G1 X-17.97 Y17.684
X-18.01 Y17.565
G3 X-15.151 Y15.799 I1.609 J-0.591
G2 X-13.894 Y16.191 I0.976 J-0.918
G3 X-12.876 Y17.028 I0.177 J0.822
X-17.763 Y20.19 I-3.506 J-0.061
G1 X-19.152 Y19.595
X-19.674 Y18.177
G3 X-13.091 Y15.757 I3.291 J-1.21
X-12.876 Y17.028 I-3.291 J1.21
X-14.497 Y18.467 Z-1.573 I-1.472 J-0.026 F150
G1 X-16.368 Y18.278 Z-1.63
G3 X-16.071 Y15.348 Z-1.769 I0.148 J-1.465
X-15.151 Y15.799 Z-1.8 I-0.148 J1.465
X-17.065 Y18.56 I-1.245 J1.181 F300
G1 X-17.182 Y18.515
X-17.299 Y18.469
G3 X-17.93 Y17.804 I0.456 J-1.065
G1 X-17.97 Y17.684
X-18.01 Y17.565
G3 X-15.151 Y15.799 I1.609 J-0.591
G2 X-13.894 Y16.191 I0.976 J-0.918
G3 X-12.876 Y17.028 I0.177 J0.822
X-17.763 Y20.19 I-3.506 J-0.061
G1 X-19.152 Y19.595
X-19.674 Y18.177
G3 X-13.091 Y15.757 I3.291 J-1.21
X-12.876 Y17.028 I-3.291 J1.21
X-14.497 Y18.467 Z-1.873 I-1.472 J-0.026 F150
G1 X-16.368 Y18.278 Z-1.93
G3 X-16.071 Y15.348 Z-2.069 I0.148 J-1.465
X-15.151 Y15.799 Z-2.1 I-0.148 J1.465
X-17.065 Y18.56 I-1.245 J1.181 F300
G1 X-17.182 Y18.515
X-17.299 Y18.469
G3 X-17.93 Y17.804 I0.456 J-1.065
G1 X-17.97 Y17.684
X-18.01 Y17.565
G3 X-15.151 Y15.799 I1.609 J-0.591
G2 X-13.894 Y16.191 I0.976 J-0.918
G3 X-12.876 Y17.028 I0.177 J0.822
X-17.763 Y20.19 I-3.506 J-0.061
G1 X-19.152 Y19.595
X-19.674 Y18.177
G3 X-13.091 Y15.757 I3.291 J-1.21
X-12.876 Y17.028 I-3.291 J1.21
X-14.497 Y18.467 Z-2.173 I-1.472 J-0.026 F150
G1 X-16.368 Y18.278 Z-2.23
G3 X-16.071 Y15.348 Z-2.369 I0.148 J-1.465
X-15.151 Y15.799 Z-2.4 I-0.148 J1.465
X-17.065 Y18.56 I-1.245 J1.181 F300
G1 X-17.182 Y18.515
X-17.299 Y18.469
G3 X-17.93 Y17.804 I0.456 J-1.065
G1 X-17.97 Y17.684
X-18.01 Y17.565
G3 X-15.151 Y15.799 I1.609 J-0.591
G2 X-13.894 Y16.191 I0.976 J-0.918
G3 X-12.876 Y17.028 I0.177 J0.822
X-17.763 Y20.19 I-3.506 J-0.061
G1 X-19.152 Y19.595
X-19.674 Y18.177
G3 X-13.091 Y15.757 I3.291 J-1.21
X-12.876 Y17.028 I-3.291 J1.21
X-14.497 Y18.467 Z-2.473 I-1.472 J-0.026 F150
G1 X-16.368 Y18.278 Z-2.53
G3 X-16.071 Y15.348 Z-2.669 I0.148 J-1.465
X-15.151 Y15.799 Z-2.7 I-0.148 J1.465
X-17.065 Y18.56 I-1.245 J1.181 F300
G1 X-17.182 Y18.515
X-17.299 Y18.469
G3 X-17.93 Y17.804 I0.456 J-1.065
G1 X-17.97 Y17.684
X-18.01 Y17.565
G3 X-15.151 Y15.799 I1.609 J-0.591
G2 X-13.894 Y16.191 I0.976 J-0.918
G3 X-12.876 Y17.028 I0.177 J0.822
X-17.763 Y20.19 I-3.506 J-0.061
G1 X-19.152 Y19.595
X-19.674 Y18.177
G3 X-13.091 Y15.757 I3.291 J-1.21
X-12.876 Y17.028 I-3.291 J1.21
X-14.497 Y18.467 Z-2.773 I-1.472 J-0.026 F150
G1 X-16.368 Y18.278 Z-2.83
G3 X-16.071 Y15.348 Z-2.969 I0.148 J-1.465
X-15.151 Y15.799 Z-3 I-0.148 J1.465
X-17.065 Y18.56 I-1.245 J1.181 F300
G1 X-17.182 Y18.515
X-17.299 Y18.469
G3 X-17.93 Y17.804 I0.456 J-1.065
G1 X-17.97 Y17.684
X-18.01 Y17.565
G3 X-15.151 Y15.799 I1.609 J-0.591
G2 X-13.894 Y16.191 I0.976 J-0.918
G3 X-12.876 Y17.028 I0.177 J0.822
X-17.763 Y20.19 I-3.506 J-0.061
G1 X-19.152 Y19.595
X-19.674 Y18.177
G3 X-13.091 Y15.757 I3.291 J-1.21
X-12.876 Y17.028 I-3.291 J1.21
G1 X-12.883 Y17.087 Z-2.988
X-12.901 Y17.143 Z-2.976
X-12.924 Y17.188 Z-2.943
X-12.954 Y17.228 Z-2.909
X-13.004 Y17.273 Z-2.809
X-13.023 Y17.286 Z-2.69
Z10
X-39.579 Y15.966
Z5
Z1.31 F150
Z0.01
X-39.583 Y15.96 Z-0.059
X-39.596 Y15.941 Z-0.125
X-39.617 Y15.91 Z-0.183
X-39.644 Y15.87 Z-0.232
X-39.678 Y15.821 Z-0.269
X-39.715 Y15.767 Z-0.292
X-39.754 Y15.71 Z-0.3
G3 X-39.701 Y15.217 I0.315 J-0.216
X-37.09 Y17.061 I1.12 J1.185 F300
G1 X-37.122 Y17.139
X-37.154 Y17.217
G3 X-37.847 Y17.872 I-1.137 J-0.51
G1 X-37.926 Y17.899
X-38.006 Y17.927
G3 X-39.701 Y15.217 I-0.582 J-1.521
G2 X-39.306 Y13.969 I-0.913 J-0.975
G3 X-38.461 Y12.969 I0.813 J-0.17
X-35.475 Y17.785 I-0.134 J3.417
G1 X-36.053 Y19.076
X-37.374 Y19.581
G3 X-39.816 Y13.192 I-1.221 J-3.194
X-38.461 Y12.969 I1.221 J3.194
X-37.052 Y14.576 Z-0.372 I-0.058 J1.471 F150
G1 X-37.223 Y16.422 Z-0.428
G3 X-40.155 Y16.151 Z-0.568 I-1.466 J-0.136
X-39.701 Y15.217 Z-0.6 I1.466 J0.136
X-37.09 Y17.061 I1.12 J1.185 F300
G1 X-37.122 Y17.139
X-37.154 Y17.217
G3 X-37.847 Y17.872 I-1.137 J-0.51
G1 X-37.926 Y17.899
X-38.006 Y17.927
G3 X-39.701 Y15.217 I-0.582 J-1.521
G2 X-39.306 Y13.969 I-0.913 J-0.975
G3 X-38.461 Y12.969 I0.813 J-0.17
X-35.475 Y17.785 I-0.134 J3.417
G1 X-36.053 Y19.076
X-37.374 Y19.581
G3 X-39.816 Y13.192 I-1.221 J-3.194
X-38.461 Y12.969 I1.221 J3.194
X-37.052 Y14.576 Z-0.672 I-0.058 J1.471 F150
G1 X-37.223 Y16.422 Z-0.728
G3 X-40.155 Y16.151 Z-0.868 I-1.466 J-0.136
X-39.701 Y15.217 Z-0.9 I1.466 J0.136
X-37.09 Y17.061 I1.12 J1.185 F300
G1 X-37.122 Y17.139
X-37.154 Y17.217
G3 X-37.847 Y17.872 I-1.137 J-0.51
G1 X-37.926 Y17.899
X-38.006 Y17.927
G3 X-39.701 Y15.217 I-0.582 J-1.521
G2 X-39.306 Y13.969 I-0.913 J-0.975
G3 X-38.461 Y12.969 I0.813 J-0.17
X-35.475 Y17.785 I-0.134 J3.417
G1 X-36.053 Y19.076
X-37.374 Y19.581
G3 X-39.816 Y13.192 I-1.221 J-3.194
X-38.461 Y12.969 I1.221 J3.194
X-37.052 Y14.576 Z-0.972 I-0.058 J1.471 F150
G1 X-37.223 Y16.422 Z-1.028
G3 X-40.155 Y16.151 Z-1.168 I-1.466 J-0.136
X-39.701 Y15.217 Z-1.2 I1.466 J0.136
X-37.09 Y17.061 I1.12 J1.185 F300
G1 X-37.122 Y17.139
X-37.154 Y17.217
G3 X-37.847 Y17.872 I-1.137 J-0.51
G1 X-37.926 Y17.899
X-38.006 Y17.927
G3 X-39.701 Y15.217 I-0.582 J-1.521
G2 X-39.306 Y13.969 I-0.913 J-0.975
G3 X-38.461 Y12.969 I0.813 J-0.17
X-35.475 Y17.785 I-0.134 J3.417
G1 X-36.053 Y19.076
X-37.374 Y19.581
G3 X-39.816 Y13.192 I-1.221 J-3.194
X-38.461 Y12.969 I1.221 J3.194
X-37.052 Y14.576 Z-1.272 I-0.058 J1.471 F150
G1 X-37.223 Y16.422 Z-1.328
G3 X-40.155 Y16.151 Z-1.468 I-1.466 J-0.136
X-39.701 Y15.217 Z-1.5 I1.466 J0.136
X-37.09 Y17.061 I1.12 J1.185 F300
G1 X-37.122 Y17.139
X-37.154 Y17.217
G3 X-37.847 Y17.872 I-1.137 J-0.51
G1 X-37.926 Y17.899
X-38.006 Y17.927
G3 X-39.701 Y15.217 I-0.582 J-1.521
G2 X-39.306 Y13.969 I-0.913 J-0.975
G3 X-38.461 Y12.969 I0.813 J-0.17
X-35.475 Y17.785 I-0.134 J3.417
G1 X-36.053 Y19.076
X-37.374 Y19.581
G3 X-39.816 Y13.192 I-1.221 J-3.194
X-38.461 Y12.969 I1.221 J3.194
X-37.052 Y14.576 Z-1.572 I-0.058 J1.471 F150
G1 X-37.223 Y16.422 Z-1.628
G3 X-40.155 Y16.151 Z-1.768 I-1.466 J-0.136
X-39.701 Y15.217 Z-1.8 I1.466 J0.136
X-37.09 Y17.061 I1.12 J1.185 F300
G1 X-37.122 Y17.139
X-37.154 Y17.217
G3 X-37.847 Y17.872 I-1.137 J-0.51
G1 X-37.926 Y17.899
X-38.006 Y17.927
G3 X-39.701 Y15.217 I-0.582 J-1.521
G2 X-39.306 Y13.969 I-0.913 J-0.975
G3 X-38.461 Y12.969 I0.813 J-0.17
X-35.475 Y17.785 I-0.134 J3.417
G1 X-36.053 Y19.076
X-37.374 Y19.581
G3 X-39.816 Y13.192 I-1.221 J-3.194
X-38.461 Y12.969 I1.221 J3.194
X-37.052 Y14.576 Z-1.872 I-0.058 J1.471 F150
G1 X-37.223 Y16.422 Z-1.928
G3 X-40.155 Y16.151 Z-2.068 I-1.466 J-0.136
X-39.701 Y15.217 Z-2.1 I1.466 J0.136
X-37.09 Y17.061 I1.12 J1.185 F300
G1 X-37.122 Y17.139
X-37.154 Y17.217
G3 X-37.847 Y17.872 I-1.137 J-0.51
G1 X-37.926 Y17.899
X-38.006 Y17.927
G3 X-39.701 Y15.217 I-0.582 J-1.521
G2 X-39.306 Y13.969 I-0.913 J-0.975
G3 X-38.461 Y12.969 I0.813 J-0.17
X-35.475 Y17.785 I-0.134 J3.417
G1 X-36.053 Y19.076
X-37.374 Y19.581
G3 X-39.816 Y13.192 I-1.221 J-3.194
X-38.461 Y12.969 I1.221 J3.194
X-37.052 Y14.576 Z-2.172 I-0.058 J1.471 F150
G1 X-37.223 Y16.422 Z-2.228
G3 X-40.155 Y16.151 Z-2.368 I-1.466 J-0.136
X-39.701 Y15.217 Z-2.4 I1.466 J0.136
X-37.09 Y17.061 I1.12 J1.185 F300
G1 X-37.122 Y17.139
X-37.154 Y17.217
G3 X-37.847 Y17.872 I-1.137 J-0.51
G1 X-37.926 Y17.899
X-38.006 Y17.927
G3 X-39.701 Y15.217 I-0.582 J-1.521
G2 X-39.306 Y13.969 I-0.913 J-0.975
G3 X-38.461 Y12.969 I0.813 J-0.17
X-35.475 Y17.785 I-0.134 J3.417
G1 X-36.053 Y19.076
X-37.374 Y19.581
G3 X-39.816 Y13.192 I-1.221 J-3.194
X-38.461 Y12.969 I1.221 J3.194
X-37.052 Y14.576 Z-2.472 I-0.058 J1.471 F150
G1 X-37.223 Y16.422 Z-2.528
G3 X-40.155 Y16.151 Z-2.668 I-1.466 J-0.136
X-39.701 Y15.217 Z-2.7 I1.466 J0.136
X-37.09 Y17.061 I1.12 J1.185 F300
G1 X-37.122 Y17.139
X-37.154 Y17.217
G3 X-37.847 Y17.872 I-1.137 J-0.51
G1 X-37.926 Y17.899
X-38.006 Y17.927
G3 X-39.701 Y15.217 I-0.582 J-1.521
G2 X-39.306 Y13.969 I-0.913 J-0.975
G3 X-38.461 Y12.969 I0.813 J-0.17
X-35.475 Y17.785 I-0.134 J3.417
G1 X-36.053 Y19.076
X-37.374 Y19.581
G3 X-39.816 Y13.192 I-1.221 J-3.194
X-38.461 Y12.969 I1.221 J3.194
X-37.052 Y14.576 Z-2.772 I-0.058 J1.471 F150
G1 X-37.223 Y16.422 Z-2.828
G3 X-40.155 Y16.151 Z-2.968 I-1.466 J-0.136
X-39.701 Y15.217 Z-3 I1.466 J0.136
X-37.09 Y17.061 I1.12 J1.185 F300
G1 X-37.122 Y17.139
X-37.154 Y17.217
G3 X-37.847 Y17.872 I-1.137 J-0.51
G1 X-37.926 Y17.899
X-38.006 Y17.927
G3 X-39.701 Y15.217 I-0.582 J-1.521
G2 X-39.306 Y13.969 I-0.913 J-0.975
G3 X-38.461 Y12.969 I0.813 J-0.17
X-35.475 Y17.785 I-0.134 J3.417
G1 X-36.053 Y19.076
X-37.374 Y19.581
G3 X-39.816 Y13.192 I-1.221 J-3.194
X-38.461 Y12.969 I1.221 J3.194
G1 X-38.402 Y12.977 Z-2.988
X-38.346 Y12.996 Z-2.976
X-38.302 Y13.02 Z-2.943
X-38.263 Y13.051 Z-2.909
X-38.219 Y13.102 Z-2.809
X-38.206 Y13.122 Z-2.69
Z10
(When using Fusion 360 for Personal Use, the feedrate of)
(rapid moves is reduced to match the feedrate of cutting)
(moves, which can increase machining time. Unrestricted rapid)
(moves are available with a Fusion 360 Subscription.)

(2D Contour3)
G0 X-58.086 Y27.493
G1 Z10 F300
Z5
Z0.01 F150
G18 G2 X-57.776 Z-0.3 I0.31 K0
G1 X-57.466
G17 G3 X-57.156 Y27.803 I0 J0.31
G2 X1.55 Y27.803 I29.353 J0 F300
X-57.156 Y27.803 I-29.353 J0
G3 X-57.466 Y28.113 I-0.31 J0
G1 X-57.776
G18 G3 X-58.086 Z0.01 I0 K0.31
G1 Z5
Y27.493
Z4.7 F150
Z-0.29
G2 X-57.776 Z-0.6 I0.31 K0
G1 X-57.466
G17 G3 X-57.156 Y27.803 I0 J0.31
G2 X1.55 Y27.803 I29.353 J0 F300
X-57.156 Y27.803 I-29.353 J0
G3 X-57.466 Y28.113 I-0.31 J0
G1 X-57.776
G18 G3 X-58.086 Z-0.29 I0 K0.31
G1 Z5
Y27.493
Z4.4 F150
Z-0.59
G2 X-57.776 Z-0.9 I0.31 K0
G1 X-57.466
G17 G3 X-57.156 Y27.803 I0 J0.31
G2 X1.55 Y27.803 I29.353 J0 F300
X-57.156 Y27.803 I-29.353 J0
G3 X-57.466 Y28.113 I-0.31 J0
G1 X-57.776
G18 G3 X-58.086 Z-0.59 I0 K0.31
G1 Z5
Y27.493
Z4.1 F150
Z-0.89
G2 X-57.776 Z-1.2 I0.31 K0
G1 X-57.466
G17 G3 X-57.156 Y27.803 I0 J0.31
G2 X1.55 Y27.803 I29.353 J0 F300
X-57.156 Y27.803 I-29.353 J0
G3 X-57.466 Y28.113 I-0.31 J0
G1 X-57.776
G18 G3 X-58.086 Z-0.89 I0 K0.31
G1 Z5
Y27.493
Z3.8 F150
Z-1.19
G2 X-57.776 Z-1.5 I0.31 K0
G1 X-57.466
G17 G3 X-57.156 Y27.803 I0 J0.31
G2 X1.55 Y27.803 I29.353 J0 F300
X-57.156 Y27.803 I-29.353 J0
G3 X-57.466 Y28.113 I-0.31 J0
G1 X-57.776
G18 G3 X-58.086 Z-1.19 I0 K0.31
G1 Z5
Y27.493
Z3.5 F150
Z-1.49
G2 X-57.776 Z-1.8 I0.31 K0
G1 X-57.466
G17 G3 X-57.156 Y27.803 I0 J0.31
G2 X1.55 Y27.803 I29.353 J0 F300
X-57.156 Y27.803 I-29.353 J0
G3 X-57.466 Y28.113 I-0.31 J0
G1 X-57.776
G18 G3 X-58.086 Z-1.49 I0 K0.31
G1 Z5
Y27.493
Z3.2 F150
Z-1.79
G2 X-57.776 Z-2.1 I0.31 K0
G1 X-57.466
G17 G3 X-57.156 Y27.803 I0 J0.31
G2 X1.55 Y27.803 I29.353 J0 F300
X-57.156 Y27.803 I-29.353 J0
G3 X-57.466 Y28.113 I-0.31 J0
G1 X-57.776
G18 G3 X-58.086 Z-1.79 I0 K0.31
G1 Z5
Y27.493
Z2.9 F150
Z-2.09
G2 X-57.776 Z-2.4 I0.31 K0
G1 X-57.466
G17 G3 X-57.156 Y27.803 I0 J0.31
G2 X1.55 Y27.803 I29.353 J0 F300
X-57.156 Y27.803 I-29.353 J0
G3 X-57.466 Y28.113 I-0.31 J0
G1 X-57.776
G18 G3 X-58.086 Z-2.09 I0 K0.31
G1 Z5
Y27.493
Z2.6 F150
Z-2.39
G2 X-57.776 Z-2.7 I0.31 K0
G1 X-57.466
G17 G3 X-57.156 Y27.803 I0 J0.31
G2 X1.55 Y27.803 I29.353 J0 F300
X-57.156 Y27.803 I-29.353 J0
G3 X-57.466 Y28.113 I-0.31 J0
G1 X-57.776
G18 G3 X-58.086 Z-2.39 I0 K0.31
G1 Z5
Y27.493
Z2.3 F150
Z-2.69
G2 X-57.776 Z-3 I0.31 K0
G1 X-57.466
G17 G3 X-57.156 Y27.803 I0 J0.31
G2 X1.55 Y27.803 I29.353 J0 F300
X-57.156 Y27.803 I-29.353 J0
G3 X-57.466 Y28.113 I-0.31 J0
G1 X-57.776
G18 G3 X-58.086 Z-2.69 I0 K0.31
G1 Z5
Y27.493
Z2 F150
Z-2.99
G2 X-57.776 Z-3.3 I0.31 K0
G1 X-57.466
G17 G3 X-57.156 Y27.803 I0 J0.31
G2 X1.55 Y27.803 I29.353 J0 F300
X-57.156 Y27.803 I-29.353 J0
G3 X-57.466 Y28.113 I-0.31 J0
G1 X-57.776
G18 G3 X-58.086 Z-2.99 I0 K0.31
G1 Z5
Y27.493
Z1.7 F150
Z-3.29
G2 X-57.776 Z-3.6 I0.31 K0
G1 X-57.466
G17 G3 X-57.156 Y27.803 I0 J0.31
G2 X1.55 Y27.803 I29.353 J0 F300
X-57.156 Y27.803 I-29.353 J0
G3 X-57.466 Y28.113 I-0.31 J0
G1 X-57.776
G18 G3 X-58.086 Z-3.29 I0 K0.31
G1 Z5
Y27.493
Z1.4 F150
Z-3.59
G2 X-57.776 Z-3.9 I0.31 K0
G1 X-57.466
G17 G3 X-57.156 Y27.803 I0 J0.31
G2 X1.55 Y27.803 I29.353 J0 F300
X-57.156 Y27.803 I-29.353 J0
G3 X-57.466 Y28.113 I-0.31 J0
G1 X-57.776
G18 G3 X-58.086 Z-3.59 I0 K0.31
G1 Z5
Y27.493
Z1.1 F150
Z-3.89
G2 X-57.776 Z-4.2 I0.31 K0
G1 X-57.466
G17 G3 X-57.156 Y27.803 I0 J0.31
G2 X1.55 Y27.803 I29.353 J0 F300
X-57.156 Y27.803 I-29.353 J0
G3 X-57.466 Y28.113 I-0.31 J0
G1 X-57.776
G18 G3 X-58.086 Z-3.89 I0 K0.31
G1 Z5
Y27.493
Z0.8 F150
Z-4.19
G2 X-57.776 Z-4.5 I0.31 K0
G1 X-57.466
G17 G3 X-57.156 Y27.803 I0 J0.31
G2 X1.55 Y27.803 I29.353 J0 F300
X-57.156 Y27.803 I-29.353 J0
G3 X-57.466 Y28.113 I-0.31 J0
G1 X-57.776
G18 G3 X-58.086 Z-4.19 I0 K0.31
G1 Z5
Y27.493
Z0.5 F150
Z-4.49
G2 X-57.776 Z-4.8 I0.31 K0
G1 X-57.466
G17 G3 X-57.156 Y27.803 I0 J0.31
G2 X1.55 Y27.803 I29.353 J0 F300
X-57.156 Y27.803 I-29.353 J0
G3 X-57.466 Y28.113 I-0.31 J0
G1 X-57.776
G18 G3 X-58.086 Z-4.49 I0 K0.31
G1 Z5
Y27.493
Z0.2 F150
Z-4.79
G2 X-57.776 Z-5.1 I0.31 K0
G1 X-57.466
G17 G3 X-57.156 Y27.803 I0 J0.31
G2 X1.55 Y27.803 I29.353 J0 F300
X-57.156 Y27.803 I-29.353 J0
G3 X-57.466 Y28.113 I-0.31 J0
G1 X-57.776
G18 G3 X-58.086 Z-4.79 I0 K0.31
G1 Z5
Y27.493
Z-0.1 F150
Z-5.09
G2 X-57.776 Z-5.4 I0.31 K0
G1 X-57.466
G17 G3 X-57.156 Y27.803 I0 J0.31
G2 X1.55 Y27.803 I29.353 J0 F300
X-57.156 Y27.803 I-29.353 J0
G3 X-57.466 Y28.113 I-0.31 J0
G1 X-57.776
G18 G3 X-58.086 Z-5.09 I0 K0.31
G1 Z5
Y27.493
Z-0.4 F150
Z-5.39
G2 X-57.776 Z-5.7 I0.31 K0
G1 X-57.466
G17 G3 X-57.156 Y27.803 I0 J0.31
G2 X1.55 Y27.803 I29.353 J0 F300
X-57.156 Y27.803 I-29.353 J0
G3 X-57.466 Y28.113 I-0.31 J0
G1 X-57.776
G18 G3 X-58.086 Z-5.39 I0 K0.31
G1 Z5
Y27.493
Z-0.7 F150
Z-5.69
G2 X-57.776 Z-6 I0.31 K0
G1 X-57.466
G17 G3 X-57.156 Y27.803 I0 J0.31
G2 X1.55 Y27.803 I29.353 J0 F300
X-57.156 Y27.803 I-29.353 J0
G3 X-57.466 Y28.113 I-0.31 J0
G1 X-57.776
G18 G3 X-58.086 Z-5.69 I0 K0.31
G1 Z5
Y27.493
Z-1 F150
Z-5.99
G2 X-57.776 Z-6.3 I0.31 K0
G1 X-57.466
G17 G3 X-57.156 Y27.803 I0 J0.31
G2 X1.55 Y27.803 I29.353 J0 F300
X-57.156 Y27.803 I-29.353 J0
G3 X-57.466 Y28.113 I-0.31 J0
G1 X-57.776
G18 G3 X-58.086 Z-5.99 I0 K0.31
G1 Z5
Y27.493
Z-1.3 F150
Z-6.19
G2 X-57.776 Z-6.5 I0.31 K0
G1 X-57.466
G17 G3 X-57.156 Y27.803 I0 J0.31
G2 X1.55 Y27.803 I29.353 J0 F300
X-57.156 Y27.803 I-29.353 J0
G3 X-57.466 Y28.113 I-0.31 J0
G1 X-57.776
G18 G3 X-58.086 Z-6.19 I0 K0.31
G1 Z10
G17
M9
M5
M30
