(atc_gm6020_wirepocket)
(Machine)
(  vendor: Autodesk)
(  model: Generic 3-axis)
(  description: This machine has XY axis on the Table and Z axis on the Head)
(T3  D=3.1 CR=0 - ZMIN=-3 - flat end mill)
G90 G94
G17
G21
(When using Fusion 360 for Personal Use, the feedrate of)
(rapid moves is reduced to match the feedrate of cutting)
(moves, which can increase machining time. Unrestricted rapid)
(moves are available with a Fusion 360 Subscription.)

(2D Pocket6)
T3
S24000 M3
G54
M8
G0 X-27.555 Y36.297
Z10
G1 Z5 F300
Z-0.021 F150
X-27.554 Y36.304 Z-0.083
X-27.551 Y36.324 Z-0.142
X-27.545 Y36.357 Z-0.195
X-27.539 Y36.4 Z-0.239
X-27.53 Y36.453 Z-0.272
X-27.521 Y36.511 Z-0.293
X-27.511 Y36.572 Z-0.3
X-27.357 Y37.548
X-27.353 Y37.596
Y57.04 F300
G3 X-27.556 Y57.24 I-0.2 J0
G1 X-28.056 Y57.233
G3 X-28.253 Y57.033 I0.003 J-0.2
G1 Y38.903
Y37.602
X-28.247 Y37.555
X-28.231 Y37.511
X-28.204 Y37.472
X-27.746 Y36.94
G3 X-27.395 Y37.055 I0.151 J0.131
G1 X-27.39 Y37.118 Z-0.307 F150
X-27.385 Y37.178 Z-0.326
X-27.381 Y37.234 Z-0.357
X-27.377 Y37.281 Z-0.399
X-27.374 Y37.319 Z-0.45
X-27.371 Y37.358 Z-0.501
X-27.368 Y37.405 Z-0.543
X-27.363 Y37.461 Z-0.574
X-27.358 Y37.521 Z-0.593
X-27.353 Y37.584 Z-0.6
Y37.596
Y57.04 F300
G3 X-27.556 Y57.24 I-0.2 J0
G1 X-28.056 Y57.233
G3 X-28.253 Y57.033 I0.003 J-0.2
G1 Y38.903
Y37.602
X-28.247 Y37.555
X-28.231 Y37.511
X-28.204 Y37.472
X-27.746 Y36.94
G3 X-27.395 Y37.055 I0.151 J0.131
G1 X-27.39 Y37.118 Z-0.607 F150
X-27.385 Y37.178 Z-0.626
X-27.381 Y37.234 Z-0.657
X-27.377 Y37.281 Z-0.699
X-27.374 Y37.319 Z-0.75
X-27.371 Y37.358 Z-0.801
X-27.368 Y37.405 Z-0.843
X-27.363 Y37.461 Z-0.874
X-27.358 Y37.521 Z-0.893
X-27.353 Y37.584 Z-0.9
Y37.596
Y57.04 F300
G3 X-27.556 Y57.24 I-0.2 J0
G1 X-28.056 Y57.233
G3 X-28.253 Y57.033 I0.003 J-0.2
G1 Y38.903
Y37.602
X-28.247 Y37.555
X-28.231 Y37.511
X-28.204 Y37.472
X-27.746 Y36.94
G3 X-27.395 Y37.055 I0.151 J0.131
G1 X-27.39 Y37.118 Z-0.907 F150
X-27.385 Y37.178 Z-0.926
X-27.381 Y37.234 Z-0.957
X-27.377 Y37.281 Z-0.999
X-27.374 Y37.319 Z-1.05
X-27.371 Y37.358 Z-1.101
X-27.368 Y37.405 Z-1.143
X-27.363 Y37.461 Z-1.174
X-27.358 Y37.521 Z-1.193
X-27.353 Y37.584 Z-1.2
Y37.596
Y57.04 F300
G3 X-27.556 Y57.24 I-0.2 J0
G1 X-28.056 Y57.233
G3 X-28.253 Y57.033 I0.003 J-0.2
G1 Y38.903
Y37.602
X-28.247 Y37.555
X-28.231 Y37.511
X-28.204 Y37.472
X-27.746 Y36.94
G3 X-27.395 Y37.055 I0.151 J0.131
G1 X-27.39 Y37.118 Z-1.207 F150
X-27.385 Y37.178 Z-1.226
X-27.381 Y37.234 Z-1.257
X-27.377 Y37.281 Z-1.299
X-27.374 Y37.319 Z-1.35
X-27.371 Y37.358 Z-1.401
X-27.368 Y37.405 Z-1.443
X-27.363 Y37.461 Z-1.474
X-27.358 Y37.521 Z-1.493
X-27.353 Y37.584 Z-1.5
Y37.596
Y57.04 F300
G3 X-27.556 Y57.24 I-0.2 J0
G1 X-28.056 Y57.233
G3 X-28.253 Y57.033 I0.003 J-0.2
G1 Y38.903
Y37.602
X-28.247 Y37.555
X-28.231 Y37.511
X-28.204 Y37.472
X-27.746 Y36.94
G3 X-27.395 Y37.055 I0.151 J0.131
G1 X-27.39 Y37.118 Z-1.507 F150
X-27.385 Y37.178 Z-1.526
X-27.381 Y37.234 Z-1.557
X-27.377 Y37.281 Z-1.599
X-27.374 Y37.319 Z-1.65
X-27.371 Y37.358 Z-1.701
X-27.368 Y37.405 Z-1.743
X-27.363 Y37.461 Z-1.774
X-27.358 Y37.521 Z-1.793
X-27.353 Y37.584 Z-1.8
Y37.596
Y57.04 F300
G3 X-27.556 Y57.24 I-0.2 J0
G1 X-28.056 Y57.233
G3 X-28.253 Y57.033 I0.003 J-0.2
G1 Y38.903
Y37.602
X-28.247 Y37.555
X-28.231 Y37.511
X-28.204 Y37.472
X-27.746 Y36.94
G3 X-27.395 Y37.055 I0.151 J0.131
G1 X-27.39 Y37.118 Z-1.807 F150
X-27.385 Y37.178 Z-1.826
X-27.381 Y37.234 Z-1.857
X-27.377 Y37.281 Z-1.899
X-27.374 Y37.319 Z-1.95
X-27.371 Y37.358 Z-2.001
X-27.368 Y37.405 Z-2.043
X-27.363 Y37.461 Z-2.074
X-27.358 Y37.521 Z-2.093
X-27.353 Y37.584 Z-2.1
Y37.596
Y57.04 F300
G3 X-27.556 Y57.24 I-0.2 J0
G1 X-28.056 Y57.233
G3 X-28.253 Y57.033 I0.003 J-0.2
G1 Y38.903
Y37.602
X-28.247 Y37.555
X-28.231 Y37.511
X-28.204 Y37.472
X-27.746 Y36.94
G3 X-27.395 Y37.055 I0.151 J0.131
G1 X-27.39 Y37.118 Z-2.107 F150
X-27.385 Y37.178 Z-2.126
X-27.381 Y37.234 Z-2.157
X-27.377 Y37.281 Z-2.199
X-27.374 Y37.319 Z-2.25
X-27.371 Y37.358 Z-2.301
X-27.368 Y37.405 Z-2.343
X-27.363 Y37.461 Z-2.374
X-27.358 Y37.521 Z-2.393
X-27.353 Y37.584 Z-2.4
Y37.596
Y57.04 F300
G3 X-27.556 Y57.24 I-0.2 J0
G1 X-28.056 Y57.233
G3 X-28.253 Y57.033 I0.003 J-0.2
G1 Y38.903
Y37.602
X-28.247 Y37.555
X-28.231 Y37.511
X-28.204 Y37.472
X-27.746 Y36.94
G3 X-27.395 Y37.055 I0.151 J0.131
G1 X-27.39 Y37.118 Z-2.407 F150
X-27.385 Y37.178 Z-2.426
X-27.381 Y37.234 Z-2.457
X-27.377 Y37.281 Z-2.499
X-27.374 Y37.319 Z-2.55
X-27.371 Y37.358 Z-2.601
X-27.368 Y37.405 Z-2.643
X-27.363 Y37.461 Z-2.674
X-27.358 Y37.521 Z-2.693
X-27.353 Y37.584 Z-2.7
Y37.596
Y57.04 F300
G3 X-27.556 Y57.24 I-0.2 J0
G1 X-28.056 Y57.233
G3 X-28.253 Y57.033 I0.003 J-0.2
G1 Y38.903
Y37.602
X-28.247 Y37.555
X-28.231 Y37.511
X-28.204 Y37.472
X-27.746 Y36.94
G3 X-27.395 Y37.055 I0.151 J0.131
G1 X-27.39 Y37.118 Z-2.707 F150
X-27.385 Y37.178 Z-2.726
X-27.381 Y37.234 Z-2.757
X-27.377 Y37.281 Z-2.799
X-27.374 Y37.319 Z-2.85
X-27.371 Y37.358 Z-2.901
X-27.368 Y37.405 Z-2.943
X-27.363 Y37.461 Z-2.974
X-27.358 Y37.521 Z-2.993
X-27.353 Y37.584 Z-3
Y37.596
Y57.04 F300
G3 X-27.556 Y57.24 I-0.2 J0
G1 X-28.056 Y57.233
G3 X-28.253 Y57.033 I0.003 J-0.2
G1 Y38.903
Y37.602
X-28.249 Y37.554
X-28.1 Y36.609
X-28.089 Y36.541 Z-2.992
X-28.078 Y36.476 Z-2.969
X-28.069 Y36.418 Z-2.932
X-28.062 Y36.37 Z-2.883
X-28.056 Y36.333 Z-2.825
X-28.052 Y36.31 Z-2.759
X-28.051 Y36.303 Z-2.69
Z10
M9
M5
M30
