(atc_gm6020_bottom)
(Machine)
(  vendor: Autodesk)
(  model: Generic 3-axis)
(  description: This machine has XY axis on the Table and Z axis on the Head)
(T3  D=3.1 CR=0 - ZMIN=-6.5 - flat end mill)
G90 G94
G17
G21
(When using Fusion 360 for Personal Use, the feedrate of)
(rapid moves is reduced to match the feedrate of cutting)
(moves, which can increase machining time. Unrestricted rapid)
(moves are available with a Fusion 360 Subscription.)

(2D Contour2)
T3
S24000 M3
G54
M8
G0 X36.602 Y27.493
Z10
G1 Z5 F300
Z1.3 F150
Z0.01
G18 G2 X36.912 Z-0.3 I0.31 K0
G1 X37.222
G17 G3 X37.532 Y27.803 I0 J0.31
X18.074 Y27.803 I-9.729 J0 F300
X37.532 Y27.803 I9.729 J0
X37.222 Y28.113 I-0.31 J0
G1 X36.912
G18 G3 X36.602 Z0.01 I0 K0.31
G1 Z5
Y27.493
Z1 F150
Z-0.29
G2 X36.912 Z-0.6 I0.31 K0
G1 X37.222
G17 G3 X37.532 Y27.803 I0 J0.31
X18.074 Y27.803 I-9.729 J0 F300
X37.532 Y27.803 I9.729 J0
X37.222 Y28.113 I-0.31 J0
G1 X36.912
G18 G3 X36.602 Z-0.29 I0 K0.31
G1 Z5
Y27.493
Z0.7 F150
Z-0.59
G2 X36.912 Z-0.9 I0.31 K0
G1 X37.222
G17 G3 X37.532 Y27.803 I0 J0.31
X18.074 Y27.803 I-9.729 J0 F300
X37.532 Y27.803 I9.729 J0
X37.222 Y28.113 I-0.31 J0
G1 X36.912
G18 G3 X36.602 Z-0.59 I0 K0.31
G1 Z5
Y27.493
Z0.4 F150
Z-0.89
G2 X36.912 Z-1.2 I0.31 K0
G1 X37.222
G17 G3 X37.532 Y27.803 I0 J0.31
X18.074 Y27.803 I-9.729 J0 F300
X37.532 Y27.803 I9.729 J0
X37.222 Y28.113 I-0.31 J0
G1 X36.912
G18 G3 X36.602 Z-0.89 I0 K0.31
G1 Z5
Y27.493
Z0.1 F150
Z-1.19
G2 X36.912 Z-1.5 I0.31 K0
G1 X37.222
G17 G3 X37.532 Y27.803 I0 J0.31
X18.074 Y27.803 I-9.729 J0 F300
X37.532 Y27.803 I9.729 J0
X37.222 Y28.113 I-0.31 J0
G1 X36.912
G18 G3 X36.602 Z-1.19 I0 K0.31
G1 Z5
Y27.493
Z-0.2 F150
Z-1.49
G2 X36.912 Z-1.8 I0.31 K0
G1 X37.222
G17 G3 X37.532 Y27.803 I0 J0.31
X18.074 Y27.803 I-9.729 J0 F300
X37.532 Y27.803 I9.729 J0
X37.222 Y28.113 I-0.31 J0
G1 X36.912
G18 G3 X36.602 Z-1.49 I0 K0.31
G1 Z5
Y27.493
Z-0.5 F150
Z-1.79
G2 X36.912 Z-2.1 I0.31 K0
G1 X37.222
G17 G3 X37.532 Y27.803 I0 J0.31
X18.074 Y27.803 I-9.729 J0 F300
X37.532 Y27.803 I9.729 J0
X37.222 Y28.113 I-0.31 J0
G1 X36.912
G18 G3 X36.602 Z-1.79 I0 K0.31
G1 Z5
Y27.493
Z-0.8 F150
Z-2.09
G2 X36.912 Z-2.4 I0.31 K0
G1 X37.222
G17 G3 X37.532 Y27.803 I0 J0.31
X18.074 Y27.803 I-9.729 J0 F300
X37.532 Y27.803 I9.729 J0
X37.222 Y28.113 I-0.31 J0
G1 X36.912
G18 G3 X36.602 Z-2.09 I0 K0.31
G1 Z5
Y27.493
Z-1.1 F150
Z-2.39
G2 X36.912 Z-2.7 I0.31 K0
G1 X37.222
G17 G3 X37.532 Y27.803 I0 J0.31
X18.074 Y27.803 I-9.729 J0 F300
X37.532 Y27.803 I9.729 J0
X37.222 Y28.113 I-0.31 J0
G1 X36.912
G18 G3 X36.602 Z-2.39 I0 K0.31
G1 Z5
Y27.493
Z-1.4 F150
Z-2.69
G2 X36.912 Z-3 I0.31 K0
G1 X37.222
G17 G3 X37.532 Y27.803 I0 J0.31
X18.074 Y27.803 I-9.729 J0 F300
X37.532 Y27.803 I9.729 J0
X37.222 Y28.113 I-0.31 J0
G1 X36.912
G18 G3 X36.602 Z-2.69 I0 K0.31
G1 Z5
Y27.493
Z-1.7 F150
Z-2.99
G2 X36.912 Z-3.3 I0.31 K0
G1 X37.222
G17 G3 X37.532 Y27.803 I0 J0.31
X18.074 Y27.803 I-9.729 J0 F300
X37.532 Y27.803 I9.729 J0
X37.222 Y28.113 I-0.31 J0
G1 X36.912
G18 G3 X36.602 Z-2.99 I0 K0.31
G1 Z5
Y27.493
Z-2 F150
Z-3.29
G2 X36.912 Z-3.6 I0.31 K0
G1 X37.222
G17 G3 X37.532 Y27.803 I0 J0.31
X18.074 Y27.803 I-9.729 J0 F300
X37.532 Y27.803 I9.729 J0
X37.222 Y28.113 I-0.31 J0
G1 X36.912
G18 G3 X36.602 Z-3.29 I0 K0.31
G1 Z5
Y27.493
Z-2.3 F150
Z-3.59
G2 X36.912 Z-3.9 I0.31 K0
G1 X37.222
G17 G3 X37.532 Y27.803 I0 J0.31
X18.074 Y27.803 I-9.729 J0 F300
X37.532 Y27.803 I9.729 J0
X37.222 Y28.113 I-0.31 J0
G1 X36.912
G18 G3 X36.602 Z-3.59 I0 K0.31
G1 Z5
Y27.493
Z-2.6 F150
Z-3.89
G2 X36.912 Z-4.2 I0.31 K0
G1 X37.222
G17 G3 X37.532 Y27.803 I0 J0.31
X18.074 Y27.803 I-9.729 J0 F300
X37.532 Y27.803 I9.729 J0
X37.222 Y28.113 I-0.31 J0
G1 X36.912
G18 G3 X36.602 Z-3.89 I0 K0.31
G1 Z5
Y27.493
Z-2.9 F150
Z-4.19
G2 X36.912 Z-4.5 I0.31 K0
G1 X37.222
G17 G3 X37.532 Y27.803 I0 J0.31
X18.074 Y27.803 I-9.729 J0 F300
X37.532 Y27.803 I9.729 J0
X37.222 Y28.113 I-0.31 J0
G1 X36.912
G18 G3 X36.602 Z-4.19 I0 K0.31
G1 Z5
Y27.493
Z-3.2 F150
Z-4.49
G2 X36.912 Z-4.8 I0.31 K0
G1 X37.222
G17 G3 X37.532 Y27.803 I0 J0.31
X18.074 Y27.803 I-9.729 J0 F300
X37.532 Y27.803 I9.729 J0
X37.222 Y28.113 I-0.31 J0
G1 X36.912
G18 G3 X36.602 Z-4.49 I0 K0.31
G1 Z5
Y27.493
Z-3.5 F150
Z-4.79
G2 X36.912 Z-5.1 I0.31 K0
G1 X37.222
G17 G3 X37.532 Y27.803 I0 J0.31
X18.074 Y27.803 I-9.729 J0 F300
X37.532 Y27.803 I9.729 J0
X37.222 Y28.113 I-0.31 J0
G1 X36.912
G18 G3 X36.602 Z-4.79 I0 K0.31
G1 Z5
Y27.493
Z-3.8 F150
Z-5.09
G2 X36.912 Z-5.4 I0.31 K0
G1 X37.222
G17 G3 X37.532 Y27.803 I0 J0.31
X18.074 Y27.803 I-9.729 J0 F300
X37.532 Y27.803 I9.729 J0
X37.222 Y28.113 I-0.31 J0
G1 X36.912
G18 G3 X36.602 Z-5.09 I0 K0.31
G1 Z5
Y27.493
Z-4.1 F150
Z-5.39
G2 X36.912 Z-5.7 I0.31 K0
G1 X37.222
G17 G3 X37.532 Y27.803 I0 J0.31
X18.074 Y27.803 I-9.729 J0 F300
X37.532 Y27.803 I9.729 J0
X37.222 Y28.113 I-0.31 J0
G1 X36.912
G18 G3 X36.602 Z-5.39 I0 K0.31
G1 Z5
Y27.493
Z-4.4 F150
Z-5.69
G2 X36.912 Z-6 I0.31 K0
G1 X37.222
G17 G3 X37.532 Y27.803 I0 J0.31
X18.074 Y27.803 I-9.729 J0 F300
X37.532 Y27.803 I9.729 J0
X37.222 Y28.113 I-0.31 J0
G1 X36.912
G18 G3 X36.602 Z-5.69 I0 K0.31
G1 Z5
Y27.493
Z-4.7 F150
Z-5.99
G2 X36.912 Z-6.3 I0.31 K0
G1 X37.222
G17 G3 X37.532 Y27.803 I0 J0.31
X18.074 Y27.803 I-9.729 J0 F300
X37.532 Y27.803 I9.729 J0
X37.222 Y28.113 I-0.31 J0
G1 X36.912
G18 G3 X36.602 Z-5.99 I0 K0.31
G1 Z5
Y27.493
Z-5 F150
Z-6.19
G2 X36.912 Z-6.5 I0.31 K0
G1 X37.222
G17 G3 X37.532 Y27.803 I0 J0.31
X18.074 Y27.803 I-9.729 J0 F300
X37.532 Y27.803 I9.729 J0
X37.222 Y28.113 I-0.31 J0
G1 X36.912
G18 G3 X36.602 Z-6.19 I0 K0.31
G1 Z10
G17
(When using Fusion 360 for Personal Use, the feedrate of)
(rapid moves is reduced to match the feedrate of cutting)
(moves, which can increase machining time. Unrestricted rapid)
(moves are available with a Fusion 360 Subscription.)

(2D Pocket1)
G0 X37.552 Y38.484
G1 Z10 F300
Z5
Z2.81 F150
X37.566 Y38.466 Z2.694
X37.606 Y38.415 Z2.594
X37.671 Y38.344 Z2.527
X37.756 Y38.266 Z2.5
G3 X39.436 Y40.245 Z2.358 I0.84 J0.989
X37.756 Y38.266 Z2.215 I-0.84 J-0.989
X39.436 Y40.245 Z2.073 I0.84 J0.989
X37.756 Y38.266 Z1.93 I-0.84 J-0.989
X39.436 Y40.245 Z1.788 I0.84 J0.989
X37.756 Y38.266 Z1.646 I-0.84 J-0.989
X39.436 Y40.245 Z1.503 I0.84 J0.989
X37.756 Y38.266 Z1.361 I-0.84 J-0.989
X39.436 Y40.245 Z1.218 I0.84 J0.989
X37.756 Y38.266 Z1.076 I-0.84 J-0.989
X39.436 Y40.245 Z0.934 I0.84 J0.989
X37.756 Y38.266 Z0.791 I-0.84 J-0.989
X39.436 Y40.245 Z0.649 I0.84 J0.989
X37.756 Y38.266 Z0.507 I-0.84 J-0.989
X39.436 Y40.245 Z0.364 I0.84 J0.989
X37.756 Y38.266 Z0.222 I-0.84 J-0.989
X39.436 Y40.245 Z0.079 I0.84 J0.989
X37.756 Y38.266 Z-0.063 I-0.84 J-0.989
X39.436 Y40.245 Z-0.205 I0.84 J0.989
X37.298 Y39.227 Z-0.31 I-0.84 J-0.989
X39.893 Y39.283 I1.298 J0.028 F300
X37.298 Y39.227 I-1.298 J-0.028
X39.893 Y39.283 Z-0.452 I1.298 J0.028 F150
X37.298 Y39.227 Z-0.594 I-1.298 J-0.028
X37.502 Y38.557 Z-0.619 I1.298 J0.028
X39.69 Y39.953 I1.094 J0.698 F300
X37.502 Y38.557 I-1.094 J-0.698
X39.69 Y39.953 Z-0.761 I1.094 J0.698 F150
X37.502 Y38.557 Z-0.904 I-1.094 J-0.698
X38.023 Y38.09 Z-0.929 I1.094 J0.698
X39.169 Y40.42 I0.573 J1.165 F300
X38.023 Y38.09 I-0.573 J-1.165
X39.169 Y40.42 Z-1.071 I0.573 J1.165 F150
X38.023 Y38.09 Z-1.213 I-0.573 J-1.165
X38.711 Y37.962 Z-1.238 I0.573 J1.165
X38.481 Y40.548 I-0.115 J1.293 F300
X38.711 Y37.962 I0.115 J-1.293
X38.481 Y40.548 Z-1.38 I-0.115 J1.293 F150
X38.711 Y37.962 Z-1.523 I0.115 J-1.293
X39.365 Y38.21 Z-1.548 I-0.115 J1.293
X37.827 Y40.3 I-0.769 J1.045 F300
X39.365 Y38.21 I0.769 J-1.045
X37.827 Y40.3 Z-1.69 I-0.769 J1.045 F150
X39.365 Y38.21 Z-1.832 I0.769 J-1.045
X39.796 Y38.761 Z-1.857 I-0.769 J1.045
X37.396 Y39.749 I-1.2 J0.494 F300
X39.796 Y38.761 I1.2 J-0.494
X37.396 Y39.749 Z-2 I-1.2 J0.494 F150
X39.796 Y38.761 Z-2.142 I1.2 J-0.494
X39.878 Y39.456 Z-2.167 I-1.2 J0.494
X37.314 Y39.054 I-1.282 J-0.201 F300
X39.878 Y39.456 I1.282 J0.201
X37.314 Y39.054 Z-2.309 I-1.282 J-0.201 F150
X39.878 Y39.456 Z-2.451 I1.282 J0.201
X39.588 Y40.092 Z-2.476 I-1.282 J-0.201
X37.604 Y38.418 I-0.992 J-0.837 F300
X39.588 Y40.092 I0.992 J0.837
X37.604 Y38.418 Z-2.619 I-0.992 J-0.837 F150
X39.588 Y40.092 Z-2.761 I0.992 J0.837
X39.009 Y40.486 Z-2.786 I-0.992 J-0.837
X38.183 Y38.025 I-0.413 J-1.231 F300
X39.009 Y40.486 I0.413 J1.231
X38.183 Y38.025 Z-2.928 I-0.413 J-1.231 F150
X39.009 Y40.486 Z-3.07 I0.413 J1.231
X38.31 Y40.521 Z-3.095 I-0.413 J-1.231
X38.882 Y37.989 I0.286 J-1.266 F300
X38.31 Y40.521 I-0.286 J1.266
X38.882 Y37.989 Z-3.238 I0.286 J-1.266 F150
X38.31 Y40.521 Z-3.38 I-0.286 J1.266
X37.694 Y40.189 Z-3.405 I0.286 J-1.266
X39.498 Y38.321 I0.902 J-0.934 F300
X37.694 Y40.189 I-0.902 J0.934
X39.498 Y38.321 Z-3.547 I0.902 J-0.934 F150
X37.694 Y40.189 Z-3.69 I-0.902 J0.934
X37.341 Y39.585 Z-3.714 I0.902 J-0.934
X39.851 Y38.925 I1.255 J-0.33 F300
X37.341 Y39.585 I-1.255 J0.33
X39.851 Y38.925 Z-3.857 I1.255 J-0.33 F150
X37.341 Y39.585 Z-3.999 I-1.255 J0.33
X37.352 Y38.885 Z-4.024 I1.255 J-0.33
X39.84 Y39.625 I1.244 J0.37 F300
X37.352 Y38.885 I-1.244 J-0.37
X39.84 Y39.625 Z-4.166 I1.244 J0.37 F150
X37.352 Y38.885 Z-4.309 I-1.244 J-0.37
X37.725 Y38.293 Z-4.333 I1.244 J0.37
X39.467 Y40.217 I0.871 J0.962 F300
X37.725 Y38.293 I-0.871 J-0.962
X39.467 Y40.217 Z-4.476 I0.871 J0.962 F150
X37.725 Y38.293 Z-4.618 I-0.871 J-0.962
X38.351 Y37.981 Z-4.643 I0.871 J0.962
X38.841 Y40.53 I0.245 J1.275 F300
X38.351 Y37.981 I-0.245 J-1.275
X38.841 Y40.53 Z-4.785 I0.245 J1.275 F150
X38.351 Y37.981 Z-4.928 I-0.245 J-1.275
X39.048 Y38.038 Z-4.952 I0.245 J1.275
X38.144 Y40.472 I-0.452 J1.217 F300
X39.048 Y38.038 I0.452 J-1.217
X38.144 Y40.472 Z-5.095 I-0.452 J1.217 F150
X39.048 Y38.038 Z-5.237 I0.452 J-1.217
X39.614 Y38.45 Z-5.262 I-0.452 J1.217
X37.578 Y40.06 I-1.018 J0.805 F300
X39.614 Y38.45 I1.018 J-0.805
X37.578 Y40.06 Z-5.404 I-1.018 J0.805 F150
X39.614 Y38.45 Z-5.547 I1.018 J-0.805
X39.884 Y39.095 Z-5.571 I-1.018 J0.805
X37.308 Y39.415 I-1.288 J0.16 F300
X39.884 Y39.095 I1.288 J-0.16
X37.308 Y39.415 Z-5.714 I-1.288 J0.16 F150
X39.884 Y39.095 Z-5.856 I1.288 J-0.16
X39.78 Y39.787 Z-5.881 I-1.288 J0.16
X37.412 Y38.723 I-1.184 J-0.532 F300
X39.78 Y39.787 I1.184 J0.532
X37.412 Y38.723 Z-6.023 I-1.184 J-0.532 F150
X39.78 Y39.787 Z-6.166 I1.184 J0.532
X39.331 Y40.324 Z-6.19 I-1.184 J-0.532
X37.86 Y38.186 I-0.735 J-1.069 F300
X39.331 Y40.324 I0.735 J1.069
X37.86 Y38.186 Z-6.333 I-0.735 J-1.069 F150
X39.331 Y40.324 Z-6.475 I0.735 J1.069
X38.669 Y40.551 Z-6.5 I-0.735 J-1.069
X38.522 Y37.959 I-0.073 J-1.296 F300
X38.669 Y40.551 I0.073 J1.296
G1 X38.61 Y40.549 Z-6.488
X38.552 Y40.535 Z-6.476
X38.506 Y40.515 Z-6.443
X38.464 Y40.488 Z-6.409
X38.415 Y40.442 Z-6.309
X38.401 Y40.423 Z-6.19
Z5
X16.96 Y37.512
Z2.81 F150
X16.98 Y37.523 Z2.694
X17.035 Y37.555 Z2.594
X17.116 Y37.609 Z2.527
X17.206 Y37.681 Z2.5
G3 X15.501 Y39.631 Z2.358 I-0.852 J0.975
X17.206 Y37.681 Z2.216 I0.852 J-0.975
X15.501 Y39.631 Z2.074 I-0.852 J0.975
X17.206 Y37.681 Z1.932 I0.852 J-0.975
X15.501 Y39.631 Z1.79 I-0.852 J0.975
X17.206 Y37.681 Z1.648 I0.852 J-0.975
X15.501 Y39.631 Z1.506 I-0.852 J0.975
X17.206 Y37.681 Z1.364 I0.852 J-0.975
X15.501 Y39.631 Z1.222 I-0.852 J0.975
X17.206 Y37.681 Z1.079 I0.852 J-0.975
X15.501 Y39.631 Z0.937 I-0.852 J0.975
X17.206 Y37.681 Z0.795 I0.852 J-0.975
X15.501 Y39.631 Z0.653 I-0.852 J0.975
X17.206 Y37.681 Z0.511 I0.852 J-0.975
X15.501 Y39.631 Z0.369 I-0.852 J0.975
X17.206 Y37.681 Z0.227 I0.852 J-0.975
X15.501 Y39.631 Z0.085 I-0.852 J0.975
X17.206 Y37.681 Z-0.057 I0.852 J-0.975
X15.501 Y39.631 Z-0.199 I-0.852 J0.975
X16.382 Y37.362 Z-0.31 I0.852 J-0.975
X16.325 Y39.951 I-0.028 J1.295 F300
X16.382 Y37.362 I0.028 J-1.295
X16.325 Y39.951 Z-0.452 I-0.028 J1.295 F150
X16.382 Y37.362 Z-0.594 I0.028 J-1.295
X17.067 Y37.576 Z-0.619 I-0.028 J1.295
X15.639 Y39.736 I-0.714 J1.08 F300
X17.067 Y37.576 I0.714 J-1.08
X15.639 Y39.736 Z-0.761 I-0.714 J1.08 F150
X17.067 Y37.576 Z-0.903 I0.714 J-1.08
X17.533 Y38.123 Z-0.929 I-0.714 J1.08
X15.173 Y39.189 I-1.18 J0.533 F300
X17.533 Y38.123 I1.18 J-0.533
X15.173 Y39.189 Z-1.071 I-1.18 J0.533 F150
X17.533 Y38.123 Z-1.213 I1.18 J-0.533
X17.636 Y38.834 Z-1.238 I-1.18 J0.533
X15.071 Y38.478 I-1.283 J-0.178 F300
X17.636 Y38.834 I1.283 J0.178
X15.071 Y38.478 Z-1.38 I-1.283 J-0.178 F150
X17.636 Y38.834 Z-1.522 I1.283 J0.178
X17.344 Y39.49 Z-1.548 I-1.283 J-0.178
X15.363 Y37.822 I-0.99 J-0.834 F300
X17.344 Y39.49 I0.99 J0.834
X15.363 Y37.822 Z-1.69 I-0.99 J-0.834 F150
X17.344 Y39.49 Z-1.832 I0.99 J0.834
X16.747 Y39.89 Z-1.857 I-0.99 J-0.834
X15.96 Y37.422 I-0.393 J-1.234 F300
X16.747 Y39.89 I0.393 J1.234
X15.96 Y37.422 Z-1.999 I-0.393 J-1.234 F150
X16.747 Y39.89 Z-2.141 I0.393 J1.234
X16.029 Y39.91 Z-2.167 I-0.393 J-1.234
X16.678 Y37.403 I0.325 J-1.253 F300
X16.029 Y39.91 I-0.325 J1.253
X16.678 Y37.403 Z-2.309 I0.325 J-1.253 F150
X16.029 Y39.91 Z-2.451 I-0.325 J1.253
X15.41 Y39.543 Z-2.476 I0.325 J-1.253
X17.296 Y37.769 I0.943 J-0.887 F300
X15.41 Y39.543 I-0.943 J0.887
X17.296 Y37.769 Z-2.618 I0.943 J-0.887 F150
X15.41 Y39.543 Z-2.76 I-0.943 J0.887
X15.083 Y38.904 Z-2.786 I0.943 J-0.887
X17.624 Y38.408 I1.271 J-0.248 F300
X15.083 Y38.904 I-1.271 J0.248
X17.624 Y38.408 Z-2.928 I1.271 J-0.248 F150
X15.083 Y38.904 Z-3.07 I-1.271 J0.248
X15.146 Y38.189 Z-3.095 I1.271 J-0.248
X17.561 Y39.123 I1.208 J0.467 F300
X15.146 Y38.189 I-1.208 J-0.467
X17.561 Y39.123 Z-3.237 I1.208 J0.467 F150
X15.146 Y38.189 Z-3.379 I-1.208 J-0.467
X15.581 Y37.617 Z-3.405 I1.208 J0.467
X17.126 Y39.695 I0.773 J1.039 F300
X15.581 Y37.617 I-0.773 J-1.039
X17.126 Y39.695 Z-3.547 I0.773 J1.039 F150
X15.581 Y37.617 Z-3.689 I-0.773 J-1.039
X16.254 Y37.365 Z-3.714 I0.773 J1.039
X16.453 Y39.947 I0.1 J1.291 F300
X16.254 Y37.365 I-0.1 J-1.291
X16.453 Y39.947 Z-3.856 I0.1 J1.291 F150
X16.254 Y37.365 Z-3.998 I-0.1 J-1.291
X16.957 Y37.511 Z-4.024 I0.1 J1.291
X15.75 Y39.801 I-0.604 J1.145 F300
X16.957 Y37.511 I0.604 J-1.145
X15.75 Y39.801 Z-4.166 I-0.604 J1.145 F150
X16.957 Y37.511 Z-4.308 I0.604 J-1.145
X17.475 Y38.009 Z-4.333 I-0.604 J1.145
X15.232 Y39.303 I-1.121 J0.647 F300
X17.475 Y38.009 I1.121 J-0.647
X15.232 Y39.303 Z-4.475 I-1.121 J0.647 F150
X17.475 Y38.009 Z-4.617 I1.121 J-0.647
X17.647 Y38.706 Z-4.643 I-1.121 J0.647
X15.059 Y38.606 I-1.294 J-0.05 F300
X17.647 Y38.706 I1.294 J0.05
X15.059 Y38.606 Z-4.785 I-1.294 J-0.05 F150
X17.647 Y38.706 Z-4.927 I1.294 J0.05
X17.421 Y39.388 Z-4.952 I-1.294 J-0.05
X15.285 Y37.924 I-1.068 J-0.732 F300
X17.421 Y39.388 I1.068 J0.732
X15.285 Y37.924 Z-5.094 I-1.068 J-0.732 F150
X17.421 Y39.388 Z-5.236 I1.068 J0.732
X16.867 Y39.845 Z-5.262 I-1.068 J-0.732
X15.84 Y37.467 I-0.513 J-1.189 F300
X16.867 Y39.845 I0.513 J1.189
X15.84 Y37.467 Z-5.404 I-0.513 J-1.189 F150
X16.867 Y39.845 Z-5.546 I0.513 J1.189
X16.154 Y39.935 Z-5.571 I-0.513 J-1.189
X16.553 Y37.377 I0.199 J-1.279 F300
X16.154 Y39.935 I-0.199 J1.279
X16.553 Y37.377 Z-5.713 I0.199 J-1.279 F150
X16.154 Y39.935 Z-5.856 I-0.199 J1.279
X15.503 Y39.632 Z-5.881 I0.199 J-1.279
X17.204 Y37.68 I0.851 J-0.976 F300
X15.503 Y39.632 I-0.851 J0.976
X17.204 Y37.68 Z-6.023 I0.851 J-0.976 F150
X15.503 Y39.632 Z-6.165 I-0.851 J0.976
X15.113 Y39.029 Z-6.19 I0.851 J-0.976
X17.593 Y38.284 I1.24 J-0.373 F300
X15.113 Y39.029 I-1.24 J0.373
X17.593 Y38.284 Z-6.333 I1.24 J-0.373 F150
X15.113 Y39.029 Z-6.475 I-1.24 J0.373
X15.106 Y38.31 Z-6.5 I1.24 J-0.373
X17.601 Y39.002 I1.248 J0.346 F300
X15.106 Y38.31 I-1.248 J-0.346
G1 X15.127 Y38.255 Z-6.488
X15.158 Y38.205 Z-6.476
X15.192 Y38.167 Z-6.443
X15.231 Y38.136 Z-6.409
X15.29 Y38.105 Z-6.309
X15.313 Y38.097 Z-6.19
Z5
X18.291 Y16.524
Z2.81 F150
X18.288 Y16.546 Z2.694
X18.278 Y16.61 Z2.594
X18.258 Y16.705 Z2.527
X18.224 Y16.815 Z2.5
G3 X15.797 Y15.958 Z2.359 I-1.214 J-0.429
X18.224 Y16.815 Z2.218 I1.214 J0.429
X15.797 Y15.958 Z2.076 I-1.214 J-0.429
X18.224 Y16.815 Z1.935 I1.214 J0.429
X15.797 Y15.958 Z1.794 I-1.214 J-0.429
X18.224 Y16.815 Z1.653 I1.214 J0.429
X15.797 Y15.958 Z1.512 I-1.214 J-0.429
X18.224 Y16.815 Z1.37 I1.214 J0.429
X15.797 Y15.958 Z1.229 I-1.214 J-0.429
X18.224 Y16.815 Z1.088 I1.214 J0.429
X15.797 Y15.958 Z0.947 I-1.214 J-0.429
X18.224 Y16.815 Z0.806 I1.214 J0.429
X15.797 Y15.958 Z0.665 I-1.214 J-0.429
X18.224 Y16.815 Z0.523 I1.214 J0.429
X15.797 Y15.958 Z0.382 I-1.214 J-0.429
X18.224 Y16.815 Z0.241 I1.214 J0.429
X15.797 Y15.958 Z0.1 I-1.214 J-0.429
X18.224 Y16.815 Z-0.041 I1.214 J0.429
X15.797 Y15.958 Z-0.183 I-1.214 J-0.429
X18.298 Y16.414 Z-0.31 I1.214 J0.429
X15.724 Y16.358 I-1.287 J-0.028 F300
X18.298 Y16.414 I1.287 J0.028
X15.724 Y16.358 Z-0.451 I-1.287 J-0.028 F150
X18.298 Y16.414 Z-0.592 I1.287 J0.028
X18.054 Y17.14 Z-0.619 I-1.287 J-0.028
X15.968 Y15.633 I-1.043 J-0.754 F300
X18.054 Y17.14 I1.043 J0.754
X15.968 Y15.633 Z-0.76 I-1.043 J-0.754 F150
X18.054 Y17.14 Z-0.901 I1.043 J0.754
X17.441 Y17.599 Z-0.929 I-1.043 J-0.754
X16.58 Y15.174 I-0.43 J-1.213 F300
X17.441 Y17.599 I0.43 J1.213
X16.58 Y15.174 Z-1.07 I-0.43 J-1.213 F150
X17.441 Y17.599 Z-1.211 I0.43 J1.213
X16.676 Y17.629 Z-1.238 I-0.43 J-1.213
X17.345 Y15.144 I0.335 J-1.243 F300
X16.676 Y17.629 I-0.335 J1.243
X17.345 Y15.144 Z-1.379 I0.335 J-1.243 F150
X16.676 Y17.629 Z-1.52 I-0.335 J1.243
X16.03 Y17.219 Z-1.548 I0.335 J-1.243
X17.992 Y15.553 I0.981 J-0.833 F300
X16.03 Y17.219 I-0.981 J0.833
X17.992 Y15.553 Z-1.689 I0.981 J-0.833 F150
X16.03 Y17.219 Z-1.83 I-0.981 J0.833
X15.73 Y16.515 Z-1.857 I0.981 J-0.833
X18.291 Y16.258 I1.281 J-0.128 F300
X15.73 Y16.515 I-1.281 J0.128
X18.291 Y16.258 Z-1.998 I1.281 J-0.128 F150
X15.73 Y16.515 Z-2.14 I-1.281 J0.128
X15.884 Y15.765 Z-2.167 I1.281 J-0.128
X18.138 Y17.008 I1.127 J0.622 F300
X15.884 Y15.765 I-1.127 J-0.622
X18.138 Y17.008 Z-2.308 I1.127 J0.622 F150
X15.884 Y15.765 Z-2.449 I-1.127 J-0.622
X16.436 Y15.235 Z-2.476 I1.127 J0.622
X17.585 Y17.538 I0.575 J1.152 F300
X16.436 Y15.235 I-0.575 J-1.152
X17.585 Y17.538 Z-2.617 I0.575 J1.152 F150
X16.436 Y15.235 Z-2.759 I-0.575 J-1.152
X17.192 Y15.112 Z-2.786 I0.575 J1.152
X16.83 Y17.661 I-0.181 J1.274 F300
X17.192 Y15.112 I0.181 J-1.274
X16.83 Y17.661 Z-2.927 I-0.181 J1.274 F150
X17.192 Y15.112 Z-3.068 I0.181 J-1.274
X17.884 Y15.441 Z-3.095 I-0.181 J1.274
X16.138 Y17.332 I-0.873 J0.946 F300
X17.884 Y15.441 I0.873 J-0.946
X16.138 Y17.332 Z-3.236 I-0.873 J0.946 F150
X17.884 Y15.441 Z-3.378 I0.873 J-0.946
X18.266 Y16.103 Z-3.405 I-0.873 J0.946
X15.755 Y16.669 I-1.255 J0.283 F300
X18.266 Y16.103 I1.255 J-0.283
X15.755 Y16.669 Z-3.546 I-1.255 J0.283 F150
X18.266 Y16.103 Z-3.687 I1.255 J-0.283
X18.205 Y16.867 Z-3.714 I-1.255 J0.283
X15.817 Y15.906 I-1.194 J-0.48 F300
X18.205 Y16.867 I1.194 J0.48
X15.817 Y15.906 Z-3.855 I-1.194 J-0.48 F150
X18.205 Y16.867 Z-3.997 I1.194 J0.48
X17.721 Y17.46 Z-4.024 I-1.194 J-0.48
X16.301 Y15.313 I-0.71 J-1.073 F300
X17.721 Y17.46 I0.71 J1.073
X16.301 Y15.313 Z-4.165 I-0.71 J-1.073 F150
X17.721 Y17.46 Z-4.306 I0.71 J1.073
X16.986 Y17.673 Z-4.333 I-0.71 J-1.073
X17.036 Y15.1 I0.025 J-1.287 F300
X16.986 Y17.673 I-0.025 J1.287
X16.257 Y17.429 Z-4.36 I0.025 J-1.287 F150
X17.765 Y15.343 Z-4.502 I0.754 J-1.043
X16.257 Y17.429 Z-4.643 I-0.754 J1.043
X17.765 Y15.343 I0.754 J-1.043 F300
X16.257 Y17.429 I-0.754 J1.043
X17.765 Y15.343 Z-4.784 I0.754 J-1.043 F150
X16.257 Y17.429 Z-4.925 I-0.754 J1.043
X15.798 Y16.817 Z-4.952 I0.754 J-1.043
X18.224 Y15.956 I1.213 J-0.43 F300
X15.798 Y16.817 I-1.213 J0.43
X18.224 Y15.956 Z-5.094 I1.213 J-0.43 F150
X15.798 Y16.817 Z-5.235 I-1.213 J0.43
X15.768 Y16.052 Z-5.262 I1.213 J-0.43
X18.254 Y16.721 I1.243 J0.335 F300
X15.768 Y16.052 I-1.243 J-0.335
X18.254 Y16.721 Z-5.403 I1.243 J0.335 F150
X15.768 Y16.052 Z-5.544 I-1.243 J-0.335
X16.178 Y15.405 Z-5.571 I1.243 J0.335
X17.844 Y17.368 I0.833 J0.981 F300
X16.178 Y15.405 I-0.833 J-0.981
X17.844 Y17.368 Z-5.713 I0.833 J0.981 F150
X16.178 Y15.405 Z-5.854 I-0.833 J-0.981
X16.883 Y15.106 Z-5.881 I0.833 J0.981
X17.139 Y17.667 I0.128 J1.281 F300
X16.883 Y15.106 I-0.128 J-1.281
X17.139 Y17.667 Z-6.022 I0.128 J1.281 F150
X16.883 Y15.106 Z-6.163 I-0.128 J-1.281
X17.632 Y15.259 Z-6.19 I0.128 J1.281
X16.389 Y17.513 I-0.622 J1.127 F300
X17.632 Y15.259 I0.622 J-1.127
X16.389 Y17.513 Z-6.332 I-0.622 J1.127 F150
X17.632 Y15.259 Z-6.473 I0.622 J-1.127
X18.163 Y15.812 Z-6.5 I-0.622 J1.127
X15.859 Y16.961 I-1.152 J0.575 F300
X18.163 Y15.812 I1.152 J-0.575
G1 X18.184 Y15.867 Z-6.488
X18.194 Y15.925 Z-6.476
Y15.976 Z-6.443
X18.186 Y16.025 Z-6.409
X18.163 Y16.088 Z-6.309
X18.151 Y16.109 Z-6.19
Z5
X37.935 Y17.222
Z2.81 F150
X37.931 Y17.2 Z2.694
X37.921 Y17.136 Z2.594
X37.912 Y17.039 Z2.527
X37.911 Y16.924 Z2.5
G3 X40.537 Y17.009 Z2.356 I1.313 J0.043
X37.911 Y16.924 Z2.212 I-1.313 J-0.043
X40.537 Y17.009 Z2.068 I1.313 J0.043
X37.911 Y16.924 Z1.924 I-1.313 J-0.043
X40.537 Y17.009 Z1.779 I1.313 J0.043
X37.911 Y16.924 Z1.635 I-1.313 J-0.043
X40.537 Y17.009 Z1.491 I1.313 J0.043
X37.911 Y16.924 Z1.347 I-1.313 J-0.043
X40.537 Y17.009 Z1.203 I1.313 J0.043
X37.911 Y16.924 Z1.059 I-1.313 J-0.043
X40.537 Y17.009 Z0.915 I1.313 J0.043
X37.911 Y16.924 Z0.771 I-1.313 J-0.043
X40.537 Y17.009 Z0.627 I1.313 J0.043
X37.911 Y16.924 Z0.483 I-1.313 J-0.043
X40.537 Y17.009 Z0.338 I1.313 J0.043
X37.911 Y16.924 Z0.194 I-1.313 J-0.043
X40.537 Y17.009 Z0.05 I1.313 J0.043
X37.911 Y16.924 Z-0.094 I-1.313 J-0.043
X40.537 Y17.009 Z-0.238 I1.313 J0.043
X39.195 Y18.28 Z-0.31 I-1.313 J-0.043
X39.252 Y15.654 I0.029 J-1.313 F300
X39.195 Y18.28 I-0.029 J1.313
X39.252 Y15.654 Z-0.454 I0.029 J-1.313 F150
X39.195 Y18.28 Z-0.598 I-0.029 J1.313
X38.61 Y18.128 Z-0.619 I0.029 J-1.313
X39.838 Y15.806 I0.614 J-1.161 F300
X38.61 Y18.128 I-0.614 J1.161
X39.838 Y15.806 Z-0.763 I0.614 J-1.161 F150
X38.61 Y18.128 Z-0.907 I-0.614 J1.161
X38.154 Y17.73 Z-0.929 I0.614 J-1.161
X40.293 Y16.204 I1.069 J-0.763 F300
X38.154 Y17.73 I-1.069 J0.763
X40.293 Y16.204 Z-1.073 I1.069 J-0.763 F150
X38.154 Y17.73 Z-1.217 I-1.069 J0.763
X37.926 Y17.169 Z-1.238 I1.069 J-0.763
X40.522 Y16.764 I1.298 J-0.203 F300
X37.926 Y17.169 I-1.298 J0.203
X40.522 Y16.764 Z-1.382 I1.298 J-0.203 F150
X37.926 Y17.169 Z-1.526 I-1.298 J0.203
X37.973 Y16.566 Z-1.548 I1.298 J-0.203
X40.475 Y17.367 I1.251 J0.401 F300
X37.973 Y16.566 I-1.251 J-0.401
X40.475 Y17.367 Z-1.692 I1.251 J0.401 F150
X37.973 Y16.566 Z-1.836 I-1.251 J-0.401
X38.285 Y16.048 Z-1.857 I1.251 J0.401
X40.163 Y17.886 I0.939 J0.919 F300
X38.285 Y16.048 I-0.939 J-0.919
X40.163 Y17.886 Z-2.001 I0.939 J0.919 F150
X38.285 Y16.048 Z-2.145 I-0.939 J-0.919
X38.796 Y15.725 Z-2.167 I0.939 J0.919
X39.651 Y18.209 I0.427 J1.242 F300
X38.796 Y15.725 I-0.427 J-1.242
X39.651 Y18.209 Z-2.311 I0.427 J1.242 F150
X38.796 Y15.725 Z-2.455 I-0.427 J-1.242
X39.398 Y15.665 Z-2.476 I0.427 J1.242
X39.049 Y18.269 I-0.175 J1.302 F300
X39.398 Y15.665 I0.175 J-1.302
X39.049 Y18.269 Z-2.62 I-0.175 J1.302 F150
X39.398 Y15.665 Z-2.764 I0.175 J-1.302
X39.963 Y15.881 Z-2.786 I-0.175 J1.302
X38.484 Y18.052 I-0.74 J1.086 F300
X39.963 Y15.881 I0.74 J-1.086
X38.484 Y18.052 Z-2.93 I-0.74 J1.086 F150
X39.963 Y15.881 Z-3.074 I0.74 J-1.086
X40.372 Y16.328 Z-3.095 I-0.74 J1.086
X38.076 Y17.606 I-1.148 J0.639 F300
X40.372 Y16.328 I1.148 J-0.639
X38.076 Y17.606 Z-3.239 I-1.148 J0.639 F150
X40.372 Y16.328 Z-3.383 I1.148 J-0.639
X40.536 Y16.91 Z-3.405 I-1.148 J0.639
X37.912 Y17.024 I-1.312 J0.057 F300
X40.536 Y16.91 I1.312 J-0.057
X37.912 Y17.024 Z-3.549 I-1.312 J0.057 F150
X40.536 Y16.91 Z-3.693 I1.312 J-0.057
X40.422 Y17.504 Z-3.714 I-1.312 J0.057
X38.025 Y16.429 I-1.199 J-0.537 F300
X40.422 Y17.504 I1.199 J0.537
X38.025 Y16.429 Z-3.858 I-1.199 J-0.537 F150
X40.422 Y17.504 Z-4.002 I1.199 J0.537
X40.054 Y17.984 Z-4.024 I-1.199 J-0.537
X38.393 Y15.949 I-0.831 J-1.018 F300
X40.054 Y17.984 I0.831 J1.018
X38.393 Y15.949 Z-4.168 I-0.831 J-1.018 F150
X40.054 Y17.984 Z-4.312 I0.831 J1.018
X39.51 Y18.249 Z-4.333 I-0.831 J-1.018
X38.937 Y15.685 I-0.286 J-1.282 F300
X39.51 Y18.249 I0.286 J1.282
X38.937 Y15.685 Z-4.477 I-0.286 J-1.282 F150
X39.51 Y18.249 Z-4.622 I0.286 J1.282
X38.905 Y18.241 Z-4.643 I-0.286 J-1.282
X39.542 Y15.692 I0.318 J-1.274 F300
X38.905 Y18.241 I-0.318 J1.274
X39.542 Y15.692 Z-4.787 I0.318 J-1.274 F150
X38.905 Y18.241 Z-4.931 I-0.318 J1.274
X38.368 Y17.963 Z-4.952 I0.318 J-1.274
X40.08 Y15.97 I0.856 J-0.996 F300
X38.368 Y17.963 I-0.856 J0.996
X40.08 Y15.97 Z-5.096 I0.856 J-0.996 F150
X38.368 Y17.963 Z-5.241 I-0.856 J0.996
X38.012 Y17.474 Z-5.262 I0.856 J-0.996
X40.436 Y16.46 I1.212 J-0.507 F300
X38.012 Y17.474 I-1.212 J0.507
X40.436 Y16.46 Z-5.406 I1.212 J-0.507 F150
X38.012 Y17.474 Z-5.55 I-1.212 J0.507
X37.913 Y16.877 Z-5.571 I1.212 J-0.507
X40.534 Y17.056 I1.31 J0.09 F300
X37.913 Y16.877 I-1.31 J-0.09
X40.534 Y17.056 Z-5.716 I1.31 J0.09 F150
X37.913 Y16.877 Z-5.86 I-1.31 J-0.09
X38.093 Y16.299 Z-5.881 I1.31 J0.09
X40.355 Y17.634 I1.131 J0.667 F300
X38.093 Y16.299 I-1.131 J-0.667
X40.355 Y17.634 Z-6.025 I1.131 J0.667 F150
X38.093 Y16.299 Z-6.169 I-1.131 J-0.667
X38.512 Y15.863 Z-6.19 I1.131 J0.667
X39.936 Y18.071 I0.712 J1.104 F300
X38.512 Y15.863 I-0.712 J-1.104
X39.936 Y18.071 Z-6.335 I0.712 J1.104 F150
X38.512 Y15.863 Z-6.479 I-0.712 J-1.104
X39.082 Y15.661 Z-6.5 I0.712 J1.104
X39.366 Y18.273 I0.142 J1.306 F300
X39.082 Y15.661 I-0.142 J-1.306
G1 X39.141 Y15.66 Z-6.488
X39.199 Y15.671 Z-6.476
X39.246 Y15.688 Z-6.443
X39.29 Y15.713 Z-6.409
X39.341 Y15.757 Z-6.309
X39.357 Y15.774 Z-6.19
Z10
(When using Fusion 360 for Personal Use, the feedrate of)
(rapid moves is reduced to match the feedrate of cutting)
(moves, which can increase machining time. Unrestricted rapid)
(moves are available with a Fusion 360 Subscription.)

(2D Pocket2)
G0 X16.833 Y39.626
G1 Z10 F300
Z5
Z1.31 F150
Z0.01
X16.832 Y39.633 Z-0.059
X16.829 Y39.656 Z-0.125
X16.825 Y39.693 Z-0.183
X16.819 Y39.741 Z-0.232
X16.812 Y39.8 Z-0.269
X16.804 Y39.865 Z-0.292
X16.795 Y39.933 Z-0.3
G3 X16.528 Y40.197 I-0.301 J-0.037
X14.845 Y38.281 I-0.175 J-1.543 F300
X15.756 Y37.221 I1.509 J0.375
X17.152 Y37.271 I0.644 J1.544
X17.779 Y37.932 I-0.605 J1.201
X17.726 Y39.381 I-1.526 J0.669
X16.528 Y40.197 I-1.373 J-0.726
G2 X15.472 Y40.956 I0.15 J1.325
G3 X14.202 Y41.239 I-0.744 J-0.349
X13.05 Y38.032 I2.152 J-2.583
G1 X13.086 Y37.844
X13.142 Y37.661
G3 X17.865 Y35.654 I3.211 J0.995
G1 X18.946 Y36.198
X19.432 Y37.307
G3 X14.202 Y41.239 I-3.079 J1.349
X14.043 Y39.13 Z-0.371 I0.943 J-1.131 F150
G1 X15.26 Y37.758 Z-0.427
G3 X17.463 Y39.711 Z-0.567 I1.102 J0.977
X16.513 Y40.199 Z-0.6 I-1.102 J-0.977
X14.845 Y38.281 I-0.16 J-1.545 F300
X15.756 Y37.221 I1.509 J0.375
X17.152 Y37.271 I0.644 J1.544
X17.779 Y37.932 I-0.605 J1.201
X17.726 Y39.381 I-1.526 J0.669
X16.528 Y40.197 I-1.373 J-0.726
G1 X16.513 Y40.199
G2 X15.449 Y40.947 I0.137 J1.326
G3 X14.176 Y41.217 I-0.74 J-0.356
X13.05 Y38.032 I2.177 J-2.561
G1 X13.086 Y37.844
X13.142 Y37.661
G3 X17.865 Y35.654 I3.211 J0.995
G1 X18.946 Y36.198
X19.432 Y37.307
G3 X14.176 Y41.217 I-3.079 J1.349
X14.038 Y39.107 Z-0.671 I0.954 J-1.122 F150
G1 X15.27 Y37.746 Z-0.727
G3 X17.453 Y39.723 Z-0.867 I1.092 J0.988
X16.513 Y40.199 Z-0.9 I-1.092 J-0.988
X14.845 Y38.281 I-0.16 J-1.545 F300
X15.756 Y37.221 I1.509 J0.375
X17.152 Y37.271 I0.644 J1.544
X17.779 Y37.932 I-0.605 J1.201
X17.726 Y39.381 I-1.526 J0.669
X16.528 Y40.197 I-1.373 J-0.726
G1 X16.513 Y40.199
G2 X15.449 Y40.947 I0.137 J1.326
G3 X14.176 Y41.217 I-0.74 J-0.356
X13.05 Y38.032 I2.177 J-2.561
G1 X13.086 Y37.844
X13.142 Y37.661
G3 X17.865 Y35.654 I3.211 J0.995
G1 X18.946 Y36.198
X19.432 Y37.307
G3 X14.176 Y41.217 I-3.079 J1.349
X14.038 Y39.107 Z-0.971 I0.954 J-1.122 F150
G1 X15.27 Y37.746 Z-1.027
G3 X17.453 Y39.723 Z-1.167 I1.092 J0.988
X16.513 Y40.199 Z-1.2 I-1.092 J-0.988
X14.845 Y38.281 I-0.16 J-1.545 F300
X15.756 Y37.221 I1.509 J0.375
X17.152 Y37.271 I0.644 J1.544
X17.779 Y37.932 I-0.605 J1.201
X17.726 Y39.381 I-1.526 J0.669
X16.528 Y40.197 I-1.373 J-0.726
G1 X16.513 Y40.199
G2 X15.449 Y40.947 I0.137 J1.326
G3 X14.176 Y41.217 I-0.74 J-0.356
X13.05 Y38.032 I2.177 J-2.561
G1 X13.086 Y37.844
X13.142 Y37.661
G3 X17.865 Y35.654 I3.211 J0.995
G1 X18.946 Y36.198
X19.432 Y37.307
G3 X14.176 Y41.217 I-3.079 J1.349
X14.038 Y39.107 Z-1.271 I0.954 J-1.122 F150
G1 X15.27 Y37.746 Z-1.327
G3 X17.453 Y39.723 Z-1.467 I1.092 J0.988
X16.513 Y40.199 Z-1.5 I-1.092 J-0.988
X14.845 Y38.281 I-0.16 J-1.545 F300
X15.756 Y37.221 I1.509 J0.375
X17.152 Y37.271 I0.644 J1.544
X17.779 Y37.932 I-0.605 J1.201
X17.726 Y39.381 I-1.526 J0.669
X16.528 Y40.197 I-1.373 J-0.726
G1 X16.513 Y40.199
G2 X15.449 Y40.947 I0.137 J1.326
G3 X14.176 Y41.217 I-0.74 J-0.356
X13.05 Y38.032 I2.177 J-2.561
G1 X13.086 Y37.844
X13.142 Y37.661
G3 X17.865 Y35.654 I3.211 J0.995
G1 X18.946 Y36.198
X19.432 Y37.307
G3 X14.176 Y41.217 I-3.079 J1.349
X14.038 Y39.107 Z-1.571 I0.954 J-1.122 F150
G1 X15.27 Y37.746 Z-1.627
G3 X17.453 Y39.723 Z-1.767 I1.092 J0.988
X16.513 Y40.199 Z-1.8 I-1.092 J-0.988
X14.845 Y38.281 I-0.16 J-1.545 F300
X15.756 Y37.221 I1.509 J0.375
X17.152 Y37.271 I0.644 J1.544
X17.779 Y37.932 I-0.605 J1.201
X17.726 Y39.381 I-1.526 J0.669
X16.528 Y40.197 I-1.373 J-0.726
G1 X16.513 Y40.199
G2 X15.449 Y40.947 I0.137 J1.326
G3 X14.176 Y41.217 I-0.74 J-0.356
X13.05 Y38.032 I2.177 J-2.561
G1 X13.086 Y37.844
X13.142 Y37.661
G3 X17.865 Y35.654 I3.211 J0.995
G1 X18.946 Y36.198
X19.432 Y37.307
G3 X14.176 Y41.217 I-3.079 J1.349
X14.038 Y39.107 Z-1.871 I0.954 J-1.122 F150
G1 X15.27 Y37.746 Z-1.927
G3 X17.453 Y39.723 Z-2.067 I1.092 J0.988
X16.513 Y40.199 Z-2.1 I-1.092 J-0.988
X14.845 Y38.281 I-0.16 J-1.545 F300
X15.756 Y37.221 I1.509 J0.375
X17.152 Y37.271 I0.644 J1.544
X17.779 Y37.932 I-0.605 J1.201
X17.726 Y39.381 I-1.526 J0.669
X16.528 Y40.197 I-1.373 J-0.726
G1 X16.513 Y40.199
G2 X15.449 Y40.947 I0.137 J1.326
G3 X14.176 Y41.217 I-0.74 J-0.356
X13.05 Y38.032 I2.177 J-2.561
G1 X13.086 Y37.844
X13.142 Y37.661
G3 X17.865 Y35.654 I3.211 J0.995
G1 X18.946 Y36.198
X19.432 Y37.307
G3 X14.176 Y41.217 I-3.079 J1.349
X14.038 Y39.107 Z-2.171 I0.954 J-1.122 F150
G1 X15.27 Y37.746 Z-2.227
G3 X17.453 Y39.723 Z-2.367 I1.092 J0.988
X16.513 Y40.199 Z-2.4 I-1.092 J-0.988
X14.845 Y38.281 I-0.16 J-1.545 F300
X15.756 Y37.221 I1.509 J0.375
X17.152 Y37.271 I0.644 J1.544
X17.779 Y37.932 I-0.605 J1.201
X17.726 Y39.381 I-1.526 J0.669
X16.528 Y40.197 I-1.373 J-0.726
G1 X16.513 Y40.199
G2 X15.449 Y40.947 I0.137 J1.326
G3 X14.176 Y41.217 I-0.74 J-0.356
X13.05 Y38.032 I2.177 J-2.561
G1 X13.086 Y37.844
X13.142 Y37.661
G3 X17.865 Y35.654 I3.211 J0.995
G1 X18.946 Y36.198
X19.432 Y37.307
G3 X14.176 Y41.217 I-3.079 J1.349
X14.038 Y39.107 Z-2.471 I0.954 J-1.122 F150
G1 X15.27 Y37.746 Z-2.527
G3 X17.453 Y39.723 Z-2.667 I1.092 J0.988
X16.513 Y40.199 Z-2.7 I-1.092 J-0.988
X14.845 Y38.281 I-0.16 J-1.545 F300
X15.756 Y37.221 I1.509 J0.375
X17.152 Y37.271 I0.644 J1.544
X17.779 Y37.932 I-0.605 J1.201
X17.726 Y39.381 I-1.526 J0.669
X16.528 Y40.197 I-1.373 J-0.726
G1 X16.513 Y40.199
G2 X15.449 Y40.947 I0.137 J1.326
G3 X14.176 Y41.217 I-0.74 J-0.356
X13.05 Y38.032 I2.177 J-2.561
G1 X13.086 Y37.844
X13.142 Y37.661
G3 X17.865 Y35.654 I3.211 J0.995
G1 X18.946 Y36.198
X19.432 Y37.307
G3 X14.176 Y41.217 I-3.079 J1.349
X14.038 Y39.107 Z-2.771 I0.954 J-1.122 F150
G1 X15.27 Y37.746 Z-2.827
G3 X17.453 Y39.723 Z-2.967 I1.092 J0.988
X16.513 Y40.199 Z-3 I-1.092 J-0.988
X14.845 Y38.281 I-0.16 J-1.545 F300
X15.756 Y37.221 I1.509 J0.375
X17.152 Y37.271 I0.644 J1.544
X17.779 Y37.932 I-0.605 J1.201
X17.726 Y39.381 I-1.526 J0.669
X16.528 Y40.197 I-1.373 J-0.726
G1 X16.513 Y40.199
G2 X15.449 Y40.947 I0.137 J1.326
G3 X14.176 Y41.217 I-0.74 J-0.356
X13.05 Y38.032 I2.177 J-2.561
G1 X13.086 Y37.844
X13.142 Y37.661
G3 X17.865 Y35.654 I3.211 J0.995
G1 X18.946 Y36.198
X19.432 Y37.307
G3 X14.176 Y41.217 I-3.079 J1.349
G1 X14.135 Y41.174 Z-2.988
X14.102 Y41.125 Z-2.976
X14.083 Y41.079 Z-2.943
X14.071 Y41.03 Z-2.909
X14.067 Y40.963 Z-2.809
X14.069 Y40.939 Z-2.69
Z10
X37.248 Y38.886
Z5
Z2.81 F150
X37.26 Y38.867 Z2.694
X37.295 Y38.813 Z2.594
X37.353 Y38.736 Z2.527
X37.429 Y38.649 Z2.5
G3 X39.576 Y40.664 Z2.338 I1.074 J1.008
X37.429 Y38.649 Z2.177 I-1.074 J-1.008
X39.576 Y40.664 Z2.015 I1.074 J1.008
X37.429 Y38.649 Z1.854 I-1.074 J-1.008
X39.576 Y40.664 Z1.692 I1.074 J1.008
X37.429 Y38.649 Z1.531 I-1.074 J-1.008
X39.576 Y40.664 Z1.369 I1.074 J1.008
X37.429 Y38.649 Z1.208 I-1.074 J-1.008
X39.576 Y40.664 Z1.046 I1.074 J1.008
X37.429 Y38.649 Z0.885 I-1.074 J-1.008
X39.576 Y40.664 Z0.723 I1.074 J1.008
X37.429 Y38.649 Z0.561 I-1.074 J-1.008
X39.576 Y40.664 Z0.4 I1.074 J1.008
X37.429 Y38.649 Z0.238 I-1.074 J-1.008
X39.576 Y40.664 Z0.077 I1.074 J1.008
X37.429 Y38.649 Z-0.085 I-1.074 J-1.008
X39.576 Y40.664 Z-0.246 I1.074 J1.008
X38.169 Y41.091 Z-0.3 I-1.074 J-1.008
X36.92 Y40.149 I0.437 J-1.878 F300
X36.802 Y38.589 I1.636 J-0.909
G2 X36.882 Y38.35 I-3.788 J-1.406
G3 X36.962 Y38.111 I3.868 J1.167
X37.55 Y37.557 I0.853 J0.317
X37.794 Y37.491 I1.179 J3.864
G2 X38.037 Y37.424 I-0.936 J-3.932
G3 X39.47 Y37.55 I0.56 J1.837
X40.421 Y38.628 I-0.888 J1.743
X40.518 Y39.42 I-1.688 J0.61
G1 X40.516 Y39.435
X40.514 Y39.451
G3 X39.712 Y40.801 I-1.855 J-0.189
X38.169 Y41.091 I-1.101 J-1.61
G2 X36.891 Y41.469 I-0.306 J1.314
G3 X35.562 Y41.364 I-0.621 J-0.598
X35.132 Y37.97 I3.034 J-2.109
G1 X35.768 Y36.255
X37.518 Y35.721
G3 X42.071 Y38 I1.078 J3.534
G1 X42.357 Y38.792
X42.271 Y39.63
G3 X35.562 Y41.364 I-3.675 J-0.375
X36.112 Y39.207 Z-0.375 I1.209 J-0.84 F150
G1 X37.843 Y38.34 Z-0.432
G3 X39.162 Y40.973 Z-0.57 I0.659 J1.317
X38.169 Y41.091 Z-0.6 I-0.659 J-1.317
X36.92 Y40.149 I0.437 J-1.878 F300
X36.802 Y38.589 I1.636 J-0.909
G2 X36.882 Y38.35 I-3.788 J-1.406
G3 X36.962 Y38.111 I3.868 J1.167
X37.55 Y37.557 I0.853 J0.317
X37.794 Y37.491 I1.179 J3.864
G2 X38.037 Y37.424 I-0.936 J-3.932
G3 X39.47 Y37.55 I0.56 J1.837
X40.421 Y38.628 I-0.888 J1.743
X40.518 Y39.42 I-1.688 J0.61
G1 X40.516 Y39.435
X40.514 Y39.451
G3 X39.712 Y40.801 I-1.855 J-0.189
X38.169 Y41.091 I-1.101 J-1.61
G2 X36.891 Y41.469 I-0.306 J1.314
G3 X35.562 Y41.364 I-0.621 J-0.598
X35.132 Y37.97 I3.034 J-2.109
G1 X35.768 Y36.255
X37.518 Y35.721
G3 X42.071 Y38 I1.078 J3.534
G1 X42.357 Y38.792
X42.271 Y39.63
G3 X35.562 Y41.364 I-3.675 J-0.375
X36.112 Y39.207 Z-0.675 I1.209 J-0.84 F150
G1 X37.843 Y38.34 Z-0.732
G3 X39.162 Y40.973 Z-0.87 I0.659 J1.317
X38.169 Y41.091 Z-0.9 I-0.659 J-1.317
X36.92 Y40.149 I0.437 J-1.878 F300
X36.802 Y38.589 I1.636 J-0.909
G2 X36.882 Y38.35 I-3.788 J-1.406
G3 X36.962 Y38.111 I3.868 J1.167
X37.55 Y37.557 I0.853 J0.317
X37.794 Y37.491 I1.179 J3.864
G2 X38.037 Y37.424 I-0.936 J-3.932
G3 X39.47 Y37.55 I0.56 J1.837
X40.421 Y38.628 I-0.888 J1.743
X40.518 Y39.42 I-1.688 J0.61
G1 X40.516 Y39.435
X40.514 Y39.451
G3 X39.712 Y40.801 I-1.855 J-0.189
X38.169 Y41.091 I-1.101 J-1.61
G2 X36.891 Y41.469 I-0.306 J1.314
G3 X35.562 Y41.364 I-0.621 J-0.598
X35.132 Y37.97 I3.034 J-2.109
G1 X35.768 Y36.255
X37.518 Y35.721
G3 X42.071 Y38 I1.078 J3.534
G1 X42.357 Y38.792
X42.271 Y39.63
G3 X35.562 Y41.364 I-3.675 J-0.375
X36.112 Y39.207 Z-0.975 I1.209 J-0.84 F150
G1 X37.843 Y38.34 Z-1.032
G3 X39.162 Y40.973 Z-1.17 I0.659 J1.317
X38.169 Y41.091 Z-1.2 I-0.659 J-1.317
X36.92 Y40.149 I0.437 J-1.878 F300
X36.802 Y38.589 I1.636 J-0.909
G2 X36.882 Y38.35 I-3.788 J-1.406
G3 X36.962 Y38.111 I3.868 J1.167
X37.55 Y37.557 I0.853 J0.317
X37.794 Y37.491 I1.179 J3.864
G2 X38.037 Y37.424 I-0.936 J-3.932
G3 X39.47 Y37.55 I0.56 J1.837
X40.421 Y38.628 I-0.888 J1.743
X40.518 Y39.42 I-1.688 J0.61
G1 X40.516 Y39.435
X40.514 Y39.451
G3 X39.712 Y40.801 I-1.855 J-0.189
X38.169 Y41.091 I-1.101 J-1.61
G2 X36.891 Y41.469 I-0.306 J1.314
G3 X35.562 Y41.364 I-0.621 J-0.598
X35.132 Y37.97 I3.034 J-2.109
G1 X35.768 Y36.255
X37.518 Y35.721
G3 X42.071 Y38 I1.078 J3.534
G1 X42.357 Y38.792
X42.271 Y39.63
G3 X35.562 Y41.364 I-3.675 J-0.375
X36.112 Y39.207 Z-1.275 I1.209 J-0.84 F150
G1 X37.843 Y38.34 Z-1.332
G3 X39.162 Y40.973 Z-1.47 I0.659 J1.317
X38.169 Y41.091 Z-1.5 I-0.659 J-1.317
X36.92 Y40.149 I0.437 J-1.878 F300
X36.802 Y38.589 I1.636 J-0.909
G2 X36.882 Y38.35 I-3.788 J-1.406
G3 X36.962 Y38.111 I3.868 J1.167
X37.55 Y37.557 I0.853 J0.317
X37.794 Y37.491 I1.179 J3.864
G2 X38.037 Y37.424 I-0.936 J-3.932
G3 X39.47 Y37.55 I0.56 J1.837
X40.421 Y38.628 I-0.888 J1.743
X40.518 Y39.42 I-1.688 J0.61
G1 X40.516 Y39.435
X40.514 Y39.451
G3 X39.712 Y40.801 I-1.855 J-0.189
X38.169 Y41.091 I-1.101 J-1.61
G2 X36.891 Y41.469 I-0.306 J1.314
G3 X35.562 Y41.364 I-0.621 J-0.598
X35.132 Y37.97 I3.034 J-2.109
G1 X35.768 Y36.255
X37.518 Y35.721
G3 X42.071 Y38 I1.078 J3.534
G1 X42.357 Y38.792
X42.271 Y39.63
G3 X35.562 Y41.364 I-3.675 J-0.375
X36.112 Y39.207 Z-1.575 I1.209 J-0.84 F150
G1 X37.843 Y38.34 Z-1.632
G3 X39.162 Y40.973 Z-1.77 I0.659 J1.317
X38.169 Y41.091 Z-1.8 I-0.659 J-1.317
X36.92 Y40.149 I0.437 J-1.878 F300
X36.802 Y38.589 I1.636 J-0.909
G2 X36.882 Y38.35 I-3.788 J-1.406
G3 X36.962 Y38.111 I3.868 J1.167
X37.55 Y37.557 I0.853 J0.317
X37.794 Y37.491 I1.179 J3.864
G2 X38.037 Y37.424 I-0.936 J-3.932
G3 X39.47 Y37.55 I0.56 J1.837
X40.421 Y38.628 I-0.888 J1.743
X40.518 Y39.42 I-1.688 J0.61
G1 X40.516 Y39.435
X40.514 Y39.451
G3 X39.712 Y40.801 I-1.855 J-0.189
X38.169 Y41.091 I-1.101 J-1.61
G2 X36.891 Y41.469 I-0.306 J1.314
G3 X35.562 Y41.364 I-0.621 J-0.598
X35.132 Y37.97 I3.034 J-2.109
G1 X35.768 Y36.255
X37.518 Y35.721
G3 X42.071 Y38 I1.078 J3.534
G1 X42.357 Y38.792
X42.271 Y39.63
G3 X35.562 Y41.364 I-3.675 J-0.375
X36.112 Y39.207 Z-1.875 I1.209 J-0.84 F150
G1 X37.843 Y38.34 Z-1.932
G3 X39.162 Y40.973 Z-2.07 I0.659 J1.317
X38.169 Y41.091 Z-2.1 I-0.659 J-1.317
X36.92 Y40.149 I0.437 J-1.878 F300
X36.802 Y38.589 I1.636 J-0.909
G2 X36.882 Y38.35 I-3.788 J-1.406
G3 X36.962 Y38.111 I3.868 J1.167
X37.55 Y37.557 I0.853 J0.317
X37.794 Y37.491 I1.179 J3.864
G2 X38.037 Y37.424 I-0.936 J-3.932
G3 X39.47 Y37.55 I0.56 J1.837
X40.421 Y38.628 I-0.888 J1.743
X40.518 Y39.42 I-1.688 J0.61
G1 X40.516 Y39.435
X40.514 Y39.451
G3 X39.712 Y40.801 I-1.855 J-0.189
X38.169 Y41.091 I-1.101 J-1.61
G2 X36.891 Y41.469 I-0.306 J1.314
G3 X35.562 Y41.364 I-0.621 J-0.598
X35.132 Y37.97 I3.034 J-2.109
G1 X35.768 Y36.255
X37.518 Y35.721
G3 X42.071 Y38 I1.078 J3.534
G1 X42.357 Y38.792
X42.271 Y39.63
G3 X35.562 Y41.364 I-3.675 J-0.375
X36.112 Y39.207 Z-2.175 I1.209 J-0.84 F150
G1 X37.843 Y38.34 Z-2.232
G3 X39.162 Y40.973 Z-2.37 I0.659 J1.317
X38.169 Y41.091 Z-2.4 I-0.659 J-1.317
X36.92 Y40.149 I0.437 J-1.878 F300
X36.802 Y38.589 I1.636 J-0.909
G2 X36.882 Y38.35 I-3.788 J-1.406
G3 X36.962 Y38.111 I3.868 J1.167
X37.55 Y37.557 I0.853 J0.317
X37.794 Y37.491 I1.179 J3.864
G2 X38.037 Y37.424 I-0.936 J-3.932
G3 X39.47 Y37.55 I0.56 J1.837
X40.421 Y38.628 I-0.888 J1.743
X40.518 Y39.42 I-1.688 J0.61
G1 X40.516 Y39.435
X40.514 Y39.451
G3 X39.712 Y40.801 I-1.855 J-0.189
X38.169 Y41.091 I-1.101 J-1.61
G2 X36.891 Y41.469 I-0.306 J1.314
G3 X35.562 Y41.364 I-0.621 J-0.598
X35.132 Y37.97 I3.034 J-2.109
G1 X35.768 Y36.255
X37.518 Y35.721
G3 X42.071 Y38 I1.078 J3.534
G1 X42.357 Y38.792
X42.271 Y39.63
G3 X35.562 Y41.364 I-3.675 J-0.375
X36.112 Y39.207 Z-2.475 I1.209 J-0.84 F150
G1 X37.843 Y38.34 Z-2.532
G3 X39.162 Y40.973 Z-2.67 I0.659 J1.317
X38.169 Y41.091 Z-2.7 I-0.659 J-1.317
X36.92 Y40.149 I0.437 J-1.878 F300
X36.802 Y38.589 I1.636 J-0.909
G2 X36.882 Y38.35 I-3.788 J-1.406
G3 X36.962 Y38.111 I3.868 J1.167
X37.55 Y37.557 I0.853 J0.317
X37.794 Y37.491 I1.179 J3.864
G2 X38.037 Y37.424 I-0.936 J-3.932
G3 X39.47 Y37.55 I0.56 J1.837
X40.421 Y38.628 I-0.888 J1.743
X40.518 Y39.42 I-1.688 J0.61
G1 X40.516 Y39.435
X40.514 Y39.451
G3 X39.712 Y40.801 I-1.855 J-0.189
X38.169 Y41.091 I-1.101 J-1.61
G2 X36.891 Y41.469 I-0.306 J1.314
G3 X35.562 Y41.364 I-0.621 J-0.598
X35.132 Y37.97 I3.034 J-2.109
G1 X35.768 Y36.255
X37.518 Y35.721
G3 X42.071 Y38 I1.078 J3.534
G1 X42.357 Y38.792
X42.271 Y39.63
G3 X35.562 Y41.364 I-3.675 J-0.375
X36.112 Y39.207 Z-2.775 I1.209 J-0.84 F150
G1 X37.843 Y38.34 Z-2.832
G3 X39.162 Y40.973 Z-2.97 I0.659 J1.317
X38.169 Y41.091 Z-3 I-0.659 J-1.317
X36.92 Y40.149 I0.437 J-1.878 F300
X36.802 Y38.589 I1.636 J-0.909
G2 X36.882 Y38.35 I-3.788 J-1.406
G3 X36.962 Y38.111 I3.868 J1.167
X37.55 Y37.557 I0.853 J0.317
X37.794 Y37.491 I1.179 J3.864
G2 X38.037 Y37.424 I-0.936 J-3.932
G3 X39.47 Y37.55 I0.56 J1.837
X40.421 Y38.628 I-0.888 J1.743
X40.518 Y39.42 I-1.688 J0.61
G1 X40.516 Y39.435
X40.514 Y39.451
G3 X39.712 Y40.801 I-1.855 J-0.189
X38.169 Y41.091 I-1.101 J-1.61
G2 X36.891 Y41.469 I-0.306 J1.314
G3 X35.562 Y41.364 I-0.621 J-0.598
X35.132 Y37.97 I3.034 J-2.109
G1 X35.768 Y36.255
X37.518 Y35.721
G3 X42.071 Y38 I1.078 J3.534
G1 X42.357 Y38.792
X42.271 Y39.63
G3 X35.562 Y41.364 I-3.675 J-0.375
G1 X35.533 Y41.312 Z-2.988
X35.515 Y41.256 Z-2.976
X35.507 Y41.206 Z-2.943
X35.508 Y41.156 Z-2.909
X35.522 Y41.09 Z-2.809
X35.53 Y41.068 Z-2.69
Z10
X39.573 Y15.909
Z5
Z1.31 F150
Z0.01
X39.579 Y15.904 Z-0.059
X39.598 Y15.891 Z-0.125
X39.629 Y15.87 Z-0.183
X39.669 Y15.843 Z-0.232
X39.717 Y15.809 Z-0.269
X39.771 Y15.772 Z-0.292
X39.828 Y15.733 Z-0.3
G3 X40.455 Y15.799 I0.275 J0.4
X38.541 Y18.56 I-1.245 J1.181 F300
G1 X38.424 Y18.515
X38.307 Y18.469
G3 X37.676 Y17.804 I0.456 J-1.065
G1 X37.636 Y17.684
X37.596 Y17.565
G3 X40.455 Y15.799 I1.609 J-0.591
G2 X41.712 Y16.191 I0.976 J-0.918
G3 X42.73 Y17.028 I0.177 J0.822
X37.843 Y20.19 I-3.506 J-0.061
G1 X36.454 Y19.595
X35.932 Y18.177
G3 X42.515 Y15.757 I3.291 J-1.21
X42.73 Y17.028 I-3.291 J1.21
X41.109 Y18.467 Z-0.373 I-1.472 J-0.026 F150
G1 X39.238 Y18.278 Z-0.43
G3 X39.535 Y15.348 Z-0.569 I0.148 J-1.465
X40.455 Y15.799 Z-0.6 I-0.148 J1.465
X38.541 Y18.56 I-1.245 J1.181 F300
G1 X38.424 Y18.515
X38.307 Y18.469
G3 X37.676 Y17.804 I0.456 J-1.065
G1 X37.636 Y17.684
X37.596 Y17.565
G3 X40.455 Y15.799 I1.609 J-0.591
G2 X41.712 Y16.191 I0.976 J-0.918
G3 X42.73 Y17.028 I0.177 J0.822
X37.843 Y20.19 I-3.506 J-0.061
G1 X36.454 Y19.595
X35.932 Y18.177
G3 X42.515 Y15.757 I3.291 J-1.21
X42.73 Y17.028 I-3.291 J1.21
X41.109 Y18.467 Z-0.673 I-1.472 J-0.026 F150
G1 X39.238 Y18.278 Z-0.73
G3 X39.535 Y15.348 Z-0.869 I0.148 J-1.465
X40.455 Y15.799 Z-0.9 I-0.148 J1.465
X38.541 Y18.56 I-1.245 J1.181 F300
G1 X38.424 Y18.515
X38.307 Y18.469
G3 X37.676 Y17.804 I0.456 J-1.065
G1 X37.636 Y17.684
X37.596 Y17.565
G3 X40.455 Y15.799 I1.609 J-0.591
G2 X41.712 Y16.191 I0.976 J-0.918
G3 X42.73 Y17.028 I0.177 J0.822
X37.843 Y20.19 I-3.506 J-0.061
G1 X36.454 Y19.595
X35.932 Y18.177
G3 X42.515 Y15.757 I3.291 J-1.21
X42.73 Y17.028 I-3.291 J1.21
X41.109 Y18.467 Z-0.973 I-1.472 J-0.026 F150
G1 X39.238 Y18.278 Z-1.03
G3 X39.535 Y15.348 Z-1.169 I0.148 J-1.465
X40.455 Y15.799 Z-1.2 I-0.148 J1.465
X38.541 Y18.56 I-1.245 J1.181 F300
G1 X38.424 Y18.515
X38.307 Y18.469
G3 X37.676 Y17.804 I0.456 J-1.065
G1 X37.636 Y17.684
X37.596 Y17.565
G3 X40.455 Y15.799 I1.609 J-0.591
G2 X41.712 Y16.191 I0.976 J-0.918
G3 X42.73 Y17.028 I0.177 J0.822
X37.843 Y20.19 I-3.506 J-0.061
G1 X36.454 Y19.595
X35.932 Y18.177
G3 X42.515 Y15.757 I3.291 J-1.21
X42.73 Y17.028 I-3.291 J1.21
X41.109 Y18.467 Z-1.273 I-1.472 J-0.026 F150
G1 X39.238 Y18.278 Z-1.33
G3 X39.535 Y15.348 Z-1.469 I0.148 J-1.465
X40.455 Y15.799 Z-1.5 I-0.148 J1.465
X38.541 Y18.56 I-1.245 J1.181 F300
G1 X38.424 Y18.515
X38.307 Y18.469
G3 X37.676 Y17.804 I0.456 J-1.065
G1 X37.636 Y17.684
X37.596 Y17.565
G3 X40.455 Y15.799 I1.609 J-0.591
G2 X41.712 Y16.191 I0.976 J-0.918
G3 X42.73 Y17.028 I0.177 J0.822
X37.843 Y20.19 I-3.506 J-0.061
G1 X36.454 Y19.595
X35.932 Y18.177
G3 X42.515 Y15.757 I3.291 J-1.21
X42.73 Y17.028 I-3.291 J1.21
X41.109 Y18.467 Z-1.573 I-1.472 J-0.026 F150
G1 X39.238 Y18.278 Z-1.63
G3 X39.535 Y15.348 Z-1.769 I0.148 J-1.465
X40.455 Y15.799 Z-1.8 I-0.148 J1.465
X38.541 Y18.56 I-1.245 J1.181 F300
G1 X38.424 Y18.515
X38.307 Y18.469
G3 X37.676 Y17.804 I0.456 J-1.065
G1 X37.636 Y17.684
X37.596 Y17.565
G3 X40.455 Y15.799 I1.609 J-0.591
G2 X41.712 Y16.191 I0.976 J-0.918
G3 X42.73 Y17.028 I0.177 J0.822
X37.843 Y20.19 I-3.506 J-0.061
G1 X36.454 Y19.595
X35.932 Y18.177
G3 X42.515 Y15.757 I3.291 J-1.21
X42.73 Y17.028 I-3.291 J1.21
X41.109 Y18.467 Z-1.873 I-1.472 J-0.026 F150
G1 X39.238 Y18.278 Z-1.93
G3 X39.535 Y15.348 Z-2.069 I0.148 J-1.465
X40.455 Y15.799 Z-2.1 I-0.148 J1.465
X38.541 Y18.56 I-1.245 J1.181 F300
G1 X38.424 Y18.515
X38.307 Y18.469
G3 X37.676 Y17.804 I0.456 J-1.065
G1 X37.636 Y17.684
X37.596 Y17.565
G3 X40.455 Y15.799 I1.609 J-0.591
G2 X41.712 Y16.191 I0.976 J-0.918
G3 X42.73 Y17.028 I0.177 J0.822
X37.843 Y20.19 I-3.506 J-0.061
G1 X36.454 Y19.595
X35.932 Y18.177
G3 X42.515 Y15.757 I3.291 J-1.21
X42.73 Y17.028 I-3.291 J1.21
X41.109 Y18.467 Z-2.173 I-1.472 J-0.026 F150
G1 X39.238 Y18.278 Z-2.23
G3 X39.535 Y15.348 Z-2.369 I0.148 J-1.465
X40.455 Y15.799 Z-2.4 I-0.148 J1.465
X38.541 Y18.56 I-1.245 J1.181 F300
G1 X38.424 Y18.515
X38.307 Y18.469
G3 X37.676 Y17.804 I0.456 J-1.065
G1 X37.636 Y17.684
X37.596 Y17.565
G3 X40.455 Y15.799 I1.609 J-0.591
G2 X41.712 Y16.191 I0.976 J-0.918
G3 X42.73 Y17.028 I0.177 J0.822
X37.843 Y20.19 I-3.506 J-0.061
G1 X36.454 Y19.595
X35.932 Y18.177
G3 X42.515 Y15.757 I3.291 J-1.21
X42.73 Y17.028 I-3.291 J1.21
X41.109 Y18.467 Z-2.473 I-1.472 J-0.026 F150
G1 X39.238 Y18.278 Z-2.53
G3 X39.535 Y15.348 Z-2.669 I0.148 J-1.465
X40.455 Y15.799 Z-2.7 I-0.148 J1.465
X38.541 Y18.56 I-1.245 J1.181 F300
G1 X38.424 Y18.515
X38.307 Y18.469
G3 X37.676 Y17.804 I0.456 J-1.065
G1 X37.636 Y17.684
X37.596 Y17.565
G3 X40.455 Y15.799 I1.609 J-0.591
G2 X41.712 Y16.191 I0.976 J-0.918
G3 X42.73 Y17.028 I0.177 J0.822
X37.843 Y20.19 I-3.506 J-0.061
G1 X36.454 Y19.595
X35.932 Y18.177
G3 X42.515 Y15.757 I3.291 J-1.21
X42.73 Y17.028 I-3.291 J1.21
X41.109 Y18.467 Z-2.773 I-1.472 J-0.026 F150
G1 X39.238 Y18.278 Z-2.83
G3 X39.535 Y15.348 Z-2.969 I0.148 J-1.465
X40.455 Y15.799 Z-3 I-0.148 J1.465
X38.541 Y18.56 I-1.245 J1.181 F300
G1 X38.424 Y18.515
X38.307 Y18.469
G3 X37.676 Y17.804 I0.456 J-1.065
G1 X37.636 Y17.684
X37.596 Y17.565
G3 X40.455 Y15.799 I1.609 J-0.591
G2 X41.712 Y16.191 I0.976 J-0.918
G3 X42.73 Y17.028 I0.177 J0.822
X37.843 Y20.19 I-3.506 J-0.061
G1 X36.454 Y19.595
X35.932 Y18.177
G3 X42.515 Y15.757 I3.291 J-1.21
X42.73 Y17.028 I-3.291 J1.21
G1 X42.723 Y17.087 Z-2.988
X42.705 Y17.143 Z-2.976
X42.682 Y17.188 Z-2.943
X42.652 Y17.228 Z-2.909
X42.602 Y17.273 Z-2.809
X42.583 Y17.286 Z-2.69
Z10
X16.027 Y15.966
Z5
Z1.31 F150
Z0.01
X16.023 Y15.96 Z-0.059
X16.01 Y15.941 Z-0.125
X15.989 Y15.91 Z-0.183
X15.962 Y15.87 Z-0.232
X15.928 Y15.821 Z-0.269
X15.891 Y15.767 Z-0.292
X15.852 Y15.71 Z-0.3
G3 X15.905 Y15.217 I0.315 J-0.216
X18.516 Y17.061 I1.12 J1.185 F300
G1 X18.484 Y17.139
X18.452 Y17.217
G3 X17.759 Y17.872 I-1.137 J-0.51
G1 X17.68 Y17.899
X17.6 Y17.927
G3 X15.905 Y15.217 I-0.582 J-1.521
G2 X16.3 Y13.969 I-0.913 J-0.975
G3 X17.145 Y12.969 I0.813 J-0.17
X20.131 Y17.785 I-0.134 J3.417
G1 X19.553 Y19.076
X18.232 Y19.581
G3 X15.79 Y13.192 I-1.221 J-3.194
X17.145 Y12.969 I1.221 J3.194
X18.554 Y14.576 Z-0.372 I-0.058 J1.471 F150
G1 X18.383 Y16.422 Z-0.428
G3 X15.451 Y16.151 Z-0.568 I-1.466 J-0.136
X15.905 Y15.217 Z-0.6 I1.466 J0.136
X18.516 Y17.061 I1.12 J1.185 F300
G1 X18.484 Y17.139
X18.452 Y17.217
G3 X17.759 Y17.872 I-1.137 J-0.51
G1 X17.68 Y17.899
X17.6 Y17.927
G3 X15.905 Y15.217 I-0.582 J-1.521
G2 X16.3 Y13.969 I-0.913 J-0.975
G3 X17.145 Y12.969 I0.813 J-0.17
X20.131 Y17.785 I-0.134 J3.417
G1 X19.553 Y19.076
X18.232 Y19.581
G3 X15.79 Y13.192 I-1.221 J-3.194
X17.145 Y12.969 I1.221 J3.194
X18.554 Y14.576 Z-0.672 I-0.058 J1.471 F150
G1 X18.383 Y16.422 Z-0.728
G3 X15.451 Y16.151 Z-0.868 I-1.466 J-0.136
X15.905 Y15.217 Z-0.9 I1.466 J0.136
X18.516 Y17.061 I1.12 J1.185 F300
G1 X18.484 Y17.139
X18.452 Y17.217
G3 X17.759 Y17.872 I-1.137 J-0.51
G1 X17.68 Y17.899
X17.6 Y17.927
G3 X15.905 Y15.217 I-0.582 J-1.521
G2 X16.3 Y13.969 I-0.913 J-0.975
G3 X17.145 Y12.969 I0.813 J-0.17
X20.131 Y17.785 I-0.134 J3.417
G1 X19.553 Y19.076
X18.232 Y19.581
G3 X15.79 Y13.192 I-1.221 J-3.194
X17.145 Y12.969 I1.221 J3.194
X18.554 Y14.576 Z-0.972 I-0.058 J1.471 F150
G1 X18.383 Y16.422 Z-1.028
G3 X15.451 Y16.151 Z-1.168 I-1.466 J-0.136
X15.905 Y15.217 Z-1.2 I1.466 J0.136
X18.516 Y17.061 I1.12 J1.185 F300
G1 X18.484 Y17.139
X18.452 Y17.217
G3 X17.759 Y17.872 I-1.137 J-0.51
G1 X17.68 Y17.899
X17.6 Y17.927
G3 X15.905 Y15.217 I-0.582 J-1.521
G2 X16.3 Y13.969 I-0.913 J-0.975
G3 X17.145 Y12.969 I0.813 J-0.17
X20.131 Y17.785 I-0.134 J3.417
G1 X19.553 Y19.076
X18.232 Y19.581
G3 X15.79 Y13.192 I-1.221 J-3.194
X17.145 Y12.969 I1.221 J3.194
X18.554 Y14.576 Z-1.272 I-0.058 J1.471 F150
G1 X18.383 Y16.422 Z-1.328
G3 X15.451 Y16.151 Z-1.468 I-1.466 J-0.136
X15.905 Y15.217 Z-1.5 I1.466 J0.136
X18.516 Y17.061 I1.12 J1.185 F300
G1 X18.484 Y17.139
X18.452 Y17.217
G3 X17.759 Y17.872 I-1.137 J-0.51
G1 X17.68 Y17.899
X17.6 Y17.927
G3 X15.905 Y15.217 I-0.582 J-1.521
G2 X16.3 Y13.969 I-0.913 J-0.975
G3 X17.145 Y12.969 I0.813 J-0.17
X20.131 Y17.785 I-0.134 J3.417
G1 X19.553 Y19.076
X18.232 Y19.581
G3 X15.79 Y13.192 I-1.221 J-3.194
X17.145 Y12.969 I1.221 J3.194
X18.554 Y14.576 Z-1.572 I-0.058 J1.471 F150
G1 X18.383 Y16.422 Z-1.628
G3 X15.451 Y16.151 Z-1.768 I-1.466 J-0.136
X15.905 Y15.217 Z-1.8 I1.466 J0.136
X18.516 Y17.061 I1.12 J1.185 F300
G1 X18.484 Y17.139
X18.452 Y17.217
G3 X17.759 Y17.872 I-1.137 J-0.51
G1 X17.68 Y17.899
X17.6 Y17.927
G3 X15.905 Y15.217 I-0.582 J-1.521
G2 X16.3 Y13.969 I-0.913 J-0.975
G3 X17.145 Y12.969 I0.813 J-0.17
X20.131 Y17.785 I-0.134 J3.417
G1 X19.553 Y19.076
X18.232 Y19.581
G3 X15.79 Y13.192 I-1.221 J-3.194
X17.145 Y12.969 I1.221 J3.194
X18.554 Y14.576 Z-1.872 I-0.058 J1.471 F150
G1 X18.383 Y16.422 Z-1.928
G3 X15.451 Y16.151 Z-2.068 I-1.466 J-0.136
X15.905 Y15.217 Z-2.1 I1.466 J0.136
X18.516 Y17.061 I1.12 J1.185 F300
G1 X18.484 Y17.139
X18.452 Y17.217
G3 X17.759 Y17.872 I-1.137 J-0.51
G1 X17.68 Y17.899
X17.6 Y17.927
G3 X15.905 Y15.217 I-0.582 J-1.521
G2 X16.3 Y13.969 I-0.913 J-0.975
G3 X17.145 Y12.969 I0.813 J-0.17
X20.131 Y17.785 I-0.134 J3.417
G1 X19.553 Y19.076
X18.232 Y19.581
G3 X15.79 Y13.192 I-1.221 J-3.194
X17.145 Y12.969 I1.221 J3.194
X18.554 Y14.576 Z-2.172 I-0.058 J1.471 F150
G1 X18.383 Y16.422 Z-2.228
G3 X15.451 Y16.151 Z-2.368 I-1.466 J-0.136
X15.905 Y15.217 Z-2.4 I1.466 J0.136
X18.516 Y17.061 I1.12 J1.185 F300
G1 X18.484 Y17.139
X18.452 Y17.217
G3 X17.759 Y17.872 I-1.137 J-0.51
G1 X17.68 Y17.899
X17.6 Y17.927
G3 X15.905 Y15.217 I-0.582 J-1.521
G2 X16.3 Y13.969 I-0.913 J-0.975
G3 X17.145 Y12.969 I0.813 J-0.17
X20.131 Y17.785 I-0.134 J3.417
G1 X19.553 Y19.076
X18.232 Y19.581
G3 X15.79 Y13.192 I-1.221 J-3.194
X17.145 Y12.969 I1.221 J3.194
X18.554 Y14.576 Z-2.472 I-0.058 J1.471 F150
G1 X18.383 Y16.422 Z-2.528
G3 X15.451 Y16.151 Z-2.668 I-1.466 J-0.136
X15.905 Y15.217 Z-2.7 I1.466 J0.136
X18.516 Y17.061 I1.12 J1.185 F300
G1 X18.484 Y17.139
X18.452 Y17.217
G3 X17.759 Y17.872 I-1.137 J-0.51
G1 X17.68 Y17.899
X17.6 Y17.927
G3 X15.905 Y15.217 I-0.582 J-1.521
G2 X16.3 Y13.969 I-0.913 J-0.975
G3 X17.145 Y12.969 I0.813 J-0.17
X20.131 Y17.785 I-0.134 J3.417
G1 X19.553 Y19.076
X18.232 Y19.581
G3 X15.79 Y13.192 I-1.221 J-3.194
X17.145 Y12.969 I1.221 J3.194
X18.554 Y14.576 Z-2.772 I-0.058 J1.471 F150
G1 X18.383 Y16.422 Z-2.828
G3 X15.451 Y16.151 Z-2.968 I-1.466 J-0.136
X15.905 Y15.217 Z-3 I1.466 J0.136
X18.516 Y17.061 I1.12 J1.185 F300
G1 X18.484 Y17.139
X18.452 Y17.217
G3 X17.759 Y17.872 I-1.137 J-0.51
G1 X17.68 Y17.899
X17.6 Y17.927
G3 X15.905 Y15.217 I-0.582 J-1.521
G2 X16.3 Y13.969 I-0.913 J-0.975
G3 X17.145 Y12.969 I0.813 J-0.17
X20.131 Y17.785 I-0.134 J3.417
G1 X19.553 Y19.076
X18.232 Y19.581
G3 X15.79 Y13.192 I-1.221 J-3.194
X17.145 Y12.969 I1.221 J3.194
G1 X17.204 Y12.977 Z-2.988
X17.26 Y12.996 Z-2.976
X17.304 Y13.02 Z-2.943
X17.343 Y13.051 Z-2.909
X17.387 Y13.102 Z-2.809
X17.4 Y13.122 Z-2.69
Z10
(When using Fusion 360 for Personal Use, the feedrate of)
(rapid moves is reduced to match the feedrate of cutting)
(moves, which can increase machining time. Unrestricted rapid)
(moves are available with a Fusion 360 Subscription.)

(2D Contour3)
G0 X-2.48 Y27.493
G1 Z10 F300
Z5
Z0.01 F150
G18 G2 X-2.17 Z-0.3 I0.31 K0
G1 X-1.86
G17 G3 X-1.55 Y27.803 I0 J0.31
G2 X57.156 Y27.803 I29.353 J0 F300
X-1.55 Y27.803 I-29.353 J0
G3 X-1.86 Y28.113 I-0.31 J0
G1 X-2.17
G18 G3 X-2.48 Z0.01 I0 K0.31
G1 Z5
Y27.493
Z4.7 F150
Z-0.29
G2 X-2.17 Z-0.6 I0.31 K0
G1 X-1.86
G17 G3 X-1.55 Y27.803 I0 J0.31
G2 X57.156 Y27.803 I29.353 J0 F300
X-1.55 Y27.803 I-29.353 J0
G3 X-1.86 Y28.113 I-0.31 J0
G1 X-2.17
G18 G3 X-2.48 Z-0.29 I0 K0.31
G1 Z5
Y27.493
Z4.4 F150
Z-0.59
G2 X-2.17 Z-0.9 I0.31 K0
G1 X-1.86
G17 G3 X-1.55 Y27.803 I0 J0.31
G2 X57.156 Y27.803 I29.353 J0 F300
X-1.55 Y27.803 I-29.353 J0
G3 X-1.86 Y28.113 I-0.31 J0
G1 X-2.17
G18 G3 X-2.48 Z-0.59 I0 K0.31
G1 Z5
Y27.493
Z4.1 F150
Z-0.89
G2 X-2.17 Z-1.2 I0.31 K0
G1 X-1.86
G17 G3 X-1.55 Y27.803 I0 J0.31
G2 X57.156 Y27.803 I29.353 J0 F300
X-1.55 Y27.803 I-29.353 J0
G3 X-1.86 Y28.113 I-0.31 J0
G1 X-2.17
G18 G3 X-2.48 Z-0.89 I0 K0.31
G1 Z5
Y27.493
Z3.8 F150
Z-1.19
G2 X-2.17 Z-1.5 I0.31 K0
G1 X-1.86
G17 G3 X-1.55 Y27.803 I0 J0.31
G2 X57.156 Y27.803 I29.353 J0 F300
X-1.55 Y27.803 I-29.353 J0
G3 X-1.86 Y28.113 I-0.31 J0
G1 X-2.17
G18 G3 X-2.48 Z-1.19 I0 K0.31
G1 Z5
Y27.493
Z3.5 F150
Z-1.49
G2 X-2.17 Z-1.8 I0.31 K0
G1 X-1.86
G17 G3 X-1.55 Y27.803 I0 J0.31
G2 X57.156 Y27.803 I29.353 J0 F300
X-1.55 Y27.803 I-29.353 J0
G3 X-1.86 Y28.113 I-0.31 J0
G1 X-2.17
G18 G3 X-2.48 Z-1.49 I0 K0.31
G1 Z5
Y27.493
Z3.2 F150
Z-1.79
G2 X-2.17 Z-2.1 I0.31 K0
G1 X-1.86
G17 G3 X-1.55 Y27.803 I0 J0.31
G2 X57.156 Y27.803 I29.353 J0 F300
X-1.55 Y27.803 I-29.353 J0
G3 X-1.86 Y28.113 I-0.31 J0
G1 X-2.17
G18 G3 X-2.48 Z-1.79 I0 K0.31
G1 Z5
Y27.493
Z2.9 F150
Z-2.09
G2 X-2.17 Z-2.4 I0.31 K0
G1 X-1.86
G17 G3 X-1.55 Y27.803 I0 J0.31
G2 X57.156 Y27.803 I29.353 J0 F300
X-1.55 Y27.803 I-29.353 J0
G3 X-1.86 Y28.113 I-0.31 J0
G1 X-2.17
G18 G3 X-2.48 Z-2.09 I0 K0.31
G1 Z5
Y27.493
Z2.6 F150
Z-2.39
G2 X-2.17 Z-2.7 I0.31 K0
G1 X-1.86
G17 G3 X-1.55 Y27.803 I0 J0.31
G2 X57.156 Y27.803 I29.353 J0 F300
X-1.55 Y27.803 I-29.353 J0
G3 X-1.86 Y28.113 I-0.31 J0
G1 X-2.17
G18 G3 X-2.48 Z-2.39 I0 K0.31
G1 Z5
Y27.493
Z2.3 F150
Z-2.69
G2 X-2.17 Z-3 I0.31 K0
G1 X-1.86
G17 G3 X-1.55 Y27.803 I0 J0.31
G2 X57.156 Y27.803 I29.353 J0 F300
X-1.55 Y27.803 I-29.353 J0
G3 X-1.86 Y28.113 I-0.31 J0
G1 X-2.17
G18 G3 X-2.48 Z-2.69 I0 K0.31
G1 Z5
Y27.493
Z2 F150
Z-2.99
G2 X-2.17 Z-3.3 I0.31 K0
G1 X-1.86
G17 G3 X-1.55 Y27.803 I0 J0.31
G2 X57.156 Y27.803 I29.353 J0 F300
X-1.55 Y27.803 I-29.353 J0
G3 X-1.86 Y28.113 I-0.31 J0
G1 X-2.17
G18 G3 X-2.48 Z-2.99 I0 K0.31
G1 Z5
Y27.493
Z1.7 F150
Z-3.29
G2 X-2.17 Z-3.6 I0.31 K0
G1 X-1.86
G17 G3 X-1.55 Y27.803 I0 J0.31
G2 X57.156 Y27.803 I29.353 J0 F300
X-1.55 Y27.803 I-29.353 J0
G3 X-1.86 Y28.113 I-0.31 J0
G1 X-2.17
G18 G3 X-2.48 Z-3.29 I0 K0.31
G1 Z5
Y27.493
Z1.4 F150
Z-3.59
G2 X-2.17 Z-3.9 I0.31 K0
G1 X-1.86
G17 G3 X-1.55 Y27.803 I0 J0.31
G2 X57.156 Y27.803 I29.353 J0 F300
X-1.55 Y27.803 I-29.353 J0
G3 X-1.86 Y28.113 I-0.31 J0
G1 X-2.17
G18 G3 X-2.48 Z-3.59 I0 K0.31
G1 Z5
Y27.493
Z1.1 F150
Z-3.89
G2 X-2.17 Z-4.2 I0.31 K0
G1 X-1.86
G17 G3 X-1.55 Y27.803 I0 J0.31
G2 X57.156 Y27.803 I29.353 J0 F300
X-1.55 Y27.803 I-29.353 J0
G3 X-1.86 Y28.113 I-0.31 J0
G1 X-2.17
G18 G3 X-2.48 Z-3.89 I0 K0.31
G1 Z5
Y27.493
Z0.8 F150
Z-4.19
G2 X-2.17 Z-4.5 I0.31 K0
G1 X-1.86
G17 G3 X-1.55 Y27.803 I0 J0.31
G2 X57.156 Y27.803 I29.353 J0 F300
X-1.55 Y27.803 I-29.353 J0
G3 X-1.86 Y28.113 I-0.31 J0
G1 X-2.17
G18 G3 X-2.48 Z-4.19 I0 K0.31
G1 Z5
Y27.493
Z0.5 F150
Z-4.49
G2 X-2.17 Z-4.8 I0.31 K0
G1 X-1.86
G17 G3 X-1.55 Y27.803 I0 J0.31
G2 X57.156 Y27.803 I29.353 J0 F300
X-1.55 Y27.803 I-29.353 J0
G3 X-1.86 Y28.113 I-0.31 J0
G1 X-2.17
G18 G3 X-2.48 Z-4.49 I0 K0.31
G1 Z5
Y27.493
Z0.2 F150
Z-4.79
G2 X-2.17 Z-5.1 I0.31 K0
G1 X-1.86
G17 G3 X-1.55 Y27.803 I0 J0.31
G2 X57.156 Y27.803 I29.353 J0 F300
X-1.55 Y27.803 I-29.353 J0
G3 X-1.86 Y28.113 I-0.31 J0
G1 X-2.17
G18 G3 X-2.48 Z-4.79 I0 K0.31
G1 Z5
Y27.493
Z-0.1 F150
Z-5.09
G2 X-2.17 Z-5.4 I0.31 K0
G1 X-1.86
G17 G3 X-1.55 Y27.803 I0 J0.31
G2 X57.156 Y27.803 I29.353 J0 F300
X-1.55 Y27.803 I-29.353 J0
G3 X-1.86 Y28.113 I-0.31 J0
G1 X-2.17
G18 G3 X-2.48 Z-5.09 I0 K0.31
G1 Z5
Y27.493
Z-0.4 F150
Z-5.39
G2 X-2.17 Z-5.7 I0.31 K0
G1 X-1.86
G17 G3 X-1.55 Y27.803 I0 J0.31
G2 X57.156 Y27.803 I29.353 J0 F300
X-1.55 Y27.803 I-29.353 J0
G3 X-1.86 Y28.113 I-0.31 J0
G1 X-2.17
G18 G3 X-2.48 Z-5.39 I0 K0.31
G1 Z5
Y27.493
Z-0.7 F150
Z-5.69
G2 X-2.17 Z-6 I0.31 K0
G1 X-1.86
G17 G3 X-1.55 Y27.803 I0 J0.31
G2 X57.156 Y27.803 I29.353 J0 F300
X-1.55 Y27.803 I-29.353 J0
G3 X-1.86 Y28.113 I-0.31 J0
G1 X-2.17
G18 G3 X-2.48 Z-5.69 I0 K0.31
G1 Z5
Y27.493
Z-1 F150
Z-5.99
G2 X-2.17 Z-6.3 I0.31 K0
G1 X-1.86
G17 G3 X-1.55 Y27.803 I0 J0.31
G2 X57.156 Y27.803 I29.353 J0 F300
X-1.55 Y27.803 I-29.353 J0
G3 X-1.86 Y28.113 I-0.31 J0
G1 X-2.17
G18 G3 X-2.48 Z-5.99 I0 K0.31
G1 Z5
Y27.493
Z-1.3 F150
Z-6.19
G2 X-2.17 Z-6.5 I0.31 K0
G1 X-1.86
G17 G3 X-1.55 Y27.803 I0 J0.31
G2 X57.156 Y27.803 I29.353 J0 F300
X-1.55 Y27.803 I-29.353 J0
G3 X-1.86 Y28.113 I-0.31 J0
G1 X-2.17
G18 G3 X-2.48 Z-6.19 I0 K0.31
G1 Z10
G17
M9
M5
M30
