(atc_gm6020_top)
(Machine)
(  vendor: Autodesk)
(  model: Generic 3-axis)
(  description: This machine has XY axis on the Table and Z axis on the Head)
(T3  D=3.1 CR=0 - ZMIN=-6.5 - flat end mill)
G90 G94
G17
G21
(When using Fusion 360 for Personal Use, the feedrate of)
(rapid moves is reduced to match the feedrate of cutting)
(moves, which can increase machining time. Unrestricted rapid)
(moves are available with a Fusion 360 Subscription.)

(Circular1)
T3
S24000 M3
G54
M8
G0 X44.703 Y17.103
Z10
G1 Z-0.61 F300
Z-2.3 F150
X44.697 Y17.109
X44.691 Y17.103
G3 X44.715 Y17.103 I0.012 J0 F300
X44.691 Y17.103 I-0.012 J0
G1 X44.697 Y17.097
X44.703 Y17.103
Z5
Z-0.91
Z-2.6 F150
X44.697 Y17.109
X44.691 Y17.103
G3 X44.715 Y17.103 I0.012 J0 F300
X44.691 Y17.103 I-0.012 J0
G1 X44.697 Y17.097
X44.703 Y17.103
Z5
Z-1.21
Z-2.9 F150
X44.697 Y17.109
X44.691 Y17.103
G3 X44.715 Y17.103 I0.012 J0 F300
X44.691 Y17.103 I-0.012 J0
G1 X44.697 Y17.097
X44.703 Y17.103
Z5
Z-1.51
Z-3.2 F150
X44.697 Y17.109
X44.691 Y17.103
G3 X44.715 Y17.103 I0.012 J0 F300
X44.691 Y17.103 I-0.012 J0
G1 X44.697 Y17.097
X44.703 Y17.103
Z5
Z-1.81
Z-3.5 F150
X44.697 Y17.109
X44.691 Y17.103
G3 X44.715 Y17.103 I0.012 J0 F300
X44.691 Y17.103 I-0.012 J0
G1 X44.697 Y17.097
X44.703 Y17.103
Z5
Z-2.11
Z-3.8 F150
X44.697 Y17.109
X44.691 Y17.103
G3 X44.715 Y17.103 I0.012 J0 F300
X44.691 Y17.103 I-0.012 J0
G1 X44.697 Y17.097
X44.703 Y17.103
Z5
Z-2.41
Z-4.1 F150
X44.697 Y17.109
X44.691 Y17.103
G3 X44.715 Y17.103 I0.012 J0 F300
X44.691 Y17.103 I-0.012 J0
G1 X44.697 Y17.097
X44.703 Y17.103
Z5
Z-2.71
Z-4.4 F150
X44.697 Y17.109
X44.691 Y17.103
G3 X44.715 Y17.103 I0.012 J0 F300
X44.691 Y17.103 I-0.012 J0
G1 X44.697 Y17.097
X44.703 Y17.103
Z5
Z-3.01
Z-4.7 F150
X44.697 Y17.109
X44.691 Y17.103
G3 X44.715 Y17.103 I0.012 J0 F300
X44.691 Y17.103 I-0.012 J0
G1 X44.697 Y17.097
X44.703 Y17.103
Z5
Z-3.31
Z-5 F150
X44.697 Y17.109
X44.691 Y17.103
G3 X44.715 Y17.103 I0.012 J0 F300
X44.691 Y17.103 I-0.012 J0
G1 X44.697 Y17.097
X44.703 Y17.103
Z5
Z-3.61
Z-5.3 F150
X44.697 Y17.109
X44.691 Y17.103
G3 X44.715 Y17.103 I0.012 J0 F300
X44.691 Y17.103 I-0.012 J0
G1 X44.697 Y17.097
X44.703 Y17.103
Z5
Z-3.91
Z-5.6 F150
X44.697 Y17.109
X44.691 Y17.103
G3 X44.715 Y17.103 I0.012 J0 F300
X44.691 Y17.103 I-0.012 J0
G1 X44.697 Y17.097
X44.703 Y17.103
Z5
Z-4.21
Z-5.9 F150
X44.697 Y17.109
X44.691 Y17.103
G3 X44.715 Y17.103 I0.012 J0 F300
X44.691 Y17.103 I-0.012 J0
G1 X44.697 Y17.097
X44.703 Y17.103
Z5
Z-4.51
Z-6.2 F150
X44.697 Y17.109
X44.691 Y17.103
G3 X44.715 Y17.103 I0.012 J0 F300
X44.691 Y17.103 I-0.012 J0
G1 X44.697 Y17.097
X44.703 Y17.103
Z5
Z-4.66
Z-6.35 F150
X44.697 Y17.109
X44.691 Y17.103
G3 X44.715 Y17.103 I0.012 J0 F300
X44.691 Y17.103 I-0.012 J0
G1 X44.697 Y17.097
X44.703 Y17.103
Z5
Z-4.81
Z-6.5 F150
X44.697 Y17.109
X44.691 Y17.103
G3 X44.715 Y17.103 I0.012 J0 F300
X44.691 Y17.103 I-0.012 J0
G1 X44.697 Y17.097
X44.703 Y17.103
Z5
X10.103 Y18.503
Z-0.61
Z-2.3 F150
X10.106 Y18.495
X10.114 Y18.498
G3 X10.092 Y18.508 I-0.011 J0.005 F300
X10.114 Y18.498 I0.011 J-0.005
G1 X10.111 Y18.506
X10.103 Y18.503
Z5
Z-0.91
Z-2.6 F150
X10.106 Y18.495
X10.114 Y18.498
G3 X10.092 Y18.508 I-0.011 J0.005 F300
X10.114 Y18.498 I0.011 J-0.005
G1 X10.111 Y18.506
X10.103 Y18.503
Z5
Z-1.21
Z-2.9 F150
X10.106 Y18.495
X10.114 Y18.498
G3 X10.092 Y18.508 I-0.011 J0.005 F300
X10.114 Y18.498 I0.011 J-0.005
G1 X10.111 Y18.506
X10.103 Y18.503
Z5
Z-1.51
Z-3.2 F150
X10.106 Y18.495
X10.114 Y18.498
G3 X10.092 Y18.508 I-0.011 J0.005 F300
X10.114 Y18.498 I0.011 J-0.005
G1 X10.111 Y18.506
X10.103 Y18.503
Z5
Z-1.81
Z-3.5 F150
X10.106 Y18.495
X10.114 Y18.498
G3 X10.092 Y18.508 I-0.011 J0.005 F300
X10.114 Y18.498 I0.011 J-0.005
G1 X10.111 Y18.506
X10.103 Y18.503
Z5
Z-2.11
Z-3.8 F150
X10.106 Y18.495
X10.114 Y18.498
G3 X10.092 Y18.508 I-0.011 J0.005 F300
X10.114 Y18.498 I0.011 J-0.005
G1 X10.111 Y18.506
X10.103 Y18.503
Z5
Z-2.41
Z-4.1 F150
X10.106 Y18.495
X10.114 Y18.498
G3 X10.092 Y18.508 I-0.011 J0.005 F300
X10.114 Y18.498 I0.011 J-0.005
G1 X10.111 Y18.506
X10.103 Y18.503
Z5
Z-2.71
Z-4.4 F150
X10.106 Y18.495
X10.114 Y18.498
G3 X10.092 Y18.508 I-0.011 J0.005 F300
X10.114 Y18.498 I0.011 J-0.005
G1 X10.111 Y18.506
X10.103 Y18.503
Z5
Z-3.01
Z-4.7 F150
X10.106 Y18.495
X10.114 Y18.498
G3 X10.092 Y18.508 I-0.011 J0.005 F300
X10.114 Y18.498 I0.011 J-0.005
G1 X10.111 Y18.506
X10.103 Y18.503
Z5
Z-3.31
Z-5 F150
X10.106 Y18.495
X10.114 Y18.498
G3 X10.092 Y18.508 I-0.011 J0.005 F300
X10.114 Y18.498 I0.011 J-0.005
G1 X10.111 Y18.506
X10.103 Y18.503
Z5
Z-3.61
Z-5.3 F150
X10.106 Y18.495
X10.114 Y18.498
G3 X10.092 Y18.508 I-0.011 J0.005 F300
X10.114 Y18.498 I0.011 J-0.005
G1 X10.111 Y18.506
X10.103 Y18.503
Z5
Z-3.91
Z-5.6 F150
X10.106 Y18.495
X10.114 Y18.498
G3 X10.092 Y18.508 I-0.011 J0.005 F300
X10.114 Y18.498 I0.011 J-0.005
G1 X10.111 Y18.506
X10.103 Y18.503
Z5
Z-4.21
Z-5.9 F150
X10.106 Y18.495
X10.114 Y18.498
G3 X10.092 Y18.508 I-0.011 J0.005 F300
X10.114 Y18.498 I0.011 J-0.005
G1 X10.111 Y18.506
X10.103 Y18.503
Z5
Z-4.51
Z-6.2 F150
X10.106 Y18.495
X10.114 Y18.498
G3 X10.092 Y18.508 I-0.011 J0.005 F300
X10.114 Y18.498 I0.011 J-0.005
G1 X10.111 Y18.506
X10.103 Y18.503
Z5
Z-4.66
Z-6.35 F150
X10.106 Y18.495
X10.114 Y18.498
G3 X10.092 Y18.508 I-0.011 J0.005 F300
X10.114 Y18.498 I0.011 J-0.005
G1 X10.111 Y18.506
X10.103 Y18.503
Z5
Z-4.81
Z-6.5 F150
X10.106 Y18.495
X10.114 Y18.498
G3 X10.092 Y18.508 I-0.011 J0.005 F300
X10.114 Y18.498 I0.011 J-0.005
G1 X10.111 Y18.506
X10.103 Y18.503
Z5
X28.603 Y47.803
Z-0.61
Z-2.3 F150
X28.572 Y47.834
X28.556 Y47.83
X28.545 Y47.819
X28.541 Y47.803
G3 X28.665 Y47.803 I0.062 J0 F300
X28.541 Y47.803 I-0.062 J0
G1 X28.545 Y47.787
X28.556 Y47.776
X28.572 Y47.772
X28.603 Y47.803
Z5
Z-0.91
Z-2.6 F150
X28.572 Y47.834
X28.556 Y47.83
X28.545 Y47.819
X28.541 Y47.803
G3 X28.665 Y47.803 I0.062 J0 F300
X28.541 Y47.803 I-0.062 J0
G1 X28.545 Y47.787
X28.556 Y47.776
X28.572 Y47.772
X28.603 Y47.803
Z5
Z-1.21
Z-2.9 F150
X28.572 Y47.834
X28.556 Y47.83
X28.545 Y47.819
X28.541 Y47.803
G3 X28.665 Y47.803 I0.062 J0 F300
X28.541 Y47.803 I-0.062 J0
G1 X28.545 Y47.787
X28.556 Y47.776
X28.572 Y47.772
X28.603 Y47.803
Z5
Z-1.51
Z-3.2 F150
X28.572 Y47.834
X28.556 Y47.83
X28.545 Y47.819
X28.541 Y47.803
G3 X28.665 Y47.803 I0.062 J0 F300
X28.541 Y47.803 I-0.062 J0
G1 X28.545 Y47.787
X28.556 Y47.776
X28.572 Y47.772
X28.603 Y47.803
Z5
Z-1.81
Z-3.5 F150
X28.572 Y47.834
X28.556 Y47.83
X28.545 Y47.819
X28.541 Y47.803
G3 X28.665 Y47.803 I0.062 J0 F300
X28.541 Y47.803 I-0.062 J0
G1 X28.545 Y47.787
X28.556 Y47.776
X28.572 Y47.772
X28.603 Y47.803
Z5
Z-2.11
Z-3.8 F150
X28.572 Y47.834
X28.556 Y47.83
X28.545 Y47.819
X28.541 Y47.803
G3 X28.665 Y47.803 I0.062 J0 F300
X28.541 Y47.803 I-0.062 J0
G1 X28.545 Y47.787
X28.556 Y47.776
X28.572 Y47.772
X28.603 Y47.803
Z5
Z-2.41
Z-4.1 F150
X28.572 Y47.834
X28.556 Y47.83
X28.545 Y47.819
X28.541 Y47.803
G3 X28.665 Y47.803 I0.062 J0 F300
X28.541 Y47.803 I-0.062 J0
G1 X28.545 Y47.787
X28.556 Y47.776
X28.572 Y47.772
X28.603 Y47.803
Z5
Z-2.71
Z-4.4 F150
X28.572 Y47.834
X28.556 Y47.83
X28.545 Y47.819
X28.541 Y47.803
G3 X28.665 Y47.803 I0.062 J0 F300
X28.541 Y47.803 I-0.062 J0
G1 X28.545 Y47.787
X28.556 Y47.776
X28.572 Y47.772
X28.603 Y47.803
Z5
Z-3.01
Z-4.7 F150
X28.572 Y47.834
X28.556 Y47.83
X28.545 Y47.819
X28.541 Y47.803
G3 X28.665 Y47.803 I0.062 J0 F300
X28.541 Y47.803 I-0.062 J0
G1 X28.545 Y47.787
X28.556 Y47.776
X28.572 Y47.772
X28.603 Y47.803
Z5
Z-3.31
Z-5 F150
X28.572 Y47.834
X28.556 Y47.83
X28.545 Y47.819
X28.541 Y47.803
G3 X28.665 Y47.803 I0.062 J0 F300
X28.541 Y47.803 I-0.062 J0
G1 X28.545 Y47.787
X28.556 Y47.776
X28.572 Y47.772
X28.603 Y47.803
Z5
Z-3.61
Z-5.3 F150
X28.572 Y47.834
X28.556 Y47.83
X28.545 Y47.819
X28.541 Y47.803
G3 X28.665 Y47.803 I0.062 J0 F300
X28.541 Y47.803 I-0.062 J0
G1 X28.545 Y47.787
X28.556 Y47.776
X28.572 Y47.772
X28.603 Y47.803
Z5
Z-3.91
Z-5.6 F150
X28.572 Y47.834
X28.556 Y47.83
X28.545 Y47.819
X28.541 Y47.803
G3 X28.665 Y47.803 I0.062 J0 F300
X28.541 Y47.803 I-0.062 J0
G1 X28.545 Y47.787
X28.556 Y47.776
X28.572 Y47.772
X28.603 Y47.803
Z5
Z-4.21
Z-5.9 F150
X28.572 Y47.834
X28.556 Y47.83
X28.545 Y47.819
X28.541 Y47.803
G3 X28.665 Y47.803 I0.062 J0 F300
X28.541 Y47.803 I-0.062 J0
G1 X28.545 Y47.787
X28.556 Y47.776
X28.572 Y47.772
X28.603 Y47.803
Z5
Z-4.51
Z-6.2 F150
X28.572 Y47.834
X28.556 Y47.83
X28.545 Y47.819
X28.541 Y47.803
G3 X28.665 Y47.803 I0.062 J0 F300
X28.541 Y47.803 I-0.062 J0
G1 X28.545 Y47.787
X28.556 Y47.776
X28.572 Y47.772
X28.603 Y47.803
Z5
Z-4.66
Z-6.35 F150
X28.572 Y47.834
X28.556 Y47.83
X28.545 Y47.819
X28.541 Y47.803
G3 X28.665 Y47.803 I0.062 J0 F300
X28.541 Y47.803 I-0.062 J0
G1 X28.545 Y47.787
X28.556 Y47.776
X28.572 Y47.772
X28.603 Y47.803
Z5
Z-4.81
Z-6.5 F150
X28.572 Y47.834
X28.556 Y47.83
X28.545 Y47.819
X28.541 Y47.803
G3 X28.665 Y47.803 I0.062 J0 F300
X28.541 Y47.803 I-0.062 J0
G1 X28.545 Y47.787
X28.556 Y47.776
X28.572 Y47.772
X28.603 Y47.803
Z10
(When using Fusion 360 for Personal Use, the feedrate of)
(rapid moves is reduced to match the feedrate of cutting)
(moves, which can increase machining time. Unrestricted rapid)
(moves are available with a Fusion 360 Subscription.)

(2D Pocket3)
G0 X30.321 Y48.165
G1 Z10 F300
Z5
Z2.81 F150
X30.316 Y48.187 Z2.694
X30.298 Y48.248 Z2.594
X30.265 Y48.34 Z2.527
X30.219 Y48.445 Z2.5
G3 X27.569 Y47.161 Z2.338 I-1.325 J-0.642
X30.219 Y48.445 Z2.177 I1.325 J0.642
X27.569 Y47.161 Z2.015 I-1.325 J-0.642
X30.219 Y48.445 Z1.854 I1.325 J0.642
X27.569 Y47.161 Z1.692 I-1.325 J-0.642
X30.219 Y48.445 Z1.531 I1.325 J0.642
X27.569 Y47.161 Z1.369 I-1.325 J-0.642
X30.219 Y48.445 Z1.208 I1.325 J0.642
X27.569 Y47.161 Z1.046 I-1.325 J-0.642
X30.219 Y48.445 Z0.885 I1.325 J0.642
X27.569 Y47.161 Z0.723 I-1.325 J-0.642
X30.219 Y48.445 Z0.561 I1.325 J0.642
X27.569 Y47.161 Z0.4 I-1.325 J-0.642
X30.219 Y48.445 Z0.238 I1.325 J0.642
X27.569 Y47.161 Z0.077 I-1.325 J-0.642
X30.219 Y48.445 Z-0.085 I1.325 J0.642
X27.569 Y47.161 Z-0.246 I-1.325 J-0.642
X30.219 Y48.445 Z-0.408 I1.325 J0.642
X27.569 Y47.161 Z-0.569 I-1.325 J-0.642
X30.219 Y48.445 Z-0.731 I1.325 J0.642
X27.569 Y47.161 Z-0.892 I-1.325 J-0.642
X30.219 Y48.445 Z-1.054 I1.325 J0.642
X27.569 Y47.161 Z-1.215 I-1.325 J-0.642
X30.219 Y48.445 Z-1.377 I1.325 J0.642
X27.569 Y47.161 Z-1.539 I-1.325 J-0.642
X30.219 Y48.445 Z-1.7 I1.325 J0.642
X27.569 Y47.161 Z-1.862 I-1.325 J-0.642
X30.367 Y47.803 Z-2 I1.325 J0.642
X28.683 Y47.803 I-0.842 J0
X30.383 Y47.803 I0.85 J0 F300
X26.823 Y47.803 I-1.78 J0
X30.383 Y47.803 I1.78 J0
G1 X30.378 Y47.862 Z-1.988
X30.361 Y47.919 Z-1.976
X30.338 Y47.964 Z-1.943
X30.309 Y48.004 Z-1.909
X30.26 Y48.05 Z-1.809
X30.241 Y48.064 Z-1.69
Z10
X46.186 Y17.465
Z5
Z2.81 F150
X46.18 Y17.487 Z2.694
X46.162 Y17.548 Z2.594
X46.129 Y17.64 Z2.527
X46.083 Y17.745 Z2.5
G3 X43.433 Y16.461 Z2.338 I-1.325 J-0.642
X46.083 Y17.745 Z2.177 I1.325 J0.642
X43.433 Y16.461 Z2.015 I-1.325 J-0.642
X46.083 Y17.745 Z1.854 I1.325 J0.642
X43.433 Y16.461 Z1.692 I-1.325 J-0.642
X46.083 Y17.745 Z1.531 I1.325 J0.642
X43.433 Y16.461 Z1.369 I-1.325 J-0.642
X46.083 Y17.745 Z1.208 I1.325 J0.642
X43.433 Y16.461 Z1.046 I-1.325 J-0.642
X46.083 Y17.745 Z0.885 I1.325 J0.642
X43.433 Y16.461 Z0.723 I-1.325 J-0.642
X46.083 Y17.745 Z0.561 I1.325 J0.642
X43.433 Y16.461 Z0.4 I-1.325 J-0.642
X46.083 Y17.745 Z0.238 I1.325 J0.642
X43.433 Y16.461 Z0.077 I-1.325 J-0.642
X46.083 Y17.745 Z-0.085 I1.325 J0.642
X43.433 Y16.461 Z-0.246 I-1.325 J-0.642
X46.083 Y17.745 Z-0.408 I1.325 J0.642
X43.433 Y16.461 Z-0.569 I-1.325 J-0.642
X46.083 Y17.745 Z-0.731 I1.325 J0.642
X43.433 Y16.461 Z-0.892 I-1.325 J-0.642
X46.083 Y17.745 Z-1.054 I1.325 J0.642
X43.433 Y16.461 Z-1.215 I-1.325 J-0.642
X46.083 Y17.745 Z-1.377 I1.325 J0.642
X43.433 Y16.461 Z-1.539 I-1.325 J-0.642
X46.083 Y17.745 Z-1.7 I1.325 J0.642
X43.433 Y16.461 Z-1.862 I-1.325 J-0.642
X46.231 Y17.103 Z-2 I1.325 J0.642
X44.999 Y17.103 I-0.616 J0
X46.268 Y17.103 I0.634 J0 F300
X43.138 Y17.103 I-1.565 J0
X46.268 Y17.103 I1.565 J0
G1 X46.262 Y17.162 Z-1.988
X46.245 Y17.219 Z-1.976
X46.223 Y17.264 Z-1.943
X46.193 Y17.304 Z-1.909
X46.144 Y17.35 Z-1.809
X46.125 Y17.364 Z-1.69
Z10
X8.552 Y18.141
Z5
Z2.81 F150
X8.558 Y18.119 Z2.694
X8.576 Y18.058 Z2.594
X8.608 Y17.966 Z2.527
X8.654 Y17.861 Z2.5
G3 X11.304 Y19.145 Z2.338 I1.325 J0.642
X8.654 Y17.861 Z2.177 I-1.325 J-0.642
X11.304 Y19.145 Z2.015 I1.325 J0.642
X8.654 Y17.861 Z1.854 I-1.325 J-0.642
X11.304 Y19.145 Z1.692 I1.325 J0.642
X8.654 Y17.861 Z1.531 I-1.325 J-0.642
X11.304 Y19.145 Z1.369 I1.325 J0.642
X8.654 Y17.861 Z1.208 I-1.325 J-0.642
X11.304 Y19.145 Z1.046 I1.325 J0.642
X8.654 Y17.861 Z0.885 I-1.325 J-0.642
X11.304 Y19.145 Z0.723 I1.325 J0.642
X8.654 Y17.861 Z0.561 I-1.325 J-0.642
X11.304 Y19.145 Z0.4 I1.325 J0.642
X8.654 Y17.861 Z0.238 I-1.325 J-0.642
X11.304 Y19.145 Z0.077 I1.325 J0.642
X8.654 Y17.861 Z-0.085 I-1.325 J-0.642
X11.304 Y19.145 Z-0.246 I1.325 J0.642
X8.654 Y17.861 Z-0.408 I-1.325 J-0.642
X11.304 Y19.145 Z-0.569 I1.325 J0.642
X8.654 Y17.861 Z-0.731 I-1.325 J-0.642
X11.304 Y19.145 Z-0.892 I1.325 J0.642
X8.654 Y17.861 Z-1.054 I-1.325 J-0.642
X11.304 Y19.145 Z-1.215 I1.325 J0.642
X8.654 Y17.861 Z-1.377 I-1.325 J-0.642
X11.304 Y19.145 Z-1.539 I1.325 J0.642
X8.654 Y17.861 Z-1.7 I-1.325 J-0.642
X11.304 Y19.145 Z-1.862 I1.325 J0.642
X8.507 Y18.503 Z-2 I-1.325 J-0.642
X10.585 Y18.503 I1.039 J0
X9.621 Y18.503 I-0.482 J0 F300
X10.585 Y18.503 I0.482 J0
G2 X10.932 Y19.16 I0.795 J0
G3 X10.903 Y19.903 I-0.247 J0.362
X8.491 Y18.503 I-0.8 J-1.4
X11.715 Y18.503 I1.612 J0
X10.903 Y19.903 I-1.612 J0
G1 X10.849 Y19.927 Z-1.988
X10.791 Y19.941 Z-1.976
X10.741 Y19.944 Z-1.943
X10.691 Y19.938 Z-1.909
X10.627 Y19.919 Z-1.809
X10.606 Y19.908 Z-1.69
Z10
M9
M5
M30
