(mgn12_shim)
(Machine)
(  vendor: Autodesk)
(  model: Generic 3-axis)
(  description: This machine has XY axis on the Table and Z axis on the Head)
(T1  D=4.76 CR=0 - ZMIN=-7 - flat end mill)
G90 G94
G17
G21
G28 G91 Z0
G90

(Drill1)
T1
S24000 M3
G54
M8
G0 X8 Y27.2
Z10
Z5
G1 Z0 F50
Z-0.6
G3 X8.62 Y27.2 I0.31 J0 F150
X7.38 Y27.2 I-0.62 J0
X8.62 Y27.2 I0.62 J0
G1 X8
Z-1.2 F50
G3 X8.62 Y27.2 I0.31 J0 F150
X7.38 Y27.2 I-0.62 J0
X8.62 Y27.2 I0.62 J0
G1 X8
Z-1.8 F50
G3 X8.62 Y27.2 I0.31 J0 F150
X7.38 Y27.2 I-0.62 J0
X8.62 Y27.2 I0.62 J0
G1 X8
Z-2.4 F50
G3 X8.62 Y27.2 I0.31 J0 F150
X7.38 Y27.2 I-0.62 J0
X8.62 Y27.2 I0.62 J0
G1 X8
Z-3 F50
G3 X8.62 Y27.2 I0.31 J0 F150
X7.38 Y27.2 I-0.62 J0
X8.62 Y27.2 I0.62 J0
G1 X8
Z-3.6 F50
G3 X8.62 Y27.2 I0.31 J0 F150
X7.38 Y27.2 I-0.62 J0
X8.62 Y27.2 I0.62 J0
G1 X8
Z-4.2 F50
G3 X8.62 Y27.2 I0.31 J0 F150
X7.38 Y27.2 I-0.62 J0
X8.62 Y27.2 I0.62 J0
G1 X8
Z-4.8 F50
G3 X8.62 Y27.2 I0.31 J0 F150
X7.38 Y27.2 I-0.62 J0
X8.62 Y27.2 I0.62 J0
G1 X8
Z-5.4 F50
G3 X8.62 Y27.2 I0.31 J0 F150
X7.38 Y27.2 I-0.62 J0
X8.62 Y27.2 I0.62 J0
G1 X8
Z-6 F50
G3 X8.62 Y27.2 I0.31 J0 F150
X7.38 Y27.2 I-0.62 J0
X8.62 Y27.2 I0.62 J0
G1 X8
Z-6.6 F50
G3 X8.62 Y27.2 I0.31 J0 F150
X7.38 Y27.2 I-0.62 J0
X8.62 Y27.2 I0.62 J0
G1 X8
Z-7 F50
G3 X8.62 Y27.2 I0.31 J0 F150
X7.38 Y27.2 I-0.62 J0
X8.62 Y27.2 I0.62 J0
G1 X8
G0 Z5
Y7.2
G1 Z0 F50
Z-0.6
G3 X8.62 Y7.2 I0.31 J0 F150
X7.38 Y7.2 I-0.62 J0
X8.62 Y7.2 I0.62 J0
G1 X8
Z-1.2 F50
G3 X8.62 Y7.2 I0.31 J0 F150
X7.38 Y7.2 I-0.62 J0
X8.62 Y7.2 I0.62 J0
G1 X8
Z-1.8 F50
G3 X8.62 Y7.2 I0.31 J0 F150
X7.38 Y7.2 I-0.62 J0
X8.62 Y7.2 I0.62 J0
G1 X8
Z-2.4 F50
G3 X8.62 Y7.2 I0.31 J0 F150
X7.38 Y7.2 I-0.62 J0
X8.62 Y7.2 I0.62 J0
G1 X8
Z-3 F50
G3 X8.62 Y7.2 I0.31 J0 F150
X7.38 Y7.2 I-0.62 J0
X8.62 Y7.2 I0.62 J0
G1 X8
Z-3.6 F50
G3 X8.62 Y7.2 I0.31 J0 F150
X7.38 Y7.2 I-0.62 J0
X8.62 Y7.2 I0.62 J0
G1 X8
Z-4.2 F50
G3 X8.62 Y7.2 I0.31 J0 F150
X7.38 Y7.2 I-0.62 J0
X8.62 Y7.2 I0.62 J0
G1 X8
Z-4.8 F50
G3 X8.62 Y7.2 I0.31 J0 F150
X7.38 Y7.2 I-0.62 J0
X8.62 Y7.2 I0.62 J0
G1 X8
Z-5.4 F50
G3 X8.62 Y7.2 I0.31 J0 F150
X7.38 Y7.2 I-0.62 J0
X8.62 Y7.2 I0.62 J0
G1 X8
Z-6 F50
G3 X8.62 Y7.2 I0.31 J0 F150
X7.38 Y7.2 I-0.62 J0
X8.62 Y7.2 I0.62 J0
G1 X8
Z-6.6 F50
G3 X8.62 Y7.2 I0.31 J0 F150
X7.38 Y7.2 I-0.62 J0
X8.62 Y7.2 I0.62 J0
G1 X8
Z-7 F50
G3 X8.62 Y7.2 I0.31 J0 F150
X7.38 Y7.2 I-0.62 J0
X8.62 Y7.2 I0.62 J0
G1 X8
G0 Z5
X31
G1 Z0 F50
Z-0.6
G3 X31.62 Y7.2 I0.31 J0 F150
X30.38 Y7.2 I-0.62 J0
X31.62 Y7.2 I0.62 J0
G1 X31
Z-1.2 F50
G3 X31.62 Y7.2 I0.31 J0 F150
X30.38 Y7.2 I-0.62 J0
X31.62 Y7.2 I0.62 J0
G1 X31
Z-1.8 F50
G3 X31.62 Y7.2 I0.31 J0 F150
X30.38 Y7.2 I-0.62 J0
X31.62 Y7.2 I0.62 J0
G1 X31
Z-2.4 F50
G3 X31.62 Y7.2 I0.31 J0 F150
X30.38 Y7.2 I-0.62 J0
X31.62 Y7.2 I0.62 J0
G1 X31
Z-3 F50
G3 X31.62 Y7.2 I0.31 J0 F150
X30.38 Y7.2 I-0.62 J0
X31.62 Y7.2 I0.62 J0
G1 X31
Z-3.6 F50
G3 X31.62 Y7.2 I0.31 J0 F150
X30.38 Y7.2 I-0.62 J0
X31.62 Y7.2 I0.62 J0
G1 X31
Z-4.2 F50
G3 X31.62 Y7.2 I0.31 J0 F150
X30.38 Y7.2 I-0.62 J0
X31.62 Y7.2 I0.62 J0
G1 X31
Z-4.8 F50
G3 X31.62 Y7.2 I0.31 J0 F150
X30.38 Y7.2 I-0.62 J0
X31.62 Y7.2 I0.62 J0
G1 X31
Z-5.4 F50
G3 X31.62 Y7.2 I0.31 J0 F150
X30.38 Y7.2 I-0.62 J0
X31.62 Y7.2 I0.62 J0
G1 X31
Z-6 F50
G3 X31.62 Y7.2 I0.31 J0 F150
X30.38 Y7.2 I-0.62 J0
X31.62 Y7.2 I0.62 J0
G1 X31
Z-6.6 F50
G3 X31.62 Y7.2 I0.31 J0 F150
X30.38 Y7.2 I-0.62 J0
X31.62 Y7.2 I0.62 J0
G1 X31
Z-7 F50
G3 X31.62 Y7.2 I0.31 J0 F150
X30.38 Y7.2 I-0.62 J0
X31.62 Y7.2 I0.62 J0
G1 X31
G0 Z5
X51
G1 Z0 F50
Z-0.6
G3 X51.62 Y7.2 I0.31 J0 F150
X50.38 Y7.2 I-0.62 J0
X51.62 Y7.2 I0.62 J0
G1 X51
Z-1.2 F50
G3 X51.62 Y7.2 I0.31 J0 F150
X50.38 Y7.2 I-0.62 J0
X51.62 Y7.2 I0.62 J0
G1 X51
Z-1.8 F50
G3 X51.62 Y7.2 I0.31 J0 F150
X50.38 Y7.2 I-0.62 J0
X51.62 Y7.2 I0.62 J0
G1 X51
Z-2.4 F50
G3 X51.62 Y7.2 I0.31 J0 F150
X50.38 Y7.2 I-0.62 J0
X51.62 Y7.2 I0.62 J0
G1 X51
Z-3 F50
G3 X51.62 Y7.2 I0.31 J0 F150
X50.38 Y7.2 I-0.62 J0
X51.62 Y7.2 I0.62 J0
G1 X51
Z-3.6 F50
G3 X51.62 Y7.2 I0.31 J0 F150
X50.38 Y7.2 I-0.62 J0
X51.62 Y7.2 I0.62 J0
G1 X51
Z-4.2 F50
G3 X51.62 Y7.2 I0.31 J0 F150
X50.38 Y7.2 I-0.62 J0
X51.62 Y7.2 I0.62 J0
G1 X51
Z-4.8 F50
G3 X51.62 Y7.2 I0.31 J0 F150
X50.38 Y7.2 I-0.62 J0
X51.62 Y7.2 I0.62 J0
G1 X51
Z-5.4 F50
G3 X51.62 Y7.2 I0.31 J0 F150
X50.38 Y7.2 I-0.62 J0
X51.62 Y7.2 I0.62 J0
G1 X51
Z-6 F50
G3 X51.62 Y7.2 I0.31 J0 F150
X50.38 Y7.2 I-0.62 J0
X51.62 Y7.2 I0.62 J0
G1 X51
Z-6.6 F50
G3 X51.62 Y7.2 I0.31 J0 F150
X50.38 Y7.2 I-0.62 J0
X51.62 Y7.2 I0.62 J0
G1 X51
Z-7 F50
G3 X51.62 Y7.2 I0.31 J0 F150
X50.38 Y7.2 I-0.62 J0
X51.62 Y7.2 I0.62 J0
G1 X51
G0 Z5
Y27.2
G1 Z0 F50
Z-0.6
G3 X51.62 Y27.2 I0.31 J0 F150
X50.38 Y27.2 I-0.62 J0
X51.62 Y27.2 I0.62 J0
G1 X51
Z-1.2 F50
G3 X51.62 Y27.2 I0.31 J0 F150
X50.38 Y27.2 I-0.62 J0
X51.62 Y27.2 I0.62 J0
G1 X51
Z-1.8 F50
G3 X51.62 Y27.2 I0.31 J0 F150
X50.38 Y27.2 I-0.62 J0
X51.62 Y27.2 I0.62 J0
G1 X51
Z-2.4 F50
G3 X51.62 Y27.2 I0.31 J0 F150
X50.38 Y27.2 I-0.62 J0
X51.62 Y27.2 I0.62 J0
G1 X51
Z-3 F50
G3 X51.62 Y27.2 I0.31 J0 F150
X50.38 Y27.2 I-0.62 J0
X51.62 Y27.2 I0.62 J0
G1 X51
Z-3.6 F50
G3 X51.62 Y27.2 I0.31 J0 F150
X50.38 Y27.2 I-0.62 J0
X51.62 Y27.2 I0.62 J0
G1 X51
Z-4.2 F50
G3 X51.62 Y27.2 I0.31 J0 F150
X50.38 Y27.2 I-0.62 J0
X51.62 Y27.2 I0.62 J0
G1 X51
Z-4.8 F50
G3 X51.62 Y27.2 I0.31 J0 F150
X50.38 Y27.2 I-0.62 J0
X51.62 Y27.2 I0.62 J0
G1 X51
Z-5.4 F50
G3 X51.62 Y27.2 I0.31 J0 F150
X50.38 Y27.2 I-0.62 J0
X51.62 Y27.2 I0.62 J0
G1 X51
Z-6 F50
G3 X51.62 Y27.2 I0.31 J0 F150
X50.38 Y27.2 I-0.62 J0
X51.62 Y27.2 I0.62 J0
G1 X51
Z-6.6 F50
G3 X51.62 Y27.2 I0.31 J0 F150
X50.38 Y27.2 I-0.62 J0
X51.62 Y27.2 I0.62 J0
G1 X51
Z-7 F50
G3 X51.62 Y27.2 I0.31 J0 F150
X50.38 Y27.2 I-0.62 J0
X51.62 Y27.2 I0.62 J0
G1 X51
G0 Z5
X31
G1 Z0 F50
Z-0.6
G3 X31.62 Y27.2 I0.31 J0 F150
X30.38 Y27.2 I-0.62 J0
X31.62 Y27.2 I0.62 J0
G1 X31
Z-1.2 F50
G3 X31.62 Y27.2 I0.31 J0 F150
X30.38 Y27.2 I-0.62 J0
X31.62 Y27.2 I0.62 J0
G1 X31
Z-1.8 F50
G3 X31.62 Y27.2 I0.31 J0 F150
X30.38 Y27.2 I-0.62 J0
X31.62 Y27.2 I0.62 J0
G1 X31
Z-2.4 F50
G3 X31.62 Y27.2 I0.31 J0 F150
X30.38 Y27.2 I-0.62 J0
X31.62 Y27.2 I0.62 J0
G1 X31
Z-3 F50
G3 X31.62 Y27.2 I0.31 J0 F150
X30.38 Y27.2 I-0.62 J0
X31.62 Y27.2 I0.62 J0
G1 X31
Z-3.6 F50
G3 X31.62 Y27.2 I0.31 J0 F150
X30.38 Y27.2 I-0.62 J0
X31.62 Y27.2 I0.62 J0
G1 X31
Z-4.2 F50
G3 X31.62 Y27.2 I0.31 J0 F150
X30.38 Y27.2 I-0.62 J0
X31.62 Y27.2 I0.62 J0
G1 X31
Z-4.8 F50
G3 X31.62 Y27.2 I0.31 J0 F150
X30.38 Y27.2 I-0.62 J0
X31.62 Y27.2 I0.62 J0
G1 X31
Z-5.4 F50
G3 X31.62 Y27.2 I0.31 J0 F150
X30.38 Y27.2 I-0.62 J0
X31.62 Y27.2 I0.62 J0
G1 X31
Z-6 F50
G3 X31.62 Y27.2 I0.31 J0 F150
X30.38 Y27.2 I-0.62 J0
X31.62 Y27.2 I0.62 J0
G1 X31
Z-6.6 F50
G3 X31.62 Y27.2 I0.31 J0 F150
X30.38 Y27.2 I-0.62 J0
X31.62 Y27.2 I0.62 J0
G1 X31
Z-7 F50
G3 X31.62 Y27.2 I0.31 J0 F150
X30.38 Y27.2 I-0.62 J0
X31.62 Y27.2 I0.62 J0
G1 X31
G0 Z5
Z10

(Drill2)
X41 Y27.2
Z10
Z5
Z2
G1 Z-3 F50
Z-3.6
X41.007 Y27.179 F150
X41.024 Y27.167
X41.046
X41.063 Y27.179
X41.07 Y27.2
G3 X40.93 Y27.2 I-0.07 J0
X41.07 Y27.2 I0.07 J0
G1 X41
Z-4.2 F50
X41.007 Y27.179 F150
X41.024 Y27.167
X41.046
X41.063 Y27.179
X41.07 Y27.2
G3 X40.93 Y27.2 I-0.07 J0
X41.07 Y27.2 I0.07 J0
G1 X41
Z-4.8 F50
X41.007 Y27.179 F150
X41.024 Y27.167
X41.046
X41.063 Y27.179
X41.07 Y27.2
G3 X40.93 Y27.2 I-0.07 J0
X41.07 Y27.2 I0.07 J0
G1 X41
Z-5.4 F50
X41.007 Y27.179 F150
X41.024 Y27.167
X41.046
X41.063 Y27.179
X41.07 Y27.2
G3 X40.93 Y27.2 I-0.07 J0
X41.07 Y27.2 I0.07 J0
G1 X41
Z-6 F50
X41.007 Y27.179 F150
X41.024 Y27.167
X41.046
X41.063 Y27.179
X41.07 Y27.2
G3 X40.93 Y27.2 I-0.07 J0
X41.07 Y27.2 I0.07 J0
G1 X41
Z-6.6 F50
X41.007 Y27.179 F150
X41.024 Y27.167
X41.046
X41.063 Y27.179
X41.07 Y27.2
G3 X40.93 Y27.2 I-0.07 J0
X41.07 Y27.2 I0.07 J0
G1 X41
Z-7 F50
X41.007 Y27.179 F150
X41.024 Y27.167
X41.046
X41.063 Y27.179
X41.07 Y27.2
G3 X40.93 Y27.2 I-0.07 J0
X41.07 Y27.2 I0.07 J0
G1 X41
G0 Z5
X21
Z2
G1 Z-3 F50
Z-3.6
X21.007 Y27.179 F150
X21.024 Y27.167
X21.046
X21.063 Y27.179
X21.07 Y27.2
G3 X20.93 Y27.2 I-0.07 J0
X21.07 Y27.2 I0.07 J0
G1 X21
Z-4.2 F50
X21.007 Y27.179 F150
X21.024 Y27.167
X21.046
X21.063 Y27.179
X21.07 Y27.2
G3 X20.93 Y27.2 I-0.07 J0
X21.07 Y27.2 I0.07 J0
G1 X21
Z-4.8 F50
X21.007 Y27.179 F150
X21.024 Y27.167
X21.046
X21.063 Y27.179
X21.07 Y27.2
G3 X20.93 Y27.2 I-0.07 J0
X21.07 Y27.2 I0.07 J0
G1 X21
Z-5.4 F50
X21.007 Y27.179 F150
X21.024 Y27.167
X21.046
X21.063 Y27.179
X21.07 Y27.2
G3 X20.93 Y27.2 I-0.07 J0
X21.07 Y27.2 I0.07 J0
G1 X21
Z-6 F50
X21.007 Y27.179 F150
X21.024 Y27.167
X21.046
X21.063 Y27.179
X21.07 Y27.2
G3 X20.93 Y27.2 I-0.07 J0
X21.07 Y27.2 I0.07 J0
G1 X21
Z-6.6 F50
X21.007 Y27.179 F150
X21.024 Y27.167
X21.046
X21.063 Y27.179
X21.07 Y27.2
G3 X20.93 Y27.2 I-0.07 J0
X21.07 Y27.2 I0.07 J0
G1 X21
Z-7 F50
X21.007 Y27.179 F150
X21.024 Y27.167
X21.046
X21.063 Y27.179
X21.07 Y27.2
G3 X20.93 Y27.2 I-0.07 J0
X21.07 Y27.2 I0.07 J0
G1 X21
G0 Z5
Y7.2
Z2
G1 Z-3 F50
Z-3.6
X21.007 Y7.179 F150
X21.024 Y7.167
X21.046
X21.063 Y7.179
X21.07 Y7.2
G3 X20.93 Y7.2 I-0.07 J0
X21.07 Y7.2 I0.07 J0
G1 X21
Z-4.2 F50
X21.007 Y7.179 F150
X21.024 Y7.167
X21.046
X21.063 Y7.179
X21.07 Y7.2
G3 X20.93 Y7.2 I-0.07 J0
X21.07 Y7.2 I0.07 J0
G1 X21
Z-4.8 F50
X21.007 Y7.179 F150
X21.024 Y7.167
X21.046
X21.063 Y7.179
X21.07 Y7.2
G3 X20.93 Y7.2 I-0.07 J0
X21.07 Y7.2 I0.07 J0
G1 X21
Z-5.4 F50
X21.007 Y7.179 F150
X21.024 Y7.167
X21.046
X21.063 Y7.179
X21.07 Y7.2
G3 X20.93 Y7.2 I-0.07 J0
X21.07 Y7.2 I0.07 J0
G1 X21
Z-6 F50
X21.007 Y7.179 F150
X21.024 Y7.167
X21.046
X21.063 Y7.179
X21.07 Y7.2
G3 X20.93 Y7.2 I-0.07 J0
X21.07 Y7.2 I0.07 J0
G1 X21
Z-6.6 F50
X21.007 Y7.179 F150
X21.024 Y7.167
X21.046
X21.063 Y7.179
X21.07 Y7.2
G3 X20.93 Y7.2 I-0.07 J0
X21.07 Y7.2 I0.07 J0
G1 X21
Z-7 F50
X21.007 Y7.179 F150
X21.024 Y7.167
X21.046
X21.063 Y7.179
X21.07 Y7.2
G3 X20.93 Y7.2 I-0.07 J0
X21.07 Y7.2 I0.07 J0
G1 X21
G0 Z5
X41
Z2
G1 Z-3 F50
Z-3.6
X41.007 Y7.179 F150
X41.024 Y7.167
X41.046
X41.063 Y7.179
X41.07 Y7.2
G3 X40.93 Y7.2 I-0.07 J0
X41.07 Y7.2 I0.07 J0
G1 X41
Z-4.2 F50
X41.007 Y7.179 F150
X41.024 Y7.167
X41.046
X41.063 Y7.179
X41.07 Y7.2
G3 X40.93 Y7.2 I-0.07 J0
X41.07 Y7.2 I0.07 J0
G1 X41
Z-4.8 F50
X41.007 Y7.179 F150
X41.024 Y7.167
X41.046
X41.063 Y7.179
X41.07 Y7.2
G3 X40.93 Y7.2 I-0.07 J0
X41.07 Y7.2 I0.07 J0
G1 X41
Z-5.4 F50
X41.007 Y7.179 F150
X41.024 Y7.167
X41.046
X41.063 Y7.179
X41.07 Y7.2
G3 X40.93 Y7.2 I-0.07 J0
X41.07 Y7.2 I0.07 J0
G1 X41
Z-6 F50
X41.007 Y7.179 F150
X41.024 Y7.167
X41.046
X41.063 Y7.179
X41.07 Y7.2
G3 X40.93 Y7.2 I-0.07 J0
X41.07 Y7.2 I0.07 J0
G1 X41
Z-6.6 F50
X41.007 Y7.179 F150
X41.024 Y7.167
X41.046
X41.063 Y7.179
X41.07 Y7.2
G3 X40.93 Y7.2 I-0.07 J0
X41.07 Y7.2 I0.07 J0
G1 X41
Z-7 F50
X41.007 Y7.179 F150
X41.024 Y7.167
X41.046
X41.063 Y7.179
X41.07 Y7.2
G3 X40.93 Y7.2 I-0.07 J0
X41.07 Y7.2 I0.07 J0
G1 X41
G0 Z5
Z10
(When using Fusion 360 for Personal Use, the feedrate of)
(rapid moves is reduced to match the feedrate of cutting)
(moves, which can increase machining time. Unrestricted rapid)
(moves are available with a Fusion 360 Subscription.)

(2D Contour2)
X20.715 Y6.513
G1 Z10 F150
Z5
Z2 F50
Z-0.524
X20.722 Y6.516 Z-0.607 F150
X20.741 Y6.526 Z-0.687
X20.772 Y6.543 Z-0.762
X20.814 Y6.565 Z-0.83
X20.866 Y6.592 Z-0.889
X20.926 Y6.624 Z-0.936
X20.993 Y6.659 Z-0.971
X21.064 Y6.696 Z-0.993
X21.137 Y6.734 Z-1
X21.558 Y6.955
G3 X21.759 Y7.598 I-0.221 J0.421
X20.241 Y6.802 I-0.759 J-0.398
X21.759 Y7.598 I0.759 J0.398
X21.116 Y7.798 I-0.421 J-0.221
G1 X20.694 Y7.577
X20.621 Y7.539 Z-0.993
X20.55 Y7.502 Z-0.971
X20.484 Y7.467 Z-0.936
X20.423 Y7.435 Z-0.889
X20.372 Y7.408 Z-0.83
X20.329 Y7.386 Z-0.762
X20.298 Y7.369 Z-0.687
X20.279 Y7.359 Z-0.607
X20.273 Y7.356 Z-0.524
Z5
X20.715 Y6.513
Z1 F50
Z-1.524
X20.722 Y6.516 Z-1.607 F150
X20.741 Y6.526 Z-1.687
X20.772 Y6.543 Z-1.762
X20.814 Y6.565 Z-1.83
X20.866 Y6.592 Z-1.889
X20.926 Y6.624 Z-1.936
X20.993 Y6.659 Z-1.971
X21.064 Y6.696 Z-1.993
X21.137 Y6.734 Z-2
X21.558 Y6.955
G3 X21.759 Y7.598 I-0.221 J0.421
X20.241 Y6.802 I-0.759 J-0.398
X21.759 Y7.598 I0.759 J0.398
X21.116 Y7.798 I-0.421 J-0.221
G1 X20.694 Y7.577
X20.621 Y7.539 Z-1.993
X20.55 Y7.502 Z-1.971
X20.484 Y7.467 Z-1.936
X20.423 Y7.435 Z-1.889
X20.372 Y7.408 Z-1.83
X20.329 Y7.386 Z-1.762
X20.298 Y7.369 Z-1.687
X20.279 Y7.359 Z-1.607
X20.273 Y7.356 Z-1.524
Z5
X20.715 Y6.513
Z0 F50
Z-2.524
X20.722 Y6.516 Z-2.607 F150
X20.741 Y6.526 Z-2.687
X20.772 Y6.543 Z-2.762
X20.814 Y6.565 Z-2.83
X20.866 Y6.592 Z-2.889
X20.926 Y6.624 Z-2.936
X20.993 Y6.659 Z-2.971
X21.064 Y6.696 Z-2.993
X21.137 Y6.734 Z-3
X21.558 Y6.955
G3 X21.759 Y7.598 I-0.221 J0.421
X20.241 Y6.802 I-0.759 J-0.398
X21.759 Y7.598 I0.759 J0.398
X21.116 Y7.798 I-0.421 J-0.221
G1 X20.694 Y7.577
X20.621 Y7.539 Z-2.993
X20.55 Y7.502 Z-2.971
X20.484 Y7.467 Z-2.936
X20.423 Y7.435 Z-2.889
X20.372 Y7.408 Z-2.83
X20.329 Y7.386 Z-2.762
X20.298 Y7.369 Z-2.687
X20.279 Y7.359 Z-2.607
X20.273 Y7.356 Z-2.524
Z5
X20.715 Y26.513
Z2 F50
Z-0.524
X20.722 Y26.516 Z-0.607 F150
X20.741 Y26.526 Z-0.687
X20.772 Y26.543 Z-0.762
X20.814 Y26.565 Z-0.83
X20.866 Y26.592 Z-0.889
X20.926 Y26.624 Z-0.936
X20.993 Y26.659 Z-0.971
X21.064 Y26.696 Z-0.993
X21.137 Y26.734 Z-1
X21.558 Y26.955
G3 X21.759 Y27.598 I-0.221 J0.421
X20.241 Y26.802 I-0.759 J-0.398
X21.759 Y27.598 I0.759 J0.398
X21.116 Y27.798 I-0.421 J-0.221
G1 X20.694 Y27.577
X20.621 Y27.539 Z-0.993
X20.55 Y27.502 Z-0.971
X20.484 Y27.467 Z-0.936
X20.423 Y27.435 Z-0.889
X20.372 Y27.408 Z-0.83
X20.329 Y27.386 Z-0.762
X20.298 Y27.369 Z-0.687
X20.279 Y27.359 Z-0.607
X20.273 Y27.356 Z-0.524
Z5
X20.715 Y26.513
Z1 F50
Z-1.524
X20.722 Y26.516 Z-1.607 F150
X20.741 Y26.526 Z-1.687
X20.772 Y26.543 Z-1.762
X20.814 Y26.565 Z-1.83
X20.866 Y26.592 Z-1.889
X20.926 Y26.624 Z-1.936
X20.993 Y26.659 Z-1.971
X21.064 Y26.696 Z-1.993
X21.137 Y26.734 Z-2
X21.558 Y26.955
G3 X21.759 Y27.598 I-0.221 J0.421
X20.241 Y26.802 I-0.759 J-0.398
X21.759 Y27.598 I0.759 J0.398
X21.116 Y27.798 I-0.421 J-0.221
G1 X20.694 Y27.577
X20.621 Y27.539 Z-1.993
X20.55 Y27.502 Z-1.971
X20.484 Y27.467 Z-1.936
X20.423 Y27.435 Z-1.889
X20.372 Y27.408 Z-1.83
X20.329 Y27.386 Z-1.762
X20.298 Y27.369 Z-1.687
X20.279 Y27.359 Z-1.607
X20.273 Y27.356 Z-1.524
Z5
X20.715 Y26.513
Z0 F50
Z-2.524
X20.722 Y26.516 Z-2.607 F150
X20.741 Y26.526 Z-2.687
X20.772 Y26.543 Z-2.762
X20.814 Y26.565 Z-2.83
X20.866 Y26.592 Z-2.889
X20.926 Y26.624 Z-2.936
X20.993 Y26.659 Z-2.971
X21.064 Y26.696 Z-2.993
X21.137 Y26.734 Z-3
X21.558 Y26.955
G3 X21.759 Y27.598 I-0.221 J0.421
X20.241 Y26.802 I-0.759 J-0.398
X21.759 Y27.598 I0.759 J0.398
X21.116 Y27.798 I-0.421 J-0.221
G1 X20.694 Y27.577
X20.621 Y27.539 Z-2.993
X20.55 Y27.502 Z-2.971
X20.484 Y27.467 Z-2.936
X20.423 Y27.435 Z-2.889
X20.372 Y27.408 Z-2.83
X20.329 Y27.386 Z-2.762
X20.298 Y27.369 Z-2.687
X20.279 Y27.359 Z-2.607
X20.273 Y27.356 Z-2.524
Z5
X40.429 Y26.724
Z2 F50
Z-0.524
G18 G2 X40.905 Z-1 I0.476 K0 F150
G1 X41.381
G17 G3 X41.857 Y27.2 I0 J0.476
X40.143 Y27.2 I-0.857 J0
X41.857 Y27.2 I0.857 J0
X41.381 Y27.676 I-0.476 J0
G1 X40.905
G18 G3 X40.429 Z-0.524 I0 K0.476
G1 Z5
Y26.724
Z1 F50
Z-1.524
G2 X40.905 Z-2 I0.476 K0 F150
G1 X41.381
G17 G3 X41.857 Y27.2 I0 J0.476
X40.143 Y27.2 I-0.857 J0
X41.857 Y27.2 I0.857 J0
X41.381 Y27.676 I-0.476 J0
G1 X40.905
G18 G3 X40.429 Z-1.524 I0 K0.476
G1 Z5
Y26.724
Z0 F50
Z-2.524
G2 X40.905 Z-3 I0.476 K0 F150
G1 X41.381
G17 G3 X41.857 Y27.2 I0 J0.476
X40.143 Y27.2 I-0.857 J0
X41.857 Y27.2 I0.857 J0
X41.381 Y27.676 I-0.476 J0
G1 X40.905
G18 G3 X40.429 Z-2.524 I0 K0.476
G1 Z5
X40.715 Y6.513
Z2 F50
Z-0.524
X40.722 Y6.516 Z-0.607 F150
X40.741 Y6.526 Z-0.687
X40.772 Y6.543 Z-0.762
X40.814 Y6.565 Z-0.83
X40.866 Y6.592 Z-0.889
X40.926 Y6.624 Z-0.936
X40.993 Y6.659 Z-0.971
X41.064 Y6.696 Z-0.993
X41.137 Y6.734 Z-1
X41.558 Y6.955
G17 G3 X41.759 Y7.598 I-0.221 J0.421
X40.241 Y6.802 I-0.759 J-0.398
X41.759 Y7.598 I0.759 J0.398
X41.116 Y7.798 I-0.421 J-0.221
G1 X40.694 Y7.577
X40.621 Y7.539 Z-0.993
X40.55 Y7.502 Z-0.971
X40.484 Y7.467 Z-0.936
X40.423 Y7.435 Z-0.889
X40.372 Y7.408 Z-0.83
X40.329 Y7.386 Z-0.762
X40.298 Y7.369 Z-0.687
X40.279 Y7.359 Z-0.607
X40.273 Y7.356 Z-0.524
Z5
X40.715 Y6.513
Z1 F50
Z-1.524
X40.722 Y6.516 Z-1.607 F150
X40.741 Y6.526 Z-1.687
X40.772 Y6.543 Z-1.762
X40.814 Y6.565 Z-1.83
X40.866 Y6.592 Z-1.889
X40.926 Y6.624 Z-1.936
X40.993 Y6.659 Z-1.971
X41.064 Y6.696 Z-1.993
X41.137 Y6.734 Z-2
X41.558 Y6.955
G3 X41.759 Y7.598 I-0.221 J0.421
X40.241 Y6.802 I-0.759 J-0.398
X41.759 Y7.598 I0.759 J0.398
X41.116 Y7.798 I-0.421 J-0.221
G1 X40.694 Y7.577
X40.621 Y7.539 Z-1.993
X40.55 Y7.502 Z-1.971
X40.484 Y7.467 Z-1.936
X40.423 Y7.435 Z-1.889
X40.372 Y7.408 Z-1.83
X40.329 Y7.386 Z-1.762
X40.298 Y7.369 Z-1.687
X40.279 Y7.359 Z-1.607
X40.273 Y7.356 Z-1.524
Z5
X40.715 Y6.513
Z0 F50
Z-2.524
X40.722 Y6.516 Z-2.607 F150
X40.741 Y6.526 Z-2.687
X40.772 Y6.543 Z-2.762
X40.814 Y6.565 Z-2.83
X40.866 Y6.592 Z-2.889
X40.926 Y6.624 Z-2.936
X40.993 Y6.659 Z-2.971
X41.064 Y6.696 Z-2.993
X41.137 Y6.734 Z-3
X41.558 Y6.955
G3 X41.759 Y7.598 I-0.221 J0.421
X40.241 Y6.802 I-0.759 J-0.398
X41.759 Y7.598 I0.759 J0.398
X41.116 Y7.798 I-0.421 J-0.221
G1 X40.694 Y7.577
X40.621 Y7.539 Z-2.993
X40.55 Y7.502 Z-2.971
X40.484 Y7.467 Z-2.936
X40.423 Y7.435 Z-2.889
X40.372 Y7.408 Z-2.83
X40.329 Y7.386 Z-2.762
X40.298 Y7.369 Z-2.687
X40.279 Y7.359 Z-2.607
X40.273 Y7.356 Z-2.524
Z10
(When using Fusion 360 for Personal Use, the feedrate of)
(rapid moves is reduced to match the feedrate of cutting)
(moves, which can increase machining time. Unrestricted rapid)
(moves are available with a Fusion 360 Subscription.)

(2D Contour3)
G0 X61.476 Y-2.808
G1 Z10 F150
Z5
Z2 F50
Z-0.524
G19 G3 Y-2.332 Z-1 J0.476 K0 F150
G1 Y-1.856
G17 G3 X61 Y-1.38 I-0.476 J0
G1 X1
G2 X-1.38 Y1 I0 J2.38
G1 Y33.2
G2 X1 Y35.58 I2.38 J0
G1 X61
G2 X63.38 Y33.2 I0 J-2.38
G1 Y1
G2 X61 Y-1.38 I-2.38 J0
G3 X60.524 Y-1.856 I0 J-0.476
G1 Y-2.332
G19 G2 Y-2.808 Z-0.524 J0 K0.476
G1 Z5
X61.476
Z1 F50
Z-1.524
G3 Y-2.332 Z-2 J0.476 K0 F150
G1 Y-1.856
G17 G3 X61 Y-1.38 I-0.476 J0
G1 X1
G2 X-1.38 Y1 I0 J2.38
G1 Y33.2
G2 X1 Y35.58 I2.38 J0
G1 X61
G2 X63.38 Y33.2 I0 J-2.38
G1 Y1
G2 X61 Y-1.38 I-2.38 J0
G3 X60.524 Y-1.856 I0 J-0.476
G1 Y-2.332
G19 G2 Y-2.808 Z-1.524 J0 K0.476
G1 Z5
X61.476
Z0 F50
Z-2.524
G3 Y-2.332 Z-3 J0.476 K0 F150
G1 Y-1.856
G17 G3 X61 Y-1.38 I-0.476 J0
G1 X1
G2 X-1.38 Y1 I0 J2.38
G1 Y33.2
G2 X1 Y35.58 I2.38 J0
G1 X61
G2 X63.38 Y33.2 I0 J-2.38
G1 Y1
G2 X61 Y-1.38 I-2.38 J0
G3 X60.524 Y-1.856 I0 J-0.476
G1 Y-2.332
G19 G2 Y-2.808 Z-2.524 J0 K0.476
G1 Z5
X61.476
Z-1 F50
Z-3.524
G3 Y-2.332 Z-4 J0.476 K0 F150
G1 Y-1.856
G17 G3 X61 Y-1.38 I-0.476 J0
G1 X1
G2 X-1.38 Y1 I0 J2.38
G1 Y33.2
G2 X1 Y35.58 I2.38 J0
G1 X61
G2 X63.38 Y33.2 I0 J-2.38
G1 Y1
G2 X61 Y-1.38 I-2.38 J0
G3 X60.524 Y-1.856 I0 J-0.476
G1 Y-2.332
G19 G2 Y-2.808 Z-3.524 J0 K0.476
G1 Z5
X61.476
Z-2 F50
Z-4.524
G3 Y-2.332 Z-5 J0.476 K0 F150
G1 Y-1.856
G17 G3 X61 Y-1.38 I-0.476 J0
G1 X1
G2 X-1.38 Y1 I0 J2.38
G1 Y33.2
G2 X1 Y35.58 I2.38 J0
G1 X61
G2 X63.38 Y33.2 I0 J-2.38
G1 Y1
G2 X61 Y-1.38 I-2.38 J0
G3 X60.524 Y-1.856 I0 J-0.476
G1 Y-2.332
G19 G2 Y-2.808 Z-4.524 J0 K0.476
G1 Z5
X61.476
Z-3 F50
Z-5.524
G3 Y-2.332 Z-6 J0.476 K0 F150
G1 Y-1.856
G17 G3 X61 Y-1.38 I-0.476 J0
G1 X1
G2 X-1.38 Y1 I0 J2.38
G1 Y33.2
G2 X1 Y35.58 I2.38 J0
G1 X61
G2 X63.38 Y33.2 I0 J-2.38
G1 Y1
G2 X61 Y-1.38 I-2.38 J0
G3 X60.524 Y-1.856 I0 J-0.476
G1 Y-2.332
G19 G2 Y-2.808 Z-5.524 J0 K0.476
G1 Z5
X61.476
Z-4 F50
Z-6.524
G3 Y-2.332 Z-7 J0.476 K0 F150
G1 Y-1.856
G17 G3 X61 Y-1.38 I-0.476 J0
G1 X1
G2 X-1.38 Y1 I0 J2.38
G1 Y33.2
G2 X1 Y35.58 I2.38 J0
G1 X61
G2 X63.38 Y33.2 I0 J-2.38
G1 Y1
G2 X61 Y-1.38 I-2.38 J0
G3 X60.524 Y-1.856 I0 J-0.476
G1 Y-2.332
G19 G2 Y-2.808 Z-6.524 J0 K0.476
G1 Z10
G17
M9
G28 G91 Z0
G90
G28 G91 X0 Y0
G90
M5
M30
