(arm1)
(Machine)
(  vendor: Autodesk)
(  model: Generic 3-axis)
(  description: This machine has XY axis on the Table and Z axis on the Head)
(T1 D=4.76 CR=0 - ZMIN=-7.5 - flat end mill)
G90 G94
G17
G21
(-Attention- Property Safe Retracts is set to Clearance Height.)
(Ensure the clearance height will clear the part and or fixtures.)
(Raise the Z-axis to a safe height before starting the program.)
(When using Fusion for Personal Use, the feedrate of rapid)
(moves is reduced to match the feedrate of cutting moves,)
(which can increase machining time. Unrestricted rapid moves)
(are available with a Fusion Subscription.)

(Bore13)
T1
S18000 M3
G17 G90 G94
G54
M8
G0 X548.673 Y20.827
Z15
G1 Z1.524 F150
Z0 F50
Y21.065
G3 X548.488 Y21.25 I-0.185 J0
X548.488 Y20.51 Z-0.192 I0 J-0.37 F150
X548.488 Y21.25 Z-0.385 I0 J0.37
X548.488 Y20.51 Z-0.577 I0 J-0.37
X548.488 Y21.25 Z-0.769 I0 J0.37
X548.488 Y20.51 Z-0.961 I0 J-0.37
X548.725 Y21.164 Z-1.111 I0 J0.37
X548.25 Y20.596 Z-1.303 I-0.238 J-0.284
X548.726 Y20.597 Z-1.389 I0.238 J0.284
X548.25 Y21.163 Z-1.581 I-0.238 J0.283
X548.726 Y20.597 Z-1.773 I0.238 J-0.283
X548.25 Y21.163 Z-1.966 I-0.238 J0.283
X548.726 Y20.597 Z-2.158 I0.238 J-0.283
X548.25 Y21.163 Z-2.35 I-0.238 J0.283
X548.726 Y20.597 Z-2.543 I0.238 J-0.283
X548.25 Y21.163 Z-2.735 I-0.238 J0.283
X548.726 Y20.597 Z-2.927 I0.238 J-0.283
X548.25 Y21.163 Z-3.12 I-0.238 J0.283
X548.726 Y20.597 Z-3.312 I0.238 J-0.283
X548.25 Y21.163 Z-3.504 I-0.238 J0.283
X548.726 Y20.597 Z-3.696 I0.238 J-0.283
X548.25 Y21.163 Z-3.889 I-0.238 J0.283
X548.726 Y20.597 Z-4.081 I0.238 J-0.283
X548.25 Y21.163 Z-4.273 I-0.238 J0.283
X548.726 Y20.597 Z-4.466 I0.238 J-0.283
X548.25 Y21.163 Z-4.658 I-0.238 J0.283
X548.726 Y20.597 Z-4.85 I0.238 J-0.283
X548.25 Y21.163 Z-5.043 I-0.238 J0.283
X548.726 Y20.597 Z-5.235 I0.238 J-0.283
X548.25 Y21.163 Z-5.427 I-0.238 J0.283
X548.363 Y20.532 Z-5.556 I0.238 J-0.283
X548.613 Y21.228 Z-5.748 I0.125 J0.348
X548.166 Y21.064 Z-5.833 I-0.125 J-0.348
X548.809 Y20.696 Z-6.026 I0.321 J-0.184
X548.166 Y21.064 Z-6.218 I-0.321 J0.184
X548.809 Y20.696 Z-6.41 I0.321 J-0.184
X548.166 Y21.064 Z-6.603 I-0.321 J0.184
X548.809 Y20.696 Z-6.795 I0.321 J-0.184
X548.166 Y21.064 Z-6.987 I-0.321 J0.184
X548.809 Y20.696 Z-7.179 I0.321 J-0.184
X548.166 Y21.064 Z-7.372 I-0.321 J0.184
X548.49 Y20.51 Z-7.5 I0.321 J-0.184
X548.486 Y21.25 I-0.002 J0.37
X548.49 Y20.51 I0.002 J-0.37
X548.674 Y20.696 I-0.001 J0.185
G1 X548.672 Y20.934
Z5
X595.813 Y20.827
Z1.524
Z0 F50
Y21.065
G3 X595.628 Y21.25 I-0.185 J0
X595.628 Y20.51 Z-0.192 I0 J-0.37 F150
X595.628 Y21.25 Z-0.385 I0 J0.37
X595.628 Y20.51 Z-0.577 I0 J-0.37
X595.628 Y21.25 Z-0.769 I0 J0.37
X595.628 Y20.51 Z-0.961 I0 J-0.37
X595.628 Y21.25 Z-1.154 I0 J0.37
X595.628 Y20.51 Z-1.346 I0 J-0.37
X595.628 Y21.25 Z-1.538 I0 J0.37
X595.628 Y20.51 Z-1.731 I0 J-0.37
X595.628 Y21.25 Z-1.923 I0 J0.37
X595.628 Y20.51 Z-2.115 I0 J-0.37
X595.628 Y21.25 Z-2.308 I0 J0.37
X595.628 Y20.51 Z-2.5 I0 J-0.37
X595.628 Y21.25 Z-2.692 I0 J0.37
X595.628 Y20.51 Z-2.884 I0 J-0.37
X595.628 Y21.25 Z-3.077 I0 J0.37
X595.628 Y20.51 Z-3.269 I0 J-0.37
X595.628 Y21.25 Z-3.461 I0 J0.37
X595.628 Y20.51 Z-3.654 I0 J-0.37
X595.628 Y21.25 Z-3.846 I0 J0.37
X595.628 Y20.51 Z-4.038 I0 J-0.37
X595.628 Y21.25 Z-4.231 I0 J0.37
X595.628 Y20.51 Z-4.423 I0 J-0.37
X595.628 Y21.25 Z-4.615 I0 J0.37
X595.628 Y20.51 Z-4.807 I0 J-0.37
X595.628 Y21.25 Z-5 I0 J0.37
X595.628 Y20.51 Z-5.192 I0 J-0.37
X595.628 Y21.25 Z-5.384 I0 J0.37
X595.628 Y20.51 Z-5.577 I0 J-0.37
X595.628 Y21.25 Z-5.769 I0 J0.37
X595.628 Y20.51 Z-5.961 I0 J-0.37
X595.628 Y21.25 Z-6.154 I0 J0.37
X595.628 Y20.51 Z-6.346 I0 J-0.37
X595.628 Y21.25 Z-6.538 I0 J0.37
X595.628 Y20.51 Z-6.73 I0 J-0.37
X595.628 Y21.25 Z-6.923 I0 J0.37
X595.628 Y20.51 Z-7.115 I0 J-0.37
X595.628 Y21.25 Z-7.307 I0 J0.37
X595.258 Y20.879 Z-7.404 I0 J-0.37
X595.63 Y20.51 Z-7.5 I0.37 J0.001
X595.625 Y21.25 I-0.002 J0.37
X595.63 Y20.51 I0.002 J-0.37
X595.814 Y20.696 I-0.001 J0.185
G1 X595.812 Y20.934
Z5
X595.813 Y67.967
Z1.524
Z0 F50
Y68.205
G3 X595.628 Y68.39 I-0.185 J0
X595.628 Y67.65 Z-0.192 I0 J-0.37 F150
X595.628 Y68.39 Z-0.385 I0 J0.37
X595.628 Y67.65 Z-0.577 I0 J-0.37
X595.628 Y68.39 Z-0.769 I0 J0.37
X595.628 Y67.65 Z-0.961 I0 J-0.37
X595.628 Y68.39 Z-1.154 I0 J0.37
X595.628 Y67.65 Z-1.346 I0 J-0.37
X595.628 Y68.39 Z-1.538 I0 J0.37
X595.628 Y67.65 Z-1.731 I0 J-0.37
X595.628 Y68.39 Z-1.923 I0 J0.37
X595.628 Y67.65 Z-2.115 I0 J-0.37
X595.628 Y68.39 Z-2.308 I0 J0.37
X595.628 Y67.65 Z-2.5 I0 J-0.37
X595.628 Y68.39 Z-2.692 I0 J0.37
X595.628 Y67.65 Z-2.884 I0 J-0.37
X595.628 Y68.39 Z-3.077 I0 J0.37
X595.628 Y67.65 Z-3.269 I0 J-0.37
X595.628 Y68.39 Z-3.461 I0 J0.37
X595.391 Y67.736 Z-3.611 I0 J-0.37
X595.865 Y68.304 Z-3.803 I0.237 J0.284
X595.389 Y68.303 Z-3.889 I-0.237 J-0.284
X595.866 Y67.737 Z-4.081 I0.239 J-0.283
X595.389 Y68.303 Z-4.273 I-0.239 J0.283
X595.866 Y67.737 Z-4.466 I0.239 J-0.283
X595.389 Y68.303 Z-4.658 I-0.239 J0.283
X595.866 Y67.737 Z-4.85 I0.239 J-0.283
X595.389 Y68.303 Z-5.043 I-0.239 J0.283
X595.866 Y67.737 Z-5.235 I0.239 J-0.283
X595.389 Y68.303 Z-5.427 I-0.239 J0.283
X595.866 Y67.737 Z-5.62 I0.239 J-0.283
X595.389 Y68.303 Z-5.812 I-0.239 J0.283
X595.866 Y67.737 Z-6.004 I0.239 J-0.283
X595.389 Y68.303 Z-6.196 I-0.239 J0.283
X595.866 Y67.737 Z-6.389 I0.239 J-0.283
X595.389 Y68.303 Z-6.581 I-0.239 J0.283
X595.866 Y67.737 Z-6.773 I0.239 J-0.283
X595.389 Y68.303 Z-6.966 I-0.239 J0.283
X595.866 Y67.737 Z-7.158 I0.239 J-0.283
X595.389 Y68.303 Z-7.35 I-0.239 J0.283
X595.63 Y67.65 Z-7.5 I0.239 J-0.283
X595.625 Y68.39 I-0.002 J0.37
X595.63 Y67.65 I0.002 J-0.37
X595.814 Y67.836 I-0.001 J0.185
G1 X595.812 Y68.074
Z5
X548.673 Y67.967
Z1.524
Z0 F50
Y68.205
G3 X548.488 Y68.39 I-0.185 J0
X548.488 Y67.65 Z-0.192 I0 J-0.37 F150
X548.488 Y68.39 Z-0.385 I0 J0.37
X548.488 Y67.65 Z-0.577 I0 J-0.37
X548.488 Y68.39 Z-0.769 I0 J0.37
X548.488 Y67.65 Z-0.961 I0 J-0.37
X548.725 Y68.304 Z-1.111 I0 J0.37
X548.25 Y67.736 Z-1.303 I-0.238 J-0.284
X548.726 Y67.737 Z-1.389 I0.238 J0.284
X548.25 Y68.303 Z-1.581 I-0.238 J0.283
X548.726 Y67.737 Z-1.773 I0.238 J-0.283
X548.25 Y68.303 Z-1.966 I-0.238 J0.283
X548.726 Y67.737 Z-2.158 I0.238 J-0.283
X548.25 Y68.303 Z-2.35 I-0.238 J0.283
X548.726 Y67.737 Z-2.543 I0.238 J-0.283
X548.25 Y68.303 Z-2.735 I-0.238 J0.283
X548.726 Y67.737 Z-2.927 I0.238 J-0.283
X548.25 Y68.303 Z-3.12 I-0.238 J0.283
X548.726 Y67.737 Z-3.312 I0.238 J-0.283
X548.25 Y68.303 Z-3.504 I-0.238 J0.283
X548.726 Y67.737 Z-3.696 I0.238 J-0.283
X548.25 Y68.303 Z-3.889 I-0.238 J0.283
X548.726 Y67.737 Z-4.081 I0.238 J-0.283
X548.25 Y68.303 Z-4.273 I-0.238 J0.283
X548.726 Y67.737 Z-4.466 I0.238 J-0.283
X548.25 Y68.303 Z-4.658 I-0.238 J0.283
X548.726 Y67.737 Z-4.85 I0.238 J-0.283
X548.25 Y68.303 Z-5.043 I-0.238 J0.283
X548.726 Y67.737 Z-5.235 I0.238 J-0.283
X548.25 Y68.303 Z-5.427 I-0.238 J0.283
X548.363 Y67.672 Z-5.556 I0.238 J-0.283
X548.613 Y68.368 Z-5.748 I0.125 J0.348
X548.166 Y68.204 Z-5.833 I-0.125 J-0.348
X548.809 Y67.836 Z-6.026 I0.321 J-0.184
X548.166 Y68.204 Z-6.218 I-0.321 J0.184
X548.809 Y67.836 Z-6.41 I0.321 J-0.184
X548.166 Y68.204 Z-6.603 I-0.321 J0.184
X548.809 Y67.836 Z-6.795 I0.321 J-0.184
X548.166 Y68.204 Z-6.987 I-0.321 J0.184
X548.809 Y67.836 Z-7.179 I0.321 J-0.184
X548.166 Y68.204 Z-7.372 I-0.321 J0.184
X548.49 Y67.65 Z-7.5 I0.321 J-0.184
X548.486 Y68.39 I-0.002 J0.37
X548.49 Y67.65 I0.002 J-0.37
X548.674 Y67.836 I-0.001 J0.185
G1 X548.672 Y68.074
Z5
X475.185 Y64.397
Z1.524
Z0 F50
Y64.635
G3 X475 Y64.82 I-0.185 J0
X475 Y64.08 Z-0.192 I0 J-0.37 F150
X475 Y64.82 Z-0.385 I0 J0.37
X475 Y64.08 Z-0.577 I0 J-0.37
X475 Y64.82 Z-0.769 I0 J0.37
X475 Y64.08 Z-0.961 I0 J-0.37
X475 Y64.82 Z-1.154 I0 J0.37
X475 Y64.08 Z-1.346 I0 J-0.37
X475 Y64.82 Z-1.538 I0 J0.37
X475 Y64.08 Z-1.731 I0 J-0.37
X475 Y64.82 Z-1.923 I0 J0.37
X475 Y64.08 Z-2.115 I0 J-0.37
X475 Y64.82 Z-2.308 I0 J0.37
X475 Y64.08 Z-2.5 I0 J-0.37
X475 Y64.82 Z-2.692 I0 J0.37
X475 Y64.08 Z-2.884 I0 J-0.37
X475 Y64.82 Z-3.077 I0 J0.37
X475 Y64.08 Z-3.269 I0 J-0.37
X475 Y64.82 Z-3.461 I0 J0.37
X475 Y64.08 Z-3.654 I0 J-0.37
X475 Y64.82 Z-3.846 I0 J0.37
X475 Y64.08 Z-4.038 I0 J-0.37
X475 Y64.82 Z-4.231 I0 J0.37
X475 Y64.08 Z-4.423 I0 J-0.37
X475 Y64.82 Z-4.615 I0 J0.37
X475 Y64.08 Z-4.807 I0 J-0.37
X475 Y64.82 Z-5 I0 J0.37
X475 Y64.08 Z-5.192 I0 J-0.37
X475 Y64.82 Z-5.384 I0 J0.37
X475 Y64.08 Z-5.577 I0 J-0.37
X475 Y64.82 Z-5.769 I0 J0.37
X475 Y64.08 Z-5.961 I0 J-0.37
X475 Y64.82 Z-6.154 I0 J0.37
X475 Y64.08 Z-6.346 I0 J-0.37
X475 Y64.82 Z-6.538 I0 J0.37
X475 Y64.08 Z-6.73 I0 J-0.37
X475 Y64.82 Z-6.923 I0 J0.37
X475 Y64.08 Z-7.115 I0 J-0.37
X475 Y64.82 Z-7.307 I0 J0.37
X474.63 Y64.449 Z-7.404 I0 J-0.37
X475.002 Y64.08 Z-7.5 I0.37 J0.001
X474.998 Y64.82 I-0.002 J0.37
X475.002 Y64.08 I0.002 J-0.37
X475.186 Y64.266 I-0.001 J0.185
G1 X475.185 Y64.504
Z5
Y24.397
Z1.524
Z0 F50
Y24.635
G3 X475 Y24.82 I-0.185 J0
X475 Y24.08 Z-0.192 I0 J-0.37 F150
X475 Y24.82 Z-0.385 I0 J0.37
X475 Y24.08 Z-0.577 I0 J-0.37
X475 Y24.82 Z-0.769 I0 J0.37
X475 Y24.08 Z-0.961 I0 J-0.37
X475 Y24.82 Z-1.154 I0 J0.37
X475 Y24.08 Z-1.346 I0 J-0.37
X475 Y24.82 Z-1.538 I0 J0.37
X475 Y24.08 Z-1.731 I0 J-0.37
X475 Y24.82 Z-1.923 I0 J0.37
X475 Y24.08 Z-2.115 I0 J-0.37
X475 Y24.82 Z-2.308 I0 J0.37
X475 Y24.08 Z-2.5 I0 J-0.37
X475 Y24.82 Z-2.692 I0 J0.37
X475 Y24.08 Z-2.884 I0 J-0.37
X475 Y24.82 Z-3.077 I0 J0.37
X475 Y24.08 Z-3.269 I0 J-0.37
X475 Y24.82 Z-3.461 I0 J0.37
X475 Y24.08 Z-3.654 I0 J-0.37
X475 Y24.82 Z-3.846 I0 J0.37
X475 Y24.08 Z-4.038 I0 J-0.37
X475 Y24.82 Z-4.231 I0 J0.37
X475 Y24.08 Z-4.423 I0 J-0.37
X475 Y24.82 Z-4.615 I0 J0.37
X475 Y24.08 Z-4.807 I0 J-0.37
X475 Y24.82 Z-5 I0 J0.37
X475 Y24.08 Z-5.192 I0 J-0.37
X475 Y24.82 Z-5.384 I0 J0.37
X475 Y24.08 Z-5.577 I0 J-0.37
X475 Y24.82 Z-5.769 I0 J0.37
X475 Y24.08 Z-5.961 I0 J-0.37
X475 Y24.82 Z-6.154 I0 J0.37
X475 Y24.08 Z-6.346 I0 J-0.37
X475 Y24.82 Z-6.538 I0 J0.37
X475 Y24.08 Z-6.73 I0 J-0.37
X475 Y24.82 Z-6.923 I0 J0.37
X475 Y24.08 Z-7.115 I0 J-0.37
X475 Y24.82 Z-7.307 I0 J0.37
X474.63 Y24.449 Z-7.404 I0 J-0.37
X475.002 Y24.08 Z-7.5 I0.37 J0.001
X474.998 Y24.82 I-0.002 J0.37
X475.002 Y24.08 I0.002 J-0.37
X475.186 Y24.266 I-0.001 J0.185
G1 X475.185 Y24.504
Z5
X304.985 Y64.397
Z1.524
Z0 F50
Y64.635
G3 X304.8 Y64.82 I-0.185 J0
X304.8 Y64.08 Z-0.192 I0 J-0.37 F150
X304.8 Y64.82 Z-0.385 I0 J0.37
X304.8 Y64.08 Z-0.577 I0 J-0.37
X304.8 Y64.82 Z-0.769 I0 J0.37
X304.8 Y64.08 Z-0.961 I0 J-0.37
X304.8 Y64.82 Z-1.154 I0 J0.37
X304.8 Y64.08 Z-1.346 I0 J-0.37
X304.8 Y64.82 Z-1.538 I0 J0.37
X304.8 Y64.08 Z-1.731 I0 J-0.37
X304.8 Y64.82 Z-1.923 I0 J0.37
X304.8 Y64.08 Z-2.115 I0 J-0.37
X304.8 Y64.82 Z-2.308 I0 J0.37
X304.8 Y64.08 Z-2.5 I0 J-0.37
X304.8 Y64.82 Z-2.692 I0 J0.37
X304.8 Y64.08 Z-2.884 I0 J-0.37
X304.8 Y64.82 Z-3.077 I0 J0.37
X304.8 Y64.08 Z-3.269 I0 J-0.37
X304.8 Y64.82 Z-3.461 I0 J0.37
X304.8 Y64.08 Z-3.654 I0 J-0.37
X304.8 Y64.82 Z-3.846 I0 J0.37
X304.8 Y64.08 Z-4.038 I0 J-0.37
X304.8 Y64.82 Z-4.231 I0 J0.37
X304.8 Y64.08 Z-4.423 I0 J-0.37
X304.8 Y64.82 Z-4.615 I0 J0.37
X304.8 Y64.08 Z-4.807 I0 J-0.37
X304.8 Y64.82 Z-5 I0 J0.37
X304.8 Y64.08 Z-5.192 I0 J-0.37
X304.8 Y64.82 Z-5.384 I0 J0.37
X304.8 Y64.08 Z-5.577 I0 J-0.37
X304.8 Y64.82 Z-5.769 I0 J0.37
X304.8 Y64.08 Z-5.961 I0 J-0.37
X304.8 Y64.82 Z-6.154 I0 J0.37
X304.8 Y64.08 Z-6.346 I0 J-0.37
X304.8 Y64.82 Z-6.538 I0 J0.37
X304.8 Y64.08 Z-6.73 I0 J-0.37
X304.8 Y64.82 Z-6.923 I0 J0.37
X304.8 Y64.08 Z-7.115 I0 J-0.37
X304.8 Y64.82 Z-7.307 I0 J0.37
X304.43 Y64.449 Z-7.404 I0 J-0.37
X304.802 Y64.08 Z-7.5 I0.37 J0.001
X304.798 Y64.82 I-0.002 J0.37
X304.802 Y64.08 I0.002 J-0.37
X304.986 Y64.266 I-0.001 J0.185
G1 X304.985 Y64.504
Z5
X305.185 Y24.397
Z1.524
Z0 F50
Y24.635
G3 X305 Y24.82 I-0.185 J0
X305 Y24.08 Z-0.192 I0 J-0.37 F150
X305 Y24.82 Z-0.385 I0 J0.37
X305 Y24.08 Z-0.577 I0 J-0.37
X305 Y24.82 Z-0.769 I0 J0.37
X305 Y24.08 Z-0.961 I0 J-0.37
X305 Y24.82 Z-1.154 I0 J0.37
X305 Y24.08 Z-1.346 I0 J-0.37
X305 Y24.82 Z-1.538 I0 J0.37
X305 Y24.08 Z-1.731 I0 J-0.37
X305 Y24.82 Z-1.923 I0 J0.37
X305 Y24.08 Z-2.115 I0 J-0.37
X305 Y24.82 Z-2.308 I0 J0.37
X305 Y24.08 Z-2.5 I0 J-0.37
X305 Y24.82 Z-2.692 I0 J0.37
X305 Y24.08 Z-2.884 I0 J-0.37
X305 Y24.82 Z-3.077 I0 J0.37
X305 Y24.08 Z-3.269 I0 J-0.37
X305 Y24.82 Z-3.461 I0 J0.37
X305 Y24.08 Z-3.654 I0 J-0.37
X305 Y24.82 Z-3.846 I0 J0.37
X305 Y24.08 Z-4.038 I0 J-0.37
X305 Y24.82 Z-4.231 I0 J0.37
X305 Y24.08 Z-4.423 I0 J-0.37
X305 Y24.82 Z-4.615 I0 J0.37
X305 Y24.08 Z-4.807 I0 J-0.37
X305 Y24.82 Z-5 I0 J0.37
X305 Y24.08 Z-5.192 I0 J-0.37
X305 Y24.82 Z-5.384 I0 J0.37
X305 Y24.08 Z-5.577 I0 J-0.37
X305 Y24.82 Z-5.769 I0 J0.37
X305 Y24.08 Z-5.961 I0 J-0.37
X305 Y24.82 Z-6.154 I0 J0.37
X305 Y24.08 Z-6.346 I0 J-0.37
X305 Y24.82 Z-6.538 I0 J0.37
X305 Y24.08 Z-6.73 I0 J-0.37
X305 Y24.82 Z-6.923 I0 J0.37
X305 Y24.08 Z-7.115 I0 J-0.37
X305 Y24.82 Z-7.307 I0 J0.37
X304.63 Y24.449 Z-7.404 I0 J-0.37
X305.002 Y24.08 Z-7.5 I0.37 J0.001
X304.998 Y24.82 I-0.002 J0.37
X305.002 Y24.08 I0.002 J-0.37
X305.186 Y24.266 I-0.001 J0.185
G1 X305.185 Y24.504
Z5
X135.185 Y24.397
Z1.524
Z0 F50
Y24.635
G3 X135 Y24.82 I-0.185 J0
X135 Y24.08 Z-0.192 I0 J-0.37 F150
X135 Y24.82 Z-0.385 I0 J0.37
X135 Y24.08 Z-0.577 I0 J-0.37
X135 Y24.82 Z-0.769 I0 J0.37
X135 Y24.08 Z-0.961 I0 J-0.37
X135 Y24.82 Z-1.154 I0 J0.37
X135 Y24.08 Z-1.346 I0 J-0.37
X135 Y24.82 Z-1.538 I0 J0.37
X135 Y24.08 Z-1.731 I0 J-0.37
X135 Y24.82 Z-1.923 I0 J0.37
X135 Y24.08 Z-2.115 I0 J-0.37
X135 Y24.82 Z-2.308 I0 J0.37
X135 Y24.08 Z-2.5 I0 J-0.37
X135 Y24.82 Z-2.692 I0 J0.37
X135 Y24.08 Z-2.884 I0 J-0.37
X135 Y24.82 Z-3.077 I0 J0.37
X135 Y24.08 Z-3.269 I0 J-0.37
X135 Y24.82 Z-3.461 I0 J0.37
X135 Y24.08 Z-3.654 I0 J-0.37
X135 Y24.82 Z-3.846 I0 J0.37
X135 Y24.08 Z-4.038 I0 J-0.37
X135 Y24.82 Z-4.231 I0 J0.37
X135 Y24.08 Z-4.423 I0 J-0.37
X135 Y24.82 Z-4.615 I0 J0.37
X135 Y24.08 Z-4.807 I0 J-0.37
X135 Y24.82 Z-5 I0 J0.37
X135 Y24.08 Z-5.192 I0 J-0.37
X135 Y24.82 Z-5.384 I0 J0.37
X135 Y24.08 Z-5.577 I0 J-0.37
X135 Y24.82 Z-5.769 I0 J0.37
X135 Y24.08 Z-5.961 I0 J-0.37
X135 Y24.82 Z-6.154 I0 J0.37
X135 Y24.08 Z-6.346 I0 J-0.37
X135 Y24.82 Z-6.538 I0 J0.37
X135 Y24.08 Z-6.73 I0 J-0.37
X135 Y24.82 Z-6.923 I0 J0.37
X135 Y24.08 Z-7.115 I0 J-0.37
X135 Y24.82 Z-7.307 I0 J0.37
X134.63 Y24.449 Z-7.404 I0 J-0.37
X135.002 Y24.08 Z-7.5 I0.37 J0.001
X134.998 Y24.82 I-0.002 J0.37
X135.002 Y24.08 I0.002 J-0.37
X135.186 Y24.266 I-0.001 J0.185
G1 X135.185 Y24.504
Z5
Y64.397
Z1.524
Z0 F50
Y64.635
G3 X135 Y64.82 I-0.185 J0
X135 Y64.08 Z-0.192 I0 J-0.37 F150
X135 Y64.82 Z-0.385 I0 J0.37
X135 Y64.08 Z-0.577 I0 J-0.37
X135 Y64.82 Z-0.769 I0 J0.37
X135 Y64.08 Z-0.961 I0 J-0.37
X135 Y64.82 Z-1.154 I0 J0.37
X135 Y64.08 Z-1.346 I0 J-0.37
X135 Y64.82 Z-1.538 I0 J0.37
X135 Y64.08 Z-1.731 I0 J-0.37
X135 Y64.82 Z-1.923 I0 J0.37
X135 Y64.08 Z-2.115 I0 J-0.37
X135 Y64.82 Z-2.308 I0 J0.37
X135 Y64.08 Z-2.5 I0 J-0.37
X135 Y64.82 Z-2.692 I0 J0.37
X135 Y64.08 Z-2.884 I0 J-0.37
X135 Y64.82 Z-3.077 I0 J0.37
X135 Y64.08 Z-3.269 I0 J-0.37
X135 Y64.82 Z-3.461 I0 J0.37
X135 Y64.08 Z-3.654 I0 J-0.37
X135 Y64.82 Z-3.846 I0 J0.37
X135 Y64.08 Z-4.038 I0 J-0.37
X135 Y64.82 Z-4.231 I0 J0.37
X135 Y64.08 Z-4.423 I0 J-0.37
X135 Y64.82 Z-4.615 I0 J0.37
X135 Y64.08 Z-4.807 I0 J-0.37
X135 Y64.82 Z-5 I0 J0.37
X135 Y64.08 Z-5.192 I0 J-0.37
X135 Y64.82 Z-5.384 I0 J0.37
X135 Y64.08 Z-5.577 I0 J-0.37
X135 Y64.82 Z-5.769 I0 J0.37
X135 Y64.08 Z-5.961 I0 J-0.37
X135 Y64.82 Z-6.154 I0 J0.37
X135 Y64.08 Z-6.346 I0 J-0.37
X135 Y64.82 Z-6.538 I0 J0.37
X135 Y64.08 Z-6.73 I0 J-0.37
X135 Y64.82 Z-6.923 I0 J0.37
X135 Y64.08 Z-7.115 I0 J-0.37
X135 Y64.82 Z-7.307 I0 J0.37
X134.63 Y64.449 Z-7.404 I0 J-0.37
X135.002 Y64.08 Z-7.5 I0.37 J0.001
X134.998 Y64.82 I-0.002 J0.37
X135.002 Y64.08 I0.002 J-0.37
X135.186 Y64.266 I-0.001 J0.185
G1 X135.185 Y64.504
Z5
X13.923 Y67.967
Z1.524
Z0 F50
Y68.205
G3 X13.738 Y68.39 I-0.185 J0
X13.738 Y67.65 Z-0.192 I0 J-0.37 F150
X13.738 Y68.39 Z-0.385 I0 J0.37
X13.738 Y67.65 Z-0.577 I0 J-0.37
X13.738 Y68.39 Z-0.769 I0 J0.37
X13.738 Y67.65 Z-0.961 I0 J-0.37
X13.738 Y68.39 Z-1.154 I0 J0.37
X13.738 Y67.65 Z-1.346 I0 J-0.37
X13.738 Y68.39 Z-1.538 I0 J0.37
X13.738 Y67.65 Z-1.731 I0 J-0.37
X13.738 Y68.39 Z-1.923 I0 J0.37
X13.738 Y67.65 Z-2.115 I0 J-0.37
X13.738 Y68.39 Z-2.308 I0 J0.37
X13.738 Y67.65 Z-2.5 I0 J-0.37
X13.738 Y68.39 Z-2.692 I0 J0.37
X13.738 Y67.65 Z-2.884 I0 J-0.37
X13.738 Y68.39 Z-3.077 I0 J0.37
X13.738 Y67.65 Z-3.269 I0 J-0.37
X13.738 Y68.39 Z-3.461 I0 J0.37
X13.738 Y67.65 Z-3.654 I0 J-0.37
X13.738 Y68.39 Z-3.846 I0 J0.37
X13.738 Y67.65 Z-4.038 I0 J-0.37
X13.738 Y68.39 Z-4.231 I0 J0.37
X13.738 Y67.65 Z-4.423 I0 J-0.37
X13.738 Y68.39 Z-4.615 I0 J0.37
X13.738 Y67.65 Z-4.807 I0 J-0.37
X13.738 Y68.39 Z-5 I0 J0.37
X13.738 Y67.65 Z-5.192 I0 J-0.37
X13.738 Y68.39 Z-5.384 I0 J0.37
X13.738 Y67.65 Z-5.577 I0 J-0.37
X13.738 Y68.39 Z-5.769 I0 J0.37
X13.738 Y67.65 Z-5.961 I0 J-0.37
X13.738 Y68.39 Z-6.154 I0 J0.37
X13.738 Y67.65 Z-6.346 I0 J-0.37
X13.738 Y68.39 Z-6.538 I0 J0.37
X13.738 Y67.65 Z-6.73 I0 J-0.37
X13.738 Y68.39 Z-6.923 I0 J0.37
X13.738 Y67.65 Z-7.115 I0 J-0.37
X13.738 Y68.39 Z-7.307 I0 J0.37
X13.368 Y68.019 Z-7.404 I0 J-0.37
X13.74 Y67.65 Z-7.5 I0.37 J0.001
X13.736 Y68.39 I-0.002 J0.37
X13.74 Y67.65 I0.002 J-0.37
X13.924 Y67.836 I-0.001 J0.185
G1 X13.922 Y68.074
Z5
X61.063 Y67.967
Z1.524
Z0 F50
Y68.205
G3 X60.878 Y68.39 I-0.185 J0
X60.878 Y67.65 Z-0.192 I0 J-0.37 F150
X60.878 Y68.39 Z-0.385 I0 J0.37
X60.878 Y67.65 Z-0.577 I0 J-0.37
X60.878 Y68.39 Z-0.769 I0 J0.37
X60.878 Y67.65 Z-0.961 I0 J-0.37
X60.878 Y68.39 Z-1.154 I0 J0.37
X60.878 Y67.65 Z-1.346 I0 J-0.37
X60.878 Y68.39 Z-1.538 I0 J0.37
X60.878 Y67.65 Z-1.731 I0 J-0.37
X60.878 Y68.39 Z-1.923 I0 J0.37
X60.878 Y67.65 Z-2.115 I0 J-0.37
X60.878 Y68.39 Z-2.308 I0 J0.37
X60.878 Y67.65 Z-2.5 I0 J-0.37
X60.878 Y68.39 Z-2.692 I0 J0.37
X60.878 Y67.65 Z-2.884 I0 J-0.37
X60.878 Y68.39 Z-3.077 I0 J0.37
X60.878 Y67.65 Z-3.269 I0 J-0.37
X60.878 Y68.39 Z-3.461 I0 J0.37
X60.878 Y67.65 Z-3.654 I0 J-0.37
X60.878 Y68.39 Z-3.846 I0 J0.37
X60.878 Y67.65 Z-4.038 I0 J-0.37
X60.878 Y68.39 Z-4.231 I0 J0.37
X60.878 Y67.65 Z-4.423 I0 J-0.37
X60.878 Y68.39 Z-4.615 I0 J0.37
X60.878 Y67.65 Z-4.807 I0 J-0.37
X60.878 Y68.39 Z-5 I0 J0.37
X60.878 Y67.65 Z-5.192 I0 J-0.37
X60.878 Y68.39 Z-5.384 I0 J0.37
X60.878 Y67.65 Z-5.577 I0 J-0.37
X60.878 Y68.39 Z-5.769 I0 J0.37
X60.878 Y67.65 Z-5.961 I0 J-0.37
X60.878 Y68.39 Z-6.154 I0 J0.37
X60.878 Y67.65 Z-6.346 I0 J-0.37
X60.878 Y68.39 Z-6.538 I0 J0.37
X60.878 Y67.65 Z-6.73 I0 J-0.37
X60.878 Y68.39 Z-6.923 I0 J0.37
X60.878 Y67.65 Z-7.115 I0 J-0.37
X60.878 Y68.39 Z-7.307 I0 J0.37
X60.508 Y68.019 Z-7.404 I0 J-0.37
X60.88 Y67.65 Z-7.5 I0.37 J0.001
X60.876 Y68.39 I-0.002 J0.37
X60.88 Y67.65 I0.002 J-0.37
X61.064 Y67.836 I-0.001 J0.185
G1 X61.062 Y68.074
Z5
X61.063 Y20.827
Z1.524
Z0 F50
Y21.065
G3 X60.878 Y21.25 I-0.185 J0
X60.878 Y20.51 Z-0.192 I0 J-0.37 F150
X60.878 Y21.25 Z-0.385 I0 J0.37
X60.878 Y20.51 Z-0.577 I0 J-0.37
X60.878 Y21.25 Z-0.769 I0 J0.37
X60.878 Y20.51 Z-0.961 I0 J-0.37
X60.878 Y21.25 Z-1.154 I0 J0.37
X60.878 Y20.51 Z-1.346 I0 J-0.37
X60.878 Y21.25 Z-1.538 I0 J0.37
X60.878 Y20.51 Z-1.731 I0 J-0.37
X60.878 Y21.25 Z-1.923 I0 J0.37
X60.878 Y20.51 Z-2.115 I0 J-0.37
X60.878 Y21.25 Z-2.308 I0 J0.37
X60.878 Y20.51 Z-2.5 I0 J-0.37
X60.878 Y21.25 Z-2.692 I0 J0.37
X60.878 Y20.51 Z-2.884 I0 J-0.37
X60.878 Y21.25 Z-3.077 I0 J0.37
X60.878 Y20.51 Z-3.269 I0 J-0.37
X60.878 Y21.25 Z-3.461 I0 J0.37
X60.878 Y20.51 Z-3.654 I0 J-0.37
X60.878 Y21.25 Z-3.846 I0 J0.37
X60.878 Y20.51 Z-4.038 I0 J-0.37
X60.878 Y21.25 Z-4.231 I0 J0.37
X60.878 Y20.51 Z-4.423 I0 J-0.37
X60.878 Y21.25 Z-4.615 I0 J0.37
X60.878 Y20.51 Z-4.807 I0 J-0.37
X60.878 Y21.25 Z-5 I0 J0.37
X60.878 Y20.51 Z-5.192 I0 J-0.37
X60.878 Y21.25 Z-5.384 I0 J0.37
X60.878 Y20.51 Z-5.577 I0 J-0.37
X60.878 Y21.25 Z-5.769 I0 J0.37
X60.878 Y20.51 Z-5.961 I0 J-0.37
X60.878 Y21.25 Z-6.154 I0 J0.37
X60.878 Y20.51 Z-6.346 I0 J-0.37
X60.878 Y21.25 Z-6.538 I0 J0.37
X60.878 Y20.51 Z-6.73 I0 J-0.37
X60.878 Y21.25 Z-6.923 I0 J0.37
X60.878 Y20.51 Z-7.115 I0 J-0.37
X60.878 Y21.25 Z-7.307 I0 J0.37
X60.508 Y20.879 Z-7.404 I0 J-0.37
X60.88 Y20.51 Z-7.5 I0.37 J0.001
X60.876 Y21.25 I-0.002 J0.37
X60.88 Y20.51 I0.002 J-0.37
X61.064 Y20.696 I-0.001 J0.185
G1 X61.062 Y20.934
Z5
X13.923 Y20.827
Z1.524
Z0 F50
Y21.065
G3 X13.738 Y21.25 I-0.185 J0
X13.738 Y20.51 Z-0.192 I0 J-0.37 F150
X13.738 Y21.25 Z-0.385 I0 J0.37
X13.738 Y20.51 Z-0.577 I0 J-0.37
X13.738 Y21.25 Z-0.769 I0 J0.37
X13.738 Y20.51 Z-0.961 I0 J-0.37
X13.738 Y21.25 Z-1.154 I0 J0.37
X13.738 Y20.51 Z-1.346 I0 J-0.37
X13.738 Y21.25 Z-1.538 I0 J0.37
X13.738 Y20.51 Z-1.731 I0 J-0.37
X13.738 Y21.25 Z-1.923 I0 J0.37
X13.738 Y20.51 Z-2.115 I0 J-0.37
X13.738 Y21.25 Z-2.308 I0 J0.37
X13.738 Y20.51 Z-2.5 I0 J-0.37
X13.738 Y21.25 Z-2.692 I0 J0.37
X13.738 Y20.51 Z-2.884 I0 J-0.37
X13.738 Y21.25 Z-3.077 I0 J0.37
X13.738 Y20.51 Z-3.269 I0 J-0.37
X13.738 Y21.25 Z-3.461 I0 J0.37
X13.738 Y20.51 Z-3.654 I0 J-0.37
X13.738 Y21.25 Z-3.846 I0 J0.37
X13.738 Y20.51 Z-4.038 I0 J-0.37
X13.738 Y21.25 Z-4.231 I0 J0.37
X13.738 Y20.51 Z-4.423 I0 J-0.37
X13.738 Y21.25 Z-4.615 I0 J0.37
X13.738 Y20.51 Z-4.807 I0 J-0.37
X13.738 Y21.25 Z-5 I0 J0.37
X13.738 Y20.51 Z-5.192 I0 J-0.37
X13.738 Y21.25 Z-5.384 I0 J0.37
X13.738 Y20.51 Z-5.577 I0 J-0.37
X13.738 Y21.25 Z-5.769 I0 J0.37
X13.738 Y20.51 Z-5.961 I0 J-0.37
X13.738 Y21.25 Z-6.154 I0 J0.37
X13.738 Y20.51 Z-6.346 I0 J-0.37
X13.738 Y21.25 Z-6.538 I0 J0.37
X13.738 Y20.51 Z-6.73 I0 J-0.37
X13.738 Y21.25 Z-6.923 I0 J0.37
X13.738 Y20.51 Z-7.115 I0 J-0.37
X13.738 Y21.25 Z-7.307 I0 J0.37
X13.368 Y20.879 Z-7.404 I0 J-0.37
X13.74 Y20.51 Z-7.5 I0.37 J0.001
X13.736 Y21.25 I-0.002 J0.37
X13.74 Y20.51 I0.002 J-0.37
X13.924 Y20.696 I-0.001 J0.185
G1 X13.922 Y20.934
Z15
(When using Fusion for Personal Use, the feedrate of rapid)
(moves is reduced to match the feedrate of cutting moves,)
(which can increase machining time. Unrestricted rapid moves)
(are available with a Fusion Subscription.)

(2D Contour2)
G0 X86.895 Y42.363
G1 Z6 F150
Z0.952
Z-1.024 F50
X86.9 Y42.368 Z-1.107
X86.915 Y42.383 Z-1.187
X86.94 Y42.408 Z-1.262
X86.974 Y42.441 Z-1.33
X87.015 Y42.483 Z-1.389
X87.063 Y42.531 Z-1.436
X87.116 Y42.584 Z-1.471
X87.173 Y42.641 Z-1.493
X87.231 Y42.699 Z-1.5
X88.646 Y44.113
G3 X88.785 Y44.45 I-0.337 J0.337
X81.215 Y44.45 I-3.785 J0 F150
X88.785 Y44.45 I3.785 J0
X88.646 Y44.787 I-0.476 J0
G1 X87.231 Y46.201
X87.173 Y46.259 Z-1.493
X87.116 Y46.316 Z-1.471
X87.063 Y46.369 Z-1.436
X87.015 Y46.417 Z-1.389
X86.974 Y46.459 Z-1.33
X86.94 Y46.492 Z-1.262
X86.915 Y46.517 Z-1.187
X86.9 Y46.532 Z-1.107
X86.895 Y46.537 Z-1.024
Z1
Y42.363
Z0.33
Z-0.548 F50
Z-2.524
X86.9 Y42.368 Z-2.607
X86.915 Y42.383 Z-2.687
X86.94 Y42.408 Z-2.762
X86.974 Y42.441 Z-2.83
X87.015 Y42.483 Z-2.889
X87.063 Y42.531 Z-2.936
X87.116 Y42.584 Z-2.971
X87.173 Y42.641 Z-2.993
X87.231 Y42.699 Z-3
X88.646 Y44.113
G3 X88.785 Y44.45 I-0.337 J0.337
X81.215 Y44.45 I-3.785 J0 F150
X88.785 Y44.45 I3.785 J0
X88.646 Y44.787 I-0.476 J0
G1 X87.231 Y46.201
X87.173 Y46.259 Z-2.993
X87.116 Y46.316 Z-2.971
X87.063 Y46.369 Z-2.936
X87.015 Y46.417 Z-2.889
X86.974 Y46.459 Z-2.83
X86.94 Y46.492 Z-2.762
X86.915 Y46.517 Z-2.687
X86.9 Y46.532 Z-2.607
X86.895 Y46.537 Z-2.524
Z1
Y42.363
Z0.33
Z-2.048 F50
Z-4.024
X86.9 Y42.368 Z-4.107
X86.915 Y42.383 Z-4.187
X86.94 Y42.408 Z-4.262
X86.974 Y42.441 Z-4.33
X87.015 Y42.483 Z-4.389
X87.063 Y42.531 Z-4.436
X87.116 Y42.584 Z-4.471
X87.173 Y42.641 Z-4.493
X87.231 Y42.699 Z-4.5
X88.646 Y44.113
G3 X88.785 Y44.45 I-0.337 J0.337
X81.215 Y44.45 I-3.785 J0 F150
X88.785 Y44.45 I3.785 J0
X88.646 Y44.787 I-0.476 J0
G1 X87.231 Y46.201
X87.173 Y46.259 Z-4.493
X87.116 Y46.316 Z-4.471
X87.063 Y46.369 Z-4.436
X87.015 Y46.417 Z-4.389
X86.974 Y46.459 Z-4.33
X86.94 Y46.492 Z-4.262
X86.915 Y46.517 Z-4.187
X86.9 Y46.532 Z-4.107
X86.895 Y46.537 Z-4.024
Z1
Y42.363
Z0.33
Z-3.548 F50
Z-5.524
X86.9 Y42.368 Z-5.607
X86.915 Y42.383 Z-5.687
X86.94 Y42.408 Z-5.762
X86.974 Y42.441 Z-5.83
X87.015 Y42.483 Z-5.889
X87.063 Y42.531 Z-5.936
X87.116 Y42.584 Z-5.971
X87.173 Y42.641 Z-5.993
X87.231 Y42.699 Z-6
X88.646 Y44.113
G3 X88.785 Y44.45 I-0.337 J0.337
X81.215 Y44.45 I-3.785 J0 F150
X88.785 Y44.45 I3.785 J0
X88.646 Y44.787 I-0.476 J0
G1 X87.231 Y46.201
X87.173 Y46.259 Z-5.993
X87.116 Y46.316 Z-5.971
X87.063 Y46.369 Z-5.936
X87.015 Y46.417 Z-5.889
X86.974 Y46.459 Z-5.83
X86.94 Y46.492 Z-5.762
X86.915 Y46.517 Z-5.687
X86.9 Y46.532 Z-5.607
X86.895 Y46.537 Z-5.524
Z1
Y42.363
Z0.33
Z-5.048 F50
Z-7.024
X86.9 Y42.368 Z-7.107
X86.915 Y42.383 Z-7.187
X86.94 Y42.408 Z-7.262
X86.974 Y42.441 Z-7.33
X87.015 Y42.483 Z-7.389
X87.063 Y42.531 Z-7.436
X87.116 Y42.584 Z-7.471
X87.173 Y42.641 Z-7.493
X87.231 Y42.699 Z-7.5
X88.646 Y44.113
G3 X88.785 Y44.45 I-0.337 J0.337
X81.215 Y44.45 I-3.785 J0 F150
X88.785 Y44.45 I3.785 J0
X88.646 Y44.787 I-0.476 J0
G1 X87.231 Y46.201
X87.173 Y46.259 Z-7.493
X87.116 Y46.316 Z-7.471
X87.063 Y46.369 Z-7.436
X87.015 Y46.417 Z-7.389
X86.974 Y46.459 Z-7.33
X86.94 Y46.492 Z-7.262
X86.915 Y46.517 Z-7.187
X86.9 Y46.532 Z-7.107
X86.895 Y46.537 Z-7.024
Z1
X54.73 Y42.363
Z0.952
Z-1.024 F50
X54.735 Y42.368 Z-1.107
X54.75 Y42.383 Z-1.187
X54.775 Y42.408 Z-1.262
X54.809 Y42.441 Z-1.33
X54.85 Y42.483 Z-1.389
X54.898 Y42.531 Z-1.436
X54.951 Y42.584 Z-1.471
X55.008 Y42.641 Z-1.493
X55.066 Y42.699 Z-1.5
X56.481 Y44.113
G3 X56.62 Y44.45 I-0.337 J0.337
X18.38 Y44.45 I-19.12 J0 F150
X56.62 Y44.45 I19.12 J0
X56.481 Y44.787 I-0.476 J0
G1 X55.066 Y46.201
X55.008 Y46.259 Z-1.493
X54.951 Y46.316 Z-1.471
X54.898 Y46.369 Z-1.436
X54.85 Y46.417 Z-1.389
X54.809 Y46.459 Z-1.33
X54.775 Y46.492 Z-1.262
X54.75 Y46.517 Z-1.187
X54.735 Y46.532 Z-1.107
X54.73 Y46.537 Z-1.024
Z1
Y42.363
Z0.33
Z-0.548 F50
Z-2.524
X54.735 Y42.368 Z-2.607
X54.75 Y42.383 Z-2.687
X54.775 Y42.408 Z-2.762
X54.809 Y42.441 Z-2.83
X54.85 Y42.483 Z-2.889
X54.898 Y42.531 Z-2.936
X54.951 Y42.584 Z-2.971
X55.008 Y42.641 Z-2.993
X55.066 Y42.699 Z-3
X56.481 Y44.113
G3 X56.62 Y44.45 I-0.337 J0.337
X18.38 Y44.45 I-19.12 J0 F150
X56.62 Y44.45 I19.12 J0
X56.481 Y44.787 I-0.476 J0
G1 X55.066 Y46.201
X55.008 Y46.259 Z-2.993
X54.951 Y46.316 Z-2.971
X54.898 Y46.369 Z-2.936
X54.85 Y46.417 Z-2.889
X54.809 Y46.459 Z-2.83
X54.775 Y46.492 Z-2.762
X54.75 Y46.517 Z-2.687
X54.735 Y46.532 Z-2.607
X54.73 Y46.537 Z-2.524
Z1
Y42.363
Z0.33
Z-2.048 F50
Z-4.024
X54.735 Y42.368 Z-4.107
X54.75 Y42.383 Z-4.187
X54.775 Y42.408 Z-4.262
X54.809 Y42.441 Z-4.33
X54.85 Y42.483 Z-4.389
X54.898 Y42.531 Z-4.436
X54.951 Y42.584 Z-4.471
X55.008 Y42.641 Z-4.493
X55.066 Y42.699 Z-4.5
X56.481 Y44.113
G3 X56.62 Y44.45 I-0.337 J0.337
X18.38 Y44.45 I-19.12 J0 F150
X56.62 Y44.45 I19.12 J0
X56.481 Y44.787 I-0.476 J0
G1 X55.066 Y46.201
X55.008 Y46.259 Z-4.493
X54.951 Y46.316 Z-4.471
X54.898 Y46.369 Z-4.436
X54.85 Y46.417 Z-4.389
X54.809 Y46.459 Z-4.33
X54.775 Y46.492 Z-4.262
X54.75 Y46.517 Z-4.187
X54.735 Y46.532 Z-4.107
X54.73 Y46.537 Z-4.024
Z1
Y42.363
Z0.33
Z-3.548 F50
Z-5.524
X54.735 Y42.368 Z-5.607
X54.75 Y42.383 Z-5.687
X54.775 Y42.408 Z-5.762
X54.809 Y42.441 Z-5.83
X54.85 Y42.483 Z-5.889
X54.898 Y42.531 Z-5.936
X54.951 Y42.584 Z-5.971
X55.008 Y42.641 Z-5.993
X55.066 Y42.699 Z-6
X56.481 Y44.113
G3 X56.62 Y44.45 I-0.337 J0.337
X18.38 Y44.45 I-19.12 J0 F150
X56.62 Y44.45 I19.12 J0
X56.481 Y44.787 I-0.476 J0
G1 X55.066 Y46.201
X55.008 Y46.259 Z-5.993
X54.951 Y46.316 Z-5.971
X54.898 Y46.369 Z-5.936
X54.85 Y46.417 Z-5.889
X54.809 Y46.459 Z-5.83
X54.775 Y46.492 Z-5.762
X54.75 Y46.517 Z-5.687
X54.735 Y46.532 Z-5.607
X54.73 Y46.537 Z-5.524
Z1
Y42.363
Z0.33
Z-5.048 F50
Z-7.024
X54.735 Y42.368 Z-7.107
X54.75 Y42.383 Z-7.187
X54.775 Y42.408 Z-7.262
X54.809 Y42.441 Z-7.33
X54.85 Y42.483 Z-7.389
X54.898 Y42.531 Z-7.436
X54.951 Y42.584 Z-7.471
X55.008 Y42.641 Z-7.493
X55.066 Y42.699 Z-7.5
X56.481 Y44.113
G3 X56.62 Y44.45 I-0.337 J0.337
X18.38 Y44.45 I-19.12 J0 F150
X56.62 Y44.45 I19.12 J0
X56.481 Y44.787 I-0.476 J0
G1 X55.066 Y46.201
X55.008 Y46.259 Z-7.493
X54.951 Y46.316 Z-7.471
X54.898 Y46.369 Z-7.436
X54.85 Y46.417 Z-7.389
X54.809 Y46.459 Z-7.33
X54.775 Y46.492 Z-7.262
X54.75 Y46.517 Z-7.187
X54.735 Y46.532 Z-7.107
X54.73 Y46.537 Z-7.024
Z1
X526.495 Y42.363
Z0.952
Z-1.024 F50
X526.5 Y42.368 Z-1.107
X526.515 Y42.383 Z-1.187
X526.54 Y42.408 Z-1.262
X526.574 Y42.441 Z-1.33
X526.615 Y42.483 Z-1.389
X526.663 Y42.531 Z-1.436
X526.716 Y42.584 Z-1.471
X526.773 Y42.641 Z-1.493
X526.831 Y42.699 Z-1.5
X528.246 Y44.113
G3 X528.385 Y44.45 I-0.337 J0.337
X520.815 Y44.45 I-3.785 J0 F150
X528.385 Y44.45 I3.785 J0
X528.246 Y44.787 I-0.476 J0
G1 X526.831 Y46.201
X526.773 Y46.259 Z-1.493
X526.716 Y46.316 Z-1.471
X526.663 Y46.369 Z-1.436
X526.615 Y46.417 Z-1.389
X526.574 Y46.459 Z-1.33
X526.54 Y46.492 Z-1.262
X526.515 Y46.517 Z-1.187
X526.5 Y46.532 Z-1.107
X526.495 Y46.537 Z-1.024
Z1
Y42.363
Z0.33
Z-0.548 F50
Z-2.524
X526.5 Y42.368 Z-2.607
X526.515 Y42.383 Z-2.687
X526.54 Y42.408 Z-2.762
X526.574 Y42.441 Z-2.83
X526.615 Y42.483 Z-2.889
X526.663 Y42.531 Z-2.936
X526.716 Y42.584 Z-2.971
X526.773 Y42.641 Z-2.993
X526.831 Y42.699 Z-3
X528.246 Y44.113
G3 X528.385 Y44.45 I-0.337 J0.337
X520.815 Y44.45 I-3.785 J0 F150
X528.385 Y44.45 I3.785 J0
X528.246 Y44.787 I-0.476 J0
G1 X526.831 Y46.201
X526.773 Y46.259 Z-2.993
X526.716 Y46.316 Z-2.971
X526.663 Y46.369 Z-2.936
X526.615 Y46.417 Z-2.889
X526.574 Y46.459 Z-2.83
X526.54 Y46.492 Z-2.762
X526.515 Y46.517 Z-2.687
X526.5 Y46.532 Z-2.607
X526.495 Y46.537 Z-2.524
Z1
Y42.363
Z0.33
Z-2.048 F50
Z-4.024
X526.5 Y42.368 Z-4.107
X526.515 Y42.383 Z-4.187
X526.54 Y42.408 Z-4.262
X526.574 Y42.441 Z-4.33
X526.615 Y42.483 Z-4.389
X526.663 Y42.531 Z-4.436
X526.716 Y42.584 Z-4.471
X526.773 Y42.641 Z-4.493
X526.831 Y42.699 Z-4.5
X528.246 Y44.113
G3 X528.385 Y44.45 I-0.337 J0.337
X520.815 Y44.45 I-3.785 J0 F150
X528.385 Y44.45 I3.785 J0
X528.246 Y44.787 I-0.476 J0
G1 X526.831 Y46.201
X526.773 Y46.259 Z-4.493
X526.716 Y46.316 Z-4.471
X526.663 Y46.369 Z-4.436
X526.615 Y46.417 Z-4.389
X526.574 Y46.459 Z-4.33
X526.54 Y46.492 Z-4.262
X526.515 Y46.517 Z-4.187
X526.5 Y46.532 Z-4.107
X526.495 Y46.537 Z-4.024
Z1
Y42.363
Z0.33
Z-3.548 F50
Z-5.524
X526.5 Y42.368 Z-5.607
X526.515 Y42.383 Z-5.687
X526.54 Y42.408 Z-5.762
X526.574 Y42.441 Z-5.83
X526.615 Y42.483 Z-5.889
X526.663 Y42.531 Z-5.936
X526.716 Y42.584 Z-5.971
X526.773 Y42.641 Z-5.993
X526.831 Y42.699 Z-6
X528.246 Y44.113
G3 X528.385 Y44.45 I-0.337 J0.337
X520.815 Y44.45 I-3.785 J0 F150
X528.385 Y44.45 I3.785 J0
X528.246 Y44.787 I-0.476 J0
G1 X526.831 Y46.201
X526.773 Y46.259 Z-5.993
X526.716 Y46.316 Z-5.971
X526.663 Y46.369 Z-5.936
X526.615 Y46.417 Z-5.889
X526.574 Y46.459 Z-5.83
X526.54 Y46.492 Z-5.762
X526.515 Y46.517 Z-5.687
X526.5 Y46.532 Z-5.607
X526.495 Y46.537 Z-5.524
Z1
Y42.363
Z0.33
Z-5.048 F50
Z-7.024
X526.5 Y42.368 Z-7.107
X526.515 Y42.383 Z-7.187
X526.54 Y42.408 Z-7.262
X526.574 Y42.441 Z-7.33
X526.615 Y42.483 Z-7.389
X526.663 Y42.531 Z-7.436
X526.716 Y42.584 Z-7.471
X526.773 Y42.641 Z-7.493
X526.831 Y42.699 Z-7.5
X528.246 Y44.113
G3 X528.385 Y44.45 I-0.337 J0.337
X520.815 Y44.45 I-3.785 J0 F150
X528.385 Y44.45 I3.785 J0
X528.246 Y44.787 I-0.476 J0
G1 X526.831 Y46.201
X526.773 Y46.259 Z-7.493
X526.716 Y46.316 Z-7.471
X526.663 Y46.369 Z-7.436
X526.615 Y46.417 Z-7.389
X526.574 Y46.459 Z-7.33
X526.54 Y46.492 Z-7.262
X526.515 Y46.517 Z-7.187
X526.5 Y46.532 Z-7.107
X526.495 Y46.537 Z-7.024
Z1
X589.33 Y42.363
Z0.952
Z-1.024 F50
X589.335 Y42.368 Z-1.107
X589.35 Y42.383 Z-1.187
X589.375 Y42.408 Z-1.262
X589.409 Y42.441 Z-1.33
X589.45 Y42.483 Z-1.389
X589.498 Y42.531 Z-1.436
X589.551 Y42.584 Z-1.471
X589.608 Y42.641 Z-1.493
X589.666 Y42.699 Z-1.5
X591.081 Y44.113
G3 X591.22 Y44.45 I-0.337 J0.337
X552.98 Y44.45 I-19.12 J0 F150
X591.22 Y44.45 I19.12 J0
X591.081 Y44.787 I-0.476 J0
G1 X589.666 Y46.201
X589.608 Y46.259 Z-1.493
X589.551 Y46.316 Z-1.471
X589.498 Y46.369 Z-1.436
X589.45 Y46.417 Z-1.389
X589.409 Y46.459 Z-1.33
X589.375 Y46.492 Z-1.262
X589.35 Y46.517 Z-1.187
X589.335 Y46.532 Z-1.107
X589.33 Y46.537 Z-1.024
Z1
Y42.363
Z0.33
Z-0.548 F50
Z-2.524
X589.335 Y42.368 Z-2.607
X589.35 Y42.383 Z-2.687
X589.375 Y42.408 Z-2.762
X589.409 Y42.441 Z-2.83
X589.45 Y42.483 Z-2.889
X589.498 Y42.531 Z-2.936
X589.551 Y42.584 Z-2.971
X589.608 Y42.641 Z-2.993
X589.666 Y42.699 Z-3
X591.081 Y44.113
G3 X591.22 Y44.45 I-0.337 J0.337
X552.98 Y44.45 I-19.12 J0 F150
X591.22 Y44.45 I19.12 J0
X591.081 Y44.787 I-0.476 J0
G1 X589.666 Y46.201
X589.608 Y46.259 Z-2.993
X589.551 Y46.316 Z-2.971
X589.498 Y46.369 Z-2.936
X589.45 Y46.417 Z-2.889
X589.409 Y46.459 Z-2.83
X589.375 Y46.492 Z-2.762
X589.35 Y46.517 Z-2.687
X589.335 Y46.532 Z-2.607
X589.33 Y46.537 Z-2.524
Z1
Y42.363
Z0.33
Z-2.048 F50
Z-4.024
X589.335 Y42.368 Z-4.107
X589.35 Y42.383 Z-4.187
X589.375 Y42.408 Z-4.262
X589.409 Y42.441 Z-4.33
X589.45 Y42.483 Z-4.389
X589.498 Y42.531 Z-4.436
X589.551 Y42.584 Z-4.471
X589.608 Y42.641 Z-4.493
X589.666 Y42.699 Z-4.5
X591.081 Y44.113
G3 X591.22 Y44.45 I-0.337 J0.337
X552.98 Y44.45 I-19.12 J0 F150
X591.22 Y44.45 I19.12 J0
X591.081 Y44.787 I-0.476 J0
G1 X589.666 Y46.201
X589.608 Y46.259 Z-4.493
X589.551 Y46.316 Z-4.471
X589.498 Y46.369 Z-4.436
X589.45 Y46.417 Z-4.389
X589.409 Y46.459 Z-4.33
X589.375 Y46.492 Z-4.262
X589.35 Y46.517 Z-4.187
X589.335 Y46.532 Z-4.107
X589.33 Y46.537 Z-4.024
Z1
Y42.363
Z0.33
Z-3.548 F50
Z-5.524
X589.335 Y42.368 Z-5.607
X589.35 Y42.383 Z-5.687
X589.375 Y42.408 Z-5.762
X589.409 Y42.441 Z-5.83
X589.45 Y42.483 Z-5.889
X589.498 Y42.531 Z-5.936
X589.551 Y42.584 Z-5.971
X589.608 Y42.641 Z-5.993
X589.666 Y42.699 Z-6
X591.081 Y44.113
G3 X591.22 Y44.45 I-0.337 J0.337
X552.98 Y44.45 I-19.12 J0 F150
X591.22 Y44.45 I19.12 J0
X591.081 Y44.787 I-0.476 J0
G1 X589.666 Y46.201
X589.608 Y46.259 Z-5.993
X589.551 Y46.316 Z-5.971
X589.498 Y46.369 Z-5.936
X589.45 Y46.417 Z-5.889
X589.409 Y46.459 Z-5.83
X589.375 Y46.492 Z-5.762
X589.35 Y46.517 Z-5.687
X589.335 Y46.532 Z-5.607
X589.33 Y46.537 Z-5.524
Z1
Y42.363
Z0.33
Z-5.048 F50
Z-7.024
X589.335 Y42.368 Z-7.107
X589.35 Y42.383 Z-7.187
X589.375 Y42.408 Z-7.262
X589.409 Y42.441 Z-7.33
X589.45 Y42.483 Z-7.389
X589.498 Y42.531 Z-7.436
X589.551 Y42.584 Z-7.471
X589.608 Y42.641 Z-7.493
X589.666 Y42.699 Z-7.5
X591.081 Y44.113
G3 X591.22 Y44.45 I-0.337 J0.337
X552.98 Y44.45 I-19.12 J0 F150
X591.22 Y44.45 I19.12 J0
X591.081 Y44.787 I-0.476 J0
G1 X589.666 Y46.201
X589.608 Y46.259 Z-7.493
X589.551 Y46.316 Z-7.471
X589.498 Y46.369 Z-7.436
X589.45 Y46.417 Z-7.389
X589.409 Y46.459 Z-7.33
X589.375 Y46.492 Z-7.262
X589.35 Y46.517 Z-7.187
X589.335 Y46.532 Z-7.107
X589.33 Y46.537 Z-7.024
Z6
(When using Fusion for Personal Use, the feedrate of rapid)
(moves is reduced to match the feedrate of cutting moves,)
(which can increase machining time. Unrestricted rapid moves)
(are available with a Fusion Subscription.)

(2D Contour3)
G0 X570.598 Y93.429
G1 Z6 F150
Z0.952
Z-1.024 F50
X570.602 Y93.423 Z-1.107
X570.615 Y93.406 Z-1.187
X570.636 Y93.378 Z-1.262
X570.664 Y93.34 Z-1.33
X570.699 Y93.293 Z-1.389
X570.74 Y93.238 Z-1.436
X570.785 Y93.178 Z-1.471
X570.832 Y93.113 Z-1.493
X570.882 Y93.047 Z-1.5
X572.074 Y91.442
G3 X572.387 Y91.255 I0.382 J0.284
G2 X611.979 Y46.371 I-6.762 J-45.869 F150
G1 X611.98 Y46.321
Y40.622
X611.978 Y40.516
G2 X572.358 Y-2.362 I-45.198 J2.02
G3 X572.042 Y-2.542 I0.059 J-0.472
G1 X570.813 Y-4.119
X570.762 Y-4.185 Z-1.493
X570.713 Y-4.248 Z-1.471
X570.666 Y-4.307 Z-1.436
X570.625 Y-4.361 Z-1.389
X570.589 Y-4.407 Z-1.33
X570.559 Y-4.445 Z-1.262
X570.538 Y-4.472 Z-1.187
X570.525 Y-4.489 Z-1.107
X570.52 Y-4.495 Z-1.024
Z1
X570.598 Y93.429
Z0.33
Z-0.548 F50
Z-2.524
X570.602 Y93.423 Z-2.607
X570.615 Y93.406 Z-2.687
X570.636 Y93.378 Z-2.762
X570.664 Y93.34 Z-2.83
X570.699 Y93.293 Z-2.889
X570.74 Y93.238 Z-2.936
X570.785 Y93.178 Z-2.971
X570.832 Y93.113 Z-2.993
X570.882 Y93.047 Z-3
X572.074 Y91.442
G3 X572.387 Y91.255 I0.382 J0.284
G2 X611.979 Y46.371 I-6.762 J-45.869 F150
G1 X611.98 Y46.321
Y40.622
X611.978 Y40.516
G2 X572.358 Y-2.362 I-45.198 J2.02
G3 X572.042 Y-2.542 I0.059 J-0.472
G1 X570.813 Y-4.119
X570.762 Y-4.185 Z-2.993
X570.713 Y-4.248 Z-2.971
X570.666 Y-4.307 Z-2.936
X570.625 Y-4.361 Z-2.889
X570.589 Y-4.407 Z-2.83
X570.559 Y-4.445 Z-2.762
X570.538 Y-4.472 Z-2.687
X570.525 Y-4.489 Z-2.607
X570.52 Y-4.495 Z-2.524
Z1
X570.598 Y93.429
Z0.33
Z-2.048 F50
Z-4.024
X570.602 Y93.423 Z-4.107
X570.615 Y93.406 Z-4.187
X570.636 Y93.378 Z-4.262
X570.664 Y93.34 Z-4.33
X570.699 Y93.293 Z-4.389
X570.74 Y93.238 Z-4.436
X570.785 Y93.178 Z-4.471
X570.832 Y93.113 Z-4.493
X570.882 Y93.047 Z-4.5
X572.074 Y91.442
G3 X572.387 Y91.255 I0.382 J0.284
G2 X611.979 Y46.371 I-6.762 J-45.869 F150
G1 X611.98 Y46.321
Y40.622
X611.978 Y40.516
G2 X572.358 Y-2.362 I-45.198 J2.02
G3 X572.042 Y-2.542 I0.059 J-0.472
G1 X570.813 Y-4.119
X570.762 Y-4.185 Z-4.493
X570.713 Y-4.248 Z-4.471
X570.666 Y-4.307 Z-4.436
X570.625 Y-4.361 Z-4.389
X570.589 Y-4.407 Z-4.33
X570.559 Y-4.445 Z-4.262
X570.538 Y-4.472 Z-4.187
X570.525 Y-4.489 Z-4.107
X570.52 Y-4.495 Z-4.024
Z1
X570.598 Y93.429
Z0.33
Z-3.548 F50
Z-5.524
X570.602 Y93.423 Z-5.607
X570.615 Y93.406 Z-5.687
X570.636 Y93.378 Z-5.762
X570.664 Y93.34 Z-5.83
X570.699 Y93.293 Z-5.889
X570.74 Y93.238 Z-5.936
X570.785 Y93.178 Z-5.971
X570.832 Y93.113 Z-5.993
X570.882 Y93.047 Z-6
X572.074 Y91.442
G3 X572.387 Y91.255 I0.382 J0.284
G2 X611.979 Y46.371 I-6.762 J-45.869 F150
G1 X611.98 Y46.321
Y40.622
X611.978 Y40.516
G2 X572.358 Y-2.362 I-45.198 J2.02
G3 X572.042 Y-2.542 I0.059 J-0.472
G1 X570.813 Y-4.119
X570.762 Y-4.185 Z-5.993
X570.713 Y-4.248 Z-5.971
X570.666 Y-4.307 Z-5.936
X570.625 Y-4.361 Z-5.889
X570.589 Y-4.407 Z-5.83
X570.559 Y-4.445 Z-5.762
X570.538 Y-4.472 Z-5.687
X570.525 Y-4.489 Z-5.607
X570.52 Y-4.495 Z-5.524
Z1
X570.598 Y93.429
Z0.33
Z-5.048 F50
Z-7.024
X570.602 Y93.423 Z-7.107
X570.615 Y93.406 Z-7.187
X570.636 Y93.378 Z-7.262
X570.664 Y93.34 Z-7.33
X570.699 Y93.293 Z-7.389
X570.74 Y93.238 Z-7.436
X570.785 Y93.178 Z-7.471
X570.832 Y93.113 Z-7.493
X570.882 Y93.047 Z-7.5
X572.074 Y91.442
G3 X572.387 Y91.255 I0.382 J0.284
G2 X611.979 Y46.371 I-6.762 J-45.869 F150
G1 X611.98 Y46.321
Y40.622
X611.978 Y40.516
G2 X572.358 Y-2.362 I-45.198 J2.02
G3 X572.042 Y-2.542 I0.059 J-0.472
G1 X570.813 Y-4.119
X570.762 Y-4.185 Z-7.493
X570.713 Y-4.248 Z-7.471
X570.666 Y-4.307 Z-7.436
X570.625 Y-4.361 Z-7.389
X570.589 Y-4.407 Z-7.33
X570.559 Y-4.445 Z-7.262
X570.538 Y-4.472 Z-7.187
X570.525 Y-4.489 Z-7.107
X570.52 Y-4.495 Z-7.024
Z1
X38.903 Y-4.559
Z0.952
Z-1.024 F50
X38.899 Y-4.553 Z-1.107
X38.886 Y-4.535 Z-1.187
X38.866 Y-4.507 Z-1.262
X38.838 Y-4.468 Z-1.33
X38.804 Y-4.42 Z-1.389
X38.765 Y-4.365 Z-1.436
X38.722 Y-4.303 Z-1.471
X38.675 Y-4.238 Z-1.493
X38.627 Y-4.171 Z-1.5
X37.469 Y-2.54
G3 X37.16 Y-2.347 I-0.388 J-0.276
G2 X37.16 Y91.247 I7.922 J46.797 F150
G3 X37.469 Y91.44 I-0.079 J0.469
G1 X38.627 Y93.071
X38.675 Y93.138 Z-1.493
X38.722 Y93.203 Z-1.471
X38.765 Y93.265 Z-1.436
X38.804 Y93.32 Z-1.389
X38.838 Y93.368 Z-1.33
X38.866 Y93.407 Z-1.262
X38.886 Y93.435 Z-1.187
X38.899 Y93.453 Z-1.107
X38.903 Y93.459 Z-1.024
Z1
Y-4.559
Z0.33
Z-0.548 F50
Z-2.524
X38.899 Y-4.553 Z-2.607
X38.886 Y-4.535 Z-2.687
X38.866 Y-4.507 Z-2.762
X38.838 Y-4.468 Z-2.83
X38.804 Y-4.42 Z-2.889
X38.765 Y-4.365 Z-2.936
X38.722 Y-4.303 Z-2.971
X38.675 Y-4.238 Z-2.993
X38.627 Y-4.171 Z-3
X37.469 Y-2.54
G3 X37.16 Y-2.347 I-0.388 J-0.276
G2 X37.16 Y91.247 I7.922 J46.797 F150
G3 X37.469 Y91.44 I-0.079 J0.469
G1 X38.627 Y93.071
X38.675 Y93.138 Z-2.993
X38.722 Y93.203 Z-2.971
X38.765 Y93.265 Z-2.936
X38.804 Y93.32 Z-2.889
X38.838 Y93.368 Z-2.83
X38.866 Y93.407 Z-2.762
X38.886 Y93.435 Z-2.687
X38.899 Y93.453 Z-2.607
X38.903 Y93.459 Z-2.524
Z1
Y-4.559
Z0.33
Z-2.048 F50
Z-4.024
X38.899 Y-4.553 Z-4.107
X38.886 Y-4.535 Z-4.187
X38.866 Y-4.507 Z-4.262
X38.838 Y-4.468 Z-4.33
X38.804 Y-4.42 Z-4.389
X38.765 Y-4.365 Z-4.436
X38.722 Y-4.303 Z-4.471
X38.675 Y-4.238 Z-4.493
X38.627 Y-4.171 Z-4.5
X37.469 Y-2.54
G3 X37.16 Y-2.347 I-0.388 J-0.276
G2 X37.16 Y91.247 I7.922 J46.797 F150
G3 X37.469 Y91.44 I-0.079 J0.469
G1 X38.627 Y93.071
X38.675 Y93.138 Z-4.493
X38.722 Y93.203 Z-4.471
X38.765 Y93.265 Z-4.436
X38.804 Y93.32 Z-4.389
X38.838 Y93.368 Z-4.33
X38.866 Y93.407 Z-4.262
X38.886 Y93.435 Z-4.187
X38.899 Y93.453 Z-4.107
X38.903 Y93.459 Z-4.024
Z1
Y-4.559
Z0.33
Z-3.548 F50
Z-5.524
X38.899 Y-4.553 Z-5.607
X38.886 Y-4.535 Z-5.687
X38.866 Y-4.507 Z-5.762
X38.838 Y-4.468 Z-5.83
X38.804 Y-4.42 Z-5.889
X38.765 Y-4.365 Z-5.936
X38.722 Y-4.303 Z-5.971
X38.675 Y-4.238 Z-5.993
X38.627 Y-4.171 Z-6
X37.469 Y-2.54
G3 X37.16 Y-2.347 I-0.388 J-0.276
G2 X37.16 Y91.247 I7.922 J46.797 F150
G3 X37.469 Y91.44 I-0.079 J0.469
G1 X38.627 Y93.071
X38.675 Y93.138 Z-5.993
X38.722 Y93.203 Z-5.971
X38.765 Y93.265 Z-5.936
X38.804 Y93.32 Z-5.889
X38.838 Y93.368 Z-5.83
X38.866 Y93.407 Z-5.762
X38.886 Y93.435 Z-5.687
X38.899 Y93.453 Z-5.607
X38.903 Y93.459 Z-5.524
Z1
Y-4.559
Z0.33
Z-5.048 F50
Z-7.024
X38.899 Y-4.553 Z-7.107
X38.886 Y-4.535 Z-7.187
X38.866 Y-4.507 Z-7.262
X38.838 Y-4.468 Z-7.33
X38.804 Y-4.42 Z-7.389
X38.765 Y-4.365 Z-7.436
X38.722 Y-4.303 Z-7.471
X38.675 Y-4.238 Z-7.493
X38.627 Y-4.171 Z-7.5
X37.469 Y-2.54
G3 X37.16 Y-2.347 I-0.388 J-0.276
G2 X37.16 Y91.247 I7.922 J46.797 F150
G3 X37.469 Y91.44 I-0.079 J0.469
G1 X38.627 Y93.071
X38.675 Y93.138 Z-7.493
X38.722 Y93.203 Z-7.471
X38.765 Y93.265 Z-7.436
X38.804 Y93.32 Z-7.389
X38.838 Y93.368 Z-7.33
X38.866 Y93.407 Z-7.262
X38.886 Y93.435 Z-7.187
X38.899 Y93.453 Z-7.107
X38.903 Y93.459 Z-7.024
Z6

M9
M5
M30
