(arm1)
(Machine)
(  vendor: Autodesk)
(  model: Generic 3-axis)
(  description: This machine has XY axis on the Table and Z axis on the Head)
(T1 D=4.76 CR=0 - ZMIN=-7.5 - flat end mill)
G90 G94
G17
G21
(-Attention- Property Safe Retracts is set to Clearance Height.)
(Ensure the clearance height will clear the part and or fixtures.)
(Raise the Z-axis to a safe height before starting the program.)
(When using Fusion for Personal Use, the feedrate of rapid)
(moves is reduced to match the feedrate of cutting moves,)
(which can increase machining time. Unrestricted rapid moves)
(are available with a Fusion Subscription.)

(Bore13)
T1
S18000 M3
G17 G90 G94
G54
M8
G0 X20.933 Y595.813
Z15
G1 Z1.524 F150
Z0 F50
X20.695
G3 X20.51 Y595.628 I0 J-0.185
X21.25 Y595.628 Z-0.192 I0.37 J0 F150
X20.51 Y595.628 Z-0.385 I-0.37 J0
X21.25 Y595.628 Z-0.577 I0.37 J0
X20.51 Y595.628 Z-0.769 I-0.37 J0
X21.25 Y595.628 Z-0.961 I0.37 J0
X20.51 Y595.628 Z-1.154 I-0.37 J0
X21.25 Y595.628 Z-1.346 I0.37 J0
X20.51 Y595.628 Z-1.538 I-0.37 J0
X21.25 Y595.628 Z-1.731 I0.37 J0
X20.51 Y595.628 Z-1.923 I-0.37 J0
X21.25 Y595.628 Z-2.115 I0.37 J0
X20.51 Y595.628 Z-2.308 I-0.37 J0
X21.25 Y595.628 Z-2.5 I0.37 J0
X20.51 Y595.628 Z-2.692 I-0.37 J0
X21.25 Y595.628 Z-2.884 I0.37 J0
X20.51 Y595.628 Z-3.077 I-0.37 J0
X21.25 Y595.628 Z-3.269 I0.37 J0
X20.51 Y595.628 Z-3.461 I-0.37 J0
X21.25 Y595.628 Z-3.654 I0.37 J0
X20.51 Y595.628 Z-3.846 I-0.37 J0
X21.25 Y595.628 Z-4.038 I0.37 J0
X20.51 Y595.628 Z-4.231 I-0.37 J0
X21.25 Y595.628 Z-4.423 I0.37 J0
X20.51 Y595.628 Z-4.615 I-0.37 J0
X21.25 Y595.628 Z-4.807 I0.37 J0
X20.51 Y595.628 Z-5 I-0.37 J0
X21.25 Y595.628 Z-5.192 I0.37 J0
X20.51 Y595.628 Z-5.384 I-0.37 J0
X21.25 Y595.628 Z-5.577 I0.37 J0
X20.51 Y595.628 Z-5.769 I-0.37 J0
X21.25 Y595.628 Z-5.961 I0.37 J0
X20.51 Y595.628 Z-6.154 I-0.37 J0
X21.25 Y595.628 Z-6.346 I0.37 J0
X20.51 Y595.628 Z-6.538 I-0.37 J0
X21.25 Y595.628 Z-6.73 I0.37 J0
X20.51 Y595.628 Z-6.923 I-0.37 J0
X21.25 Y595.628 Z-7.115 I0.37 J0
X20.51 Y595.628 Z-7.307 I-0.37 J0
X20.881 Y595.258 Z-7.404 I0.37 J0
X21.25 Y595.63 Z-7.5 I-0.001 J0.37
X20.51 Y595.625 I-0.37 J-0.002
X21.25 Y595.63 I0.37 J0.002
X21.064 Y595.814 I-0.185 J-0.001
G1 X20.826 Y595.812
Z5
X68.073 Y595.813
Z1.524
Z0 F50
X67.835
G3 X67.65 Y595.628 I0 J-0.185
X68.39 Y595.628 Z-0.192 I0.37 J0 F150
X67.65 Y595.628 Z-0.385 I-0.37 J0
X68.39 Y595.628 Z-0.577 I0.37 J0
X67.65 Y595.628 Z-0.769 I-0.37 J0
X68.39 Y595.628 Z-0.961 I0.37 J0
X67.65 Y595.628 Z-1.154 I-0.37 J0
X68.39 Y595.628 Z-1.346 I0.37 J0
X67.65 Y595.628 Z-1.538 I-0.37 J0
X68.39 Y595.628 Z-1.731 I0.37 J0
X67.65 Y595.628 Z-1.923 I-0.37 J0
X68.39 Y595.628 Z-2.115 I0.37 J0
X67.65 Y595.628 Z-2.308 I-0.37 J0
X68.39 Y595.628 Z-2.5 I0.37 J0
X67.65 Y595.628 Z-2.692 I-0.37 J0
X68.39 Y595.628 Z-2.884 I0.37 J0
X67.65 Y595.628 Z-3.077 I-0.37 J0
X68.39 Y595.628 Z-3.269 I0.37 J0
X67.65 Y595.628 Z-3.461 I-0.37 J0
X68.304 Y595.391 Z-3.611 I0.37 J0
X67.736 Y595.865 Z-3.803 I-0.284 J0.237
X68.304 Y595.391 Z-3.996 I0.284 J-0.237
X67.834 Y595.948 Z-4.167 I-0.284 J0.237
X68.206 Y595.308 Z-4.359 I0.186 J-0.32
X68.367 Y595.755 Z-4.444 I-0.186 J0.32
X67.673 Y595.5 Z-4.637 I-0.347 J-0.128
X68.367 Y595.755 Z-4.829 I0.347 J0.128
X67.673 Y595.5 Z-5.021 I-0.347 J-0.128
X68.367 Y595.755 Z-5.214 I0.347 J0.128
X67.673 Y595.5 Z-5.406 I-0.347 J-0.128
X68.367 Y595.755 Z-5.598 I0.347 J0.128
X67.673 Y595.5 Z-5.791 I-0.347 J-0.128
X68.367 Y595.755 Z-5.983 I0.347 J0.128
X67.673 Y595.5 Z-6.175 I-0.347 J-0.128
X68.367 Y595.755 Z-6.367 I0.347 J0.128
X67.673 Y595.5 Z-6.56 I-0.347 J-0.128
X68.367 Y595.755 Z-6.752 I0.347 J0.128
X67.673 Y595.5 Z-6.944 I-0.347 J-0.128
X68.367 Y595.755 Z-7.137 I0.347 J0.128
X67.673 Y595.5 Z-7.329 I-0.347 J-0.128
X68.39 Y595.63 Z-7.5 I0.347 J0.128
X67.65 Y595.625 I-0.37 J-0.002
X68.39 Y595.63 I0.37 J0.002
X68.204 Y595.814 I-0.185 J-0.001
G1 X67.966 Y595.812
Z5
X68.073 Y548.673
Z1.524
Z0 F50
X67.835
G3 X67.65 Y548.488 I0 J-0.185
X68.39 Y548.488 Z-0.192 I0.37 J0 F150
X67.65 Y548.488 Z-0.385 I-0.37 J0
X68.39 Y548.488 Z-0.577 I0.37 J0
X67.65 Y548.488 Z-0.769 I-0.37 J0
X68.39 Y548.488 Z-0.961 I0.37 J0
X67.736 Y548.725 Z-1.111 I-0.37 J0
X68.304 Y548.25 Z-1.303 I0.284 J-0.238
X68.303 Y548.726 Z-1.389 I-0.284 J0.238
X67.737 Y548.25 Z-1.581 I-0.283 J-0.238
X68.303 Y548.726 Z-1.773 I0.283 J0.238
X67.737 Y548.25 Z-1.966 I-0.283 J-0.238
X68.303 Y548.726 Z-2.158 I0.283 J0.238
X67.737 Y548.25 Z-2.35 I-0.283 J-0.238
X68.303 Y548.726 Z-2.543 I0.283 J0.238
X67.737 Y548.25 Z-2.735 I-0.283 J-0.238
X68.303 Y548.726 Z-2.927 I0.283 J0.238
X67.737 Y548.25 Z-3.12 I-0.283 J-0.238
X68.303 Y548.726 Z-3.312 I0.283 J0.238
X67.737 Y548.25 Z-3.504 I-0.283 J-0.238
X68.303 Y548.726 Z-3.696 I0.283 J0.238
X67.737 Y548.25 Z-3.889 I-0.283 J-0.238
X68.303 Y548.726 Z-4.081 I0.283 J0.238
X67.737 Y548.25 Z-4.273 I-0.283 J-0.238
X68.303 Y548.726 Z-4.466 I0.283 J0.238
X67.737 Y548.25 Z-4.658 I-0.283 J-0.238
X68.303 Y548.726 Z-4.85 I0.283 J0.238
X67.737 Y548.25 Z-5.043 I-0.283 J-0.238
X68.303 Y548.726 Z-5.235 I0.283 J0.238
X67.737 Y548.25 Z-5.427 I-0.283 J-0.238
X68.368 Y548.363 Z-5.556 I0.283 J0.238
X67.672 Y548.613 Z-5.748 I-0.348 J0.125
X67.836 Y548.166 Z-5.833 I0.348 J-0.125
X68.204 Y548.809 Z-6.026 I0.184 J0.321
X67.836 Y548.166 Z-6.218 I-0.184 J-0.321
X68.204 Y548.809 Z-6.41 I0.184 J0.321
X67.836 Y548.166 Z-6.603 I-0.184 J-0.321
X68.204 Y548.809 Z-6.795 I0.184 J0.321
X67.836 Y548.166 Z-6.987 I-0.184 J-0.321
X68.204 Y548.809 Z-7.179 I0.184 J0.321
X67.836 Y548.166 Z-7.372 I-0.184 J-0.321
X68.39 Y548.49 Z-7.5 I0.184 J0.321
X67.65 Y548.486 I-0.37 J-0.002
X68.39 Y548.49 I0.37 J0.002
X68.204 Y548.674 I-0.185 J-0.001
G1 X67.966 Y548.672
Z5
X20.933 Y548.673
Z1.524
Z0 F50
X20.695
G3 X20.51 Y548.488 I0 J-0.185
X21.25 Y548.488 Z-0.192 I0.37 J0 F150
X20.51 Y548.488 Z-0.385 I-0.37 J0
X21.25 Y548.488 Z-0.577 I0.37 J0
X20.51 Y548.488 Z-0.769 I-0.37 J0
X21.25 Y548.488 Z-0.961 I0.37 J0
X20.596 Y548.725 Z-1.111 I-0.37 J0
X21.164 Y548.25 Z-1.303 I0.284 J-0.238
X21.163 Y548.726 Z-1.389 I-0.284 J0.238
X20.597 Y548.25 Z-1.581 I-0.283 J-0.238
X21.163 Y548.726 Z-1.773 I0.283 J0.238
X20.597 Y548.25 Z-1.966 I-0.283 J-0.238
X21.163 Y548.726 Z-2.158 I0.283 J0.238
X20.597 Y548.25 Z-2.35 I-0.283 J-0.238
X21.163 Y548.726 Z-2.543 I0.283 J0.238
X20.597 Y548.25 Z-2.735 I-0.283 J-0.238
X21.163 Y548.726 Z-2.927 I0.283 J0.238
X20.597 Y548.25 Z-3.12 I-0.283 J-0.238
X21.163 Y548.726 Z-3.312 I0.283 J0.238
X20.597 Y548.25 Z-3.504 I-0.283 J-0.238
X21.163 Y548.726 Z-3.696 I0.283 J0.238
X20.597 Y548.25 Z-3.889 I-0.283 J-0.238
X21.163 Y548.726 Z-4.081 I0.283 J0.238
X20.597 Y548.25 Z-4.273 I-0.283 J-0.238
X21.163 Y548.726 Z-4.466 I0.283 J0.238
X20.597 Y548.25 Z-4.658 I-0.283 J-0.238
X21.163 Y548.726 Z-4.85 I0.283 J0.238
X20.597 Y548.25 Z-5.043 I-0.283 J-0.238
X21.163 Y548.726 Z-5.235 I0.283 J0.238
X20.597 Y548.25 Z-5.427 I-0.283 J-0.238
X21.228 Y548.363 Z-5.556 I0.283 J0.238
X20.532 Y548.613 Z-5.748 I-0.348 J0.125
X20.696 Y548.166 Z-5.833 I0.348 J-0.125
X21.064 Y548.809 Z-6.026 I0.184 J0.321
X20.696 Y548.166 Z-6.218 I-0.184 J-0.321
X21.064 Y548.809 Z-6.41 I0.184 J0.321
X20.696 Y548.166 Z-6.603 I-0.184 J-0.321
X21.064 Y548.809 Z-6.795 I0.184 J0.321
X20.696 Y548.166 Z-6.987 I-0.184 J-0.321
X21.064 Y548.809 Z-7.179 I0.184 J0.321
X20.696 Y548.166 Z-7.372 I-0.184 J-0.321
X21.25 Y548.49 Z-7.5 I0.184 J0.321
X20.51 Y548.486 I-0.37 J-0.002
X21.25 Y548.49 I0.37 J0.002
X21.064 Y548.674 I-0.185 J-0.001
G1 X20.826 Y548.672
Z5
X24.503 Y475.185
Z1.524
Z0 F50
X24.265
G3 X24.08 Y475 I0 J-0.185
X24.82 Y475 Z-0.192 I0.37 J0 F150
X24.08 Y475 Z-0.385 I-0.37 J0
X24.82 Y475 Z-0.577 I0.37 J0
X24.08 Y475 Z-0.769 I-0.37 J0
X24.82 Y475 Z-0.961 I0.37 J0
X24.08 Y475 Z-1.154 I-0.37 J0
X24.82 Y475 Z-1.346 I0.37 J0
X24.08 Y475 Z-1.538 I-0.37 J0
X24.82 Y475 Z-1.731 I0.37 J0
X24.08 Y475 Z-1.923 I-0.37 J0
X24.82 Y475 Z-2.115 I0.37 J0
X24.08 Y475 Z-2.308 I-0.37 J0
X24.82 Y475 Z-2.5 I0.37 J0
X24.08 Y475 Z-2.692 I-0.37 J0
X24.82 Y475 Z-2.884 I0.37 J0
X24.08 Y475 Z-3.077 I-0.37 J0
X24.82 Y475 Z-3.269 I0.37 J0
X24.08 Y475 Z-3.461 I-0.37 J0
X24.82 Y475 Z-3.654 I0.37 J0
X24.08 Y475 Z-3.846 I-0.37 J0
X24.82 Y475 Z-4.038 I0.37 J0
X24.08 Y475 Z-4.231 I-0.37 J0
X24.82 Y475 Z-4.423 I0.37 J0
X24.08 Y475 Z-4.615 I-0.37 J0
X24.82 Y475 Z-4.807 I0.37 J0
X24.08 Y475 Z-5 I-0.37 J0
X24.82 Y475 Z-5.192 I0.37 J0
X24.08 Y475 Z-5.384 I-0.37 J0
X24.82 Y475 Z-5.577 I0.37 J0
X24.08 Y475 Z-5.769 I-0.37 J0
X24.82 Y475 Z-5.961 I0.37 J0
X24.08 Y475 Z-6.154 I-0.37 J0
X24.82 Y475 Z-6.346 I0.37 J0
X24.08 Y475 Z-6.538 I-0.37 J0
X24.82 Y475 Z-6.73 I0.37 J0
X24.08 Y475 Z-6.923 I-0.37 J0
X24.82 Y475 Z-7.115 I0.37 J0
X24.08 Y475 Z-7.307 I-0.37 J0
X24.451 Y474.63 Z-7.404 I0.37 J0
X24.82 Y475.002 Z-7.5 I-0.001 J0.37
X24.08 Y474.998 I-0.37 J-0.002
X24.82 Y475.002 I0.37 J0.002
X24.634 Y475.186 I-0.185 J-0.001
G1 X24.396 Y475.185
Z5
X64.503
Z1.524
Z0 F50
X64.265
G3 X64.08 Y475 I0 J-0.185
X64.82 Y475 Z-0.192 I0.37 J0 F150
X64.08 Y475 Z-0.385 I-0.37 J0
X64.82 Y475 Z-0.577 I0.37 J0
X64.08 Y475 Z-0.769 I-0.37 J0
X64.82 Y475 Z-0.961 I0.37 J0
X64.08 Y475 Z-1.154 I-0.37 J0
X64.82 Y475 Z-1.346 I0.37 J0
X64.08 Y475 Z-1.538 I-0.37 J0
X64.82 Y475 Z-1.731 I0.37 J0
X64.08 Y475 Z-1.923 I-0.37 J0
X64.82 Y475 Z-2.115 I0.37 J0
X64.08 Y475 Z-2.308 I-0.37 J0
X64.82 Y475 Z-2.5 I0.37 J0
X64.08 Y475 Z-2.692 I-0.37 J0
X64.82 Y475 Z-2.884 I0.37 J0
X64.08 Y475 Z-3.077 I-0.37 J0
X64.82 Y475 Z-3.269 I0.37 J0
X64.08 Y475 Z-3.461 I-0.37 J0
X64.82 Y475 Z-3.654 I0.37 J0
X64.08 Y475 Z-3.846 I-0.37 J0
X64.82 Y475 Z-4.038 I0.37 J0
X64.08 Y475 Z-4.231 I-0.37 J0
X64.82 Y475 Z-4.423 I0.37 J0
X64.08 Y475 Z-4.615 I-0.37 J0
X64.82 Y475 Z-4.807 I0.37 J0
X64.08 Y475 Z-5 I-0.37 J0
X64.82 Y475 Z-5.192 I0.37 J0
X64.08 Y475 Z-5.384 I-0.37 J0
X64.82 Y475 Z-5.577 I0.37 J0
X64.08 Y475 Z-5.769 I-0.37 J0
X64.82 Y475 Z-5.961 I0.37 J0
X64.08 Y475 Z-6.154 I-0.37 J0
X64.82 Y475 Z-6.346 I0.37 J0
X64.08 Y475 Z-6.538 I-0.37 J0
X64.82 Y475 Z-6.73 I0.37 J0
X64.08 Y475 Z-6.923 I-0.37 J0
X64.82 Y475 Z-7.115 I0.37 J0
X64.08 Y475 Z-7.307 I-0.37 J0
X64.451 Y474.63 Z-7.404 I0.37 J0
X64.82 Y475.002 Z-7.5 I-0.001 J0.37
X64.08 Y474.998 I-0.37 J-0.002
X64.82 Y475.002 I0.37 J0.002
X64.634 Y475.186 I-0.185 J-0.001
G1 X64.396 Y475.185
Z5
X64.503 Y305.185
Z1.524
Z0 F50
X64.265
G3 X64.08 Y305 I0 J-0.185
X64.82 Y305 Z-0.192 I0.37 J0 F150
X64.08 Y305 Z-0.385 I-0.37 J0
X64.82 Y305 Z-0.577 I0.37 J0
X64.08 Y305 Z-0.769 I-0.37 J0
X64.82 Y305 Z-0.961 I0.37 J0
X64.08 Y305 Z-1.154 I-0.37 J0
X64.82 Y305 Z-1.346 I0.37 J0
X64.08 Y305 Z-1.538 I-0.37 J0
X64.82 Y305 Z-1.731 I0.37 J0
X64.08 Y305 Z-1.923 I-0.37 J0
X64.82 Y305 Z-2.115 I0.37 J0
X64.08 Y305 Z-2.308 I-0.37 J0
X64.82 Y305 Z-2.5 I0.37 J0
X64.08 Y305 Z-2.692 I-0.37 J0
X64.82 Y305 Z-2.884 I0.37 J0
X64.08 Y305 Z-3.077 I-0.37 J0
X64.82 Y305 Z-3.269 I0.37 J0
X64.08 Y305 Z-3.461 I-0.37 J0
X64.82 Y305 Z-3.654 I0.37 J0
X64.08 Y305 Z-3.846 I-0.37 J0
X64.82 Y305 Z-4.038 I0.37 J0
X64.08 Y305 Z-4.231 I-0.37 J0
X64.82 Y305 Z-4.423 I0.37 J0
X64.08 Y305 Z-4.615 I-0.37 J0
X64.82 Y305 Z-4.807 I0.37 J0
X64.08 Y305 Z-5 I-0.37 J0
X64.82 Y305 Z-5.192 I0.37 J0
X64.08 Y305 Z-5.384 I-0.37 J0
X64.82 Y305 Z-5.577 I0.37 J0
X64.08 Y305 Z-5.769 I-0.37 J0
X64.82 Y305 Z-5.961 I0.37 J0
X64.08 Y305 Z-6.154 I-0.37 J0
X64.82 Y305 Z-6.346 I0.37 J0
X64.08 Y305 Z-6.538 I-0.37 J0
X64.82 Y305 Z-6.73 I0.37 J0
X64.08 Y305 Z-6.923 I-0.37 J0
X64.82 Y305 Z-7.115 I0.37 J0
X64.08 Y305 Z-7.307 I-0.37 J0
X64.451 Y304.63 Z-7.404 I0.37 J0
X64.82 Y305.002 Z-7.5 I-0.001 J0.37
X64.08 Y304.998 I-0.37 J-0.002
X64.82 Y305.002 I0.37 J0.002
X64.634 Y305.186 I-0.185 J-0.001
G1 X64.396 Y305.185
Z5
X24.503 Y304.985
Z1.524
Z0 F50
X24.265
G3 X24.08 Y304.8 I0 J-0.185
X24.82 Y304.8 Z-0.192 I0.37 J0 F150
X24.08 Y304.8 Z-0.385 I-0.37 J0
X24.82 Y304.8 Z-0.577 I0.37 J0
X24.08 Y304.8 Z-0.769 I-0.37 J0
X24.82 Y304.8 Z-0.961 I0.37 J0
X24.08 Y304.8 Z-1.154 I-0.37 J0
X24.82 Y304.8 Z-1.346 I0.37 J0
X24.08 Y304.8 Z-1.538 I-0.37 J0
X24.82 Y304.8 Z-1.731 I0.37 J0
X24.08 Y304.8 Z-1.923 I-0.37 J0
X24.82 Y304.8 Z-2.115 I0.37 J0
X24.08 Y304.8 Z-2.308 I-0.37 J0
X24.82 Y304.8 Z-2.5 I0.37 J0
X24.08 Y304.8 Z-2.692 I-0.37 J0
X24.82 Y304.8 Z-2.884 I0.37 J0
X24.08 Y304.8 Z-3.077 I-0.37 J0
X24.82 Y304.8 Z-3.269 I0.37 J0
X24.08 Y304.8 Z-3.461 I-0.37 J0
X24.82 Y304.8 Z-3.654 I0.37 J0
X24.08 Y304.8 Z-3.846 I-0.37 J0
X24.82 Y304.8 Z-4.038 I0.37 J0
X24.08 Y304.8 Z-4.231 I-0.37 J0
X24.82 Y304.8 Z-4.423 I0.37 J0
X24.08 Y304.8 Z-4.615 I-0.37 J0
X24.82 Y304.8 Z-4.807 I0.37 J0
X24.08 Y304.8 Z-5 I-0.37 J0
X24.82 Y304.8 Z-5.192 I0.37 J0
X24.08 Y304.8 Z-5.384 I-0.37 J0
X24.82 Y304.8 Z-5.577 I0.37 J0
X24.08 Y304.8 Z-5.769 I-0.37 J0
X24.82 Y304.8 Z-5.961 I0.37 J0
X24.08 Y304.8 Z-6.154 I-0.37 J0
X24.82 Y304.8 Z-6.346 I0.37 J0
X24.08 Y304.8 Z-6.538 I-0.37 J0
X24.82 Y304.8 Z-6.73 I0.37 J0
X24.08 Y304.8 Z-6.923 I-0.37 J0
X24.82 Y304.8 Z-7.115 I0.37 J0
X24.08 Y304.8 Z-7.307 I-0.37 J0
X24.451 Y304.43 Z-7.404 I0.37 J0
X24.82 Y304.802 Z-7.5 I-0.001 J0.37
X24.08 Y304.798 I-0.37 J-0.002
X24.82 Y304.802 I0.37 J0.002
X24.634 Y304.986 I-0.185 J-0.001
G1 X24.396 Y304.985
Z5
X24.503 Y135.185
Z1.524
Z0 F50
X24.265
G3 X24.08 Y135 I0 J-0.185
X24.82 Y135 Z-0.192 I0.37 J0 F150
X24.08 Y135 Z-0.385 I-0.37 J0
X24.82 Y135 Z-0.577 I0.37 J0
X24.08 Y135 Z-0.769 I-0.37 J0
X24.82 Y135 Z-0.961 I0.37 J0
X24.08 Y135 Z-1.154 I-0.37 J0
X24.82 Y135 Z-1.346 I0.37 J0
X24.08 Y135 Z-1.538 I-0.37 J0
X24.82 Y135 Z-1.731 I0.37 J0
X24.08 Y135 Z-1.923 I-0.37 J0
X24.82 Y135 Z-2.115 I0.37 J0
X24.08 Y135 Z-2.308 I-0.37 J0
X24.82 Y135 Z-2.5 I0.37 J0
X24.08 Y135 Z-2.692 I-0.37 J0
X24.82 Y135 Z-2.884 I0.37 J0
X24.08 Y135 Z-3.077 I-0.37 J0
X24.82 Y135 Z-3.269 I0.37 J0
X24.08 Y135 Z-3.461 I-0.37 J0
X24.82 Y135 Z-3.654 I0.37 J0
X24.08 Y135 Z-3.846 I-0.37 J0
X24.82 Y135 Z-4.038 I0.37 J0
X24.08 Y135 Z-4.231 I-0.37 J0
X24.82 Y135 Z-4.423 I0.37 J0
X24.08 Y135 Z-4.615 I-0.37 J0
X24.82 Y135 Z-4.807 I0.37 J0
X24.08 Y135 Z-5 I-0.37 J0
X24.82 Y135 Z-5.192 I0.37 J0
X24.08 Y135 Z-5.384 I-0.37 J0
X24.82 Y135 Z-5.577 I0.37 J0
X24.08 Y135 Z-5.769 I-0.37 J0
X24.82 Y135 Z-5.961 I0.37 J0
X24.08 Y135 Z-6.154 I-0.37 J0
X24.82 Y135 Z-6.346 I0.37 J0
X24.08 Y135 Z-6.538 I-0.37 J0
X24.82 Y135 Z-6.73 I0.37 J0
X24.08 Y135 Z-6.923 I-0.37 J0
X24.82 Y135 Z-7.115 I0.37 J0
X24.08 Y135 Z-7.307 I-0.37 J0
X24.451 Y134.63 Z-7.404 I0.37 J0
X24.82 Y135.002 Z-7.5 I-0.001 J0.37
X24.08 Y134.998 I-0.37 J-0.002
X24.82 Y135.002 I0.37 J0.002
X24.634 Y135.186 I-0.185 J-0.001
G1 X24.396 Y135.185
Z5
X64.503
Z1.524
Z0 F50
X64.265
G3 X64.08 Y135 I0 J-0.185
X64.82 Y135 Z-0.192 I0.37 J0 F150
X64.08 Y135 Z-0.385 I-0.37 J0
X64.82 Y135 Z-0.577 I0.37 J0
X64.08 Y135 Z-0.769 I-0.37 J0
X64.82 Y135 Z-0.961 I0.37 J0
X64.08 Y135 Z-1.154 I-0.37 J0
X64.82 Y135 Z-1.346 I0.37 J0
X64.08 Y135 Z-1.538 I-0.37 J0
X64.82 Y135 Z-1.731 I0.37 J0
X64.08 Y135 Z-1.923 I-0.37 J0
X64.82 Y135 Z-2.115 I0.37 J0
X64.08 Y135 Z-2.308 I-0.37 J0
X64.82 Y135 Z-2.5 I0.37 J0
X64.08 Y135 Z-2.692 I-0.37 J0
X64.82 Y135 Z-2.884 I0.37 J0
X64.08 Y135 Z-3.077 I-0.37 J0
X64.82 Y135 Z-3.269 I0.37 J0
X64.08 Y135 Z-3.461 I-0.37 J0
X64.82 Y135 Z-3.654 I0.37 J0
X64.08 Y135 Z-3.846 I-0.37 J0
X64.82 Y135 Z-4.038 I0.37 J0
X64.08 Y135 Z-4.231 I-0.37 J0
X64.82 Y135 Z-4.423 I0.37 J0
X64.08 Y135 Z-4.615 I-0.37 J0
X64.82 Y135 Z-4.807 I0.37 J0
X64.08 Y135 Z-5 I-0.37 J0
X64.82 Y135 Z-5.192 I0.37 J0
X64.08 Y135 Z-5.384 I-0.37 J0
X64.82 Y135 Z-5.577 I0.37 J0
X64.08 Y135 Z-5.769 I-0.37 J0
X64.82 Y135 Z-5.961 I0.37 J0
X64.08 Y135 Z-6.154 I-0.37 J0
X64.82 Y135 Z-6.346 I0.37 J0
X64.08 Y135 Z-6.538 I-0.37 J0
X64.82 Y135 Z-6.73 I0.37 J0
X64.08 Y135 Z-6.923 I-0.37 J0
X64.82 Y135 Z-7.115 I0.37 J0
X64.08 Y135 Z-7.307 I-0.37 J0
X64.451 Y134.63 Z-7.404 I0.37 J0
X64.82 Y135.002 Z-7.5 I-0.001 J0.37
X64.08 Y134.998 I-0.37 J-0.002
X64.82 Y135.002 I0.37 J0.002
X64.634 Y135.186 I-0.185 J-0.001
G1 X64.396 Y135.185
Z5
X68.073 Y61.063
Z1.524
Z0 F50
X67.835
G3 X67.65 Y60.878 I0 J-0.185
X68.39 Y60.878 Z-0.192 I0.37 J0 F150
X67.65 Y60.878 Z-0.385 I-0.37 J0
X68.39 Y60.878 Z-0.577 I0.37 J0
X67.65 Y60.878 Z-0.769 I-0.37 J0
X68.39 Y60.878 Z-0.961 I0.37 J0
X67.65 Y60.878 Z-1.154 I-0.37 J0
X68.39 Y60.878 Z-1.346 I0.37 J0
X67.65 Y60.878 Z-1.538 I-0.37 J0
X68.39 Y60.878 Z-1.731 I0.37 J0
X67.65 Y60.878 Z-1.923 I-0.37 J0
X68.39 Y60.878 Z-2.115 I0.37 J0
X67.65 Y60.878 Z-2.308 I-0.37 J0
X68.39 Y60.878 Z-2.5 I0.37 J0
X67.65 Y60.878 Z-2.692 I-0.37 J0
X68.39 Y60.878 Z-2.884 I0.37 J0
X67.65 Y60.878 Z-3.077 I-0.37 J0
X68.39 Y60.878 Z-3.269 I0.37 J0
X67.65 Y60.878 Z-3.461 I-0.37 J0
X68.39 Y60.878 Z-3.654 I0.37 J0
X67.65 Y60.878 Z-3.846 I-0.37 J0
X68.39 Y60.878 Z-4.038 I0.37 J0
X67.65 Y60.878 Z-4.231 I-0.37 J0
X68.39 Y60.878 Z-4.423 I0.37 J0
X67.65 Y60.878 Z-4.615 I-0.37 J0
X68.39 Y60.878 Z-4.807 I0.37 J0
X67.65 Y60.878 Z-5 I-0.37 J0
X68.39 Y60.878 Z-5.192 I0.37 J0
X67.65 Y60.878 Z-5.384 I-0.37 J0
X68.39 Y60.878 Z-5.577 I0.37 J0
X67.65 Y60.878 Z-5.769 I-0.37 J0
X68.39 Y60.878 Z-5.961 I0.37 J0
X67.65 Y60.878 Z-6.154 I-0.37 J0
X68.39 Y60.878 Z-6.346 I0.37 J0
X67.65 Y60.878 Z-6.538 I-0.37 J0
X68.39 Y60.878 Z-6.73 I0.37 J0
X67.65 Y60.878 Z-6.923 I-0.37 J0
X68.39 Y60.878 Z-7.115 I0.37 J0
X67.65 Y60.878 Z-7.307 I-0.37 J0
X68.021 Y60.508 Z-7.404 I0.37 J0
X68.39 Y60.88 Z-7.5 I-0.001 J0.37
X67.65 Y60.876 I-0.37 J-0.002
X68.39 Y60.88 I0.37 J0.002
X68.204 Y61.064 I-0.185 J-0.001
G1 X67.966 Y61.062
Z5
X20.933 Y61.063
Z1.524
Z0 F50
X20.695
G3 X20.51 Y60.878 I0 J-0.185
X21.25 Y60.878 Z-0.192 I0.37 J0 F150
X20.51 Y60.878 Z-0.385 I-0.37 J0
X21.25 Y60.878 Z-0.577 I0.37 J0
X20.51 Y60.878 Z-0.769 I-0.37 J0
X21.25 Y60.878 Z-0.961 I0.37 J0
X20.51 Y60.878 Z-1.154 I-0.37 J0
X21.25 Y60.878 Z-1.346 I0.37 J0
X20.51 Y60.878 Z-1.538 I-0.37 J0
X21.25 Y60.878 Z-1.731 I0.37 J0
X20.51 Y60.878 Z-1.923 I-0.37 J0
X21.25 Y60.878 Z-2.115 I0.37 J0
X20.51 Y60.878 Z-2.308 I-0.37 J0
X21.25 Y60.878 Z-2.5 I0.37 J0
X20.51 Y60.878 Z-2.692 I-0.37 J0
X21.25 Y60.878 Z-2.884 I0.37 J0
X20.51 Y60.878 Z-3.077 I-0.37 J0
X21.25 Y60.878 Z-3.269 I0.37 J0
X20.51 Y60.878 Z-3.461 I-0.37 J0
X21.25 Y60.878 Z-3.654 I0.37 J0
X20.51 Y60.878 Z-3.846 I-0.37 J0
X21.25 Y60.878 Z-4.038 I0.37 J0
X20.51 Y60.878 Z-4.231 I-0.37 J0
X21.25 Y60.878 Z-4.423 I0.37 J0
X20.51 Y60.878 Z-4.615 I-0.37 J0
X21.25 Y60.878 Z-4.807 I0.37 J0
X20.51 Y60.878 Z-5 I-0.37 J0
X21.25 Y60.878 Z-5.192 I0.37 J0
X20.51 Y60.878 Z-5.384 I-0.37 J0
X21.25 Y60.878 Z-5.577 I0.37 J0
X20.51 Y60.878 Z-5.769 I-0.37 J0
X21.25 Y60.878 Z-5.961 I0.37 J0
X20.51 Y60.878 Z-6.154 I-0.37 J0
X21.25 Y60.878 Z-6.346 I0.37 J0
X20.51 Y60.878 Z-6.538 I-0.37 J0
X21.25 Y60.878 Z-6.73 I0.37 J0
X20.51 Y60.878 Z-6.923 I-0.37 J0
X21.25 Y60.878 Z-7.115 I0.37 J0
X20.51 Y60.878 Z-7.307 I-0.37 J0
X20.881 Y60.508 Z-7.404 I0.37 J0
X21.25 Y60.88 Z-7.5 I-0.001 J0.37
X20.51 Y60.876 I-0.37 J-0.002
X21.25 Y60.88 I0.37 J0.002
X21.064 Y61.064 I-0.185 J-0.001
G1 X20.826 Y61.062
Z5
X20.933 Y13.923
Z1.524
Z0 F50
X20.695
G3 X20.51 Y13.738 I0 J-0.185
X21.25 Y13.738 Z-0.192 I0.37 J0 F150
X20.51 Y13.738 Z-0.385 I-0.37 J0
X21.25 Y13.738 Z-0.577 I0.37 J0
X20.51 Y13.738 Z-0.769 I-0.37 J0
X21.25 Y13.738 Z-0.961 I0.37 J0
X20.51 Y13.738 Z-1.154 I-0.37 J0
X21.25 Y13.738 Z-1.346 I0.37 J0
X20.51 Y13.738 Z-1.538 I-0.37 J0
X21.25 Y13.738 Z-1.731 I0.37 J0
X20.51 Y13.738 Z-1.923 I-0.37 J0
X21.25 Y13.738 Z-2.115 I0.37 J0
X20.51 Y13.738 Z-2.308 I-0.37 J0
X21.25 Y13.738 Z-2.5 I0.37 J0
X20.51 Y13.738 Z-2.692 I-0.37 J0
X21.25 Y13.738 Z-2.884 I0.37 J0
X20.51 Y13.738 Z-3.077 I-0.37 J0
X21.25 Y13.738 Z-3.269 I0.37 J0
X20.51 Y13.738 Z-3.461 I-0.37 J0
X21.25 Y13.738 Z-3.654 I0.37 J0
X20.51 Y13.738 Z-3.846 I-0.37 J0
X21.25 Y13.738 Z-4.038 I0.37 J0
X20.51 Y13.738 Z-4.231 I-0.37 J0
X21.25 Y13.738 Z-4.423 I0.37 J0
X20.51 Y13.738 Z-4.615 I-0.37 J0
X21.25 Y13.738 Z-4.807 I0.37 J0
X20.51 Y13.738 Z-5 I-0.37 J0
X21.25 Y13.738 Z-5.192 I0.37 J0
X20.51 Y13.738 Z-5.384 I-0.37 J0
X21.25 Y13.738 Z-5.577 I0.37 J0
X20.51 Y13.738 Z-5.769 I-0.37 J0
X21.25 Y13.738 Z-5.961 I0.37 J0
X20.51 Y13.738 Z-6.154 I-0.37 J0
X21.25 Y13.738 Z-6.346 I0.37 J0
X20.51 Y13.738 Z-6.538 I-0.37 J0
X21.25 Y13.738 Z-6.73 I0.37 J0
X20.51 Y13.738 Z-6.923 I-0.37 J0
X21.25 Y13.738 Z-7.115 I0.37 J0
X20.51 Y13.738 Z-7.307 I-0.37 J0
X20.881 Y13.368 Z-7.404 I0.37 J0
X21.25 Y13.74 Z-7.5 I-0.001 J0.37
X20.51 Y13.736 I-0.37 J-0.002
X21.25 Y13.74 I0.37 J0.002
X21.064 Y13.924 I-0.185 J-0.001
G1 X20.826 Y13.922
Z5
X68.073 Y13.923
Z1.524
Z0 F50
X67.835
G3 X67.65 Y13.738 I0 J-0.185
X68.39 Y13.738 Z-0.192 I0.37 J0 F150
X67.65 Y13.738 Z-0.385 I-0.37 J0
X68.39 Y13.738 Z-0.577 I0.37 J0
X67.65 Y13.738 Z-0.769 I-0.37 J0
X68.39 Y13.738 Z-0.961 I0.37 J0
X67.65 Y13.738 Z-1.154 I-0.37 J0
X68.39 Y13.738 Z-1.346 I0.37 J0
X67.65 Y13.738 Z-1.538 I-0.37 J0
X68.39 Y13.738 Z-1.731 I0.37 J0
X67.65 Y13.738 Z-1.923 I-0.37 J0
X68.39 Y13.738 Z-2.115 I0.37 J0
X67.65 Y13.738 Z-2.308 I-0.37 J0
X68.39 Y13.738 Z-2.5 I0.37 J0
X67.65 Y13.738 Z-2.692 I-0.37 J0
X68.39 Y13.738 Z-2.884 I0.37 J0
X67.65 Y13.738 Z-3.077 I-0.37 J0
X68.39 Y13.738 Z-3.269 I0.37 J0
X67.65 Y13.738 Z-3.461 I-0.37 J0
X68.39 Y13.738 Z-3.654 I0.37 J0
X67.65 Y13.738 Z-3.846 I-0.37 J0
X68.39 Y13.738 Z-4.038 I0.37 J0
X67.65 Y13.738 Z-4.231 I-0.37 J0
X68.39 Y13.738 Z-4.423 I0.37 J0
X67.65 Y13.738 Z-4.615 I-0.37 J0
X68.39 Y13.738 Z-4.807 I0.37 J0
X67.65 Y13.738 Z-5 I-0.37 J0
X68.39 Y13.738 Z-5.192 I0.37 J0
X67.65 Y13.738 Z-5.384 I-0.37 J0
X68.39 Y13.738 Z-5.577 I0.37 J0
X67.65 Y13.738 Z-5.769 I-0.37 J0
X68.39 Y13.738 Z-5.961 I0.37 J0
X67.65 Y13.738 Z-6.154 I-0.37 J0
X68.39 Y13.738 Z-6.346 I0.37 J0
X67.65 Y13.738 Z-6.538 I-0.37 J0
X68.39 Y13.738 Z-6.73 I0.37 J0
X67.65 Y13.738 Z-6.923 I-0.37 J0
X68.39 Y13.738 Z-7.115 I0.37 J0
X67.65 Y13.738 Z-7.307 I-0.37 J0
X68.021 Y13.368 Z-7.404 I0.37 J0
X68.39 Y13.74 Z-7.5 I-0.001 J0.37
X67.65 Y13.736 I-0.37 J-0.002
X68.39 Y13.74 I0.37 J0.002
X68.204 Y13.924 I-0.185 J-0.001
G1 X67.966 Y13.922
Z15
(When using Fusion for Personal Use, the feedrate of rapid)
(moves is reduced to match the feedrate of cutting moves,)
(which can increase machining time. Unrestricted rapid moves)
(are available with a Fusion Subscription.)

(2D Contour2)
G0 X46.345 Y82.913
G1 Z6 F150
Z0.952
Z-1.024 F50
X46.35 Y82.918 Z-1.107
X46.365 Y82.933 Z-1.187
X46.39 Y82.958 Z-1.262
X46.424 Y82.991 Z-1.33
X46.465 Y83.033 Z-1.389
X46.513 Y83.081 Z-1.436
X46.566 Y83.134 Z-1.471
X46.623 Y83.191 Z-1.493
X46.681 Y83.249 Z-1.5
X48.096 Y84.663
G3 X48.235 Y85 I-0.337 J0.337
X40.665 Y85 I-3.785 J0 F150
X48.235 Y85 I3.785 J0
X48.096 Y85.337 I-0.476 J0
G1 X46.681 Y86.751
X46.623 Y86.809 Z-1.493
X46.566 Y86.866 Z-1.471
X46.513 Y86.919 Z-1.436
X46.465 Y86.967 Z-1.389
X46.424 Y87.009 Z-1.33
X46.39 Y87.042 Z-1.262
X46.365 Y87.067 Z-1.187
X46.35 Y87.082 Z-1.107
X46.345 Y87.087 Z-1.024
Z1
Y82.913
Z0.33
Z-0.548 F50
Z-2.524
X46.35 Y82.918 Z-2.607
X46.365 Y82.933 Z-2.687
X46.39 Y82.958 Z-2.762
X46.424 Y82.991 Z-2.83
X46.465 Y83.033 Z-2.889
X46.513 Y83.081 Z-2.936
X46.566 Y83.134 Z-2.971
X46.623 Y83.191 Z-2.993
X46.681 Y83.249 Z-3
X48.096 Y84.663
G3 X48.235 Y85 I-0.337 J0.337
X40.665 Y85 I-3.785 J0 F150
X48.235 Y85 I3.785 J0
X48.096 Y85.337 I-0.476 J0
G1 X46.681 Y86.751
X46.623 Y86.809 Z-2.993
X46.566 Y86.866 Z-2.971
X46.513 Y86.919 Z-2.936
X46.465 Y86.967 Z-2.889
X46.424 Y87.009 Z-2.83
X46.39 Y87.042 Z-2.762
X46.365 Y87.067 Z-2.687
X46.35 Y87.082 Z-2.607
X46.345 Y87.087 Z-2.524
Z1
Y82.913
Z0.33
Z-2.048 F50
Z-4.024
X46.35 Y82.918 Z-4.107
X46.365 Y82.933 Z-4.187
X46.39 Y82.958 Z-4.262
X46.424 Y82.991 Z-4.33
X46.465 Y83.033 Z-4.389
X46.513 Y83.081 Z-4.436
X46.566 Y83.134 Z-4.471
X46.623 Y83.191 Z-4.493
X46.681 Y83.249 Z-4.5
X48.096 Y84.663
G3 X48.235 Y85 I-0.337 J0.337
X40.665 Y85 I-3.785 J0 F150
X48.235 Y85 I3.785 J0
X48.096 Y85.337 I-0.476 J0
G1 X46.681 Y86.751
X46.623 Y86.809 Z-4.493
X46.566 Y86.866 Z-4.471
X46.513 Y86.919 Z-4.436
X46.465 Y86.967 Z-4.389
X46.424 Y87.009 Z-4.33
X46.39 Y87.042 Z-4.262
X46.365 Y87.067 Z-4.187
X46.35 Y87.082 Z-4.107
X46.345 Y87.087 Z-4.024
Z1
Y82.913
Z0.33
Z-3.548 F50
Z-5.524
X46.35 Y82.918 Z-5.607
X46.365 Y82.933 Z-5.687
X46.39 Y82.958 Z-5.762
X46.424 Y82.991 Z-5.83
X46.465 Y83.033 Z-5.889
X46.513 Y83.081 Z-5.936
X46.566 Y83.134 Z-5.971
X46.623 Y83.191 Z-5.993
X46.681 Y83.249 Z-6
X48.096 Y84.663
G3 X48.235 Y85 I-0.337 J0.337
X40.665 Y85 I-3.785 J0 F150
X48.235 Y85 I3.785 J0
X48.096 Y85.337 I-0.476 J0
G1 X46.681 Y86.751
X46.623 Y86.809 Z-5.993
X46.566 Y86.866 Z-5.971
X46.513 Y86.919 Z-5.936
X46.465 Y86.967 Z-5.889
X46.424 Y87.009 Z-5.83
X46.39 Y87.042 Z-5.762
X46.365 Y87.067 Z-5.687
X46.35 Y87.082 Z-5.607
X46.345 Y87.087 Z-5.524
Z1
Y82.913
Z0.33
Z-5.048 F50
Z-7.024
X46.35 Y82.918 Z-7.107
X46.365 Y82.933 Z-7.187
X46.39 Y82.958 Z-7.262
X46.424 Y82.991 Z-7.33
X46.465 Y83.033 Z-7.389
X46.513 Y83.081 Z-7.436
X46.566 Y83.134 Z-7.471
X46.623 Y83.191 Z-7.493
X46.681 Y83.249 Z-7.5
X48.096 Y84.663
G3 X48.235 Y85 I-0.337 J0.337
X40.665 Y85 I-3.785 J0 F150
X48.235 Y85 I3.785 J0
X48.096 Y85.337 I-0.476 J0
G1 X46.681 Y86.751
X46.623 Y86.809 Z-7.493
X46.566 Y86.866 Z-7.471
X46.513 Y86.919 Z-7.436
X46.465 Y86.967 Z-7.389
X46.424 Y87.009 Z-7.33
X46.39 Y87.042 Z-7.262
X46.365 Y87.067 Z-7.187
X46.35 Y87.082 Z-7.107
X46.345 Y87.087 Z-7.024
Z1
X61.68 Y35.413
Z0.952
Z-1.024 F50
X61.685 Y35.418 Z-1.107
X61.7 Y35.433 Z-1.187
X61.725 Y35.458 Z-1.262
X61.759 Y35.491 Z-1.33
X61.8 Y35.533 Z-1.389
X61.848 Y35.581 Z-1.436
X61.901 Y35.634 Z-1.471
X61.958 Y35.691 Z-1.493
X62.016 Y35.749 Z-1.5
X63.431 Y37.163
G3 X63.57 Y37.5 I-0.337 J0.337
X25.33 Y37.5 I-19.12 J0 F150
X63.57 Y37.5 I19.12 J0
X63.431 Y37.837 I-0.476 J0
G1 X62.016 Y39.251
X61.958 Y39.309 Z-1.493
X61.901 Y39.366 Z-1.471
X61.848 Y39.419 Z-1.436
X61.8 Y39.467 Z-1.389
X61.759 Y39.509 Z-1.33
X61.725 Y39.542 Z-1.262
X61.7 Y39.567 Z-1.187
X61.685 Y39.582 Z-1.107
X61.68 Y39.587 Z-1.024
Z1
Y35.413
Z0.33
Z-0.548 F50
Z-2.524
X61.685 Y35.418 Z-2.607
X61.7 Y35.433 Z-2.687
X61.725 Y35.458 Z-2.762
X61.759 Y35.491 Z-2.83
X61.8 Y35.533 Z-2.889
X61.848 Y35.581 Z-2.936
X61.901 Y35.634 Z-2.971
X61.958 Y35.691 Z-2.993
X62.016 Y35.749 Z-3
X63.431 Y37.163
G3 X63.57 Y37.5 I-0.337 J0.337
X25.33 Y37.5 I-19.12 J0 F150
X63.57 Y37.5 I19.12 J0
X63.431 Y37.837 I-0.476 J0
G1 X62.016 Y39.251
X61.958 Y39.309 Z-2.993
X61.901 Y39.366 Z-2.971
X61.848 Y39.419 Z-2.936
X61.8 Y39.467 Z-2.889
X61.759 Y39.509 Z-2.83
X61.725 Y39.542 Z-2.762
X61.7 Y39.567 Z-2.687
X61.685 Y39.582 Z-2.607
X61.68 Y39.587 Z-2.524
Z1
Y35.413
Z0.33
Z-2.048 F50
Z-4.024
X61.685 Y35.418 Z-4.107
X61.7 Y35.433 Z-4.187
X61.725 Y35.458 Z-4.262
X61.759 Y35.491 Z-4.33
X61.8 Y35.533 Z-4.389
X61.848 Y35.581 Z-4.436
X61.901 Y35.634 Z-4.471
X61.958 Y35.691 Z-4.493
X62.016 Y35.749 Z-4.5
X63.431 Y37.163
G3 X63.57 Y37.5 I-0.337 J0.337
X25.33 Y37.5 I-19.12 J0 F150
X63.57 Y37.5 I19.12 J0
X63.431 Y37.837 I-0.476 J0
G1 X62.016 Y39.251
X61.958 Y39.309 Z-4.493
X61.901 Y39.366 Z-4.471
X61.848 Y39.419 Z-4.436
X61.8 Y39.467 Z-4.389
X61.759 Y39.509 Z-4.33
X61.725 Y39.542 Z-4.262
X61.7 Y39.567 Z-4.187
X61.685 Y39.582 Z-4.107
X61.68 Y39.587 Z-4.024
Z1
Y35.413
Z0.33
Z-3.548 F50
Z-5.524
X61.685 Y35.418 Z-5.607
X61.7 Y35.433 Z-5.687
X61.725 Y35.458 Z-5.762
X61.759 Y35.491 Z-5.83
X61.8 Y35.533 Z-5.889
X61.848 Y35.581 Z-5.936
X61.901 Y35.634 Z-5.971
X61.958 Y35.691 Z-5.993
X62.016 Y35.749 Z-6
X63.431 Y37.163
G3 X63.57 Y37.5 I-0.337 J0.337
X25.33 Y37.5 I-19.12 J0 F150
X63.57 Y37.5 I19.12 J0
X63.431 Y37.837 I-0.476 J0
G1 X62.016 Y39.251
X61.958 Y39.309 Z-5.993
X61.901 Y39.366 Z-5.971
X61.848 Y39.419 Z-5.936
X61.8 Y39.467 Z-5.889
X61.759 Y39.509 Z-5.83
X61.725 Y39.542 Z-5.762
X61.7 Y39.567 Z-5.687
X61.685 Y39.582 Z-5.607
X61.68 Y39.587 Z-5.524
Z1
Y35.413
Z0.33
Z-5.048 F50
Z-7.024
X61.685 Y35.418 Z-7.107
X61.7 Y35.433 Z-7.187
X61.725 Y35.458 Z-7.262
X61.759 Y35.491 Z-7.33
X61.8 Y35.533 Z-7.389
X61.848 Y35.581 Z-7.436
X61.901 Y35.634 Z-7.471
X61.958 Y35.691 Z-7.493
X62.016 Y35.749 Z-7.5
X63.431 Y37.163
G3 X63.57 Y37.5 I-0.337 J0.337
X25.33 Y37.5 I-19.12 J0 F150
X63.57 Y37.5 I19.12 J0
X63.431 Y37.837 I-0.476 J0
G1 X62.016 Y39.251
X61.958 Y39.309 Z-7.493
X61.901 Y39.366 Z-7.471
X61.848 Y39.419 Z-7.436
X61.8 Y39.467 Z-7.389
X61.759 Y39.509 Z-7.33
X61.725 Y39.542 Z-7.262
X61.7 Y39.567 Z-7.187
X61.685 Y39.582 Z-7.107
X61.68 Y39.587 Z-7.024
Z1
X46.345 Y522.513
Z0.952
Z-1.024 F50
X46.35 Y522.518 Z-1.107
X46.365 Y522.533 Z-1.187
X46.39 Y522.558 Z-1.262
X46.424 Y522.591 Z-1.33
X46.465 Y522.633 Z-1.389
X46.513 Y522.681 Z-1.436
X46.566 Y522.734 Z-1.471
X46.623 Y522.791 Z-1.493
X46.681 Y522.849 Z-1.5
X48.096 Y524.263
G3 X48.235 Y524.6 I-0.337 J0.337
X40.665 Y524.6 I-3.785 J0 F150
X48.235 Y524.6 I3.785 J0
X48.096 Y524.937 I-0.476 J0
G1 X46.681 Y526.351
X46.623 Y526.409 Z-1.493
X46.566 Y526.466 Z-1.471
X46.513 Y526.519 Z-1.436
X46.465 Y526.567 Z-1.389
X46.424 Y526.609 Z-1.33
X46.39 Y526.642 Z-1.262
X46.365 Y526.667 Z-1.187
X46.35 Y526.682 Z-1.107
X46.345 Y526.687 Z-1.024
Z1
Y522.513
Z0.33
Z-0.548 F50
Z-2.524
X46.35 Y522.518 Z-2.607
X46.365 Y522.533 Z-2.687
X46.39 Y522.558 Z-2.762
X46.424 Y522.591 Z-2.83
X46.465 Y522.633 Z-2.889
X46.513 Y522.681 Z-2.936
X46.566 Y522.734 Z-2.971
X46.623 Y522.791 Z-2.993
X46.681 Y522.849 Z-3
X48.096 Y524.263
G3 X48.235 Y524.6 I-0.337 J0.337
X40.665 Y524.6 I-3.785 J0 F150
X48.235 Y524.6 I3.785 J0
X48.096 Y524.937 I-0.476 J0
G1 X46.681 Y526.351
X46.623 Y526.409 Z-2.993
X46.566 Y526.466 Z-2.971
X46.513 Y526.519 Z-2.936
X46.465 Y526.567 Z-2.889
X46.424 Y526.609 Z-2.83
X46.39 Y526.642 Z-2.762
X46.365 Y526.667 Z-2.687
X46.35 Y526.682 Z-2.607
X46.345 Y526.687 Z-2.524
Z1
Y522.513
Z0.33
Z-2.048 F50
Z-4.024
X46.35 Y522.518 Z-4.107
X46.365 Y522.533 Z-4.187
X46.39 Y522.558 Z-4.262
X46.424 Y522.591 Z-4.33
X46.465 Y522.633 Z-4.389
X46.513 Y522.681 Z-4.436
X46.566 Y522.734 Z-4.471
X46.623 Y522.791 Z-4.493
X46.681 Y522.849 Z-4.5
X48.096 Y524.263
G3 X48.235 Y524.6 I-0.337 J0.337
X40.665 Y524.6 I-3.785 J0 F150
X48.235 Y524.6 I3.785 J0
X48.096 Y524.937 I-0.476 J0
G1 X46.681 Y526.351
X46.623 Y526.409 Z-4.493
X46.566 Y526.466 Z-4.471
X46.513 Y526.519 Z-4.436
X46.465 Y526.567 Z-4.389
X46.424 Y526.609 Z-4.33
X46.39 Y526.642 Z-4.262
X46.365 Y526.667 Z-4.187
X46.35 Y526.682 Z-4.107
X46.345 Y526.687 Z-4.024
Z1
Y522.513
Z0.33
Z-3.548 F50
Z-5.524
X46.35 Y522.518 Z-5.607
X46.365 Y522.533 Z-5.687
X46.39 Y522.558 Z-5.762
X46.424 Y522.591 Z-5.83
X46.465 Y522.633 Z-5.889
X46.513 Y522.681 Z-5.936
X46.566 Y522.734 Z-5.971
X46.623 Y522.791 Z-5.993
X46.681 Y522.849 Z-6
X48.096 Y524.263
G3 X48.235 Y524.6 I-0.337 J0.337
X40.665 Y524.6 I-3.785 J0 F150
X48.235 Y524.6 I3.785 J0
X48.096 Y524.937 I-0.476 J0
G1 X46.681 Y526.351
X46.623 Y526.409 Z-5.993
X46.566 Y526.466 Z-5.971
X46.513 Y526.519 Z-5.936
X46.465 Y526.567 Z-5.889
X46.424 Y526.609 Z-5.83
X46.39 Y526.642 Z-5.762
X46.365 Y526.667 Z-5.687
X46.35 Y526.682 Z-5.607
X46.345 Y526.687 Z-5.524
Z1
Y522.513
Z0.33
Z-5.048 F50
Z-7.024
X46.35 Y522.518 Z-7.107
X46.365 Y522.533 Z-7.187
X46.39 Y522.558 Z-7.262
X46.424 Y522.591 Z-7.33
X46.465 Y522.633 Z-7.389
X46.513 Y522.681 Z-7.436
X46.566 Y522.734 Z-7.471
X46.623 Y522.791 Z-7.493
X46.681 Y522.849 Z-7.5
X48.096 Y524.263
G3 X48.235 Y524.6 I-0.337 J0.337
X40.665 Y524.6 I-3.785 J0 F150
X48.235 Y524.6 I3.785 J0
X48.096 Y524.937 I-0.476 J0
G1 X46.681 Y526.351
X46.623 Y526.409 Z-7.493
X46.566 Y526.466 Z-7.471
X46.513 Y526.519 Z-7.436
X46.465 Y526.567 Z-7.389
X46.424 Y526.609 Z-7.33
X46.39 Y526.642 Z-7.262
X46.365 Y526.667 Z-7.187
X46.35 Y526.682 Z-7.107
X46.345 Y526.687 Z-7.024
Z1
X61.726 Y570.436
Z0.952
Z-1.024 F50
X61.731 Y570.441 Z-1.107
X61.746 Y570.457 Z-1.187
X61.77 Y570.482 Z-1.262
X61.803 Y570.517 Z-1.33
X61.843 Y570.559 Z-1.389
X61.89 Y570.608 Z-1.436
X61.942 Y570.663 Z-1.471
X61.997 Y570.721 Z-1.493
X62.054 Y570.781 Z-1.5
X63.433 Y572.229
G3 X63.564 Y572.569 I-0.345 J0.328
X25.336 Y571.631 I-19.114 J-0.469 F150
X63.564 Y572.569 I19.114 J0.469
X63.417 Y572.902 I-0.476 J-0.012
G1 X61.968 Y574.281
X61.908 Y574.338 Z-1.493
X61.85 Y574.394 Z-1.471
X61.796 Y574.445 Z-1.436
X61.747 Y574.492 Z-1.389
X61.704 Y574.533 Z-1.33
X61.67 Y574.566 Z-1.262
X61.644 Y574.59 Z-1.187
X61.629 Y574.605 Z-1.107
X61.623 Y574.61 Z-1.024
Z1
X61.726 Y570.436
Z0.33
Z-0.548 F50
Z-2.524
X61.731 Y570.441 Z-2.607
X61.746 Y570.457 Z-2.687
X61.77 Y570.482 Z-2.762
X61.803 Y570.517 Z-2.83
X61.843 Y570.559 Z-2.889
X61.89 Y570.608 Z-2.936
X61.942 Y570.663 Z-2.971
X61.997 Y570.721 Z-2.993
X62.054 Y570.781 Z-3
X63.433 Y572.229
G3 X63.564 Y572.569 I-0.345 J0.328
X25.336 Y571.631 I-19.114 J-0.469 F150
X63.564 Y572.569 I19.114 J0.469
X63.417 Y572.902 I-0.476 J-0.012
G1 X61.968 Y574.281
X61.908 Y574.338 Z-2.993
X61.85 Y574.394 Z-2.971
X61.796 Y574.445 Z-2.936
X61.747 Y574.492 Z-2.889
X61.704 Y574.533 Z-2.83
X61.67 Y574.566 Z-2.762
X61.644 Y574.59 Z-2.687
X61.629 Y574.605 Z-2.607
X61.623 Y574.61 Z-2.524
Z1
X61.726 Y570.436
Z0.33
Z-2.048 F50
Z-4.024
X61.731 Y570.441 Z-4.107
X61.746 Y570.457 Z-4.187
X61.77 Y570.482 Z-4.262
X61.803 Y570.517 Z-4.33
X61.843 Y570.559 Z-4.389
X61.89 Y570.608 Z-4.436
X61.942 Y570.663 Z-4.471
X61.997 Y570.721 Z-4.493
X62.054 Y570.781 Z-4.5
X63.433 Y572.229
G3 X63.564 Y572.569 I-0.345 J0.328
X25.336 Y571.631 I-19.114 J-0.469 F150
X63.564 Y572.569 I19.114 J0.469
X63.417 Y572.902 I-0.476 J-0.012
G1 X61.968 Y574.281
X61.908 Y574.338 Z-4.493
X61.85 Y574.394 Z-4.471
X61.796 Y574.445 Z-4.436
X61.747 Y574.492 Z-4.389
X61.704 Y574.533 Z-4.33
X61.67 Y574.566 Z-4.262
X61.644 Y574.59 Z-4.187
X61.629 Y574.605 Z-4.107
X61.623 Y574.61 Z-4.024
Z1
X61.726 Y570.436
Z0.33
Z-3.548 F50
Z-5.524
X61.731 Y570.441 Z-5.607
X61.746 Y570.457 Z-5.687
X61.77 Y570.482 Z-5.762
X61.803 Y570.517 Z-5.83
X61.843 Y570.559 Z-5.889
X61.89 Y570.608 Z-5.936
X61.942 Y570.663 Z-5.971
X61.997 Y570.721 Z-5.993
X62.054 Y570.781 Z-6
X63.433 Y572.229
G3 X63.564 Y572.569 I-0.345 J0.328
X25.336 Y571.631 I-19.114 J-0.469 F150
X63.564 Y572.569 I19.114 J0.469
X63.417 Y572.902 I-0.476 J-0.012
G1 X61.968 Y574.281
X61.908 Y574.338 Z-5.993
X61.85 Y574.394 Z-5.971
X61.796 Y574.445 Z-5.936
X61.747 Y574.492 Z-5.889
X61.704 Y574.533 Z-5.83
X61.67 Y574.566 Z-5.762
X61.644 Y574.59 Z-5.687
X61.629 Y574.605 Z-5.607
X61.623 Y574.61 Z-5.524
Z1
X61.726 Y570.436
Z0.33
Z-5.048 F50
Z-7.024
X61.731 Y570.441 Z-7.107
X61.746 Y570.457 Z-7.187
X61.77 Y570.482 Z-7.262
X61.803 Y570.517 Z-7.33
X61.843 Y570.559 Z-7.389
X61.89 Y570.608 Z-7.436
X61.942 Y570.663 Z-7.471
X61.997 Y570.721 Z-7.493
X62.054 Y570.781 Z-7.5
X63.433 Y572.229
G3 X63.564 Y572.569 I-0.345 J0.328
X25.336 Y571.631 I-19.114 J-0.469 F150
X63.564 Y572.569 I19.114 J0.469
X63.417 Y572.902 I-0.476 J-0.012
G1 X61.968 Y574.281
X61.908 Y574.338 Z-7.493
X61.85 Y574.394 Z-7.471
X61.796 Y574.445 Z-7.436
X61.747 Y574.492 Z-7.389
X61.704 Y574.533 Z-7.33
X61.67 Y574.566 Z-7.262
X61.644 Y574.59 Z-7.187
X61.629 Y574.605 Z-7.107
X61.623 Y574.61 Z-7.024
Z6
(When using Fusion for Personal Use, the feedrate of rapid)
(moves is reduced to match the feedrate of cutting moves,)
(which can increase machining time. Unrestricted rapid moves)
(are available with a Fusion Subscription.)

(2D Contour3)
G0 X-4.529 Y570.598
G1 Z6 F150
Z0.952
Z-1.024 F50
X-4.523 Y570.602 Z-1.107
X-4.506 Y570.615 Z-1.187
X-4.478 Y570.636 Z-1.262
X-4.44 Y570.664 Z-1.33
X-4.393 Y570.699 Z-1.389
X-4.338 Y570.74 Z-1.436
X-4.278 Y570.785 Z-1.471
X-4.213 Y570.832 Z-1.493
X-4.147 Y570.882 Z-1.5
X-2.542 Y572.074
G3 X-2.355 Y572.387 I-0.284 J0.382
G2 X42.529 Y611.979 I45.869 J-6.762 F150
G1 X42.579 Y611.98
X48.278
X48.384 Y611.978
G2 X91.262 Y572.358 I-2.02 J-45.198
G3 X91.442 Y572.042 I0.472 J0.059
G1 X93.019 Y570.813
X93.085 Y570.762 Z-1.493
X93.148 Y570.713 Z-1.471
X93.207 Y570.666 Z-1.436
X93.261 Y570.625 Z-1.389
X93.307 Y570.589 Z-1.33
X93.345 Y570.559 Z-1.262
X93.372 Y570.538 Z-1.187
X93.389 Y570.525 Z-1.107
X93.395 Y570.52 Z-1.024
Z1
X-4.529 Y570.598
Z0.33
Z-0.548 F50
Z-2.524
X-4.523 Y570.602 Z-2.607
X-4.506 Y570.615 Z-2.687
X-4.478 Y570.636 Z-2.762
X-4.44 Y570.664 Z-2.83
X-4.393 Y570.699 Z-2.889
X-4.338 Y570.74 Z-2.936
X-4.278 Y570.785 Z-2.971
X-4.213 Y570.832 Z-2.993
X-4.147 Y570.882 Z-3
X-2.542 Y572.074
G3 X-2.355 Y572.387 I-0.284 J0.382
G2 X42.529 Y611.979 I45.869 J-6.762 F150
G1 X42.579 Y611.98
X48.278
X48.384 Y611.978
G2 X91.262 Y572.358 I-2.02 J-45.198
G3 X91.442 Y572.042 I0.472 J0.059
G1 X93.019 Y570.813
X93.085 Y570.762 Z-2.993
X93.148 Y570.713 Z-2.971
X93.207 Y570.666 Z-2.936
X93.261 Y570.625 Z-2.889
X93.307 Y570.589 Z-2.83
X93.345 Y570.559 Z-2.762
X93.372 Y570.538 Z-2.687
X93.389 Y570.525 Z-2.607
X93.395 Y570.52 Z-2.524
Z1
X-4.529 Y570.598
Z0.33
Z-2.048 F50
Z-4.024
X-4.523 Y570.602 Z-4.107
X-4.506 Y570.615 Z-4.187
X-4.478 Y570.636 Z-4.262
X-4.44 Y570.664 Z-4.33
X-4.393 Y570.699 Z-4.389
X-4.338 Y570.74 Z-4.436
X-4.278 Y570.785 Z-4.471
X-4.213 Y570.832 Z-4.493
X-4.147 Y570.882 Z-4.5
X-2.542 Y572.074
G3 X-2.355 Y572.387 I-0.284 J0.382
G2 X42.529 Y611.979 I45.869 J-6.762 F150
G1 X42.579 Y611.98
X48.278
X48.384 Y611.978
G2 X91.262 Y572.358 I-2.02 J-45.198
G3 X91.442 Y572.042 I0.472 J0.059
G1 X93.019 Y570.813
X93.085 Y570.762 Z-4.493
X93.148 Y570.713 Z-4.471
X93.207 Y570.666 Z-4.436
X93.261 Y570.625 Z-4.389
X93.307 Y570.589 Z-4.33
X93.345 Y570.559 Z-4.262
X93.372 Y570.538 Z-4.187
X93.389 Y570.525 Z-4.107
X93.395 Y570.52 Z-4.024
Z1
X-4.529 Y570.598
Z0.33
Z-3.548 F50
Z-5.524
X-4.523 Y570.602 Z-5.607
X-4.506 Y570.615 Z-5.687
X-4.478 Y570.636 Z-5.762
X-4.44 Y570.664 Z-5.83
X-4.393 Y570.699 Z-5.889
X-4.338 Y570.74 Z-5.936
X-4.278 Y570.785 Z-5.971
X-4.213 Y570.832 Z-5.993
X-4.147 Y570.882 Z-6
X-2.542 Y572.074
G3 X-2.355 Y572.387 I-0.284 J0.382
G2 X42.529 Y611.979 I45.869 J-6.762 F150
G1 X42.579 Y611.98
X48.278
X48.384 Y611.978
G2 X91.262 Y572.358 I-2.02 J-45.198
G3 X91.442 Y572.042 I0.472 J0.059
G1 X93.019 Y570.813
X93.085 Y570.762 Z-5.993
X93.148 Y570.713 Z-5.971
X93.207 Y570.666 Z-5.936
X93.261 Y570.625 Z-5.889
X93.307 Y570.589 Z-5.83
X93.345 Y570.559 Z-5.762
X93.372 Y570.538 Z-5.687
X93.389 Y570.525 Z-5.607
X93.395 Y570.52 Z-5.524
Z1
X-4.529 Y570.598
Z0.33
Z-5.048 F50
Z-7.024
X-4.523 Y570.602 Z-7.107
X-4.506 Y570.615 Z-7.187
X-4.478 Y570.636 Z-7.262
X-4.44 Y570.664 Z-7.33
X-4.393 Y570.699 Z-7.389
X-4.338 Y570.74 Z-7.436
X-4.278 Y570.785 Z-7.471
X-4.213 Y570.832 Z-7.493
X-4.147 Y570.882 Z-7.5
X-2.542 Y572.074
G3 X-2.355 Y572.387 I-0.284 J0.382
G2 X42.529 Y611.979 I45.869 J-6.762 F150
G1 X42.579 Y611.98
X48.278
X48.384 Y611.978
G2 X91.262 Y572.358 I-2.02 J-45.198
G3 X91.442 Y572.042 I0.472 J0.059
G1 X93.019 Y570.813
X93.085 Y570.762 Z-7.493
X93.148 Y570.713 Z-7.471
X93.207 Y570.666 Z-7.436
X93.261 Y570.625 Z-7.389
X93.307 Y570.589 Z-7.33
X93.345 Y570.559 Z-7.262
X93.372 Y570.538 Z-7.187
X93.389 Y570.525 Z-7.107
X93.395 Y570.52 Z-7.024
Z1
X93.459 Y38.903
Z0.952
Z-1.024 F50
X93.453 Y38.899 Z-1.107
X93.435 Y38.886 Z-1.187
X93.407 Y38.866 Z-1.262
X93.368 Y38.838 Z-1.33
X93.32 Y38.804 Z-1.389
X93.265 Y38.765 Z-1.436
X93.203 Y38.722 Z-1.471
X93.138 Y38.675 Z-1.493
X93.071 Y38.627 Z-1.5
X91.44 Y37.469
G3 X91.247 Y37.16 I0.276 J-0.388
G2 X-2.347 Y37.16 I-46.797 J7.922 F150
G3 X-2.54 Y37.469 I-0.469 J-0.079
G1 X-4.171 Y38.627
X-4.238 Y38.675 Z-1.493
X-4.303 Y38.722 Z-1.471
X-4.365 Y38.765 Z-1.436
X-4.42 Y38.804 Z-1.389
X-4.468 Y38.838 Z-1.33
X-4.507 Y38.866 Z-1.262
X-4.535 Y38.886 Z-1.187
X-4.553 Y38.899 Z-1.107
X-4.559 Y38.903 Z-1.024
Z1
X93.459
Z0.33
Z-0.548 F50
Z-2.524
X93.453 Y38.899 Z-2.607
X93.435 Y38.886 Z-2.687
X93.407 Y38.866 Z-2.762
X93.368 Y38.838 Z-2.83
X93.32 Y38.804 Z-2.889
X93.265 Y38.765 Z-2.936
X93.203 Y38.722 Z-2.971
X93.138 Y38.675 Z-2.993
X93.071 Y38.627 Z-3
X91.44 Y37.469
G3 X91.247 Y37.16 I0.276 J-0.388
G2 X-2.347 Y37.16 I-46.797 J7.922 F150
G3 X-2.54 Y37.469 I-0.469 J-0.079
G1 X-4.171 Y38.627
X-4.238 Y38.675 Z-2.993
X-4.303 Y38.722 Z-2.971
X-4.365 Y38.765 Z-2.936
X-4.42 Y38.804 Z-2.889
X-4.468 Y38.838 Z-2.83
X-4.507 Y38.866 Z-2.762
X-4.535 Y38.886 Z-2.687
X-4.553 Y38.899 Z-2.607
X-4.559 Y38.903 Z-2.524
Z1
X93.459
Z0.33
Z-2.048 F50
Z-4.024
X93.453 Y38.899 Z-4.107
X93.435 Y38.886 Z-4.187
X93.407 Y38.866 Z-4.262
X93.368 Y38.838 Z-4.33
X93.32 Y38.804 Z-4.389
X93.265 Y38.765 Z-4.436
X93.203 Y38.722 Z-4.471
X93.138 Y38.675 Z-4.493
X93.071 Y38.627 Z-4.5
X91.44 Y37.469
G3 X91.247 Y37.16 I0.276 J-0.388
G2 X-2.347 Y37.16 I-46.797 J7.922 F150
G3 X-2.54 Y37.469 I-0.469 J-0.079
G1 X-4.171 Y38.627
X-4.238 Y38.675 Z-4.493
X-4.303 Y38.722 Z-4.471
X-4.365 Y38.765 Z-4.436
X-4.42 Y38.804 Z-4.389
X-4.468 Y38.838 Z-4.33
X-4.507 Y38.866 Z-4.262
X-4.535 Y38.886 Z-4.187
X-4.553 Y38.899 Z-4.107
X-4.559 Y38.903 Z-4.024
Z1
X93.459
Z0.33
Z-3.548 F50
Z-5.524
X93.453 Y38.899 Z-5.607
X93.435 Y38.886 Z-5.687
X93.407 Y38.866 Z-5.762
X93.368 Y38.838 Z-5.83
X93.32 Y38.804 Z-5.889
X93.265 Y38.765 Z-5.936
X93.203 Y38.722 Z-5.971
X93.138 Y38.675 Z-5.993
X93.071 Y38.627 Z-6
X91.44 Y37.469
G3 X91.247 Y37.16 I0.276 J-0.388
G2 X-2.347 Y37.16 I-46.797 J7.922 F150
G3 X-2.54 Y37.469 I-0.469 J-0.079
G1 X-4.171 Y38.627
X-4.238 Y38.675 Z-5.993
X-4.303 Y38.722 Z-5.971
X-4.365 Y38.765 Z-5.936
X-4.42 Y38.804 Z-5.889
X-4.468 Y38.838 Z-5.83
X-4.507 Y38.866 Z-5.762
X-4.535 Y38.886 Z-5.687
X-4.553 Y38.899 Z-5.607
X-4.559 Y38.903 Z-5.524
Z1
X93.459
Z0.33
Z-5.048 F50
Z-7.024
X93.453 Y38.899 Z-7.107
X93.435 Y38.886 Z-7.187
X93.407 Y38.866 Z-7.262
X93.368 Y38.838 Z-7.33
X93.32 Y38.804 Z-7.389
X93.265 Y38.765 Z-7.436
X93.203 Y38.722 Z-7.471
X93.138 Y38.675 Z-7.493
X93.071 Y38.627 Z-7.5
X91.44 Y37.469
G3 X91.247 Y37.16 I0.276 J-0.388
G2 X-2.347 Y37.16 I-46.797 J7.922 F150
G3 X-2.54 Y37.469 I-0.469 J-0.079
G1 X-4.171 Y38.627
X-4.238 Y38.675 Z-7.493
X-4.303 Y38.722 Z-7.471
X-4.365 Y38.765 Z-7.436
X-4.42 Y38.804 Z-7.389
X-4.468 Y38.838 Z-7.33
X-4.507 Y38.866 Z-7.262
X-4.535 Y38.886 Z-7.187
X-4.553 Y38.899 Z-7.107
X-4.559 Y38.903 Z-7.024
Z6

M9
M5
M30
