(bot_upperleft)
(Machine)
(  vendor: Autodesk)
(  model: Generic 3-axis)
(  description: This machine has XY axis on the Table and Z axis on the Head)
(T3 D=3.1 CR=0 - ZMIN=-7.3 - flat end mill)
G90 G94
G17
G21
(When using Fusion for Personal Use, the feedrate of rapid)
(moves is reduced to match the feedrate of cutting moves,)
(which can increase machining time. Unrestricted rapid moves)
(are available with a Fusion Subscription.)
G28 G91 Z0
G90

(bot_upperleft)
T3
S19000 M3
G17 G90 G94
G54
M8
G0 X21.825 Y-57.46
Z15
G1 Z2 F250
Z0.31 F50
G18 G2 X22.135 Z0 I0.31 K0
G1 X22.29
G17 G3 X22.6 Y-57.15 I0 J0.31
X20.7 Y-57.15 Z-0.175 I-0.95 J0 F250
X22.6 Y-57.15 Z-0.35 I0.95 J0
X20.7 Y-57.15 Z-0.524 I-0.95 J0
X22.6 Y-57.15 Z-0.699 I0.95 J0
X20.7 Y-57.15 Z-0.874 I-0.95 J0
X22.6 Y-57.15 Z-1.049 I0.95 J0
X20.7 Y-57.15 Z-1.224 I-0.95 J0
X22.6 Y-57.15 Z-1.399 I0.95 J0
X20.7 Y-57.15 Z-1.573 I-0.95 J0
X22.6 Y-57.15 Z-1.748 I0.95 J0
X20.7 Y-57.15 Z-1.923 I-0.95 J0
X22.6 Y-57.15 Z-2.098 I0.95 J0
X20.7 Y-57.15 Z-2.273 I-0.95 J0
X22.6 Y-57.15 Z-2.447 I0.95 J0
X20.7 Y-57.15 Z-2.622 I-0.95 J0
X22.6 Y-57.15 Z-2.797 I0.95 J0
X20.7 Y-57.15 Z-2.972 I-0.95 J0
X22.6 Y-57.15 Z-3.147 I0.95 J0
X20.7 Y-57.15 Z-3.322 I-0.95 J0
X22.6 Y-57.15 Z-3.496 I0.95 J0
X20.7 Y-57.15 Z-3.671 I-0.95 J0
X22.6 Y-57.15 Z-3.846 I0.95 J0
X20.7 Y-57.15 Z-4.021 I-0.95 J0
X22.6 Y-57.15 Z-4.196 I0.95 J0
X20.7 Y-57.15 Z-4.37 I-0.95 J0
X22.6 Y-57.15 Z-4.545 I0.95 J0
X20.7 Y-57.15 Z-4.72 I-0.95 J0
X22.6 Y-57.15 Z-4.895 I0.95 J0
X20.7 Y-57.15 Z-5.07 I-0.95 J0
X22.6 Y-57.15 Z-5.245 I0.95 J0
X20.7 Y-57.15 Z-5.419 I-0.95 J0
X22.6 Y-57.15 Z-5.594 I0.95 J0
X20.7 Y-57.15 Z-5.769 I-0.95 J0
X22.6 Y-57.15 Z-5.944 I0.95 J0
X20.7 Y-57.15 Z-6.119 I-0.95 J0
X22.6 Y-57.15 Z-6.293 I0.95 J0
X20.7 Y-57.15 Z-6.468 I-0.95 J0
X22.6 Y-57.15 Z-6.643 I0.95 J0
X20.7 Y-57.15 Z-6.818 I-0.95 J0
X22.6 Y-57.15 Z-6.993 I0.95 J0
X20.7 Y-57.15 Z-7.167 I-0.95 J0
X22.338 Y-57.805 Z-7.3 I0.95 J0
X20.962 Y-56.495 I-0.688 J0.655
X22.338 Y-57.805 I0.688 J-0.655
X22.327 Y-57.367 I-0.225 J0.214 F50
G1 X22.215 Y-57.26
X22.165 Y-57.212 Z-7.292
X22.118 Y-57.167 Z-7.269
X22.075 Y-57.126 Z-7.232
X22.039 Y-57.093 Z-7.183
X22.013 Y-57.067 Z-7.125
X21.996 Y-57.051 Z-7.059
X21.99 Y-57.046 Z-6.99
Z5 F250
X26.581 Y-39.71
Z2
Z0.31 F50
G18 G2 X26.891 Z0 I0.31 K0
G1 X27.046
G17 G3 X27.356 Y-39.4 I0 J0.31
X25.456 Y-39.4 Z-0.175 I-0.95 J0 F250
X27.356 Y-39.4 Z-0.35 I0.95 J0
X25.456 Y-39.4 Z-0.524 I-0.95 J0
X27.356 Y-39.4 Z-0.699 I0.95 J0
X25.456 Y-39.4 Z-0.874 I-0.95 J0
X27.356 Y-39.4 Z-1.049 I0.95 J0
X25.456 Y-39.4 Z-1.224 I-0.95 J0
X27.356 Y-39.4 Z-1.399 I0.95 J0
X25.456 Y-39.4 Z-1.573 I-0.95 J0
X27.356 Y-39.4 Z-1.748 I0.95 J0
X25.456 Y-39.4 Z-1.923 I-0.95 J0
X27.356 Y-39.4 Z-2.098 I0.95 J0
X25.456 Y-39.4 Z-2.273 I-0.95 J0
X27.356 Y-39.4 Z-2.447 I0.95 J0
X25.456 Y-39.4 Z-2.622 I-0.95 J0
X27.356 Y-39.4 Z-2.797 I0.95 J0
X25.456 Y-39.4 Z-2.972 I-0.95 J0
X27.356 Y-39.4 Z-3.147 I0.95 J0
X25.456 Y-39.4 Z-3.322 I-0.95 J0
X27.356 Y-39.4 Z-3.496 I0.95 J0
X25.456 Y-39.4 Z-3.671 I-0.95 J0
X27.356 Y-39.4 Z-3.846 I0.95 J0
X25.456 Y-39.4 Z-4.021 I-0.95 J0
X27.356 Y-39.4 Z-4.196 I0.95 J0
X25.456 Y-39.4 Z-4.37 I-0.95 J0
X27.356 Y-39.4 Z-4.545 I0.95 J0
X25.456 Y-39.4 Z-4.72 I-0.95 J0
X27.356 Y-39.4 Z-4.895 I0.95 J0
X25.456 Y-39.4 Z-5.07 I-0.95 J0
X27.356 Y-39.4 Z-5.245 I0.95 J0
X25.456 Y-39.4 Z-5.419 I-0.95 J0
X27.356 Y-39.4 Z-5.594 I0.95 J0
X25.456 Y-39.4 Z-5.769 I-0.95 J0
X27.356 Y-39.4 Z-5.944 I0.95 J0
X25.456 Y-39.4 Z-6.119 I-0.95 J0
X27.356 Y-39.4 Z-6.293 I0.95 J0
X25.456 Y-39.4 Z-6.468 I-0.95 J0
X27.356 Y-39.4 Z-6.643 I0.95 J0
X25.456 Y-39.4 Z-6.818 I-0.95 J0
X27.356 Y-39.4 Z-6.993 I0.95 J0
X25.456 Y-39.4 Z-7.167 I-0.95 J0
X27.094 Y-40.055 Z-7.3 I0.95 J0
X25.718 Y-38.745 I-0.688 J0.655
X27.094 Y-40.055 I0.688 J-0.655
X27.083 Y-39.617 I-0.225 J0.214 F50
G1 X26.971 Y-39.51
X26.921 Y-39.462 Z-7.292
X26.874 Y-39.417 Z-7.269
X26.831 Y-39.376 Z-7.232
X26.796 Y-39.343 Z-7.183
X26.769 Y-39.317 Z-7.125
X26.752 Y-39.301 Z-7.059
X26.747 Y-39.296 Z-6.99
Z5 F250
X39.575 Y-26.716
Z2
Z0.31 F50
G18 G2 X39.885 Z0 I0.31 K0
G1 X40.04
G17 G3 X40.35 Y-26.406 I0 J0.31
X38.45 Y-26.406 Z-0.175 I-0.95 J0 F250
X40.35 Y-26.406 Z-0.35 I0.95 J0
X38.45 Y-26.406 Z-0.524 I-0.95 J0
X40.35 Y-26.406 Z-0.699 I0.95 J0
X38.45 Y-26.406 Z-0.874 I-0.95 J0
X40.35 Y-26.406 Z-1.049 I0.95 J0
X38.45 Y-26.406 Z-1.224 I-0.95 J0
X40.35 Y-26.406 Z-1.399 I0.95 J0
X38.45 Y-26.406 Z-1.573 I-0.95 J0
X40.35 Y-26.406 Z-1.748 I0.95 J0
X38.45 Y-26.406 Z-1.923 I-0.95 J0
X40.35 Y-26.406 Z-2.098 I0.95 J0
X38.45 Y-26.406 Z-2.273 I-0.95 J0
X40.35 Y-26.406 Z-2.447 I0.95 J0
X38.45 Y-26.406 Z-2.622 I-0.95 J0
X40.35 Y-26.406 Z-2.797 I0.95 J0
X38.45 Y-26.406 Z-2.972 I-0.95 J0
X40.35 Y-26.406 Z-3.147 I0.95 J0
X38.45 Y-26.406 Z-3.322 I-0.95 J0
X40.35 Y-26.406 Z-3.496 I0.95 J0
X38.45 Y-26.406 Z-3.671 I-0.95 J0
X40.35 Y-26.406 Z-3.846 I0.95 J0
X38.45 Y-26.406 Z-4.021 I-0.95 J0
X40.35 Y-26.406 Z-4.196 I0.95 J0
X38.45 Y-26.406 Z-4.37 I-0.95 J0
X40.35 Y-26.406 Z-4.545 I0.95 J0
X38.45 Y-26.406 Z-4.72 I-0.95 J0
X40.35 Y-26.406 Z-4.895 I0.95 J0
X38.45 Y-26.406 Z-5.07 I-0.95 J0
X40.35 Y-26.406 Z-5.245 I0.95 J0
X38.45 Y-26.406 Z-5.419 I-0.95 J0
X40.35 Y-26.406 Z-5.594 I0.95 J0
X38.45 Y-26.406 Z-5.769 I-0.95 J0
X40.35 Y-26.406 Z-5.944 I0.95 J0
X38.45 Y-26.406 Z-6.119 I-0.95 J0
X40.35 Y-26.406 Z-6.293 I0.95 J0
X38.45 Y-26.406 Z-6.468 I-0.95 J0
X40.35 Y-26.406 Z-6.643 I0.95 J0
X38.45 Y-26.406 Z-6.818 I-0.95 J0
X40.35 Y-26.406 Z-6.993 I0.95 J0
X38.45 Y-26.406 Z-7.167 I-0.95 J0
X40.088 Y-27.061 Z-7.3 I0.95 J0
X38.712 Y-25.751 I-0.688 J0.655
X40.088 Y-27.061 I0.688 J-0.655
X40.077 Y-26.623 I-0.225 J0.214 F50
G1 X39.965 Y-26.516
X39.915 Y-26.468 Z-7.292
X39.868 Y-26.423 Z-7.269
X39.825 Y-26.383 Z-7.232
X39.789 Y-26.349 Z-7.183
X39.763 Y-26.323 Z-7.125
X39.746 Y-26.307 Z-7.059
X39.74 Y-26.302 Z-6.99
Z5 F250
X57.325 Y-21.96
Z2
Z0.31 F50
G18 G2 X57.635 Z0 I0.31 K0
G1 X57.79
G17 G3 X58.1 Y-21.65 I0 J0.31
X56.2 Y-21.65 Z-0.175 I-0.95 J0 F250
X58.1 Y-21.65 Z-0.35 I0.95 J0
X56.2 Y-21.65 Z-0.524 I-0.95 J0
X58.1 Y-21.65 Z-0.699 I0.95 J0
X56.2 Y-21.65 Z-0.874 I-0.95 J0
X58.1 Y-21.65 Z-1.049 I0.95 J0
X56.2 Y-21.65 Z-1.224 I-0.95 J0
X58.1 Y-21.65 Z-1.399 I0.95 J0
X56.2 Y-21.65 Z-1.573 I-0.95 J0
X58.1 Y-21.65 Z-1.748 I0.95 J0
X56.2 Y-21.65 Z-1.923 I-0.95 J0
X58.1 Y-21.65 Z-2.098 I0.95 J0
X56.2 Y-21.65 Z-2.273 I-0.95 J0
X58.1 Y-21.65 Z-2.447 I0.95 J0
X56.2 Y-21.65 Z-2.622 I-0.95 J0
X58.1 Y-21.65 Z-2.797 I0.95 J0
X56.2 Y-21.65 Z-2.972 I-0.95 J0
X58.1 Y-21.65 Z-3.147 I0.95 J0
X56.2 Y-21.65 Z-3.322 I-0.95 J0
X58.1 Y-21.65 Z-3.496 I0.95 J0
X56.2 Y-21.65 Z-3.671 I-0.95 J0
X58.1 Y-21.65 Z-3.846 I0.95 J0
X56.2 Y-21.65 Z-4.021 I-0.95 J0
X58.1 Y-21.65 Z-4.196 I0.95 J0
X56.2 Y-21.65 Z-4.37 I-0.95 J0
X58.1 Y-21.65 Z-4.545 I0.95 J0
X56.2 Y-21.65 Z-4.72 I-0.95 J0
X58.1 Y-21.65 Z-4.895 I0.95 J0
X56.2 Y-21.65 Z-5.07 I-0.95 J0
X58.1 Y-21.65 Z-5.245 I0.95 J0
X56.2 Y-21.65 Z-5.419 I-0.95 J0
X58.1 Y-21.65 Z-5.594 I0.95 J0
X56.2 Y-21.65 Z-5.769 I-0.95 J0
X58.1 Y-21.65 Z-5.944 I0.95 J0
X56.2 Y-21.65 Z-6.119 I-0.95 J0
X58.1 Y-21.65 Z-6.293 I0.95 J0
X56.2 Y-21.65 Z-6.468 I-0.95 J0
X58.1 Y-21.65 Z-6.643 I0.95 J0
X56.2 Y-21.65 Z-6.818 I-0.95 J0
X58.1 Y-21.65 Z-6.993 I0.95 J0
X56.2 Y-21.65 Z-7.167 I-0.95 J0
X57.838 Y-22.305 Z-7.3 I0.95 J0
X56.462 Y-20.995 I-0.688 J0.655
X57.838 Y-22.305 I0.688 J-0.655
X57.827 Y-21.867 I-0.225 J0.214 F50
G1 X57.715 Y-21.76
X57.665 Y-21.712 Z-7.292
X57.618 Y-21.667 Z-7.269
X57.575 Y-21.626 Z-7.232
X57.539 Y-21.593 Z-7.183
X57.513 Y-21.567 Z-7.125
X57.496 Y-21.551 Z-7.059
X57.49 Y-21.546 Z-6.99
Z5 F250
X75.075 Y-26.716
Z2
Z0.31 F50
G18 G2 X75.385 Z0 I0.31 K0
G1 X75.54
G17 G3 X75.85 Y-26.406 I0 J0.31
X73.95 Y-26.406 Z-0.175 I-0.95 J0 F250
X75.85 Y-26.406 Z-0.35 I0.95 J0
X73.95 Y-26.406 Z-0.524 I-0.95 J0
X75.85 Y-26.406 Z-0.699 I0.95 J0
X73.95 Y-26.406 Z-0.874 I-0.95 J0
X75.85 Y-26.406 Z-1.049 I0.95 J0
X73.95 Y-26.406 Z-1.224 I-0.95 J0
X75.85 Y-26.406 Z-1.399 I0.95 J0
X73.95 Y-26.406 Z-1.573 I-0.95 J0
X75.85 Y-26.406 Z-1.748 I0.95 J0
X73.95 Y-26.406 Z-1.923 I-0.95 J0
X75.85 Y-26.406 Z-2.098 I0.95 J0
X73.95 Y-26.406 Z-2.273 I-0.95 J0
X75.85 Y-26.406 Z-2.447 I0.95 J0
X73.95 Y-26.406 Z-2.622 I-0.95 J0
X75.85 Y-26.406 Z-2.797 I0.95 J0
X73.95 Y-26.406 Z-2.972 I-0.95 J0
X75.85 Y-26.406 Z-3.147 I0.95 J0
X73.95 Y-26.406 Z-3.322 I-0.95 J0
X75.85 Y-26.406 Z-3.496 I0.95 J0
X73.95 Y-26.406 Z-3.671 I-0.95 J0
X75.85 Y-26.406 Z-3.846 I0.95 J0
X73.95 Y-26.406 Z-4.021 I-0.95 J0
X75.85 Y-26.406 Z-4.196 I0.95 J0
X73.95 Y-26.406 Z-4.37 I-0.95 J0
X75.85 Y-26.406 Z-4.545 I0.95 J0
X73.95 Y-26.406 Z-4.72 I-0.95 J0
X75.85 Y-26.406 Z-4.895 I0.95 J0
X73.95 Y-26.406 Z-5.07 I-0.95 J0
X75.85 Y-26.406 Z-5.245 I0.95 J0
X73.95 Y-26.406 Z-5.419 I-0.95 J0
X75.85 Y-26.406 Z-5.594 I0.95 J0
X73.95 Y-26.406 Z-5.769 I-0.95 J0
X75.85 Y-26.406 Z-5.944 I0.95 J0
X73.95 Y-26.406 Z-6.119 I-0.95 J0
X75.85 Y-26.406 Z-6.293 I0.95 J0
X73.95 Y-26.406 Z-6.468 I-0.95 J0
X75.85 Y-26.406 Z-6.643 I0.95 J0
X73.95 Y-26.406 Z-6.818 I-0.95 J0
X75.85 Y-26.406 Z-6.993 I0.95 J0
X73.95 Y-26.406 Z-7.167 I-0.95 J0
X75.588 Y-27.061 Z-7.3 I0.95 J0
X74.212 Y-25.751 I-0.688 J0.655
X75.588 Y-27.061 I0.688 J-0.655
X75.577 Y-26.623 I-0.225 J0.214 F50
G1 X75.465 Y-26.516
X75.415 Y-26.468 Z-7.292
X75.368 Y-26.423 Z-7.269
X75.325 Y-26.383 Z-7.232
X75.289 Y-26.349 Z-7.183
X75.263 Y-26.323 Z-7.125
X75.246 Y-26.307 Z-7.059
X75.24 Y-26.302 Z-6.99
Z5 F250
X88.069 Y-39.71
Z2
Z0.31 F50
G18 G2 X88.379 Z0 I0.31 K0
G1 X88.534
G17 G3 X88.844 Y-39.4 I0 J0.31
X86.944 Y-39.4 Z-0.175 I-0.95 J0 F250
X88.844 Y-39.4 Z-0.35 I0.95 J0
X86.944 Y-39.4 Z-0.524 I-0.95 J0
X88.844 Y-39.4 Z-0.699 I0.95 J0
X86.944 Y-39.4 Z-0.874 I-0.95 J0
X88.844 Y-39.4 Z-1.049 I0.95 J0
X86.944 Y-39.4 Z-1.224 I-0.95 J0
X88.844 Y-39.4 Z-1.399 I0.95 J0
X86.944 Y-39.4 Z-1.573 I-0.95 J0
X88.844 Y-39.4 Z-1.748 I0.95 J0
X86.944 Y-39.4 Z-1.923 I-0.95 J0
X88.844 Y-39.4 Z-2.098 I0.95 J0
X86.944 Y-39.4 Z-2.273 I-0.95 J0
X88.844 Y-39.4 Z-2.447 I0.95 J0
X86.944 Y-39.4 Z-2.622 I-0.95 J0
X88.844 Y-39.4 Z-2.797 I0.95 J0
X86.944 Y-39.4 Z-2.972 I-0.95 J0
X88.844 Y-39.4 Z-3.147 I0.95 J0
X86.944 Y-39.4 Z-3.322 I-0.95 J0
X88.844 Y-39.4 Z-3.496 I0.95 J0
X86.944 Y-39.4 Z-3.671 I-0.95 J0
X88.844 Y-39.4 Z-3.846 I0.95 J0
X86.944 Y-39.4 Z-4.021 I-0.95 J0
X88.844 Y-39.4 Z-4.196 I0.95 J0
X86.944 Y-39.4 Z-4.37 I-0.95 J0
X88.844 Y-39.4 Z-4.545 I0.95 J0
X86.944 Y-39.4 Z-4.72 I-0.95 J0
X88.844 Y-39.4 Z-4.895 I0.95 J0
X86.944 Y-39.4 Z-5.07 I-0.95 J0
X88.844 Y-39.4 Z-5.245 I0.95 J0
X86.944 Y-39.4 Z-5.419 I-0.95 J0
X88.844 Y-39.4 Z-5.594 I0.95 J0
X86.944 Y-39.4 Z-5.769 I-0.95 J0
X88.844 Y-39.4 Z-5.944 I0.95 J0
X86.944 Y-39.4 Z-6.119 I-0.95 J0
X88.844 Y-39.4 Z-6.293 I0.95 J0
X86.944 Y-39.4 Z-6.468 I-0.95 J0
X88.844 Y-39.4 Z-6.643 I0.95 J0
X86.944 Y-39.4 Z-6.818 I-0.95 J0
X88.844 Y-39.4 Z-6.993 I0.95 J0
X86.944 Y-39.4 Z-7.167 I-0.95 J0
X88.582 Y-40.055 Z-7.3 I0.95 J0
X87.206 Y-38.745 I-0.688 J0.655
X88.582 Y-40.055 I0.688 J-0.655
X88.571 Y-39.617 I-0.225 J0.214 F50
G1 X88.459 Y-39.51
X88.409 Y-39.462 Z-7.292
X88.362 Y-39.417 Z-7.269
X88.319 Y-39.376 Z-7.232
X88.283 Y-39.343 Z-7.183
X88.257 Y-39.317 Z-7.125
X88.24 Y-39.301 Z-7.059
X88.234 Y-39.296 Z-6.99
Z5 F250
X92.825 Y-57.46
Z2
Z0.31 F50
G18 G2 X93.135 Z0 I0.31 K0
G1 X93.29
G17 G3 X93.6 Y-57.15 I0 J0.31
X91.7 Y-57.15 Z-0.175 I-0.95 J0 F250
X93.6 Y-57.15 Z-0.35 I0.95 J0
X91.7 Y-57.15 Z-0.524 I-0.95 J0
X93.6 Y-57.15 Z-0.699 I0.95 J0
X91.7 Y-57.15 Z-0.874 I-0.95 J0
X93.6 Y-57.15 Z-1.049 I0.95 J0
X91.7 Y-57.15 Z-1.224 I-0.95 J0
X93.6 Y-57.15 Z-1.399 I0.95 J0
X91.7 Y-57.15 Z-1.573 I-0.95 J0
X93.6 Y-57.15 Z-1.748 I0.95 J0
X91.7 Y-57.15 Z-1.923 I-0.95 J0
X93.6 Y-57.15 Z-2.098 I0.95 J0
X91.7 Y-57.15 Z-2.273 I-0.95 J0
X93.6 Y-57.15 Z-2.447 I0.95 J0
X91.7 Y-57.15 Z-2.622 I-0.95 J0
X93.6 Y-57.15 Z-2.797 I0.95 J0
X91.7 Y-57.15 Z-2.972 I-0.95 J0
X93.6 Y-57.15 Z-3.147 I0.95 J0
X91.7 Y-57.15 Z-3.322 I-0.95 J0
X93.6 Y-57.15 Z-3.496 I0.95 J0
X91.7 Y-57.15 Z-3.671 I-0.95 J0
X93.6 Y-57.15 Z-3.846 I0.95 J0
X91.7 Y-57.15 Z-4.021 I-0.95 J0
X93.6 Y-57.15 Z-4.196 I0.95 J0
X91.7 Y-57.15 Z-4.37 I-0.95 J0
X93.6 Y-57.15 Z-4.545 I0.95 J0
X91.7 Y-57.15 Z-4.72 I-0.95 J0
X93.6 Y-57.15 Z-4.895 I0.95 J0
X91.7 Y-57.15 Z-5.07 I-0.95 J0
X93.6 Y-57.15 Z-5.245 I0.95 J0
X91.7 Y-57.15 Z-5.419 I-0.95 J0
X93.6 Y-57.15 Z-5.594 I0.95 J0
X91.7 Y-57.15 Z-5.769 I-0.95 J0
X93.6 Y-57.15 Z-5.944 I0.95 J0
X91.7 Y-57.15 Z-6.119 I-0.95 J0
X93.6 Y-57.15 Z-6.293 I0.95 J0
X91.7 Y-57.15 Z-6.468 I-0.95 J0
X93.6 Y-57.15 Z-6.643 I0.95 J0
X91.7 Y-57.15 Z-6.818 I-0.95 J0
X93.6 Y-57.15 Z-6.993 I0.95 J0
X91.7 Y-57.15 Z-7.167 I-0.95 J0
X93.338 Y-57.805 Z-7.3 I0.95 J0
X91.962 Y-56.495 I-0.688 J0.655
X93.338 Y-57.805 I0.688 J-0.655
X93.327 Y-57.367 I-0.225 J0.214 F50
G1 X93.215 Y-57.26
X93.165 Y-57.212 Z-7.292
X93.118 Y-57.167 Z-7.269
X93.075 Y-57.126 Z-7.232
X93.039 Y-57.093 Z-7.183
X93.013 Y-57.067 Z-7.125
X92.996 Y-57.051 Z-7.059
X92.99 Y-57.046 Z-6.99
Z15 F250
(When using Fusion for Personal Use, the feedrate of rapid)
(moves is reduced to match the feedrate of cutting moves,)
(which can increase machining time. Unrestricted rapid moves)
(are available with a Fusion Subscription.)

(bot_upperleft1)
G0 X8 Y-8
G1 Z15 F250
Z1.69
Z0 F50
X7.975 Y-7.975
X7.957 Y-7.982
X7.95 Y-8
X7.958 Y-8.027 Z-0.02 F250
X7.979 Y-8.045 Z-0.04
X8.006 Y-8.05 Z-0.06
X8.032 Y-8.038 Z-0.081
X8.048 Y-8.015 Z-0.101
Y-7.987 Z-0.121
X8.034 Y-7.963 Z-0.141
X8.009 Y-7.951 Z-0.161
X7.981 Y-7.954 Z-0.181
X7.959 Y-7.971 Z-0.202
X7.95 Y-7.997 Z-0.222
X7.956 Y-8.024 Z-0.242
X7.976 Y-8.044 Z-0.262
X8.004 Y-8.05 Z-0.282
X8.03 Y-8.04 Z-0.302
X8.047 Y-8.018 Z-0.323
X8.049 Y-7.99 Z-0.343
X8.036 Y-7.965 Z-0.363
X8.012 Y-7.951 Z-0.383
X7.984 Y-7.953 Z-0.403
X7.961 Y-7.969 Z-0.423
X7.95 Y-7.995 Z-0.444
X7.955 Y-8.022 Z-0.464
X7.974 Y-8.043 Z-0.484
X8.001 Y-8.05 Z-0.504
X8.028 Y-8.042 Z-0.524
X8.046 Y-8.02 Z-0.544
X8.049 Y-7.993 Z-0.565
X8.038 Y-7.967 Z-0.585
X8.014 Y-7.952 Z-0.605
X7.986 Z-0.625
X7.963 Y-7.967 Z-0.645
X7.951 Y-7.992 Z-0.665
X7.954 Y-8.02 Z-0.686
X7.972 Y-8.041 Z-0.706
X7.998 Y-8.05 Z-0.726
X8.025 Y-8.043 Z-0.746
X8.044 Y-8.023 Z-0.766
X8.05 Y-7.995 Z-0.786
X8.04 Y-7.969 Z-0.807
X8.017 Y-7.953 Z-0.827
X7.989 Y-7.951 Z-0.847
X7.965 Y-7.965 Z-0.867
X7.951 Y-7.989 Z-0.887
X7.953 Y-8.017 Z-0.907
X7.969 Y-8.04 Z-0.928
X7.995 Y-8.05 Z-0.948
X8.023 Y-8.044 Z-0.968
X8.043 Y-8.025 Z-0.988
X8.05 Y-7.998 Z-1.008
X8.041 Y-7.972 Z-1.028
X8.02 Y-7.954 Z-1.049
X7.992 Y-7.951 Z-1.069
X7.967 Y-7.963 Z-1.089
X7.952 Y-7.987 Z-1.109
Y-8.014 Z-1.129
X7.967 Y-8.038 Z-1.149
X7.993 Y-8.049 Z-1.17
X8.02 Y-8.046 Z-1.19
X8.042 Y-8.028 Z-1.21
X8.05 Y-8.001 Z-1.23
X8.043 Y-7.974 Z-1.25
X8.022 Y-7.955 Z-1.27
X7.994 Y-7.95 Z-1.291
X7.969 Y-7.961 Z-1.311
X7.953 Y-7.984 Z-1.331
X7.951 Y-8.012 Z-1.351
X7.965 Y-8.036 Z-1.371
X7.99 Y-8.049 Z-1.391
X8.018 Y-8.047 Z-1.412
X8.04 Y-8.03 Z-1.432
X8.05 Y-8.004 Z-1.452
X8.044 Y-7.976 Z-1.472
X8.024 Y-7.956 Z-1.492
X7.997 Y-7.95 Z-1.512
X7.971 Y-7.959 Z-1.533
X7.954 Y-7.981 Z-1.553
X7.951 Y-8.009 Z-1.573
X7.963 Y-8.034 Z-1.593
X7.987 Y-8.048 Z-1.613
X8.015 Z-1.633
X8.038 Y-8.032 Z-1.654
X8.05 Y-8.006 Z-1.674
X8.045 Y-7.979 Z-1.694
X8.027 Y-7.958 Z-1.714
X8 Y-7.95 Z-1.734
X7.973 Y-7.958 Z-1.754
X7.955 Y-7.979 Z-1.775
X7.95 Y-8.006 Z-1.795
X7.962 Y-8.032 Z-1.815
X7.985 Y-8.048 Z-1.835
X8.013 Z-1.855
X8.037 Y-8.034 Z-1.875
X8.049 Y-8.009 Z-1.896
X8.046 Y-7.981 Z-1.916
X8.029 Y-7.959 Z-1.936
X8.003 Y-7.95 Z-1.956
X7.975 Y-7.956 Z-1.976
X7.956 Y-7.976 Z-1.996
X7.95 Y-8.004 Z-2.017
X7.96 Y-8.03 Z-2.037
X7.982 Y-8.047 Z-2.057
X8.01 Y-8.049 Z-2.077
X8.035 Y-8.036 Z-2.097
X8.049 Y-8.012 Z-2.117
X8.047 Y-7.984 Z-2.138
X8.031 Y-7.961 Z-2.158
X8.005 Y-7.95 Z-2.178
X7.978 Y-7.955 Z-2.198
X7.957 Y-7.974 Z-2.218
X7.95 Y-8.001 Z-2.238
X7.958 Y-8.028 Z-2.259
X7.98 Y-8.046 Z-2.279
X8.007 Y-8.049 Z-2.299
X8.033 Y-8.038 Z-2.319
X8.048 Y-8.014 Z-2.339
Y-7.986 Z-2.359
X8.033 Y-7.963 Z-2.38
X8.008 Y-7.951 Z-2.4
X7.98 Y-7.954 Z-2.42
X7.959 Y-7.972 Z-2.44
X7.95 Y-7.998 Z-2.46
X7.957 Y-8.025 Z-2.48
X7.977 Y-8.045 Z-2.501
X8.005 Y-8.05 Z-2.521
X8.031 Y-8.039 Z-2.541
X8.047 Y-8.017 Z-2.561
X8.049 Y-7.989 Z-2.581
X8.035 Y-7.965 Z-2.601
X8.011 Y-7.951 Z-2.622
X7.983 Y-7.953 Z-2.642
X7.96 Y-7.97 Z-2.662
X7.95 Y-7.996 Z-2.682
X7.956 Y-8.023 Z-2.702
X7.975 Y-8.043 Z-2.722
X8.002 Y-8.05 Z-2.743
X8.028 Y-8.041 Z-2.763
X8.046 Y-8.019 Z-2.783
X8.049 Y-7.992 Z-2.803
X8.037 Y-7.967 Z-2.823
X8.013 Y-7.952 Z-2.843
X7.985 Z-2.864
X7.962 Y-7.967 Z-2.884
X7.951 Y-7.993 Z-2.904
X7.954 Y-8.021 Z-2.924
X7.973 Y-8.042 Z-2.944
X7.999 Y-8.05 Z-2.964
X8.026 Y-8.043 Z-2.985
X8.045 Y-8.022 Z-3.005
X8.05 Y-7.994 Z-3.025
X8.039 Y-7.969 Z-3.045
X8.016 Y-7.953 Z-3.065
X7.988 Y-7.951 Z-3.085
X7.964 Y-7.965 Z-3.106
X7.951 Y-7.99 Z-3.126
X7.953 Y-8.018 Z-3.146
X7.97 Y-8.04 Z-3.166
X7.997 Y-8.05 Z-3.186
X8.024 Y-8.044 Z-3.206
X8.044 Y-8.024 Z-3.227
X8.05 Y-7.997 Z-3.247
X8.041 Y-7.971 Z-3.267
X8.019 Y-7.954 Z-3.287
X7.991 Y-7.951 Z-3.307
X7.966 Y-7.964 Z-3.327
X7.952 Y-7.988 Z-3.348
Y-8.015 Z-3.368
X7.968 Y-8.039 Z-3.388
X7.994 Y-8.05 Z-3.408
X8.021 Y-8.045 Z-3.428
X8.042 Y-8.027 Z-3.448
X8.05 Y-8 Z-3.469
X8.042 Y-7.973 Z-3.489
X8.021 Y-7.955 Z-3.509
X7.993 Y-7.95 Z-3.529
X7.968 Y-7.962 Z-3.549
X7.952 Y-7.985 Z-3.569
Y-8.013 Z-3.59
X7.966 Y-8.037 Z-3.61
X7.991 Y-8.049 Z-3.63
X8.019 Y-8.046 Z-3.65
X8.041 Y-8.029 Z-3.67
X8.05 Y-8.003 Z-3.69
X8.044 Y-7.975 Z-3.71
X8.023 Y-7.956 Z-3.731
X7.996 Y-7.95 Z-3.751
X7.97 Y-7.96 Z-3.771
X7.953 Y-7.982 Z-3.791
X7.951 Y-8.01 Z-3.811
X7.964 Y-8.035 Z-3.831
X7.988 Y-8.049 Z-3.852
X8.016 Y-8.047 Z-3.872
X8.039 Y-8.031 Z-3.892
X8.05 Y-8.005 Z-3.912
X8.045 Y-7.978 Z-3.932
X8.026 Y-7.957 Z-3.952
X7.999 Y-7.95 Z-3.973
X7.972 Y-7.958 Z-3.993
X7.954 Y-7.98 Z-4.013
X7.951 Y-8.008 Z-4.033
X7.962 Y-8.033 Z-4.053
X7.986 Y-8.048 Z-4.073
X8.014 Z-4.094
X8.037 Y-8.033 Z-4.114
X8.049 Y-8.008 Z-4.134
X8.046 Y-7.98 Z-4.154
X8.028 Y-7.959 Z-4.174
X8.002 Y-7.95 Z-4.194
X7.975 Y-7.957 Z-4.215
X7.955 Y-7.977 Z-4.235
X7.95 Y-8.005 Z-4.255
X7.961 Y-8.031 Z-4.275
X7.983 Y-8.047 Z-4.295
X8.011 Y-8.049 Z-4.315
X8.036 Y-8.035 Z-4.336
X8.049 Y-8.011 Z-4.356
X8.047 Y-7.983 Z-4.376
X8.03 Y-7.96 Z-4.396
X8.004 Y-7.95 Z-4.416
X7.977 Y-7.956 Z-4.436
X7.957 Y-7.975 Z-4.457
X7.95 Y-8.002 Z-4.477
X7.959 Y-8.029 Z-4.497
X7.981 Y-8.046 Z-4.517
X8.008 Y-8.049 Z-4.537
X8.034 Y-8.037 Z-4.557
X8.048 Y-8.013 Z-4.578
Y-7.985 Z-4.598
X8.032 Y-7.962 Z-4.618
X8.007 Y-7.95 Z-4.638
X7.979 Y-7.954 Z-4.658
X7.958 Y-7.973 Z-4.678
X7.95 Y-7.999 Z-4.699
X7.957 Y-8.026 Z-4.719
X7.978 Y-8.045 Z-4.739
X8.006 Y-8.05 Z-4.759
X8.031 Y-8.039 Z-4.779
X8.047 Y-8.016 Z-4.799
X8.049 Y-7.988 Z-4.82
X8.035 Y-7.964 Z-4.84
X8.01 Y-7.951 Z-4.86
X7.982 Y-7.953 Z-4.88
X7.96 Y-7.97 Z-4.9
X7.95 Y-7.997 Z-4.92
X7.956 Y-8.024 Z-4.941
X7.976 Y-8.044 Z-4.961
X8.003 Y-8.05 Z-4.981
X8.029 Y-8.041 Z-5.001
X8.046 Y-8.018 Z-5.021
X8.049 Y-7.991 Z-5.041
X8.036 Y-7.966 Z-5.062
X8.012 Y-7.952 Z-5.082
X7.984 Z-5.102
X7.961 Y-7.968 Z-5.122
X7.95 Y-7.994 Z-5.142
X7.955 Y-8.021 Z-5.162
X7.973 Y-8.042 Z-5.183
X8 Y-8.05 Z-5.203
X8.027 Y-8.042 Z-5.223
X8.045 Y-8.021 Z-5.243
X8.05 Y-7.993 Z-5.263
X8.038 Y-7.968 Z-5.283
X8.015 Y-7.952 Z-5.304
X7.987 Z-5.324
X7.963 Y-7.966 Z-5.344
X7.951 Y-7.991 Z-5.364
X7.954 Y-8.019 Z-5.384
X7.971 Y-8.041 Z-5.404
X7.998 Y-8.05 Z-5.425
X8.025 Y-8.043 Z-5.445
X8.044 Y-8.023 Z-5.465
X8.05 Y-7.996 Z-5.485
X8.04 Y-7.97 Z-5.505
X8.018 Y-7.953 Z-5.525
X7.99 Y-7.951 Z-5.546
X7.965 Y-7.964 Z-5.566
X7.951 Y-7.989 Z-5.586
X7.953 Y-8.016 Z-5.606
X7.969 Y-8.039 Z-5.626
X7.995 Y-8.05 Z-5.646
X8.022 Y-8.045 Z-5.667
X8.043 Y-8.026 Z-5.687
X8.05 Y-7.999 Z-5.707
X8.042 Y-7.972 Z-5.727
X8.02 Y-7.954 Z-5.747
X7.992 Y-7.951 Z-5.767
X7.967 Y-7.962 Z-5.788
X7.952 Y-7.986 Z-5.808
Y-8.014 Z-5.828
X7.967 Y-8.037 Z-5.848
X7.992 Y-8.049 Z-5.868
X8.02 Y-8.046 Z-5.888
X8.041 Y-8.028 Z-5.909
X8.05 Y-8.001 Z-5.929
X8.043 Y-7.974 Z-5.949
X8.023 Y-7.955 Z-5.969
X7.995 Y-7.95 Z-5.989
X7.969 Y-7.961 Z-6.009
X7.953 Y-7.983 Z-6.03
X7.951 Y-8.011 Z-6.05
X7.965 Y-8.036 Z-6.07
X7.989 Y-8.049 Z-6.09
X8.017 Y-8.047 Z-6.11
X8.04 Y-8.03 Z-6.13
X8.05 Y-8.004 Z-6.151
X8.044 Y-7.977 Z-6.171
X8.025 Y-7.957 Z-6.191
X7.998 Y-7.95 Z-6.211
X7.971 Y-7.959 Z-6.231
X7.954 Y-7.981 Z-6.251
X7.951 Y-8.009 Z-6.272
X7.963 Y-8.034 Z-6.292
X7.987 Y-8.048 Z-6.312
X8.015 Z-6.332
X8.038 Y-8.032 Z-6.352
X8.05 Y-8.007 Z-6.372
X8.046 Y-7.979 Z-6.393
X8.027 Y-7.958 Z-6.413
X8.001 Y-7.95 Z-6.433
X7.974 Y-7.958 Z-6.453
X7.955 Y-7.978 Z-6.473
X7.95 Y-8.006 Z-6.493
X7.961 Y-8.032 Z-6.514
X7.984 Y-8.047 Z-6.534
X8.012 Y-8.049 Z-6.554
X8.036 Y-8.034 Z-6.574
X8.049 Y-8.01 Z-6.594
X8.047 Y-7.982 Z-6.614
X8.03 Y-7.96 Z-6.635
X8.003 Y-7.95 Z-6.655
X7.976 Y-7.956 Z-6.675
X7.956 Y-7.976 Z-6.695
X7.95 Y-8.003 Z-6.715
X7.96 Y-8.029 Z-6.735
X7.982 Y-8.047 Z-6.756
X8.009 Y-8.049 Z-6.776
X8.034 Y-8.036 Z-6.796
X8.048 Y-8.012 Z-6.816
X8.047 Y-7.984 Z-6.836
X8.032 Y-7.961 Z-6.856
X8.006 Y-7.95 Z-6.877
X7.978 Y-7.955 Z-6.897
X7.958 Y-7.974 Z-6.917
X7.95 Y-8 Z-6.937
X7.958 Y-8.027 Z-6.957
X7.979 Y-8.045 Z-6.977
X8.007 Y-8.05 Z-6.998
X8.032 Y-8.038 Z-7.018
X8.048 Y-8.015 Z-7.038
Y-7.987 Z-7.058
X8.034 Y-7.963 Z-7.078
X8.009 Y-7.951 Z-7.098
X7.981 Y-7.954 Z-7.119
X7.959 Y-7.971 Z-7.139
X7.95 Y-7.998 Z-7.159
X7.957 Y-8.025 Z-7.179
X7.977 Y-8.044 Z-7.199
X8.004 Y-8.05 Z-7.219
X8.03 Y-8.04 Z-7.24
X8.047 Y-8.017 Z-7.26
X8.049 Y-7.99 Z-7.28
X8.036 Y-7.965 Z-7.3
G3 X7.964 Y-8.035 I-0.036 J-0.035
X8.036 Y-7.965 I0.036 J0.035
G1 X8.018 Y-7.958 F50
X8 Y-7.965
Y-8
Z5 F250
X98
Z1.69
Z0 F50
X97.975 Y-7.975
X97.957 Y-7.982
X97.95 Y-8
X97.958 Y-8.027 Z-0.02 F250
X97.979 Y-8.045 Z-0.04
X98.006 Y-8.05 Z-0.06
X98.032 Y-8.038 Z-0.081
X98.048 Y-8.015 Z-0.101
Y-7.987 Z-0.121
X98.034 Y-7.963 Z-0.141
X98.009 Y-7.951 Z-0.161
X97.981 Y-7.954 Z-0.181
X97.959 Y-7.971 Z-0.202
X97.95 Y-7.997 Z-0.222
X97.956 Y-8.024 Z-0.242
X97.976 Y-8.044 Z-0.262
X98.004 Y-8.05 Z-0.282
X98.03 Y-8.04 Z-0.302
X98.047 Y-8.018 Z-0.323
X98.049 Y-7.99 Z-0.343
X98.036 Y-7.965 Z-0.363
X98.012 Y-7.951 Z-0.383
X97.984 Y-7.953 Z-0.403
X97.961 Y-7.969 Z-0.423
X97.95 Y-7.995 Z-0.444
X97.955 Y-8.022 Z-0.464
X97.974 Y-8.043 Z-0.484
X98.001 Y-8.05 Z-0.504
X98.028 Y-8.042 Z-0.524
X98.046 Y-8.02 Z-0.544
X98.049 Y-7.993 Z-0.565
X98.038 Y-7.967 Z-0.585
X98.014 Y-7.952 Z-0.605
X97.986 Z-0.625
X97.963 Y-7.967 Z-0.645
X97.951 Y-7.992 Z-0.665
X97.954 Y-8.02 Z-0.686
X97.972 Y-8.041 Z-0.706
X97.998 Y-8.05 Z-0.726
X98.025 Y-8.043 Z-0.746
X98.044 Y-8.023 Z-0.766
X98.05 Y-7.995 Z-0.786
X98.04 Y-7.969 Z-0.807
X98.017 Y-7.953 Z-0.827
X97.989 Y-7.951 Z-0.847
X97.965 Y-7.965 Z-0.867
X97.951 Y-7.989 Z-0.887
X97.953 Y-8.017 Z-0.907
X97.969 Y-8.04 Z-0.928
X97.995 Y-8.05 Z-0.948
X98.023 Y-8.044 Z-0.968
X98.043 Y-8.025 Z-0.988
X98.05 Y-7.998 Z-1.008
X98.041 Y-7.972 Z-1.028
X98.02 Y-7.954 Z-1.049
X97.992 Y-7.951 Z-1.069
X97.967 Y-7.963 Z-1.089
X97.952 Y-7.987 Z-1.109
Y-8.014 Z-1.129
X97.967 Y-8.038 Z-1.149
X97.993 Y-8.049 Z-1.17
X98.02 Y-8.046 Z-1.19
X98.042 Y-8.028 Z-1.21
X98.05 Y-8.001 Z-1.23
X98.043 Y-7.974 Z-1.25
X98.022 Y-7.955 Z-1.27
X97.994 Y-7.95 Z-1.291
X97.969 Y-7.961 Z-1.311
X97.953 Y-7.984 Z-1.331
X97.951 Y-8.012 Z-1.351
X97.965 Y-8.036 Z-1.371
X97.99 Y-8.049 Z-1.391
X98.018 Y-8.047 Z-1.412
X98.04 Y-8.03 Z-1.432
X98.05 Y-8.004 Z-1.452
X98.044 Y-7.976 Z-1.472
X98.024 Y-7.956 Z-1.492
X97.997 Y-7.95 Z-1.512
X97.971 Y-7.959 Z-1.533
X97.954 Y-7.981 Z-1.553
X97.951 Y-8.009 Z-1.573
X97.963 Y-8.034 Z-1.593
X97.987 Y-8.048 Z-1.613
X98.015 Z-1.633
X98.038 Y-8.032 Z-1.654
X98.05 Y-8.006 Z-1.674
X98.045 Y-7.979 Z-1.694
X98.027 Y-7.958 Z-1.714
X98 Y-7.95 Z-1.734
X97.973 Y-7.958 Z-1.754
X97.955 Y-7.979 Z-1.775
X97.95 Y-8.006 Z-1.795
X97.962 Y-8.032 Z-1.815
X97.985 Y-8.048 Z-1.835
X98.013 Z-1.855
X98.037 Y-8.034 Z-1.875
X98.049 Y-8.009 Z-1.896
X98.046 Y-7.981 Z-1.916
X98.029 Y-7.959 Z-1.936
X98.003 Y-7.95 Z-1.956
X97.975 Y-7.956 Z-1.976
X97.956 Y-7.976 Z-1.996
X97.95 Y-8.004 Z-2.017
X97.96 Y-8.03 Z-2.037
X97.982 Y-8.047 Z-2.057
X98.01 Y-8.049 Z-2.077
X98.035 Y-8.036 Z-2.097
X98.049 Y-8.012 Z-2.117
X98.047 Y-7.984 Z-2.138
X98.031 Y-7.961 Z-2.158
X98.005 Y-7.95 Z-2.178
X97.978 Y-7.955 Z-2.198
X97.957 Y-7.974 Z-2.218
X97.95 Y-8.001 Z-2.238
X97.958 Y-8.028 Z-2.259
X97.98 Y-8.046 Z-2.279
X98.007 Y-8.049 Z-2.299
X98.033 Y-8.038 Z-2.319
X98.048 Y-8.014 Z-2.339
Y-7.986 Z-2.359
X98.033 Y-7.963 Z-2.38
X98.008 Y-7.951 Z-2.4
X97.98 Y-7.954 Z-2.42
X97.959 Y-7.972 Z-2.44
X97.95 Y-7.998 Z-2.46
X97.957 Y-8.025 Z-2.48
X97.977 Y-8.045 Z-2.501
X98.005 Y-8.05 Z-2.521
X98.031 Y-8.039 Z-2.541
X98.047 Y-8.017 Z-2.561
X98.049 Y-7.989 Z-2.581
X98.035 Y-7.965 Z-2.601
X98.011 Y-7.951 Z-2.622
X97.983 Y-7.953 Z-2.642
X97.96 Y-7.97 Z-2.662
X97.95 Y-7.996 Z-2.682
X97.956 Y-8.023 Z-2.702
X97.975 Y-8.043 Z-2.722
X98.002 Y-8.05 Z-2.743
X98.028 Y-8.041 Z-2.763
X98.046 Y-8.019 Z-2.783
X98.049 Y-7.992 Z-2.803
X98.037 Y-7.967 Z-2.823
X98.013 Y-7.952 Z-2.843
X97.985 Z-2.864
X97.962 Y-7.967 Z-2.884
X97.951 Y-7.993 Z-2.904
X97.954 Y-8.021 Z-2.924
X97.973 Y-8.042 Z-2.944
X97.999 Y-8.05 Z-2.964
X98.026 Y-8.043 Z-2.985
X98.045 Y-8.022 Z-3.005
X98.05 Y-7.994 Z-3.025
X98.039 Y-7.969 Z-3.045
X98.016 Y-7.953 Z-3.065
X97.988 Y-7.951 Z-3.085
X97.964 Y-7.965 Z-3.106
X97.951 Y-7.99 Z-3.126
X97.953 Y-8.018 Z-3.146
X97.97 Y-8.04 Z-3.166
X97.997 Y-8.05 Z-3.186
X98.024 Y-8.044 Z-3.206
X98.044 Y-8.024 Z-3.227
X98.05 Y-7.997 Z-3.247
X98.041 Y-7.971 Z-3.267
X98.019 Y-7.954 Z-3.287
X97.991 Y-7.951 Z-3.307
X97.966 Y-7.964 Z-3.327
X97.952 Y-7.988 Z-3.348
Y-8.015 Z-3.368
X97.968 Y-8.039 Z-3.388
X97.994 Y-8.05 Z-3.408
X98.021 Y-8.045 Z-3.428
X98.042 Y-8.027 Z-3.448
X98.05 Y-8 Z-3.469
X98.042 Y-7.973 Z-3.489
X98.021 Y-7.955 Z-3.509
X97.993 Y-7.95 Z-3.529
X97.968 Y-7.962 Z-3.549
X97.952 Y-7.985 Z-3.569
Y-8.013 Z-3.59
X97.966 Y-8.037 Z-3.61
X97.991 Y-8.049 Z-3.63
X98.019 Y-8.046 Z-3.65
X98.041 Y-8.029 Z-3.67
X98.05 Y-8.003 Z-3.69
X98.044 Y-7.975 Z-3.71
X98.023 Y-7.956 Z-3.731
X97.996 Y-7.95 Z-3.751
X97.97 Y-7.96 Z-3.771
X97.953 Y-7.982 Z-3.791
X97.951 Y-8.01 Z-3.811
X97.964 Y-8.035 Z-3.831
X97.988 Y-8.049 Z-3.852
X98.016 Y-8.047 Z-3.872
X98.039 Y-8.031 Z-3.892
X98.05 Y-8.005 Z-3.912
X98.045 Y-7.978 Z-3.932
X98.026 Y-7.957 Z-3.952
X97.999 Y-7.95 Z-3.973
X97.972 Y-7.958 Z-3.993
X97.954 Y-7.98 Z-4.013
X97.951 Y-8.008 Z-4.033
X97.962 Y-8.033 Z-4.053
X97.986 Y-8.048 Z-4.073
X98.014 Z-4.094
X98.037 Y-8.033 Z-4.114
X98.049 Y-8.008 Z-4.134
X98.046 Y-7.98 Z-4.154
X98.028 Y-7.959 Z-4.174
X98.002 Y-7.95 Z-4.194
X97.975 Y-7.957 Z-4.215
X97.955 Y-7.977 Z-4.235
X97.95 Y-8.005 Z-4.255
X97.961 Y-8.031 Z-4.275
X97.983 Y-8.047 Z-4.295
X98.011 Y-8.049 Z-4.315
X98.036 Y-8.035 Z-4.336
X98.049 Y-8.011 Z-4.356
X98.047 Y-7.983 Z-4.376
X98.03 Y-7.96 Z-4.396
X98.004 Y-7.95 Z-4.416
X97.977 Y-7.956 Z-4.436
X97.957 Y-7.975 Z-4.457
X97.95 Y-8.002 Z-4.477
X97.959 Y-8.029 Z-4.497
X97.981 Y-8.046 Z-4.517
X98.008 Y-8.049 Z-4.537
X98.034 Y-8.037 Z-4.557
X98.048 Y-8.013 Z-4.578
Y-7.985 Z-4.598
X98.032 Y-7.962 Z-4.618
X98.007 Y-7.95 Z-4.638
X97.979 Y-7.954 Z-4.658
X97.958 Y-7.973 Z-4.678
X97.95 Y-7.999 Z-4.699
X97.957 Y-8.026 Z-4.719
X97.978 Y-8.045 Z-4.739
X98.006 Y-8.05 Z-4.759
X98.031 Y-8.039 Z-4.779
X98.047 Y-8.016 Z-4.799
X98.049 Y-7.988 Z-4.82
X98.035 Y-7.964 Z-4.84
X98.01 Y-7.951 Z-4.86
X97.982 Y-7.953 Z-4.88
X97.96 Y-7.97 Z-4.9
X97.95 Y-7.997 Z-4.92
X97.956 Y-8.024 Z-4.941
X97.976 Y-8.044 Z-4.961
X98.003 Y-8.05 Z-4.981
X98.029 Y-8.041 Z-5.001
X98.046 Y-8.018 Z-5.021
X98.049 Y-7.991 Z-5.041
X98.036 Y-7.966 Z-5.062
X98.012 Y-7.952 Z-5.082
X97.984 Z-5.102
X97.961 Y-7.968 Z-5.122
X97.95 Y-7.994 Z-5.142
X97.955 Y-8.021 Z-5.162
X97.973 Y-8.042 Z-5.183
X98 Y-8.05 Z-5.203
X98.027 Y-8.042 Z-5.223
X98.045 Y-8.021 Z-5.243
X98.05 Y-7.993 Z-5.263
X98.038 Y-7.968 Z-5.283
X98.015 Y-7.952 Z-5.304
X97.987 Z-5.324
X97.963 Y-7.966 Z-5.344
X97.951 Y-7.991 Z-5.364
X97.954 Y-8.019 Z-5.384
X97.971 Y-8.041 Z-5.404
X97.998 Y-8.05 Z-5.425
X98.025 Y-8.043 Z-5.445
X98.044 Y-8.023 Z-5.465
X98.05 Y-7.996 Z-5.485
X98.04 Y-7.97 Z-5.505
X98.018 Y-7.953 Z-5.525
X97.99 Y-7.951 Z-5.546
X97.965 Y-7.964 Z-5.566
X97.951 Y-7.989 Z-5.586
X97.953 Y-8.016 Z-5.606
X97.969 Y-8.039 Z-5.626
X97.995 Y-8.05 Z-5.646
X98.022 Y-8.045 Z-5.667
X98.043 Y-8.026 Z-5.687
X98.05 Y-7.999 Z-5.707
X98.042 Y-7.972 Z-5.727
X98.02 Y-7.954 Z-5.747
X97.992 Y-7.951 Z-5.767
X97.967 Y-7.962 Z-5.788
X97.952 Y-7.986 Z-5.808
Y-8.014 Z-5.828
X97.967 Y-8.037 Z-5.848
X97.992 Y-8.049 Z-5.868
X98.02 Y-8.046 Z-5.888
X98.041 Y-8.028 Z-5.909
X98.05 Y-8.001 Z-5.929
X98.043 Y-7.974 Z-5.949
X98.023 Y-7.955 Z-5.969
X97.995 Y-7.95 Z-5.989
X97.969 Y-7.961 Z-6.009
X97.953 Y-7.983 Z-6.03
X97.951 Y-8.011 Z-6.05
X97.965 Y-8.036 Z-6.07
X97.989 Y-8.049 Z-6.09
X98.017 Y-8.047 Z-6.11
X98.04 Y-8.03 Z-6.13
X98.05 Y-8.004 Z-6.151
X98.044 Y-7.977 Z-6.171
X98.025 Y-7.957 Z-6.191
X97.998 Y-7.95 Z-6.211
X97.971 Y-7.959 Z-6.231
X97.954 Y-7.981 Z-6.251
X97.951 Y-8.009 Z-6.272
X97.963 Y-8.034 Z-6.292
X97.987 Y-8.048 Z-6.312
X98.015 Z-6.332
X98.038 Y-8.032 Z-6.352
X98.05 Y-8.007 Z-6.372
X98.046 Y-7.979 Z-6.393
X98.027 Y-7.958 Z-6.413
X98.001 Y-7.95 Z-6.433
X97.974 Y-7.958 Z-6.453
X97.955 Y-7.978 Z-6.473
X97.95 Y-8.006 Z-6.493
X97.961 Y-8.032 Z-6.514
X97.984 Y-8.047 Z-6.534
X98.012 Y-8.049 Z-6.554
X98.036 Y-8.034 Z-6.574
X98.049 Y-8.01 Z-6.594
X98.047 Y-7.982 Z-6.614
X98.03 Y-7.96 Z-6.635
X98.003 Y-7.95 Z-6.655
X97.976 Y-7.956 Z-6.675
X97.956 Y-7.976 Z-6.695
X97.95 Y-8.003 Z-6.715
X97.96 Y-8.029 Z-6.735
X97.982 Y-8.047 Z-6.756
X98.009 Y-8.049 Z-6.776
X98.034 Y-8.036 Z-6.796
X98.048 Y-8.012 Z-6.816
X98.047 Y-7.984 Z-6.836
X98.032 Y-7.961 Z-6.856
X98.006 Y-7.95 Z-6.877
X97.978 Y-7.955 Z-6.897
X97.958 Y-7.974 Z-6.917
X97.95 Y-8 Z-6.937
X97.958 Y-8.027 Z-6.957
X97.979 Y-8.045 Z-6.977
X98.007 Y-8.05 Z-6.998
X98.032 Y-8.038 Z-7.018
X98.048 Y-8.015 Z-7.038
Y-7.987 Z-7.058
X98.034 Y-7.963 Z-7.078
X98.009 Y-7.951 Z-7.098
X97.981 Y-7.954 Z-7.119
X97.959 Y-7.971 Z-7.139
X97.95 Y-7.998 Z-7.159
X97.957 Y-8.025 Z-7.179
X97.977 Y-8.044 Z-7.199
X98.004 Y-8.05 Z-7.219
X98.03 Y-8.04 Z-7.24
X98.047 Y-8.017 Z-7.26
X98.049 Y-7.99 Z-7.28
X98.036 Y-7.965 Z-7.3
G3 X97.964 Y-8.035 I-0.036 J-0.035
X98.036 Y-7.965 I0.036 J0.035
G1 X98.018 Y-7.958 F50
X98 Y-7.965
Y-8
Z15 F250
(When using Fusion for Personal Use, the feedrate of rapid)
(moves is reduced to match the feedrate of cutting moves,)
(which can increase machining time. Unrestricted rapid moves)
(are available with a Fusion Subscription.)

(bot_upperleft2)
G0 X88.699 Y-56.437
G1 Z15 F250
Z1.7
Z0.01 F50
Y-56.429 Z-0.059
X88.697 Y-56.406 Z-0.125
X88.696 Y-56.369 Z-0.183
X88.693 Y-56.32 Z-0.232
X88.69 Y-56.262 Z-0.269
X88.687 Y-56.196 Z-0.292
X88.683 Y-56.127 Z-0.3
X88.628 Y-55.013 F250
X88.532 Y-53.901
X88.398 Y-52.794
X88.224 Y-51.692
X88.012 Y-50.596
X87.761 Y-49.509
X87.471 Y-48.432
X87.144 Y-47.365
X86.78 Y-46.311
X86.378 Y-45.27
X85.939 Y-44.244
X85.465 Y-43.234
X84.955 Y-42.241
X84.411 Y-41.268
X83.832 Y-40.314
X83.22 Y-39.381
X82.576 Y-38.47
X81.899 Y-37.583
X81.192 Y-36.72
X80.455 Y-35.883
X79.688 Y-35.072
X78.893 Y-34.289
X78.072 Y-33.534
X77.223 Y-32.81
X76.35 Y-32.115
X75.453 Y-31.452
X74.533 Y-30.821
X73.591 Y-30.222
X72.629 Y-29.658
X71.647 Y-29.128
X70.647 Y-28.633
X69.631 Y-28.173
X68.598 Y-27.75
X67.551 Y-27.364
X66.492 Y-27.015
X65.42 Y-26.703
X64.339 Y-26.43
X63.248 Y-26.195
X62.15 Y-25.999
X61.045 Y-25.841
X59.936 Y-25.723
X58.823 Y-25.644
X57.708 Y-25.605
X56.592
X55.477 Y-25.644
X54.364 Y-25.723
X53.255 Y-25.841
X52.15 Y-25.999
X51.052 Y-26.195
X49.961 Y-26.43
X48.88 Y-26.703
X47.808 Y-27.015
X46.749 Y-27.364
X45.702 Y-27.75
X44.669 Y-28.173
X43.653 Y-28.633
X42.653 Y-29.128
X41.671 Y-29.658
X40.709 Y-30.222
X39.767 Y-30.821
X38.847 Y-31.452
X37.95 Y-32.115
X37.077 Y-32.81
X36.229 Y-33.534
X35.407 Y-34.289
X34.612 Y-35.072
X33.845 Y-35.883
X33.108 Y-36.72
X32.401 Y-37.583
X31.724 Y-38.47
X31.08 Y-39.381
X30.468 Y-40.314
X29.889 Y-41.268
X29.345 Y-42.241
X28.835 Y-43.234
X28.361 Y-44.244
X27.922 Y-45.27
X27.521 Y-46.311
X27.156 Y-47.365
X26.829 Y-48.432
X26.539 Y-49.509
X26.288 Y-50.596
X26.076 Y-51.692
X25.902 Y-52.794
X25.768 Y-53.901
X25.673 Y-55.013
X25.617 Y-56.127
X88.683
Z5
X88.699 Y-56.437
Z0.7
Z-0.99 F50
Y-56.429 Z-1.059
X88.697 Y-56.406 Z-1.125
X88.696 Y-56.369 Z-1.183
X88.693 Y-56.32 Z-1.232
X88.69 Y-56.262 Z-1.269
X88.687 Y-56.196 Z-1.292
X88.683 Y-56.127 Z-1.3
X88.628 Y-55.013 F250
X88.532 Y-53.901
X88.398 Y-52.794
X88.224 Y-51.692
X88.012 Y-50.596
X87.761 Y-49.509
X87.471 Y-48.432
X87.144 Y-47.365
X86.78 Y-46.311
X86.378 Y-45.27
X85.939 Y-44.244
X85.465 Y-43.234
X84.955 Y-42.241
X84.411 Y-41.268
X83.832 Y-40.314
X83.22 Y-39.381
X82.576 Y-38.47
X81.899 Y-37.583
X81.192 Y-36.72
X80.455 Y-35.883
X79.688 Y-35.072
X78.893 Y-34.289
X78.072 Y-33.534
X77.223 Y-32.81
X76.35 Y-32.115
X75.453 Y-31.452
X74.533 Y-30.821
X73.591 Y-30.222
X72.629 Y-29.658
X71.647 Y-29.128
X70.647 Y-28.633
X69.631 Y-28.173
X68.598 Y-27.75
X67.551 Y-27.364
X66.492 Y-27.015
X65.42 Y-26.703
X64.339 Y-26.43
X63.248 Y-26.195
X62.15 Y-25.999
X61.045 Y-25.841
X59.936 Y-25.723
X58.823 Y-25.644
X57.708 Y-25.605
X56.592
X55.477 Y-25.644
X54.364 Y-25.723
X53.255 Y-25.841
X52.15 Y-25.999
X51.052 Y-26.195
X49.961 Y-26.43
X48.88 Y-26.703
X47.808 Y-27.015
X46.749 Y-27.364
X45.702 Y-27.75
X44.669 Y-28.173
X43.653 Y-28.633
X42.653 Y-29.128
X41.671 Y-29.658
X40.709 Y-30.222
X39.767 Y-30.821
X38.847 Y-31.452
X37.95 Y-32.115
X37.077 Y-32.81
X36.229 Y-33.534
X35.407 Y-34.289
X34.612 Y-35.072
X33.845 Y-35.883
X33.108 Y-36.72
X32.401 Y-37.583
X31.724 Y-38.47
X31.08 Y-39.381
X30.468 Y-40.314
X29.889 Y-41.268
X29.345 Y-42.241
X28.835 Y-43.234
X28.361 Y-44.244
X27.922 Y-45.27
X27.521 Y-46.311
X27.156 Y-47.365
X26.829 Y-48.432
X26.539 Y-49.509
X26.288 Y-50.596
X26.076 Y-51.692
X25.902 Y-52.794
X25.768 Y-53.901
X25.673 Y-55.013
X25.617 Y-56.127
X88.683
Z-1 F50
Z5 F250
X88.699 Y-56.437
Z-0.3
Z-1.99 F50
Y-56.429 Z-2.059
X88.697 Y-56.406 Z-2.125
X88.696 Y-56.369 Z-2.183
X88.693 Y-56.32 Z-2.232
X88.69 Y-56.262 Z-2.269
X88.687 Y-56.196 Z-2.292
X88.683 Y-56.127 Z-2.3
X88.628 Y-55.013 F250
X88.532 Y-53.901
X88.398 Y-52.794
X88.224 Y-51.692
X88.012 Y-50.596
X87.761 Y-49.509
X87.471 Y-48.432
X87.144 Y-47.365
X86.78 Y-46.311
X86.378 Y-45.27
X85.939 Y-44.244
X85.465 Y-43.234
X84.955 Y-42.241
X84.411 Y-41.268
X83.832 Y-40.314
X83.22 Y-39.381
X82.576 Y-38.47
X81.899 Y-37.583
X81.192 Y-36.72
X80.455 Y-35.883
X79.688 Y-35.072
X78.893 Y-34.289
X78.072 Y-33.534
X77.223 Y-32.81
X76.35 Y-32.115
X75.453 Y-31.452
X74.533 Y-30.821
X73.591 Y-30.222
X72.629 Y-29.658
X71.647 Y-29.128
X70.647 Y-28.633
X69.631 Y-28.173
X68.598 Y-27.75
X67.551 Y-27.364
X66.492 Y-27.015
X65.42 Y-26.703
X64.339 Y-26.43
X63.248 Y-26.195
X62.15 Y-25.999
X61.045 Y-25.841
X59.936 Y-25.723
X58.823 Y-25.644
X57.708 Y-25.605
X56.592
X55.477 Y-25.644
X54.364 Y-25.723
X53.255 Y-25.841
X52.15 Y-25.999
X51.052 Y-26.195
X49.961 Y-26.43
X48.88 Y-26.703
X47.808 Y-27.015
X46.749 Y-27.364
X45.702 Y-27.75
X44.669 Y-28.173
X43.653 Y-28.633
X42.653 Y-29.128
X41.671 Y-29.658
X40.709 Y-30.222
X39.767 Y-30.821
X38.847 Y-31.452
X37.95 Y-32.115
X37.077 Y-32.81
X36.229 Y-33.534
X35.407 Y-34.289
X34.612 Y-35.072
X33.845 Y-35.883
X33.108 Y-36.72
X32.401 Y-37.583
X31.724 Y-38.47
X31.08 Y-39.381
X30.468 Y-40.314
X29.889 Y-41.268
X29.345 Y-42.241
X28.835 Y-43.234
X28.361 Y-44.244
X27.922 Y-45.27
X27.521 Y-46.311
X27.156 Y-47.365
X26.829 Y-48.432
X26.539 Y-49.509
X26.288 Y-50.596
X26.076 Y-51.692
X25.902 Y-52.794
X25.768 Y-53.901
X25.673 Y-55.013
X25.617 Y-56.127
X88.683
Z-1 F50
Z5 F250
X88.699 Y-56.437
Z-1
Z-1.3 F50
Z-2.99
Y-56.429 Z-3.059
X88.697 Y-56.406 Z-3.125
X88.696 Y-56.369 Z-3.183
X88.693 Y-56.32 Z-3.232
X88.69 Y-56.262 Z-3.269
X88.687 Y-56.196 Z-3.292
X88.683 Y-56.127 Z-3.3
X88.628 Y-55.013 F250
X88.532 Y-53.901
X88.398 Y-52.794
X88.224 Y-51.692
X88.012 Y-50.596
X87.761 Y-49.509
X87.471 Y-48.432
X87.144 Y-47.365
X86.78 Y-46.311
X86.378 Y-45.27
X85.939 Y-44.244
X85.465 Y-43.234
X84.955 Y-42.241
X84.411 Y-41.268
X83.832 Y-40.314
X83.22 Y-39.381
X82.576 Y-38.47
X81.899 Y-37.583
X81.192 Y-36.72
X80.455 Y-35.883
X79.688 Y-35.072
X78.893 Y-34.289
X78.072 Y-33.534
X77.223 Y-32.81
X76.35 Y-32.115
X75.453 Y-31.452
X74.533 Y-30.821
X73.591 Y-30.222
X72.629 Y-29.658
X71.647 Y-29.128
X70.647 Y-28.633
X69.631 Y-28.173
X68.598 Y-27.75
X67.551 Y-27.364
X66.492 Y-27.015
X65.42 Y-26.703
X64.339 Y-26.43
X63.248 Y-26.195
X62.15 Y-25.999
X61.045 Y-25.841
X59.936 Y-25.723
X58.823 Y-25.644
X57.708 Y-25.605
X56.592
X55.477 Y-25.644
X54.364 Y-25.723
X53.255 Y-25.841
X52.15 Y-25.999
X51.052 Y-26.195
X49.961 Y-26.43
X48.88 Y-26.703
X47.808 Y-27.015
X46.749 Y-27.364
X45.702 Y-27.75
X44.669 Y-28.173
X43.653 Y-28.633
X42.653 Y-29.128
X41.671 Y-29.658
X40.709 Y-30.222
X39.767 Y-30.821
X38.847 Y-31.452
X37.95 Y-32.115
X37.077 Y-32.81
X36.229 Y-33.534
X35.407 Y-34.289
X34.612 Y-35.072
X33.845 Y-35.883
X33.108 Y-36.72
X32.401 Y-37.583
X31.724 Y-38.47
X31.08 Y-39.381
X30.468 Y-40.314
X29.889 Y-41.268
X29.345 Y-42.241
X28.835 Y-43.234
X28.361 Y-44.244
X27.922 Y-45.27
X27.521 Y-46.311
X27.156 Y-47.365
X26.829 Y-48.432
X26.539 Y-49.509
X26.288 Y-50.596
X26.076 Y-51.692
X25.902 Y-52.794
X25.768 Y-53.901
X25.673 Y-55.013
X25.617 Y-56.127
X88.683
Z-1 F50
Z5 F250
X88.699 Y-56.437
Z-1
Z-2.3 F50
Z-3.99
Y-56.429 Z-4.059
X88.697 Y-56.406 Z-4.125
X88.696 Y-56.369 Z-4.183
X88.693 Y-56.32 Z-4.232
X88.69 Y-56.262 Z-4.269
X88.687 Y-56.196 Z-4.292
X88.683 Y-56.127 Z-4.3
X88.628 Y-55.013 F250
X88.532 Y-53.901
X88.398 Y-52.794
X88.224 Y-51.692
X88.012 Y-50.596
X87.761 Y-49.509
X87.471 Y-48.432
X87.144 Y-47.365
X86.78 Y-46.311
X86.378 Y-45.27
X85.939 Y-44.244
X85.465 Y-43.234
X84.955 Y-42.241
X84.411 Y-41.268
X83.832 Y-40.314
X83.22 Y-39.381
X82.576 Y-38.47
X81.899 Y-37.583
X81.192 Y-36.72
X80.455 Y-35.883
X79.688 Y-35.072
X78.893 Y-34.289
X78.072 Y-33.534
X77.223 Y-32.81
X76.35 Y-32.115
X75.453 Y-31.452
X74.533 Y-30.821
X73.591 Y-30.222
X72.629 Y-29.658
X71.647 Y-29.128
X70.647 Y-28.633
X69.631 Y-28.173
X68.598 Y-27.75
X67.551 Y-27.364
X66.492 Y-27.015
X65.42 Y-26.703
X64.339 Y-26.43
X63.248 Y-26.195
X62.15 Y-25.999
X61.045 Y-25.841
X59.936 Y-25.723
X58.823 Y-25.644
X57.708 Y-25.605
X56.592
X55.477 Y-25.644
X54.364 Y-25.723
X53.255 Y-25.841
X52.15 Y-25.999
X51.052 Y-26.195
X49.961 Y-26.43
X48.88 Y-26.703
X47.808 Y-27.015
X46.749 Y-27.364
X45.702 Y-27.75
X44.669 Y-28.173
X43.653 Y-28.633
X42.653 Y-29.128
X41.671 Y-29.658
X40.709 Y-30.222
X39.767 Y-30.821
X38.847 Y-31.452
X37.95 Y-32.115
X37.077 Y-32.81
X36.229 Y-33.534
X35.407 Y-34.289
X34.612 Y-35.072
X33.845 Y-35.883
X33.108 Y-36.72
X32.401 Y-37.583
X31.724 Y-38.47
X31.08 Y-39.381
X30.468 Y-40.314
X29.889 Y-41.268
X29.345 Y-42.241
X28.835 Y-43.234
X28.361 Y-44.244
X27.922 Y-45.27
X27.521 Y-46.311
X27.156 Y-47.365
X26.829 Y-48.432
X26.539 Y-49.509
X26.288 Y-50.596
X26.076 Y-51.692
X25.902 Y-52.794
X25.768 Y-53.901
X25.673 Y-55.013
X25.617 Y-56.127
X88.683
Z-1 F50
Z5 F250
X88.699 Y-56.437
Z-1
Z-3.3 F50
Z-4.99
Y-56.429 Z-5.059
X88.697 Y-56.406 Z-5.125
X88.696 Y-56.369 Z-5.183
X88.693 Y-56.32 Z-5.232
X88.69 Y-56.262 Z-5.269
X88.687 Y-56.196 Z-5.292
X88.683 Y-56.127 Z-5.3
X88.628 Y-55.013 F250
X88.532 Y-53.901
X88.398 Y-52.794
X88.224 Y-51.692
X88.012 Y-50.596
X87.761 Y-49.509
X87.471 Y-48.432
X87.144 Y-47.365
X86.78 Y-46.311
X86.378 Y-45.27
X85.939 Y-44.244
X85.465 Y-43.234
X84.955 Y-42.241
X84.411 Y-41.268
X83.832 Y-40.314
X83.22 Y-39.381
X82.576 Y-38.47
X81.899 Y-37.583
X81.192 Y-36.72
X80.455 Y-35.883
X79.688 Y-35.072
X78.893 Y-34.289
X78.072 Y-33.534
X77.223 Y-32.81
X76.35 Y-32.115
X75.453 Y-31.452
X74.533 Y-30.821
X73.591 Y-30.222
X72.629 Y-29.658
X71.647 Y-29.128
X70.647 Y-28.633
X69.631 Y-28.173
X68.598 Y-27.75
X67.551 Y-27.364
X66.492 Y-27.015
X65.42 Y-26.703
X64.339 Y-26.43
X63.248 Y-26.195
X62.15 Y-25.999
X61.045 Y-25.841
X59.936 Y-25.723
X58.823 Y-25.644
X57.708 Y-25.605
X56.592
X55.477 Y-25.644
X54.364 Y-25.723
X53.255 Y-25.841
X52.15 Y-25.999
X51.052 Y-26.195
X49.961 Y-26.43
X48.88 Y-26.703
X47.808 Y-27.015
X46.749 Y-27.364
X45.702 Y-27.75
X44.669 Y-28.173
X43.653 Y-28.633
X42.653 Y-29.128
X41.671 Y-29.658
X40.709 Y-30.222
X39.767 Y-30.821
X38.847 Y-31.452
X37.95 Y-32.115
X37.077 Y-32.81
X36.229 Y-33.534
X35.407 Y-34.289
X34.612 Y-35.072
X33.845 Y-35.883
X33.108 Y-36.72
X32.401 Y-37.583
X31.724 Y-38.47
X31.08 Y-39.381
X30.468 Y-40.314
X29.889 Y-41.268
X29.345 Y-42.241
X28.835 Y-43.234
X28.361 Y-44.244
X27.922 Y-45.27
X27.521 Y-46.311
X27.156 Y-47.365
X26.829 Y-48.432
X26.539 Y-49.509
X26.288 Y-50.596
X26.076 Y-51.692
X25.902 Y-52.794
X25.768 Y-53.901
X25.673 Y-55.013
X25.617 Y-56.127
X88.683
Z-1 F50
Z5 F250
X88.699 Y-56.437
Z-1
Z-4.3 F50
Z-5.99
Y-56.429 Z-6.059
X88.697 Y-56.406 Z-6.125
X88.696 Y-56.369 Z-6.183
X88.693 Y-56.32 Z-6.232
X88.69 Y-56.262 Z-6.269
X88.687 Y-56.196 Z-6.292
X88.683 Y-56.127 Z-6.3
X88.628 Y-55.013 F250
X88.532 Y-53.901
X88.398 Y-52.794
X88.224 Y-51.692
X88.012 Y-50.596
X87.761 Y-49.509
X87.471 Y-48.432
X87.144 Y-47.365
X86.78 Y-46.311
X86.378 Y-45.27
X85.939 Y-44.244
X85.465 Y-43.234
X84.955 Y-42.241
X84.411 Y-41.268
X83.832 Y-40.314
X83.22 Y-39.381
X82.576 Y-38.47
X81.899 Y-37.583
X81.192 Y-36.72
X80.455 Y-35.883
X79.688 Y-35.072
X78.893 Y-34.289
X78.072 Y-33.534
X77.223 Y-32.81
X76.35 Y-32.115
X75.453 Y-31.452
X74.533 Y-30.821
X73.591 Y-30.222
X72.629 Y-29.658
X71.647 Y-29.128
X70.647 Y-28.633
X69.631 Y-28.173
X68.598 Y-27.75
X67.551 Y-27.364
X66.492 Y-27.015
X65.42 Y-26.703
X64.339 Y-26.43
X63.248 Y-26.195
X62.15 Y-25.999
X61.045 Y-25.841
X59.936 Y-25.723
X58.823 Y-25.644
X57.708 Y-25.605
X56.592
X55.477 Y-25.644
X54.364 Y-25.723
X53.255 Y-25.841
X52.15 Y-25.999
X51.052 Y-26.195
X49.961 Y-26.43
X48.88 Y-26.703
X47.808 Y-27.015
X46.749 Y-27.364
X45.702 Y-27.75
X44.669 Y-28.173
X43.653 Y-28.633
X42.653 Y-29.128
X41.671 Y-29.658
X40.709 Y-30.222
X39.767 Y-30.821
X38.847 Y-31.452
X37.95 Y-32.115
X37.077 Y-32.81
X36.229 Y-33.534
X35.407 Y-34.289
X34.612 Y-35.072
X33.845 Y-35.883
X33.108 Y-36.72
X32.401 Y-37.583
X31.724 Y-38.47
X31.08 Y-39.381
X30.468 Y-40.314
X29.889 Y-41.268
X29.345 Y-42.241
X28.835 Y-43.234
X28.361 Y-44.244
X27.922 Y-45.27
X27.521 Y-46.311
X27.156 Y-47.365
X26.829 Y-48.432
X26.539 Y-49.509
X26.288 Y-50.596
X26.076 Y-51.692
X25.902 Y-52.794
X25.768 Y-53.901
X25.673 Y-55.013
X25.617 Y-56.127
X88.683
Z-1 F50
Z15 F250

M9
G28 G91 Z0
G90
G28 G91 X0 Y0
G90
M5
M30
