(bot_upperright)
(Machine)
(  vendor: Autodesk)
(  model: Generic 3-axis)
(  description: This machine has XY axis on the Table and Z axis on the Head)
(T3 D=3.1 CR=0 - ZMIN=-7.3 - flat end mill)
G90 G94
G17
G21
(When using Fusion for Personal Use, the feedrate of rapid)
(moves is reduced to match the feedrate of cutting moves,)
(which can increase machining time. Unrestricted rapid moves)
(are available with a Fusion Subscription.)
G28 G91 Z0
G90

(Bore3 2)
T3
S19000 M3
G17 G90 G94
G54
M8
G0 X-21.825 Y-56.84
Z15
G1 Z2 F250
Z0.31 F50
G18 G3 X-22.135 Z0 I-0.31 K0
G1 X-22.29
G17 G3 X-22.6 Y-57.15 I0 J-0.31
X-20.7 Y-57.15 Z-0.175 I0.95 J0 F250
X-22.6 Y-57.15 Z-0.35 I-0.95 J0
X-20.7 Y-57.15 Z-0.524 I0.95 J0
X-22.6 Y-57.15 Z-0.699 I-0.95 J0
X-20.7 Y-57.15 Z-0.874 I0.95 J0
X-22.6 Y-57.15 Z-1.049 I-0.95 J0
X-20.7 Y-57.15 Z-1.224 I0.95 J0
X-22.6 Y-57.15 Z-1.399 I-0.95 J0
X-20.7 Y-57.15 Z-1.573 I0.95 J0
X-22.6 Y-57.15 Z-1.748 I-0.95 J0
X-20.7 Y-57.15 Z-1.923 I0.95 J0
X-22.6 Y-57.15 Z-2.098 I-0.95 J0
X-20.7 Y-57.15 Z-2.273 I0.95 J0
X-22.6 Y-57.15 Z-2.447 I-0.95 J0
X-20.7 Y-57.15 Z-2.622 I0.95 J0
X-22.6 Y-57.15 Z-2.797 I-0.95 J0
X-20.7 Y-57.15 Z-2.972 I0.95 J0
X-22.6 Y-57.15 Z-3.147 I-0.95 J0
X-20.7 Y-57.15 Z-3.322 I0.95 J0
X-22.6 Y-57.15 Z-3.496 I-0.95 J0
X-20.7 Y-57.15 Z-3.671 I0.95 J0
X-22.6 Y-57.15 Z-3.846 I-0.95 J0
X-20.7 Y-57.15 Z-4.021 I0.95 J0
X-22.6 Y-57.15 Z-4.196 I-0.95 J0
X-20.7 Y-57.15 Z-4.37 I0.95 J0
X-22.6 Y-57.15 Z-4.545 I-0.95 J0
X-20.7 Y-57.15 Z-4.72 I0.95 J0
X-22.6 Y-57.15 Z-4.895 I-0.95 J0
X-20.7 Y-57.15 Z-5.07 I0.95 J0
X-22.6 Y-57.15 Z-5.245 I-0.95 J0
X-20.7 Y-57.15 Z-5.419 I0.95 J0
X-22.6 Y-57.15 Z-5.594 I-0.95 J0
X-20.7 Y-57.15 Z-5.769 I0.95 J0
X-22.6 Y-57.15 Z-5.944 I-0.95 J0
X-20.7 Y-57.15 Z-6.119 I0.95 J0
X-22.6 Y-57.15 Z-6.293 I-0.95 J0
X-20.7 Y-57.15 Z-6.468 I0.95 J0
X-22.6 Y-57.15 Z-6.643 I-0.95 J0
X-20.7 Y-57.15 Z-6.818 I0.95 J0
X-22.6 Y-57.15 Z-6.993 I-0.95 J0
X-20.7 Y-57.15 Z-7.167 I0.95 J0
X-22.338 Y-56.495 Z-7.3 I-0.95 J0
X-20.962 Y-57.805 I0.688 J-0.655
X-22.338 Y-56.495 I-0.688 J0.655
X-22.327 Y-56.933 I0.225 J-0.214 F50
G1 X-22.215 Y-57.04
X-22.165 Y-57.088 Z-7.292
X-22.118 Y-57.133 Z-7.269
X-22.075 Y-57.174 Z-7.232
X-22.039 Y-57.207 Z-7.183
X-22.013 Y-57.233 Z-7.125
X-21.996 Y-57.249 Z-7.059
X-21.99 Y-57.254 Z-6.99
Z5 F250
X-26.581 Y-39.09
Z2
Z0.31 F50
G18 G3 X-26.891 Z0 I-0.31 K0
G1 X-27.046
G17 G3 X-27.356 Y-39.4 I0 J-0.31
X-25.456 Y-39.4 Z-0.175 I0.95 J0 F250
X-27.356 Y-39.4 Z-0.35 I-0.95 J0
X-25.456 Y-39.4 Z-0.524 I0.95 J0
X-27.356 Y-39.4 Z-0.699 I-0.95 J0
X-25.456 Y-39.4 Z-0.874 I0.95 J0
X-27.356 Y-39.4 Z-1.049 I-0.95 J0
X-25.456 Y-39.4 Z-1.224 I0.95 J0
X-27.356 Y-39.4 Z-1.399 I-0.95 J0
X-25.456 Y-39.4 Z-1.573 I0.95 J0
X-27.356 Y-39.4 Z-1.748 I-0.95 J0
X-25.456 Y-39.4 Z-1.923 I0.95 J0
X-27.356 Y-39.4 Z-2.098 I-0.95 J0
X-25.456 Y-39.4 Z-2.273 I0.95 J0
X-27.356 Y-39.4 Z-2.447 I-0.95 J0
X-25.456 Y-39.4 Z-2.622 I0.95 J0
X-27.356 Y-39.4 Z-2.797 I-0.95 J0
X-25.456 Y-39.4 Z-2.972 I0.95 J0
X-27.356 Y-39.4 Z-3.147 I-0.95 J0
X-25.456 Y-39.4 Z-3.322 I0.95 J0
X-27.356 Y-39.4 Z-3.496 I-0.95 J0
X-25.456 Y-39.4 Z-3.671 I0.95 J0
X-27.356 Y-39.4 Z-3.846 I-0.95 J0
X-25.456 Y-39.4 Z-4.021 I0.95 J0
X-27.356 Y-39.4 Z-4.196 I-0.95 J0
X-25.456 Y-39.4 Z-4.37 I0.95 J0
X-27.356 Y-39.4 Z-4.545 I-0.95 J0
X-25.456 Y-39.4 Z-4.72 I0.95 J0
X-27.356 Y-39.4 Z-4.895 I-0.95 J0
X-25.456 Y-39.4 Z-5.07 I0.95 J0
X-27.356 Y-39.4 Z-5.245 I-0.95 J0
X-25.456 Y-39.4 Z-5.419 I0.95 J0
X-27.356 Y-39.4 Z-5.594 I-0.95 J0
X-25.456 Y-39.4 Z-5.769 I0.95 J0
X-27.356 Y-39.4 Z-5.944 I-0.95 J0
X-25.456 Y-39.4 Z-6.119 I0.95 J0
X-27.356 Y-39.4 Z-6.293 I-0.95 J0
X-25.456 Y-39.4 Z-6.468 I0.95 J0
X-27.356 Y-39.4 Z-6.643 I-0.95 J0
X-25.456 Y-39.4 Z-6.818 I0.95 J0
X-27.356 Y-39.4 Z-6.993 I-0.95 J0
X-25.456 Y-39.4 Z-7.167 I0.95 J0
X-27.094 Y-38.745 Z-7.3 I-0.95 J0
X-25.718 Y-40.055 I0.688 J-0.655
X-27.094 Y-38.745 I-0.688 J0.655
X-27.083 Y-39.183 I0.225 J-0.214 F50
G1 X-26.971 Y-39.29
X-26.921 Y-39.338 Z-7.292
X-26.874 Y-39.383 Z-7.269
X-26.831 Y-39.424 Z-7.232
X-26.796 Y-39.457 Z-7.183
X-26.769 Y-39.483 Z-7.125
X-26.752 Y-39.499 Z-7.059
X-26.747 Y-39.504 Z-6.99
Z5 F250
X-39.575 Y-26.096
Z2
Z0.31 F50
G18 G3 X-39.885 Z0 I-0.31 K0
G1 X-40.04
G17 G3 X-40.35 Y-26.406 I0 J-0.31
X-38.45 Y-26.406 Z-0.175 I0.95 J0 F250
X-40.35 Y-26.406 Z-0.35 I-0.95 J0
X-38.45 Y-26.406 Z-0.524 I0.95 J0
X-40.35 Y-26.406 Z-0.699 I-0.95 J0
X-38.45 Y-26.406 Z-0.874 I0.95 J0
X-40.35 Y-26.406 Z-1.049 I-0.95 J0
X-38.45 Y-26.406 Z-1.224 I0.95 J0
X-40.35 Y-26.406 Z-1.399 I-0.95 J0
X-38.45 Y-26.406 Z-1.573 I0.95 J0
X-40.35 Y-26.406 Z-1.748 I-0.95 J0
X-38.45 Y-26.406 Z-1.923 I0.95 J0
X-40.35 Y-26.406 Z-2.098 I-0.95 J0
X-38.45 Y-26.406 Z-2.273 I0.95 J0
X-40.35 Y-26.406 Z-2.447 I-0.95 J0
X-38.45 Y-26.406 Z-2.622 I0.95 J0
X-40.35 Y-26.406 Z-2.797 I-0.95 J0
X-38.45 Y-26.406 Z-2.972 I0.95 J0
X-40.35 Y-26.406 Z-3.147 I-0.95 J0
X-38.45 Y-26.406 Z-3.322 I0.95 J0
X-40.35 Y-26.406 Z-3.496 I-0.95 J0
X-38.45 Y-26.406 Z-3.671 I0.95 J0
X-40.35 Y-26.406 Z-3.846 I-0.95 J0
X-38.45 Y-26.406 Z-4.021 I0.95 J0
X-40.35 Y-26.406 Z-4.196 I-0.95 J0
X-38.45 Y-26.406 Z-4.37 I0.95 J0
X-40.35 Y-26.406 Z-4.545 I-0.95 J0
X-38.45 Y-26.406 Z-4.72 I0.95 J0
X-40.35 Y-26.406 Z-4.895 I-0.95 J0
X-38.45 Y-26.406 Z-5.07 I0.95 J0
X-40.35 Y-26.406 Z-5.245 I-0.95 J0
X-38.45 Y-26.406 Z-5.419 I0.95 J0
X-40.35 Y-26.406 Z-5.594 I-0.95 J0
X-38.45 Y-26.406 Z-5.769 I0.95 J0
X-40.35 Y-26.406 Z-5.944 I-0.95 J0
X-38.45 Y-26.406 Z-6.119 I0.95 J0
X-40.35 Y-26.406 Z-6.293 I-0.95 J0
X-38.45 Y-26.406 Z-6.468 I0.95 J0
X-40.35 Y-26.406 Z-6.643 I-0.95 J0
X-38.45 Y-26.406 Z-6.818 I0.95 J0
X-40.35 Y-26.406 Z-6.993 I-0.95 J0
X-38.45 Y-26.406 Z-7.167 I0.95 J0
X-40.088 Y-25.751 Z-7.3 I-0.95 J0
X-38.712 Y-27.061 I0.688 J-0.655
X-40.088 Y-25.751 I-0.688 J0.655
X-40.077 Y-26.19 I0.225 J-0.214 F50
G1 X-39.965 Y-26.296
X-39.915 Y-26.344 Z-7.292
X-39.868 Y-26.389 Z-7.269
X-39.825 Y-26.43 Z-7.232
X-39.789 Y-26.463 Z-7.183
X-39.763 Y-26.489 Z-7.125
X-39.746 Y-26.505 Z-7.059
X-39.74 Y-26.51 Z-6.99
Z5 F250
X-57.325 Y-21.34
Z2
Z0.31 F50
G18 G3 X-57.635 Z0 I-0.31 K0
G1 X-57.79
G17 G3 X-58.1 Y-21.65 I0 J-0.31
X-56.2 Y-21.65 Z-0.175 I0.95 J0 F250
X-58.1 Y-21.65 Z-0.35 I-0.95 J0
X-56.2 Y-21.65 Z-0.524 I0.95 J0
X-58.1 Y-21.65 Z-0.699 I-0.95 J0
X-56.2 Y-21.65 Z-0.874 I0.95 J0
X-58.1 Y-21.65 Z-1.049 I-0.95 J0
X-56.2 Y-21.65 Z-1.224 I0.95 J0
X-58.1 Y-21.65 Z-1.399 I-0.95 J0
X-56.2 Y-21.65 Z-1.573 I0.95 J0
X-58.1 Y-21.65 Z-1.748 I-0.95 J0
X-56.2 Y-21.65 Z-1.923 I0.95 J0
X-58.1 Y-21.65 Z-2.098 I-0.95 J0
X-56.2 Y-21.65 Z-2.273 I0.95 J0
X-58.1 Y-21.65 Z-2.447 I-0.95 J0
X-56.2 Y-21.65 Z-2.622 I0.95 J0
X-58.1 Y-21.65 Z-2.797 I-0.95 J0
X-56.2 Y-21.65 Z-2.972 I0.95 J0
X-58.1 Y-21.65 Z-3.147 I-0.95 J0
X-56.2 Y-21.65 Z-3.322 I0.95 J0
X-58.1 Y-21.65 Z-3.496 I-0.95 J0
X-56.2 Y-21.65 Z-3.671 I0.95 J0
X-58.1 Y-21.65 Z-3.846 I-0.95 J0
X-56.2 Y-21.65 Z-4.021 I0.95 J0
X-58.1 Y-21.65 Z-4.196 I-0.95 J0
X-56.2 Y-21.65 Z-4.37 I0.95 J0
X-58.1 Y-21.65 Z-4.545 I-0.95 J0
X-56.2 Y-21.65 Z-4.72 I0.95 J0
X-58.1 Y-21.65 Z-4.895 I-0.95 J0
X-56.2 Y-21.65 Z-5.07 I0.95 J0
X-58.1 Y-21.65 Z-5.245 I-0.95 J0
X-56.2 Y-21.65 Z-5.419 I0.95 J0
X-58.1 Y-21.65 Z-5.594 I-0.95 J0
X-56.2 Y-21.65 Z-5.769 I0.95 J0
X-58.1 Y-21.65 Z-5.944 I-0.95 J0
X-56.2 Y-21.65 Z-6.119 I0.95 J0
X-58.1 Y-21.65 Z-6.293 I-0.95 J0
X-56.2 Y-21.65 Z-6.468 I0.95 J0
X-58.1 Y-21.65 Z-6.643 I-0.95 J0
X-56.2 Y-21.65 Z-6.818 I0.95 J0
X-58.1 Y-21.65 Z-6.993 I-0.95 J0
X-56.2 Y-21.65 Z-7.167 I0.95 J0
X-57.838 Y-20.995 Z-7.3 I-0.95 J0
X-56.462 Y-22.305 I0.688 J-0.655
X-57.838 Y-20.995 I-0.688 J0.655
X-57.827 Y-21.433 I0.225 J-0.214 F50
G1 X-57.715 Y-21.54
X-57.665 Y-21.588 Z-7.292
X-57.618 Y-21.633 Z-7.269
X-57.575 Y-21.674 Z-7.232
X-57.539 Y-21.707 Z-7.183
X-57.513 Y-21.733 Z-7.125
X-57.496 Y-21.749 Z-7.059
X-57.49 Y-21.754 Z-6.99
Z5 F250
X-75.075 Y-26.096
Z2
Z0.31 F50
G18 G3 X-75.385 Z0 I-0.31 K0
G1 X-75.54
G17 G3 X-75.85 Y-26.406 I0 J-0.31
X-73.95 Y-26.406 Z-0.175 I0.95 J0 F250
X-75.85 Y-26.406 Z-0.35 I-0.95 J0
X-73.95 Y-26.406 Z-0.524 I0.95 J0
X-75.85 Y-26.406 Z-0.699 I-0.95 J0
X-73.95 Y-26.406 Z-0.874 I0.95 J0
X-75.85 Y-26.406 Z-1.049 I-0.95 J0
X-73.95 Y-26.406 Z-1.224 I0.95 J0
X-75.85 Y-26.406 Z-1.399 I-0.95 J0
X-73.95 Y-26.406 Z-1.573 I0.95 J0
X-75.85 Y-26.406 Z-1.748 I-0.95 J0
X-73.95 Y-26.406 Z-1.923 I0.95 J0
X-75.85 Y-26.406 Z-2.098 I-0.95 J0
X-73.95 Y-26.406 Z-2.273 I0.95 J0
X-75.85 Y-26.406 Z-2.447 I-0.95 J0
X-73.95 Y-26.406 Z-2.622 I0.95 J0
X-75.85 Y-26.406 Z-2.797 I-0.95 J0
X-73.95 Y-26.406 Z-2.972 I0.95 J0
X-75.85 Y-26.406 Z-3.147 I-0.95 J0
X-73.95 Y-26.406 Z-3.322 I0.95 J0
X-75.85 Y-26.406 Z-3.496 I-0.95 J0
X-73.95 Y-26.406 Z-3.671 I0.95 J0
X-75.85 Y-26.406 Z-3.846 I-0.95 J0
X-73.95 Y-26.406 Z-4.021 I0.95 J0
X-75.85 Y-26.406 Z-4.196 I-0.95 J0
X-73.95 Y-26.406 Z-4.37 I0.95 J0
X-75.85 Y-26.406 Z-4.545 I-0.95 J0
X-73.95 Y-26.406 Z-4.72 I0.95 J0
X-75.85 Y-26.406 Z-4.895 I-0.95 J0
X-73.95 Y-26.406 Z-5.07 I0.95 J0
X-75.85 Y-26.406 Z-5.245 I-0.95 J0
X-73.95 Y-26.406 Z-5.419 I0.95 J0
X-75.85 Y-26.406 Z-5.594 I-0.95 J0
X-73.95 Y-26.406 Z-5.769 I0.95 J0
X-75.85 Y-26.406 Z-5.944 I-0.95 J0
X-73.95 Y-26.406 Z-6.119 I0.95 J0
X-75.85 Y-26.406 Z-6.293 I-0.95 J0
X-73.95 Y-26.406 Z-6.468 I0.95 J0
X-75.85 Y-26.406 Z-6.643 I-0.95 J0
X-73.95 Y-26.406 Z-6.818 I0.95 J0
X-75.85 Y-26.406 Z-6.993 I-0.95 J0
X-73.95 Y-26.406 Z-7.167 I0.95 J0
X-75.588 Y-25.751 Z-7.3 I-0.95 J0
X-74.212 Y-27.061 I0.688 J-0.655
X-75.588 Y-25.751 I-0.688 J0.655
X-75.577 Y-26.19 I0.225 J-0.214 F50
G1 X-75.465 Y-26.296
X-75.415 Y-26.344 Z-7.292
X-75.368 Y-26.389 Z-7.269
X-75.325 Y-26.43 Z-7.232
X-75.289 Y-26.463 Z-7.183
X-75.263 Y-26.489 Z-7.125
X-75.246 Y-26.505 Z-7.059
X-75.24 Y-26.51 Z-6.99
Z5 F250
X-88.069 Y-39.09
Z2
Z0.31 F50
G18 G3 X-88.379 Z0 I-0.31 K0
G1 X-88.534
G17 G3 X-88.844 Y-39.4 I0 J-0.31
X-86.944 Y-39.4 Z-0.175 I0.95 J0 F250
X-88.844 Y-39.4 Z-0.35 I-0.95 J0
X-86.944 Y-39.4 Z-0.524 I0.95 J0
X-88.844 Y-39.4 Z-0.699 I-0.95 J0
X-86.944 Y-39.4 Z-0.874 I0.95 J0
X-88.844 Y-39.4 Z-1.049 I-0.95 J0
X-86.944 Y-39.4 Z-1.224 I0.95 J0
X-88.844 Y-39.4 Z-1.399 I-0.95 J0
X-86.944 Y-39.4 Z-1.573 I0.95 J0
X-88.844 Y-39.4 Z-1.748 I-0.95 J0
X-86.944 Y-39.4 Z-1.923 I0.95 J0
X-88.844 Y-39.4 Z-2.098 I-0.95 J0
X-86.944 Y-39.4 Z-2.273 I0.95 J0
X-88.844 Y-39.4 Z-2.447 I-0.95 J0
X-86.944 Y-39.4 Z-2.622 I0.95 J0
X-88.844 Y-39.4 Z-2.797 I-0.95 J0
X-86.944 Y-39.4 Z-2.972 I0.95 J0
X-88.844 Y-39.4 Z-3.147 I-0.95 J0
X-86.944 Y-39.4 Z-3.322 I0.95 J0
X-88.844 Y-39.4 Z-3.496 I-0.95 J0
X-86.944 Y-39.4 Z-3.671 I0.95 J0
X-88.844 Y-39.4 Z-3.846 I-0.95 J0
X-86.944 Y-39.4 Z-4.021 I0.95 J0
X-88.844 Y-39.4 Z-4.196 I-0.95 J0
X-86.944 Y-39.4 Z-4.37 I0.95 J0
X-88.844 Y-39.4 Z-4.545 I-0.95 J0
X-86.944 Y-39.4 Z-4.72 I0.95 J0
X-88.844 Y-39.4 Z-4.895 I-0.95 J0
X-86.944 Y-39.4 Z-5.07 I0.95 J0
X-88.844 Y-39.4 Z-5.245 I-0.95 J0
X-86.944 Y-39.4 Z-5.419 I0.95 J0
X-88.844 Y-39.4 Z-5.594 I-0.95 J0
X-86.944 Y-39.4 Z-5.769 I0.95 J0
X-88.844 Y-39.4 Z-5.944 I-0.95 J0
X-86.944 Y-39.4 Z-6.119 I0.95 J0
X-88.844 Y-39.4 Z-6.293 I-0.95 J0
X-86.944 Y-39.4 Z-6.468 I0.95 J0
X-88.844 Y-39.4 Z-6.643 I-0.95 J0
X-86.944 Y-39.4 Z-6.818 I0.95 J0
X-88.844 Y-39.4 Z-6.993 I-0.95 J0
X-86.944 Y-39.4 Z-7.167 I0.95 J0
X-88.582 Y-38.745 Z-7.3 I-0.95 J0
X-87.206 Y-40.055 I0.688 J-0.655
X-88.582 Y-38.745 I-0.688 J0.655
X-88.571 Y-39.183 I0.225 J-0.214 F50
G1 X-88.459 Y-39.29
X-88.409 Y-39.338 Z-7.292
X-88.362 Y-39.383 Z-7.269
X-88.319 Y-39.424 Z-7.232
X-88.283 Y-39.457 Z-7.183
X-88.257 Y-39.483 Z-7.125
X-88.24 Y-39.499 Z-7.059
X-88.234 Y-39.504 Z-6.99
Z5 F250
X-92.825 Y-56.84
Z2
Z0.31 F50
G18 G3 X-93.135 Z0 I-0.31 K0
G1 X-93.29
G17 G3 X-93.6 Y-57.15 I0 J-0.31
X-91.7 Y-57.15 Z-0.175 I0.95 J0 F250
X-93.6 Y-57.15 Z-0.35 I-0.95 J0
X-91.7 Y-57.15 Z-0.524 I0.95 J0
X-93.6 Y-57.15 Z-0.699 I-0.95 J0
X-91.7 Y-57.15 Z-0.874 I0.95 J0
X-93.6 Y-57.15 Z-1.049 I-0.95 J0
X-91.7 Y-57.15 Z-1.224 I0.95 J0
X-93.6 Y-57.15 Z-1.399 I-0.95 J0
X-91.7 Y-57.15 Z-1.573 I0.95 J0
X-93.6 Y-57.15 Z-1.748 I-0.95 J0
X-91.7 Y-57.15 Z-1.923 I0.95 J0
X-93.6 Y-57.15 Z-2.098 I-0.95 J0
X-91.7 Y-57.15 Z-2.273 I0.95 J0
X-93.6 Y-57.15 Z-2.447 I-0.95 J0
X-91.7 Y-57.15 Z-2.622 I0.95 J0
X-93.6 Y-57.15 Z-2.797 I-0.95 J0
X-91.7 Y-57.15 Z-2.972 I0.95 J0
X-93.6 Y-57.15 Z-3.147 I-0.95 J0
X-91.7 Y-57.15 Z-3.322 I0.95 J0
X-93.6 Y-57.15 Z-3.496 I-0.95 J0
X-91.7 Y-57.15 Z-3.671 I0.95 J0
X-93.6 Y-57.15 Z-3.846 I-0.95 J0
X-91.7 Y-57.15 Z-4.021 I0.95 J0
X-93.6 Y-57.15 Z-4.196 I-0.95 J0
X-91.7 Y-57.15 Z-4.37 I0.95 J0
X-93.6 Y-57.15 Z-4.545 I-0.95 J0
X-91.7 Y-57.15 Z-4.72 I0.95 J0
X-93.6 Y-57.15 Z-4.895 I-0.95 J0
X-91.7 Y-57.15 Z-5.07 I0.95 J0
X-93.6 Y-57.15 Z-5.245 I-0.95 J0
X-91.7 Y-57.15 Z-5.419 I0.95 J0
X-93.6 Y-57.15 Z-5.594 I-0.95 J0
X-91.7 Y-57.15 Z-5.769 I0.95 J0
X-93.6 Y-57.15 Z-5.944 I-0.95 J0
X-91.7 Y-57.15 Z-6.119 I0.95 J0
X-93.6 Y-57.15 Z-6.293 I-0.95 J0
X-91.7 Y-57.15 Z-6.468 I0.95 J0
X-93.6 Y-57.15 Z-6.643 I-0.95 J0
X-91.7 Y-57.15 Z-6.818 I0.95 J0
X-93.6 Y-57.15 Z-6.993 I-0.95 J0
X-91.7 Y-57.15 Z-7.167 I0.95 J0
X-93.338 Y-56.495 Z-7.3 I-0.95 J0
X-91.962 Y-57.805 I0.688 J-0.655
X-93.338 Y-56.495 I-0.688 J0.655
X-93.327 Y-56.933 I0.225 J-0.214 F50
G1 X-93.215 Y-57.04
X-93.165 Y-57.088 Z-7.292
X-93.118 Y-57.133 Z-7.269
X-93.075 Y-57.174 Z-7.232
X-93.039 Y-57.207 Z-7.183
X-93.013 Y-57.233 Z-7.125
X-92.996 Y-57.249 Z-7.059
X-92.99 Y-57.254 Z-6.99
Z15 F250
(When using Fusion for Personal Use, the feedrate of rapid)
(moves is reduced to match the feedrate of cutting moves,)
(which can increase machining time. Unrestricted rapid moves)
(are available with a Fusion Subscription.)

(Bore6 2)
G0 X-98 Y-8
G1 Z15 F250
Z1.69
Z0 F50
X-97.975 Y-8.025
X-97.957 Y-8.018
X-97.95 Y-8
X-97.958 Y-7.973 Z-0.02 F250
X-97.979 Y-7.955 Z-0.04
X-98.006 Y-7.95 Z-0.06
X-98.032 Y-7.962 Z-0.081
X-98.048 Y-7.985 Z-0.101
Y-8.013 Z-0.121
X-98.034 Y-8.037 Z-0.141
X-98.009 Y-8.049 Z-0.161
X-97.981 Y-8.046 Z-0.181
X-97.959 Y-8.029 Z-0.202
X-97.95 Y-8.003 Z-0.222
X-97.956 Y-7.976 Z-0.242
X-97.976 Y-7.956 Z-0.262
X-98.004 Y-7.95 Z-0.282
X-98.03 Y-7.96 Z-0.302
X-98.047 Y-7.982 Z-0.323
X-98.049 Y-8.01 Z-0.343
X-98.036 Y-8.035 Z-0.363
X-98.012 Y-8.049 Z-0.383
X-97.984 Y-8.047 Z-0.403
X-97.961 Y-8.031 Z-0.423
X-97.95 Y-8.005 Z-0.444
X-97.955 Y-7.978 Z-0.464
X-97.974 Y-7.957 Z-0.484
X-98.001 Y-7.95 Z-0.504
X-98.028 Y-7.958 Z-0.524
X-98.046 Y-7.98 Z-0.544
X-98.049 Y-8.007 Z-0.565
X-98.038 Y-8.033 Z-0.585
X-98.014 Y-8.048 Z-0.605
X-97.986 Z-0.625
X-97.963 Y-8.033 Z-0.645
X-97.951 Y-8.008 Z-0.665
X-97.954 Y-7.98 Z-0.686
X-97.972 Y-7.959 Z-0.706
X-97.998 Y-7.95 Z-0.726
X-98.025 Y-7.957 Z-0.746
X-98.044 Y-7.977 Z-0.766
X-98.05 Y-8.005 Z-0.786
X-98.04 Y-8.031 Z-0.807
X-98.017 Y-8.047 Z-0.827
X-97.989 Y-8.049 Z-0.847
X-97.965 Y-8.035 Z-0.867
X-97.951 Y-8.011 Z-0.887
X-97.953 Y-7.983 Z-0.907
X-97.969 Y-7.96 Z-0.928
X-97.995 Y-7.95 Z-0.948
X-98.023 Y-7.956 Z-0.968
X-98.043 Y-7.975 Z-0.988
X-98.05 Y-8.002 Z-1.008
X-98.041 Y-8.028 Z-1.028
X-98.02 Y-8.046 Z-1.049
X-97.992 Y-8.049 Z-1.069
X-97.967 Y-8.037 Z-1.089
X-97.952 Y-8.013 Z-1.109
Y-7.986 Z-1.129
X-97.967 Y-7.962 Z-1.149
X-97.993 Y-7.951 Z-1.17
X-98.02 Y-7.954 Z-1.19
X-98.042 Y-7.972 Z-1.21
X-98.05 Y-7.999 Z-1.23
X-98.043 Y-8.026 Z-1.25
X-98.022 Y-8.045 Z-1.27
X-97.994 Y-8.05 Z-1.291
X-97.969 Y-8.039 Z-1.311
X-97.953 Y-8.016 Z-1.331
X-97.951 Y-7.988 Z-1.351
X-97.965 Y-7.964 Z-1.371
X-97.99 Y-7.951 Z-1.391
X-98.018 Y-7.953 Z-1.412
X-98.04 Y-7.97 Z-1.432
X-98.05 Y-7.996 Z-1.452
X-98.044 Y-8.024 Z-1.472
X-98.024 Y-8.044 Z-1.492
X-97.997 Y-8.05 Z-1.512
X-97.971 Y-8.041 Z-1.533
X-97.954 Y-8.019 Z-1.553
X-97.951 Y-7.991 Z-1.573
X-97.963 Y-7.966 Z-1.593
X-97.987 Y-7.952 Z-1.613
X-98.015 Z-1.633
X-98.038 Y-7.968 Z-1.654
X-98.05 Y-7.994 Z-1.674
X-98.045 Y-8.021 Z-1.694
X-98.027 Y-8.042 Z-1.714
X-98 Y-8.05 Z-1.734
X-97.973 Y-8.042 Z-1.754
X-97.955 Y-8.021 Z-1.775
X-97.95 Y-7.994 Z-1.795
X-97.962 Y-7.968 Z-1.815
X-97.985 Y-7.952 Z-1.835
X-98.013 Z-1.855
X-98.037 Y-7.966 Z-1.875
X-98.049 Y-7.991 Z-1.896
X-98.046 Y-8.019 Z-1.916
X-98.029 Y-8.041 Z-1.936
X-98.003 Y-8.05 Z-1.956
X-97.975 Y-8.044 Z-1.976
X-97.956 Y-8.024 Z-1.996
X-97.95 Y-7.996 Z-2.017
X-97.96 Y-7.97 Z-2.037
X-97.982 Y-7.953 Z-2.057
X-98.01 Y-7.951 Z-2.077
X-98.035 Y-7.964 Z-2.097
X-98.049 Y-7.988 Z-2.117
X-98.047 Y-8.016 Z-2.138
X-98.031 Y-8.039 Z-2.158
X-98.005 Y-8.05 Z-2.178
X-97.978 Y-8.045 Z-2.198
X-97.957 Y-8.026 Z-2.218
X-97.95 Y-7.999 Z-2.238
X-97.958 Y-7.972 Z-2.259
X-97.98 Y-7.954 Z-2.279
X-98.007 Y-7.951 Z-2.299
X-98.033 Y-7.962 Z-2.319
X-98.048 Y-7.986 Z-2.339
Y-8.014 Z-2.359
X-98.033 Y-8.037 Z-2.38
X-98.008 Y-8.049 Z-2.4
X-97.98 Y-8.046 Z-2.42
X-97.959 Y-8.028 Z-2.44
X-97.95 Y-8.002 Z-2.46
X-97.957 Y-7.975 Z-2.48
X-97.977 Y-7.955 Z-2.501
X-98.005 Y-7.95 Z-2.521
X-98.031 Y-7.961 Z-2.541
X-98.047 Y-7.983 Z-2.561
X-98.049 Y-8.011 Z-2.581
X-98.035 Y-8.035 Z-2.601
X-98.011 Y-8.049 Z-2.622
X-97.983 Y-8.047 Z-2.642
X-97.96 Y-8.03 Z-2.662
X-97.95 Y-8.004 Z-2.682
X-97.956 Y-7.977 Z-2.702
X-97.975 Y-7.957 Z-2.722
X-98.002 Y-7.95 Z-2.743
X-98.028 Y-7.959 Z-2.763
X-98.046 Y-7.981 Z-2.783
X-98.049 Y-8.008 Z-2.803
X-98.037 Y-8.033 Z-2.823
X-98.013 Y-8.048 Z-2.843
X-97.985 Z-2.864
X-97.962 Y-8.033 Z-2.884
X-97.951 Y-8.007 Z-2.904
X-97.954 Y-7.979 Z-2.924
X-97.973 Y-7.958 Z-2.944
X-97.999 Y-7.95 Z-2.964
X-98.026 Y-7.957 Z-2.985
X-98.045 Y-7.978 Z-3.005
X-98.05 Y-8.006 Z-3.025
X-98.039 Y-8.031 Z-3.045
X-98.016 Y-8.047 Z-3.065
X-97.988 Y-8.049 Z-3.085
X-97.964 Y-8.035 Z-3.106
X-97.951 Y-8.01 Z-3.126
X-97.953 Y-7.982 Z-3.146
X-97.97 Y-7.96 Z-3.166
X-97.997 Y-7.95 Z-3.186
X-98.024 Y-7.956 Z-3.206
X-98.044 Y-7.976 Z-3.227
X-98.05 Y-8.003 Z-3.247
X-98.041 Y-8.029 Z-3.267
X-98.019 Y-8.046 Z-3.287
X-97.991 Y-8.049 Z-3.307
X-97.966 Y-8.036 Z-3.327
X-97.952 Y-8.012 Z-3.348
Y-7.985 Z-3.368
X-97.968 Y-7.961 Z-3.388
X-97.994 Y-7.95 Z-3.408
X-98.021 Y-7.955 Z-3.428
X-98.042 Y-7.973 Z-3.448
X-98.05 Y-8 Z-3.469
X-98.042 Y-8.027 Z-3.489
X-98.021 Y-8.045 Z-3.509
X-97.993 Y-8.05 Z-3.529
X-97.968 Y-8.038 Z-3.549
X-97.952 Y-8.015 Z-3.569
Y-7.987 Z-3.59
X-97.966 Y-7.963 Z-3.61
X-97.991 Y-7.951 Z-3.63
X-98.019 Y-7.954 Z-3.65
X-98.041 Y-7.971 Z-3.67
X-98.05 Y-7.997 Z-3.69
X-98.044 Y-8.025 Z-3.71
X-98.023 Y-8.044 Z-3.731
X-97.996 Y-8.05 Z-3.751
X-97.97 Y-8.04 Z-3.771
X-97.953 Y-8.018 Z-3.791
X-97.951 Y-7.99 Z-3.811
X-97.964 Y-7.965 Z-3.831
X-97.988 Y-7.951 Z-3.852
X-98.016 Y-7.953 Z-3.872
X-98.039 Y-7.969 Z-3.892
X-98.05 Y-7.995 Z-3.912
X-98.045 Y-8.022 Z-3.932
X-98.026 Y-8.043 Z-3.952
X-97.999 Y-8.05 Z-3.973
X-97.972 Y-8.042 Z-3.993
X-97.954 Y-8.02 Z-4.013
X-97.951 Y-7.992 Z-4.033
X-97.962 Y-7.967 Z-4.053
X-97.986 Y-7.952 Z-4.073
X-98.014 Z-4.094
X-98.037 Y-7.967 Z-4.114
X-98.049 Y-7.992 Z-4.134
X-98.046 Y-8.02 Z-4.154
X-98.028 Y-8.041 Z-4.174
X-98.002 Y-8.05 Z-4.194
X-97.975 Y-8.043 Z-4.215
X-97.955 Y-8.023 Z-4.235
X-97.95 Y-7.995 Z-4.255
X-97.961 Y-7.969 Z-4.275
X-97.983 Y-7.953 Z-4.295
X-98.011 Y-7.951 Z-4.315
X-98.036 Y-7.965 Z-4.336
X-98.049 Y-7.989 Z-4.356
X-98.047 Y-8.017 Z-4.376
X-98.03 Y-8.04 Z-4.396
X-98.004 Y-8.05 Z-4.416
X-97.977 Y-8.044 Z-4.436
X-97.957 Y-8.025 Z-4.457
X-97.95 Y-7.998 Z-4.477
X-97.959 Y-7.971 Z-4.497
X-97.981 Y-7.954 Z-4.517
X-98.008 Y-7.951 Z-4.537
X-98.034 Y-7.963 Z-4.557
X-98.048 Y-7.987 Z-4.578
Y-8.015 Z-4.598
X-98.032 Y-8.038 Z-4.618
X-98.007 Y-8.05 Z-4.638
X-97.979 Y-8.046 Z-4.658
X-97.958 Y-8.027 Z-4.678
X-97.95 Y-8.001 Z-4.699
X-97.957 Y-7.974 Z-4.719
X-97.978 Y-7.955 Z-4.739
X-98.006 Y-7.95 Z-4.759
X-98.031 Y-7.961 Z-4.779
X-98.047 Y-7.984 Z-4.799
X-98.049 Y-8.012 Z-4.82
X-98.035 Y-8.036 Z-4.84
X-98.01 Y-8.049 Z-4.86
X-97.982 Y-8.047 Z-4.88
X-97.96 Y-8.03 Z-4.9
X-97.95 Y-8.003 Z-4.92
X-97.956 Y-7.976 Z-4.941
X-97.976 Y-7.956 Z-4.961
X-98.003 Y-7.95 Z-4.981
X-98.029 Y-7.959 Z-5.001
X-98.046 Y-7.982 Z-5.021
X-98.049 Y-8.009 Z-5.041
X-98.036 Y-8.034 Z-5.062
X-98.012 Y-8.048 Z-5.082
X-97.984 Z-5.102
X-97.961 Y-8.032 Z-5.122
X-97.95 Y-8.006 Z-5.142
X-97.955 Y-7.979 Z-5.162
X-97.973 Y-7.958 Z-5.183
X-98 Y-7.95 Z-5.203
X-98.027 Y-7.958 Z-5.223
X-98.045 Y-7.979 Z-5.243
X-98.05 Y-8.007 Z-5.263
X-98.038 Y-8.032 Z-5.283
X-98.015 Y-8.048 Z-5.304
X-97.987 Z-5.324
X-97.963 Y-8.034 Z-5.344
X-97.951 Y-8.009 Z-5.364
X-97.954 Y-7.981 Z-5.384
X-97.971 Y-7.959 Z-5.404
X-97.998 Y-7.95 Z-5.425
X-98.025 Y-7.957 Z-5.445
X-98.044 Y-7.977 Z-5.465
X-98.05 Y-8.004 Z-5.485
X-98.04 Y-8.03 Z-5.505
X-98.018 Y-8.047 Z-5.525
X-97.99 Y-8.049 Z-5.546
X-97.965 Y-8.036 Z-5.566
X-97.951 Y-8.011 Z-5.586
X-97.953 Y-7.984 Z-5.606
X-97.969 Y-7.961 Z-5.626
X-97.995 Y-7.95 Z-5.646
X-98.022 Y-7.955 Z-5.667
X-98.043 Y-7.974 Z-5.687
X-98.05 Y-8.001 Z-5.707
X-98.042 Y-8.028 Z-5.727
X-98.02 Y-8.046 Z-5.747
X-97.992 Y-8.049 Z-5.767
X-97.967 Y-8.038 Z-5.788
X-97.952 Y-8.014 Z-5.808
Y-7.986 Z-5.828
X-97.967 Y-7.963 Z-5.848
X-97.992 Y-7.951 Z-5.868
X-98.02 Y-7.954 Z-5.888
X-98.041 Y-7.972 Z-5.909
X-98.05 Y-7.999 Z-5.929
X-98.043 Y-8.026 Z-5.949
X-98.023 Y-8.045 Z-5.969
X-97.995 Y-8.05 Z-5.989
X-97.969 Y-8.039 Z-6.009
X-97.953 Y-8.017 Z-6.03
X-97.951 Y-7.989 Z-6.05
X-97.965 Y-7.964 Z-6.07
X-97.989 Y-7.951 Z-6.09
X-98.017 Y-7.953 Z-6.11
X-98.04 Y-7.97 Z-6.13
X-98.05 Y-7.996 Z-6.151
X-98.044 Y-8.023 Z-6.171
X-98.025 Y-8.043 Z-6.191
X-97.998 Y-8.05 Z-6.211
X-97.971 Y-8.041 Z-6.231
X-97.954 Y-8.019 Z-6.251
X-97.951 Y-7.991 Z-6.272
X-97.963 Y-7.966 Z-6.292
X-97.987 Y-7.952 Z-6.312
X-98.015 Z-6.332
X-98.038 Y-7.968 Z-6.352
X-98.05 Y-7.993 Z-6.372
X-98.046 Y-8.021 Z-6.393
X-98.027 Y-8.042 Z-6.413
X-98.001 Y-8.05 Z-6.433
X-97.974 Y-8.042 Z-6.453
X-97.955 Y-8.022 Z-6.473
X-97.95 Y-7.994 Z-6.493
X-97.961 Y-7.968 Z-6.514
X-97.984 Y-7.953 Z-6.534
X-98.012 Y-7.951 Z-6.554
X-98.036 Y-7.966 Z-6.574
X-98.049 Y-7.99 Z-6.594
X-98.047 Y-8.018 Z-6.614
X-98.03 Y-8.04 Z-6.635
X-98.003 Y-8.05 Z-6.655
X-97.976 Y-8.044 Z-6.675
X-97.956 Y-8.024 Z-6.695
X-97.95 Y-7.997 Z-6.715
X-97.96 Y-7.971 Z-6.735
X-97.982 Y-7.953 Z-6.756
X-98.009 Y-7.951 Z-6.776
X-98.034 Y-7.964 Z-6.796
X-98.048 Y-7.988 Z-6.816
X-98.047 Y-8.016 Z-6.836
X-98.032 Y-8.039 Z-6.856
X-98.006 Y-8.05 Z-6.877
X-97.978 Y-8.045 Z-6.897
X-97.958 Y-8.026 Z-6.917
X-97.95 Y-8 Z-6.937
X-97.958 Y-7.973 Z-6.957
X-97.979 Y-7.955 Z-6.977
X-98.007 Y-7.95 Z-6.998
X-98.032 Y-7.962 Z-7.018
X-98.048 Y-7.985 Z-7.038
Y-8.013 Z-7.058
X-98.034 Y-8.037 Z-7.078
X-98.009 Y-8.049 Z-7.098
X-97.981 Y-8.046 Z-7.119
X-97.959 Y-8.029 Z-7.139
X-97.95 Y-8.002 Z-7.159
X-97.957 Y-7.975 Z-7.179
X-97.977 Y-7.956 Z-7.199
X-98.004 Y-7.95 Z-7.219
X-98.03 Y-7.96 Z-7.24
X-98.047 Y-7.983 Z-7.26
X-98.049 Y-8.01 Z-7.28
X-98.036 Y-8.035 Z-7.3
G3 X-97.964 Y-7.965 I0.036 J0.035
X-98.036 Y-8.035 I-0.036 J-0.035
G1 X-98.018 Y-8.042 F50
X-98 Y-8.035
Y-8
Z5 F250
X-8
Z1.69
Z0 F50
X-7.975 Y-8.025
X-7.957 Y-8.018
X-7.95 Y-8
X-7.958 Y-7.973 Z-0.02 F250
X-7.979 Y-7.955 Z-0.04
X-8.006 Y-7.95 Z-0.06
X-8.032 Y-7.962 Z-0.081
X-8.048 Y-7.985 Z-0.101
Y-8.013 Z-0.121
X-8.034 Y-8.037 Z-0.141
X-8.009 Y-8.049 Z-0.161
X-7.981 Y-8.046 Z-0.181
X-7.959 Y-8.029 Z-0.202
X-7.95 Y-8.003 Z-0.222
X-7.956 Y-7.976 Z-0.242
X-7.976 Y-7.956 Z-0.262
X-8.004 Y-7.95 Z-0.282
X-8.03 Y-7.96 Z-0.302
X-8.047 Y-7.982 Z-0.323
X-8.049 Y-8.01 Z-0.343
X-8.036 Y-8.035 Z-0.363
X-8.012 Y-8.049 Z-0.383
X-7.984 Y-8.047 Z-0.403
X-7.961 Y-8.031 Z-0.423
X-7.95 Y-8.005 Z-0.444
X-7.955 Y-7.978 Z-0.464
X-7.974 Y-7.957 Z-0.484
X-8.001 Y-7.95 Z-0.504
X-8.028 Y-7.958 Z-0.524
X-8.046 Y-7.98 Z-0.544
X-8.049 Y-8.007 Z-0.565
X-8.038 Y-8.033 Z-0.585
X-8.014 Y-8.048 Z-0.605
X-7.986 Z-0.625
X-7.963 Y-8.033 Z-0.645
X-7.951 Y-8.008 Z-0.665
X-7.954 Y-7.98 Z-0.686
X-7.972 Y-7.959 Z-0.706
X-7.998 Y-7.95 Z-0.726
X-8.025 Y-7.957 Z-0.746
X-8.044 Y-7.977 Z-0.766
X-8.05 Y-8.005 Z-0.786
X-8.04 Y-8.031 Z-0.807
X-8.017 Y-8.047 Z-0.827
X-7.989 Y-8.049 Z-0.847
X-7.965 Y-8.035 Z-0.867
X-7.951 Y-8.011 Z-0.887
X-7.953 Y-7.983 Z-0.907
X-7.969 Y-7.96 Z-0.928
X-7.995 Y-7.95 Z-0.948
X-8.023 Y-7.956 Z-0.968
X-8.043 Y-7.975 Z-0.988
X-8.05 Y-8.002 Z-1.008
X-8.041 Y-8.028 Z-1.028
X-8.02 Y-8.046 Z-1.049
X-7.992 Y-8.049 Z-1.069
X-7.967 Y-8.037 Z-1.089
X-7.952 Y-8.013 Z-1.109
Y-7.986 Z-1.129
X-7.967 Y-7.962 Z-1.149
X-7.993 Y-7.951 Z-1.17
X-8.02 Y-7.954 Z-1.19
X-8.042 Y-7.972 Z-1.21
X-8.05 Y-7.999 Z-1.23
X-8.043 Y-8.026 Z-1.25
X-8.022 Y-8.045 Z-1.27
X-7.994 Y-8.05 Z-1.291
X-7.969 Y-8.039 Z-1.311
X-7.953 Y-8.016 Z-1.331
X-7.951 Y-7.988 Z-1.351
X-7.965 Y-7.964 Z-1.371
X-7.99 Y-7.951 Z-1.391
X-8.018 Y-7.953 Z-1.412
X-8.04 Y-7.97 Z-1.432
X-8.05 Y-7.996 Z-1.452
X-8.044 Y-8.024 Z-1.472
X-8.024 Y-8.044 Z-1.492
X-7.997 Y-8.05 Z-1.512
X-7.971 Y-8.041 Z-1.533
X-7.954 Y-8.019 Z-1.553
X-7.951 Y-7.991 Z-1.573
X-7.963 Y-7.966 Z-1.593
X-7.987 Y-7.952 Z-1.613
X-8.015 Z-1.633
X-8.038 Y-7.968 Z-1.654
X-8.05 Y-7.994 Z-1.674
X-8.045 Y-8.021 Z-1.694
X-8.027 Y-8.042 Z-1.714
X-8 Y-8.05 Z-1.734
X-7.973 Y-8.042 Z-1.754
X-7.955 Y-8.021 Z-1.775
X-7.95 Y-7.994 Z-1.795
X-7.962 Y-7.968 Z-1.815
X-7.985 Y-7.952 Z-1.835
X-8.013 Z-1.855
X-8.037 Y-7.966 Z-1.875
X-8.049 Y-7.991 Z-1.896
X-8.046 Y-8.019 Z-1.916
X-8.029 Y-8.041 Z-1.936
X-8.003 Y-8.05 Z-1.956
X-7.975 Y-8.044 Z-1.976
X-7.956 Y-8.024 Z-1.996
X-7.95 Y-7.996 Z-2.017
X-7.96 Y-7.97 Z-2.037
X-7.982 Y-7.953 Z-2.057
X-8.01 Y-7.951 Z-2.077
X-8.035 Y-7.964 Z-2.097
X-8.049 Y-7.988 Z-2.117
X-8.047 Y-8.016 Z-2.138
X-8.031 Y-8.039 Z-2.158
X-8.005 Y-8.05 Z-2.178
X-7.978 Y-8.045 Z-2.198
X-7.957 Y-8.026 Z-2.218
X-7.95 Y-7.999 Z-2.238
X-7.958 Y-7.972 Z-2.259
X-7.98 Y-7.954 Z-2.279
X-8.007 Y-7.951 Z-2.299
X-8.033 Y-7.962 Z-2.319
X-8.048 Y-7.986 Z-2.339
Y-8.014 Z-2.359
X-8.033 Y-8.037 Z-2.38
X-8.008 Y-8.049 Z-2.4
X-7.98 Y-8.046 Z-2.42
X-7.959 Y-8.028 Z-2.44
X-7.95 Y-8.002 Z-2.46
X-7.957 Y-7.975 Z-2.48
X-7.977 Y-7.955 Z-2.501
X-8.005 Y-7.95 Z-2.521
X-8.031 Y-7.961 Z-2.541
X-8.047 Y-7.983 Z-2.561
X-8.049 Y-8.011 Z-2.581
X-8.035 Y-8.035 Z-2.601
X-8.011 Y-8.049 Z-2.622
X-7.983 Y-8.047 Z-2.642
X-7.96 Y-8.03 Z-2.662
X-7.95 Y-8.004 Z-2.682
X-7.956 Y-7.977 Z-2.702
X-7.975 Y-7.957 Z-2.722
X-8.002 Y-7.95 Z-2.743
X-8.028 Y-7.959 Z-2.763
X-8.046 Y-7.981 Z-2.783
X-8.049 Y-8.008 Z-2.803
X-8.037 Y-8.033 Z-2.823
X-8.013 Y-8.048 Z-2.843
X-7.985 Z-2.864
X-7.962 Y-8.033 Z-2.884
X-7.951 Y-8.007 Z-2.904
X-7.954 Y-7.979 Z-2.924
X-7.973 Y-7.958 Z-2.944
X-7.999 Y-7.95 Z-2.964
X-8.026 Y-7.957 Z-2.985
X-8.045 Y-7.978 Z-3.005
X-8.05 Y-8.006 Z-3.025
X-8.039 Y-8.031 Z-3.045
X-8.016 Y-8.047 Z-3.065
X-7.988 Y-8.049 Z-3.085
X-7.964 Y-8.035 Z-3.106
X-7.951 Y-8.01 Z-3.126
X-7.953 Y-7.982 Z-3.146
X-7.97 Y-7.96 Z-3.166
X-7.997 Y-7.95 Z-3.186
X-8.024 Y-7.956 Z-3.206
X-8.044 Y-7.976 Z-3.227
X-8.05 Y-8.003 Z-3.247
X-8.041 Y-8.029 Z-3.267
X-8.019 Y-8.046 Z-3.287
X-7.991 Y-8.049 Z-3.307
X-7.966 Y-8.036 Z-3.327
X-7.952 Y-8.012 Z-3.348
Y-7.985 Z-3.368
X-7.968 Y-7.961 Z-3.388
X-7.994 Y-7.95 Z-3.408
X-8.021 Y-7.955 Z-3.428
X-8.042 Y-7.973 Z-3.448
X-8.05 Y-8 Z-3.469
X-8.042 Y-8.027 Z-3.489
X-8.021 Y-8.045 Z-3.509
X-7.993 Y-8.05 Z-3.529
X-7.968 Y-8.038 Z-3.549
X-7.952 Y-8.015 Z-3.569
Y-7.987 Z-3.59
X-7.966 Y-7.963 Z-3.61
X-7.991 Y-7.951 Z-3.63
X-8.019 Y-7.954 Z-3.65
X-8.041 Y-7.971 Z-3.67
X-8.05 Y-7.997 Z-3.69
X-8.044 Y-8.025 Z-3.71
X-8.023 Y-8.044 Z-3.731
X-7.996 Y-8.05 Z-3.751
X-7.97 Y-8.04 Z-3.771
X-7.953 Y-8.018 Z-3.791
X-7.951 Y-7.99 Z-3.811
X-7.964 Y-7.965 Z-3.831
X-7.988 Y-7.951 Z-3.852
X-8.016 Y-7.953 Z-3.872
X-8.039 Y-7.969 Z-3.892
X-8.05 Y-7.995 Z-3.912
X-8.045 Y-8.022 Z-3.932
X-8.026 Y-8.043 Z-3.952
X-7.999 Y-8.05 Z-3.973
X-7.972 Y-8.042 Z-3.993
X-7.954 Y-8.02 Z-4.013
X-7.951 Y-7.992 Z-4.033
X-7.962 Y-7.967 Z-4.053
X-7.986 Y-7.952 Z-4.073
X-8.014 Z-4.094
X-8.037 Y-7.967 Z-4.114
X-8.049 Y-7.992 Z-4.134
X-8.046 Y-8.02 Z-4.154
X-8.028 Y-8.041 Z-4.174
X-8.002 Y-8.05 Z-4.194
X-7.975 Y-8.043 Z-4.215
X-7.955 Y-8.023 Z-4.235
X-7.95 Y-7.995 Z-4.255
X-7.961 Y-7.969 Z-4.275
X-7.983 Y-7.953 Z-4.295
X-8.011 Y-7.951 Z-4.315
X-8.036 Y-7.965 Z-4.336
X-8.049 Y-7.989 Z-4.356
X-8.047 Y-8.017 Z-4.376
X-8.03 Y-8.04 Z-4.396
X-8.004 Y-8.05 Z-4.416
X-7.977 Y-8.044 Z-4.436
X-7.957 Y-8.025 Z-4.457
X-7.95 Y-7.998 Z-4.477
X-7.959 Y-7.971 Z-4.497
X-7.981 Y-7.954 Z-4.517
X-8.008 Y-7.951 Z-4.537
X-8.034 Y-7.963 Z-4.557
X-8.048 Y-7.987 Z-4.578
Y-8.015 Z-4.598
X-8.032 Y-8.038 Z-4.618
X-8.007 Y-8.05 Z-4.638
X-7.979 Y-8.046 Z-4.658
X-7.958 Y-8.027 Z-4.678
X-7.95 Y-8.001 Z-4.699
X-7.957 Y-7.974 Z-4.719
X-7.978 Y-7.955 Z-4.739
X-8.006 Y-7.95 Z-4.759
X-8.031 Y-7.961 Z-4.779
X-8.047 Y-7.984 Z-4.799
X-8.049 Y-8.012 Z-4.82
X-8.035 Y-8.036 Z-4.84
X-8.01 Y-8.049 Z-4.86
X-7.982 Y-8.047 Z-4.88
X-7.96 Y-8.03 Z-4.9
X-7.95 Y-8.003 Z-4.92
X-7.956 Y-7.976 Z-4.941
X-7.976 Y-7.956 Z-4.961
X-8.003 Y-7.95 Z-4.981
X-8.029 Y-7.959 Z-5.001
X-8.046 Y-7.982 Z-5.021
X-8.049 Y-8.009 Z-5.041
X-8.036 Y-8.034 Z-5.062
X-8.012 Y-8.048 Z-5.082
X-7.984 Z-5.102
X-7.961 Y-8.032 Z-5.122
X-7.95 Y-8.006 Z-5.142
X-7.955 Y-7.979 Z-5.162
X-7.973 Y-7.958 Z-5.183
X-8 Y-7.95 Z-5.203
X-8.027 Y-7.958 Z-5.223
X-8.045 Y-7.979 Z-5.243
X-8.05 Y-8.007 Z-5.263
X-8.038 Y-8.032 Z-5.283
X-8.015 Y-8.048 Z-5.304
X-7.987 Z-5.324
X-7.963 Y-8.034 Z-5.344
X-7.951 Y-8.009 Z-5.364
X-7.954 Y-7.981 Z-5.384
X-7.971 Y-7.959 Z-5.404
X-7.998 Y-7.95 Z-5.425
X-8.025 Y-7.957 Z-5.445
X-8.044 Y-7.977 Z-5.465
X-8.05 Y-8.004 Z-5.485
X-8.04 Y-8.03 Z-5.505
X-8.018 Y-8.047 Z-5.525
X-7.99 Y-8.049 Z-5.546
X-7.965 Y-8.036 Z-5.566
X-7.951 Y-8.011 Z-5.586
X-7.953 Y-7.984 Z-5.606
X-7.969 Y-7.961 Z-5.626
X-7.995 Y-7.95 Z-5.646
X-8.022 Y-7.955 Z-5.667
X-8.043 Y-7.974 Z-5.687
X-8.05 Y-8.001 Z-5.707
X-8.042 Y-8.028 Z-5.727
X-8.02 Y-8.046 Z-5.747
X-7.992 Y-8.049 Z-5.767
X-7.967 Y-8.038 Z-5.788
X-7.952 Y-8.014 Z-5.808
Y-7.986 Z-5.828
X-7.967 Y-7.963 Z-5.848
X-7.992 Y-7.951 Z-5.868
X-8.02 Y-7.954 Z-5.888
X-8.041 Y-7.972 Z-5.909
X-8.05 Y-7.999 Z-5.929
X-8.043 Y-8.026 Z-5.949
X-8.023 Y-8.045 Z-5.969
X-7.995 Y-8.05 Z-5.989
X-7.969 Y-8.039 Z-6.009
X-7.953 Y-8.017 Z-6.03
X-7.951 Y-7.989 Z-6.05
X-7.965 Y-7.964 Z-6.07
X-7.989 Y-7.951 Z-6.09
X-8.017 Y-7.953 Z-6.11
X-8.04 Y-7.97 Z-6.13
X-8.05 Y-7.996 Z-6.151
X-8.044 Y-8.023 Z-6.171
X-8.025 Y-8.043 Z-6.191
X-7.998 Y-8.05 Z-6.211
X-7.971 Y-8.041 Z-6.231
X-7.954 Y-8.019 Z-6.251
X-7.951 Y-7.991 Z-6.272
X-7.963 Y-7.966 Z-6.292
X-7.987 Y-7.952 Z-6.312
X-8.015 Z-6.332
X-8.038 Y-7.968 Z-6.352
X-8.05 Y-7.993 Z-6.372
X-8.046 Y-8.021 Z-6.393
X-8.027 Y-8.042 Z-6.413
X-8.001 Y-8.05 Z-6.433
X-7.974 Y-8.042 Z-6.453
X-7.955 Y-8.022 Z-6.473
X-7.95 Y-7.994 Z-6.493
X-7.961 Y-7.968 Z-6.514
X-7.984 Y-7.953 Z-6.534
X-8.012 Y-7.951 Z-6.554
X-8.036 Y-7.966 Z-6.574
X-8.049 Y-7.99 Z-6.594
X-8.047 Y-8.018 Z-6.614
X-8.03 Y-8.04 Z-6.635
X-8.003 Y-8.05 Z-6.655
X-7.976 Y-8.044 Z-6.675
X-7.956 Y-8.024 Z-6.695
X-7.95 Y-7.997 Z-6.715
X-7.96 Y-7.971 Z-6.735
X-7.982 Y-7.953 Z-6.756
X-8.009 Y-7.951 Z-6.776
X-8.034 Y-7.964 Z-6.796
X-8.048 Y-7.988 Z-6.816
X-8.047 Y-8.016 Z-6.836
X-8.032 Y-8.039 Z-6.856
X-8.006 Y-8.05 Z-6.877
X-7.978 Y-8.045 Z-6.897
X-7.958 Y-8.026 Z-6.917
X-7.95 Y-8 Z-6.937
X-7.958 Y-7.973 Z-6.957
X-7.979 Y-7.955 Z-6.977
X-8.007 Y-7.95 Z-6.998
X-8.032 Y-7.962 Z-7.018
X-8.048 Y-7.985 Z-7.038
Y-8.013 Z-7.058
X-8.034 Y-8.037 Z-7.078
X-8.009 Y-8.049 Z-7.098
X-7.981 Y-8.046 Z-7.119
X-7.959 Y-8.029 Z-7.139
X-7.95 Y-8.002 Z-7.159
X-7.957 Y-7.975 Z-7.179
X-7.977 Y-7.956 Z-7.199
X-8.004 Y-7.95 Z-7.219
X-8.03 Y-7.96 Z-7.24
X-8.047 Y-7.983 Z-7.26
X-8.049 Y-8.01 Z-7.28
X-8.036 Y-8.035 Z-7.3
G3 X-7.964 Y-7.965 I0.036 J0.035
X-8.036 Y-8.035 I-0.036 J-0.035
G1 X-8.018 Y-8.042 F50
X-8 Y-8.035
Y-8
Z15 F250
(When using Fusion for Personal Use, the feedrate of rapid)
(moves is reduced to match the feedrate of cutting moves,)
(which can increase machining time. Unrestricted rapid moves)
(are available with a Fusion Subscription.)

(2D Contour1)
G0 X-55.297 Y-28.874
G1 Z10 F250
Z1.62
Z0.31 F50
X-55.303 Y-28.869 Z0.241
X-55.319 Y-28.853 Z0.175
X-55.345 Y-28.826 Z0.117
X-55.38 Y-28.792 Z0.068
X-55.421 Y-28.75 Z0.031
X-55.468 Y-28.704 Z0.008
X-55.517 Y-28.655 Z0
X-56.931 Y-27.241
X-56.978 Y-27.202
X-57.031 Y-27.174
X-57.09 Y-27.156
X-57.15 Y-27.15
G3 X-87.039 Y-54.577 I0 J-30 F250
G1 X-27.261
G3 X-57.15 Y-27.15 I-29.889 J-2.573
G1 X-57.21 Y-27.156 F50
X-57.269 Y-27.174
X-57.322 Y-27.202
X-57.369 Y-27.241
X-58.783 Y-28.655
X-58.832 Y-28.704 Z0.008
X-58.879 Y-28.75 Z0.031
X-58.92 Y-28.792 Z0.068
X-58.955 Y-28.826 Z0.117
X-58.981 Y-28.853 Z0.175
X-58.997 Y-28.869 Z0.241
X-59.003 Y-28.874 Z0.31
Z5 F250
X-55.297
Z1.33
Z0.62 F50
Z-0.69
X-55.303 Y-28.869 Z-0.759
X-55.319 Y-28.853 Z-0.825
X-55.345 Y-28.826 Z-0.883
X-55.38 Y-28.792 Z-0.932
X-55.421 Y-28.75 Z-0.969
X-55.468 Y-28.704 Z-0.992
X-55.517 Y-28.655 Z-1
X-56.931 Y-27.241
X-56.978 Y-27.202
X-57.031 Y-27.174
X-57.09 Y-27.156
X-57.15 Y-27.15
G3 X-87.039 Y-54.577 I0 J-30 F250
G1 X-27.261
G3 X-57.15 Y-27.15 I-29.889 J-2.573
G1 X-57.21 Y-27.156 F50
X-57.269 Y-27.174
X-57.322 Y-27.202
X-57.369 Y-27.241
X-58.783 Y-28.655
X-58.832 Y-28.704 Z-0.992
X-58.879 Y-28.75 Z-0.969
X-58.92 Y-28.792 Z-0.932
X-58.955 Y-28.826 Z-0.883
X-58.981 Y-28.853 Z-0.825
X-58.997 Y-28.869 Z-0.759
X-59.003 Y-28.874 Z-0.69
Z5 F250
X-55.297
Z1.33
Z-0.38 F50
Z-1.69
X-55.303 Y-28.869 Z-1.759
X-55.319 Y-28.853 Z-1.825
X-55.345 Y-28.826 Z-1.883
X-55.38 Y-28.792 Z-1.932
X-55.421 Y-28.75 Z-1.969
X-55.468 Y-28.704 Z-1.992
X-55.517 Y-28.655 Z-2
X-56.931 Y-27.241
X-56.978 Y-27.202
X-57.031 Y-27.174
X-57.09 Y-27.156
X-57.15 Y-27.15
G3 X-87.039 Y-54.577 I0 J-30 F250
G1 X-27.261
G3 X-57.15 Y-27.15 I-29.889 J-2.573
G1 X-57.21 Y-27.156 F50
X-57.269 Y-27.174
X-57.322 Y-27.202
X-57.369 Y-27.241
X-58.783 Y-28.655
X-58.832 Y-28.704 Z-1.992
X-58.879 Y-28.75 Z-1.969
X-58.92 Y-28.792 Z-1.932
X-58.955 Y-28.826 Z-1.883
X-58.981 Y-28.853 Z-1.825
X-58.997 Y-28.869 Z-1.759
X-59.003 Y-28.874 Z-1.69
Z5 F250
X-55.297
Z1.33
Z-1.38 F50
Z-2.69
X-55.303 Y-28.869 Z-2.759
X-55.319 Y-28.853 Z-2.825
X-55.345 Y-28.826 Z-2.883
X-55.38 Y-28.792 Z-2.932
X-55.421 Y-28.75 Z-2.969
X-55.468 Y-28.704 Z-2.992
X-55.517 Y-28.655 Z-3
X-56.931 Y-27.241
X-56.978 Y-27.202
X-57.031 Y-27.174
X-57.09 Y-27.156
X-57.15 Y-27.15
G3 X-87.039 Y-54.577 I0 J-30 F250
G1 X-27.261
G3 X-57.15 Y-27.15 I-29.889 J-2.573
G1 X-57.21 Y-27.156 F50
X-57.269 Y-27.174
X-57.322 Y-27.202
X-57.369 Y-27.241
X-58.783 Y-28.655
X-58.832 Y-28.704 Z-2.992
X-58.879 Y-28.75 Z-2.969
X-58.92 Y-28.792 Z-2.932
X-58.955 Y-28.826 Z-2.883
X-58.981 Y-28.853 Z-2.825
X-58.997 Y-28.869 Z-2.759
X-59.003 Y-28.874 Z-2.69
Z5 F250
X-55.297
Z1.33
Z-2.38 F50
Z-3.69
X-55.303 Y-28.869 Z-3.759
X-55.319 Y-28.853 Z-3.825
X-55.345 Y-28.826 Z-3.883
X-55.38 Y-28.792 Z-3.932
X-55.421 Y-28.75 Z-3.969
X-55.468 Y-28.704 Z-3.992
X-55.517 Y-28.655 Z-4
X-56.931 Y-27.241
X-56.978 Y-27.202
X-57.031 Y-27.174
X-57.09 Y-27.156
X-57.15 Y-27.15
G3 X-87.039 Y-54.577 I0 J-30 F250
G1 X-27.261
G3 X-57.15 Y-27.15 I-29.889 J-2.573
G1 X-57.21 Y-27.156 F50
X-57.269 Y-27.174
X-57.322 Y-27.202
X-57.369 Y-27.241
X-58.783 Y-28.655
X-58.832 Y-28.704 Z-3.992
X-58.879 Y-28.75 Z-3.969
X-58.92 Y-28.792 Z-3.932
X-58.955 Y-28.826 Z-3.883
X-58.981 Y-28.853 Z-3.825
X-58.997 Y-28.869 Z-3.759
X-59.003 Y-28.874 Z-3.69
Z5 F250
X-55.297
Z1.33
Z-3.38 F50
Z-4.69
X-55.303 Y-28.869 Z-4.759
X-55.319 Y-28.853 Z-4.825
X-55.345 Y-28.826 Z-4.883
X-55.38 Y-28.792 Z-4.932
X-55.421 Y-28.75 Z-4.969
X-55.468 Y-28.704 Z-4.992
X-55.517 Y-28.655 Z-5
X-56.931 Y-27.241
X-56.978 Y-27.202
X-57.031 Y-27.174
X-57.09 Y-27.156
X-57.15 Y-27.15
G3 X-87.039 Y-54.577 I0 J-30 F250
G1 X-27.261
G3 X-57.15 Y-27.15 I-29.889 J-2.573
G1 X-57.21 Y-27.156 F50
X-57.269 Y-27.174
X-57.322 Y-27.202
X-57.369 Y-27.241
X-58.783 Y-28.655
X-58.832 Y-28.704 Z-4.992
X-58.879 Y-28.75 Z-4.969
X-58.92 Y-28.792 Z-4.932
X-58.955 Y-28.826 Z-4.883
X-58.981 Y-28.853 Z-4.825
X-58.997 Y-28.869 Z-4.759
X-59.003 Y-28.874 Z-4.69
Z5 F250
X-55.297
Z1.33
Z-4.38 F50
Z-5.69
X-55.303 Y-28.869 Z-5.759
X-55.319 Y-28.853 Z-5.825
X-55.345 Y-28.826 Z-5.883
X-55.38 Y-28.792 Z-5.932
X-55.421 Y-28.75 Z-5.969
X-55.468 Y-28.704 Z-5.992
X-55.517 Y-28.655 Z-6
X-56.931 Y-27.241
X-56.978 Y-27.202
X-57.031 Y-27.174
X-57.09 Y-27.156
X-57.15 Y-27.15
G3 X-87.039 Y-54.577 I0 J-30 F250
G1 X-27.261
G3 X-57.15 Y-27.15 I-29.889 J-2.573
G1 X-57.21 Y-27.156 F50
X-57.269 Y-27.174
X-57.322 Y-27.202
X-57.369 Y-27.241
X-58.783 Y-28.655
X-58.832 Y-28.704 Z-5.992
X-58.879 Y-28.75 Z-5.969
X-58.92 Y-28.792 Z-5.932
X-58.955 Y-28.826 Z-5.883
X-58.981 Y-28.853 Z-5.825
X-58.997 Y-28.869 Z-5.759
X-59.003 Y-28.874 Z-5.69
Z5 F250
X-55.297
Z1.33
Z-5.38 F50
Z-6.24
X-55.303 Y-28.869 Z-6.309
X-55.319 Y-28.853 Z-6.375
X-55.345 Y-28.826 Z-6.433
X-55.38 Y-28.792 Z-6.482
X-55.421 Y-28.75 Z-6.519
X-55.468 Y-28.704 Z-6.542
X-55.517 Y-28.655 Z-6.55
X-56.931 Y-27.241
X-56.978 Y-27.202
X-57.031 Y-27.174
X-57.09 Y-27.156
X-57.15 Y-27.15
G3 X-87.039 Y-54.577 I0 J-30 F250
G1 X-27.261
G3 X-57.15 Y-27.15 I-29.889 J-2.573
G1 X-57.21 Y-27.156 F50
X-57.269 Y-27.174
X-57.322 Y-27.202
X-57.369 Y-27.241
X-58.783 Y-28.655
X-58.832 Y-28.704 Z-6.542
X-58.879 Y-28.75 Z-6.519
X-58.92 Y-28.792 Z-6.482
X-58.955 Y-28.826 Z-6.433
X-58.981 Y-28.853 Z-6.375
X-58.997 Y-28.869 Z-6.309
X-59.003 Y-28.874 Z-6.24
Z5 F250
X-55.297
Z1.33
Z-5.93 F50
Z-6.79
X-55.303 Y-28.869 Z-6.859
X-55.319 Y-28.853 Z-6.925
X-55.345 Y-28.826 Z-6.983
X-55.38 Y-28.792 Z-7.032
X-55.421 Y-28.75 Z-7.069
X-55.468 Y-28.704 Z-7.092
X-55.517 Y-28.655 Z-7.1
X-56.931 Y-27.241
X-56.978 Y-27.202
X-57.031 Y-27.174
X-57.09 Y-27.156
X-57.15 Y-27.15
G3 X-87.039 Y-54.577 I0 J-30 F250
G1 X-27.261
G3 X-57.15 Y-27.15 I-29.889 J-2.573
G1 X-57.21 Y-27.156 F50
X-57.269 Y-27.174
X-57.322 Y-27.202
X-57.369 Y-27.241
X-58.783 Y-28.655
X-58.832 Y-28.704 Z-7.092
X-58.879 Y-28.75 Z-7.069
X-58.92 Y-28.792 Z-7.032
X-58.955 Y-28.826 Z-6.983
X-58.981 Y-28.853 Z-6.925
X-58.997 Y-28.869 Z-6.859
X-59.003 Y-28.874 Z-6.79
Z5 F250
X-55.297
Z1.33
Z-6.48 F50
Z-6.99
X-55.303 Y-28.869 Z-7.059
X-55.319 Y-28.853 Z-7.125
X-55.345 Y-28.826 Z-7.183
X-55.38 Y-28.792 Z-7.232
X-55.421 Y-28.75 Z-7.269
X-55.468 Y-28.704 Z-7.292
X-55.517 Y-28.655 Z-7.3
X-56.931 Y-27.241
X-56.978 Y-27.202
X-57.031 Y-27.174
X-57.09 Y-27.156
X-57.15 Y-27.15
G3 X-87.039 Y-54.577 I0 J-30 F250
G1 X-27.261
G3 X-57.15 Y-27.15 I-29.889 J-2.573
G1 X-57.21 Y-27.156 F50
X-57.269 Y-27.174
X-57.322 Y-27.202
X-57.369 Y-27.241
X-58.783 Y-28.655
X-58.832 Y-28.704 Z-7.292
X-58.879 Y-28.75 Z-7.269
X-58.92 Y-28.792 Z-7.232
X-58.955 Y-28.826 Z-7.183
X-58.981 Y-28.853 Z-7.125
X-58.997 Y-28.869 Z-7.059
X-59.003 Y-28.874 Z-6.99
Z10 F250

M9
G28 G91 Z0
G90
G28 G91 X0 Y0
G90
M5
M30
