(bot_upperleft)
(Machine)
(  vendor: Autodesk)
(  model: Generic 3-axis)
(  description: This machine has XY axis on the Table and Z axis on the Head)
(T3 D=3.1 CR=0 - ZMIN=-6.3 - flat end mill)
G90 G94
G17
G21
(When using Fusion for Personal Use, the feedrate of rapid)
(moves is reduced to match the feedrate of cutting moves,)
(which can increase machining time. Unrestricted rapid moves)
(are available with a Fusion Subscription.)
G28 G91 Z0
G90

(Bore3)
T3
S18000 M3
G17 G90 G94
G54
M8
G0 X21.825 Y-57.46
Z15
G1 Z2 F250
Z0.31 F50
G18 G2 X22.135 Z0 I0.31 K0
G1 X22.29
G17 G3 X22.6 Y-57.15 I0 J0.31
X20.7 Y-57.15 Z-0.175 I-0.95 J0 F250
X22.6 Y-57.15 Z-0.35 I0.95 J0
X20.7 Y-57.15 Z-0.524 I-0.95 J0
X22.6 Y-57.15 Z-0.699 I0.95 J0
X20.7 Y-57.15 Z-0.874 I-0.95 J0
X22.6 Y-57.15 Z-1.049 I0.95 J0
X20.7 Y-57.15 Z-1.224 I-0.95 J0
X22.6 Y-57.15 Z-1.399 I0.95 J0
X20.7 Y-57.15 Z-1.573 I-0.95 J0
X22.6 Y-57.15 Z-1.748 I0.95 J0
X20.7 Y-57.15 Z-1.923 I-0.95 J0
X22.6 Y-57.15 Z-2.098 I0.95 J0
X20.7 Y-57.15 Z-2.273 I-0.95 J0
X22.6 Y-57.15 Z-2.447 I0.95 J0
X20.7 Y-57.15 Z-2.622 I-0.95 J0
X22.6 Y-57.15 Z-2.797 I0.95 J0
X20.7 Y-57.15 Z-2.972 I-0.95 J0
X22.6 Y-57.15 Z-3.147 I0.95 J0
X20.7 Y-57.15 Z-3.322 I-0.95 J0
X22.6 Y-57.15 Z-3.496 I0.95 J0
X20.7 Y-57.15 Z-3.671 I-0.95 J0
X22.6 Y-57.15 Z-3.846 I0.95 J0
X20.7 Y-57.15 Z-4.021 I-0.95 J0
X22.6 Y-57.15 Z-4.196 I0.95 J0
X20.7 Y-57.15 Z-4.37 I-0.95 J0
X22.6 Y-57.15 Z-4.545 I0.95 J0
X20.7 Y-57.15 Z-4.72 I-0.95 J0
X22.6 Y-57.15 Z-4.895 I0.95 J0
X20.7 Y-57.15 Z-5.07 I-0.95 J0
X22.6 Y-57.15 Z-5.245 I0.95 J0
X20.7 Y-57.15 Z-5.419 I-0.95 J0
X22.6 Y-57.15 Z-5.594 I0.95 J0
X20.7 Y-57.15 Z-5.769 I-0.95 J0
X22.6 Y-57.15 Z-5.944 I0.95 J0
X20.7 Y-57.15 Z-6.119 I-0.95 J0
X21.706 Y-58.098 Z-6.209 I0.95 J0
X22.593 Y-57.038 Z-6.3 I-0.056 J0.948
X20.707 Y-57.262 I-0.943 J-0.112
X22.593 Y-57.038 I0.943 J0.112
X22.249 Y-56.767 I-0.308 J-0.037 F50
G1 X22.095 Y-56.785
X22.026 Y-56.793 Z-6.292
X21.961 Y-56.801 Z-6.269
X21.903 Y-56.808 Z-6.232
X21.854 Y-56.814 Z-6.183
X21.818 Y-56.818 Z-6.125
X21.795 Y-56.821 Z-6.059
X21.787 Y-56.822 Z-5.99
Z5 F250
X26.581 Y-39.71
Z2
Z0.31 F50
G18 G2 X26.891 Z0 I0.31 K0
G1 X27.046
G17 G3 X27.356 Y-39.4 I0 J0.31
X25.456 Y-39.4 Z-0.175 I-0.95 J0 F250
X27.356 Y-39.4 Z-0.35 I0.95 J0
X25.456 Y-39.4 Z-0.524 I-0.95 J0
X27.356 Y-39.4 Z-0.699 I0.95 J0
X25.456 Y-39.4 Z-0.874 I-0.95 J0
X27.356 Y-39.4 Z-1.049 I0.95 J0
X25.456 Y-39.4 Z-1.224 I-0.95 J0
X27.356 Y-39.4 Z-1.399 I0.95 J0
X25.456 Y-39.4 Z-1.573 I-0.95 J0
X27.356 Y-39.4 Z-1.748 I0.95 J0
X25.456 Y-39.4 Z-1.923 I-0.95 J0
X27.356 Y-39.4 Z-2.098 I0.95 J0
X25.456 Y-39.4 Z-2.273 I-0.95 J0
X27.356 Y-39.4 Z-2.447 I0.95 J0
X25.456 Y-39.4 Z-2.622 I-0.95 J0
X27.356 Y-39.4 Z-2.797 I0.95 J0
X25.456 Y-39.4 Z-2.972 I-0.95 J0
X27.356 Y-39.4 Z-3.147 I0.95 J0
X25.456 Y-39.4 Z-3.322 I-0.95 J0
X27.356 Y-39.4 Z-3.496 I0.95 J0
X25.456 Y-39.4 Z-3.671 I-0.95 J0
X27.356 Y-39.4 Z-3.846 I0.95 J0
X25.456 Y-39.4 Z-4.021 I-0.95 J0
X27.356 Y-39.4 Z-4.196 I0.95 J0
X25.456 Y-39.4 Z-4.37 I-0.95 J0
X27.356 Y-39.4 Z-4.545 I0.95 J0
X25.456 Y-39.4 Z-4.72 I-0.95 J0
X27.356 Y-39.4 Z-4.895 I0.95 J0
X25.456 Y-39.4 Z-5.07 I-0.95 J0
X27.356 Y-39.4 Z-5.245 I0.95 J0
X25.456 Y-39.4 Z-5.419 I-0.95 J0
X27.356 Y-39.4 Z-5.594 I0.95 J0
X25.456 Y-39.4 Z-5.769 I-0.95 J0
X27.356 Y-39.4 Z-5.944 I0.95 J0
X25.456 Y-39.4 Z-6.119 I-0.95 J0
X26.462 Y-40.348 Z-6.209 I0.95 J0
X27.349 Y-39.288 Z-6.3 I-0.056 J0.948
X25.463 Y-39.512 I-0.943 J-0.112
X27.349 Y-39.288 I0.943 J0.112
X27.005 Y-39.017 I-0.308 J-0.037 F50
G1 X26.851 Y-39.035
X26.783 Y-39.043 Z-6.292
X26.718 Y-39.051 Z-6.269
X26.659 Y-39.058 Z-6.232
X26.61 Y-39.064 Z-6.183
X26.574 Y-39.068 Z-6.125
X26.551 Y-39.071 Z-6.059
X26.543 Y-39.072 Z-5.99
Z5 F250
X39.575 Y-26.716
Z2
Z0.31 F50
G18 G2 X39.885 Z0 I0.31 K0
G1 X40.04
G17 G3 X40.35 Y-26.406 I0 J0.31
X38.45 Y-26.406 Z-0.175 I-0.95 J0 F250
X40.35 Y-26.406 Z-0.35 I0.95 J0
X38.45 Y-26.406 Z-0.524 I-0.95 J0
X40.35 Y-26.406 Z-0.699 I0.95 J0
X38.45 Y-26.406 Z-0.874 I-0.95 J0
X40.35 Y-26.406 Z-1.049 I0.95 J0
X38.45 Y-26.406 Z-1.224 I-0.95 J0
X40.35 Y-26.406 Z-1.399 I0.95 J0
X38.45 Y-26.406 Z-1.573 I-0.95 J0
X40.35 Y-26.406 Z-1.748 I0.95 J0
X38.45 Y-26.406 Z-1.923 I-0.95 J0
X40.35 Y-26.406 Z-2.098 I0.95 J0
X38.45 Y-26.406 Z-2.273 I-0.95 J0
X40.35 Y-26.406 Z-2.447 I0.95 J0
X38.45 Y-26.406 Z-2.622 I-0.95 J0
X40.35 Y-26.406 Z-2.797 I0.95 J0
X38.45 Y-26.406 Z-2.972 I-0.95 J0
X40.35 Y-26.406 Z-3.147 I0.95 J0
X38.45 Y-26.406 Z-3.322 I-0.95 J0
X40.35 Y-26.406 Z-3.496 I0.95 J0
X38.45 Y-26.406 Z-3.671 I-0.95 J0
X40.35 Y-26.406 Z-3.846 I0.95 J0
X38.45 Y-26.406 Z-4.021 I-0.95 J0
X40.35 Y-26.406 Z-4.196 I0.95 J0
X38.45 Y-26.406 Z-4.37 I-0.95 J0
X40.35 Y-26.406 Z-4.545 I0.95 J0
X38.45 Y-26.406 Z-4.72 I-0.95 J0
X40.35 Y-26.406 Z-4.895 I0.95 J0
X38.45 Y-26.406 Z-5.07 I-0.95 J0
X40.35 Y-26.406 Z-5.245 I0.95 J0
X38.45 Y-26.406 Z-5.419 I-0.95 J0
X40.35 Y-26.406 Z-5.594 I0.95 J0
X38.45 Y-26.406 Z-5.769 I-0.95 J0
X40.35 Y-26.406 Z-5.944 I0.95 J0
X38.45 Y-26.406 Z-6.119 I-0.95 J0
X39.456 Y-27.354 Z-6.209 I0.95 J0
X40.343 Y-26.294 Z-6.3 I-0.056 J0.948
X38.457 Y-26.518 I-0.943 J-0.112
X40.343 Y-26.294 I0.943 J0.112
X39.999 Y-26.023 I-0.308 J-0.037 F50
G1 X39.845 Y-26.041
X39.776 Y-26.049 Z-6.292
X39.711 Y-26.057 Z-6.269
X39.653 Y-26.064 Z-6.232
X39.604 Y-26.07 Z-6.183
X39.568 Y-26.074 Z-6.125
X39.545 Y-26.077 Z-6.059
X39.537 Y-26.078 Z-5.99
Z5 F250
X57.325 Y-21.96
Z2
Z0.31 F50
G18 G2 X57.635 Z0 I0.31 K0
G1 X57.79
G17 G3 X58.1 Y-21.65 I0 J0.31
X56.2 Y-21.65 Z-0.175 I-0.95 J0 F250
X58.1 Y-21.65 Z-0.35 I0.95 J0
X56.2 Y-21.65 Z-0.524 I-0.95 J0
X58.1 Y-21.65 Z-0.699 I0.95 J0
X56.2 Y-21.65 Z-0.874 I-0.95 J0
X58.1 Y-21.65 Z-1.049 I0.95 J0
X56.2 Y-21.65 Z-1.224 I-0.95 J0
X58.1 Y-21.65 Z-1.399 I0.95 J0
X56.2 Y-21.65 Z-1.573 I-0.95 J0
X58.1 Y-21.65 Z-1.748 I0.95 J0
X56.2 Y-21.65 Z-1.923 I-0.95 J0
X58.1 Y-21.65 Z-2.098 I0.95 J0
X56.2 Y-21.65 Z-2.273 I-0.95 J0
X58.1 Y-21.65 Z-2.447 I0.95 J0
X56.2 Y-21.65 Z-2.622 I-0.95 J0
X58.1 Y-21.65 Z-2.797 I0.95 J0
X56.2 Y-21.65 Z-2.972 I-0.95 J0
X58.1 Y-21.65 Z-3.147 I0.95 J0
X56.2 Y-21.65 Z-3.322 I-0.95 J0
X58.1 Y-21.65 Z-3.496 I0.95 J0
X56.2 Y-21.65 Z-3.671 I-0.95 J0
X58.1 Y-21.65 Z-3.846 I0.95 J0
X56.2 Y-21.65 Z-4.021 I-0.95 J0
X58.1 Y-21.65 Z-4.196 I0.95 J0
X56.2 Y-21.65 Z-4.37 I-0.95 J0
X58.1 Y-21.65 Z-4.545 I0.95 J0
X56.2 Y-21.65 Z-4.72 I-0.95 J0
X58.1 Y-21.65 Z-4.895 I0.95 J0
X56.2 Y-21.65 Z-5.07 I-0.95 J0
X58.1 Y-21.65 Z-5.245 I0.95 J0
X56.2 Y-21.65 Z-5.419 I-0.95 J0
X58.1 Y-21.65 Z-5.594 I0.95 J0
X56.2 Y-21.65 Z-5.769 I-0.95 J0
X58.1 Y-21.65 Z-5.944 I0.95 J0
X56.2 Y-21.65 Z-6.119 I-0.95 J0
X57.206 Y-22.598 Z-6.209 I0.95 J0
X58.093 Y-21.538 Z-6.3 I-0.056 J0.948
X56.207 Y-21.762 I-0.943 J-0.112
X58.093 Y-21.538 I0.943 J0.112
X57.749 Y-21.267 I-0.308 J-0.037 F50
G1 X57.595 Y-21.285
X57.526 Y-21.293 Z-6.292
X57.461 Y-21.301 Z-6.269
X57.403 Y-21.308 Z-6.232
X57.354 Y-21.314 Z-6.183
X57.318 Y-21.318 Z-6.125
X57.295 Y-21.321 Z-6.059
X57.287 Y-21.322 Z-5.99
Z5 F250
X75.075 Y-26.716
Z2
Z0.31 F50
G18 G2 X75.385 Z0 I0.31 K0
G1 X75.54
G17 G3 X75.85 Y-26.406 I0 J0.31
X73.95 Y-26.406 Z-0.175 I-0.95 J0 F250
X75.85 Y-26.406 Z-0.35 I0.95 J0
X73.95 Y-26.406 Z-0.524 I-0.95 J0
X75.85 Y-26.406 Z-0.699 I0.95 J0
X73.95 Y-26.406 Z-0.874 I-0.95 J0
X75.85 Y-26.406 Z-1.049 I0.95 J0
X73.95 Y-26.406 Z-1.224 I-0.95 J0
X75.85 Y-26.406 Z-1.399 I0.95 J0
X73.95 Y-26.406 Z-1.573 I-0.95 J0
X75.85 Y-26.406 Z-1.748 I0.95 J0
X73.95 Y-26.406 Z-1.923 I-0.95 J0
X75.85 Y-26.406 Z-2.098 I0.95 J0
X73.95 Y-26.406 Z-2.273 I-0.95 J0
X75.85 Y-26.406 Z-2.447 I0.95 J0
X73.95 Y-26.406 Z-2.622 I-0.95 J0
X75.85 Y-26.406 Z-2.797 I0.95 J0
X73.95 Y-26.406 Z-2.972 I-0.95 J0
X75.85 Y-26.406 Z-3.147 I0.95 J0
X73.95 Y-26.406 Z-3.322 I-0.95 J0
X75.85 Y-26.406 Z-3.496 I0.95 J0
X73.95 Y-26.406 Z-3.671 I-0.95 J0
X75.85 Y-26.406 Z-3.846 I0.95 J0
X73.95 Y-26.406 Z-4.021 I-0.95 J0
X75.85 Y-26.406 Z-4.196 I0.95 J0
X73.95 Y-26.406 Z-4.37 I-0.95 J0
X75.85 Y-26.406 Z-4.545 I0.95 J0
X73.95 Y-26.406 Z-4.72 I-0.95 J0
X75.85 Y-26.406 Z-4.895 I0.95 J0
X73.95 Y-26.406 Z-5.07 I-0.95 J0
X75.85 Y-26.406 Z-5.245 I0.95 J0
X73.95 Y-26.406 Z-5.419 I-0.95 J0
X75.85 Y-26.406 Z-5.594 I0.95 J0
X73.95 Y-26.406 Z-5.769 I-0.95 J0
X75.85 Y-26.406 Z-5.944 I0.95 J0
X73.95 Y-26.406 Z-6.119 I-0.95 J0
X74.956 Y-27.354 Z-6.209 I0.95 J0
X75.843 Y-26.294 Z-6.3 I-0.056 J0.948
X73.957 Y-26.518 I-0.943 J-0.112
X75.843 Y-26.294 I0.943 J0.112
X75.499 Y-26.023 I-0.308 J-0.037 F50
G1 X75.345 Y-26.041
X75.276 Y-26.049 Z-6.292
X75.211 Y-26.057 Z-6.269
X75.153 Y-26.064 Z-6.232
X75.104 Y-26.07 Z-6.183
X75.068 Y-26.074 Z-6.125
X75.045 Y-26.077 Z-6.059
X75.037 Y-26.078 Z-5.99
Z5 F250
X88.069 Y-39.71
Z2
Z0.31 F50
G18 G2 X88.379 Z0 I0.31 K0
G1 X88.534
G17 G3 X88.844 Y-39.4 I0 J0.31
X86.944 Y-39.4 Z-0.175 I-0.95 J0 F250
X88.844 Y-39.4 Z-0.35 I0.95 J0
X86.944 Y-39.4 Z-0.524 I-0.95 J0
X88.844 Y-39.4 Z-0.699 I0.95 J0
X86.944 Y-39.4 Z-0.874 I-0.95 J0
X88.844 Y-39.4 Z-1.049 I0.95 J0
X86.944 Y-39.4 Z-1.224 I-0.95 J0
X88.844 Y-39.4 Z-1.399 I0.95 J0
X86.944 Y-39.4 Z-1.573 I-0.95 J0
X88.844 Y-39.4 Z-1.748 I0.95 J0
X86.944 Y-39.4 Z-1.923 I-0.95 J0
X88.844 Y-39.4 Z-2.098 I0.95 J0
X86.944 Y-39.4 Z-2.273 I-0.95 J0
X88.844 Y-39.4 Z-2.447 I0.95 J0
X86.944 Y-39.4 Z-2.622 I-0.95 J0
X88.844 Y-39.4 Z-2.797 I0.95 J0
X86.944 Y-39.4 Z-2.972 I-0.95 J0
X88.844 Y-39.4 Z-3.147 I0.95 J0
X86.944 Y-39.4 Z-3.322 I-0.95 J0
X88.844 Y-39.4 Z-3.496 I0.95 J0
X86.944 Y-39.4 Z-3.671 I-0.95 J0
X88.844 Y-39.4 Z-3.846 I0.95 J0
X86.944 Y-39.4 Z-4.021 I-0.95 J0
X88.844 Y-39.4 Z-4.196 I0.95 J0
X86.944 Y-39.4 Z-4.37 I-0.95 J0
X88.844 Y-39.4 Z-4.545 I0.95 J0
X86.944 Y-39.4 Z-4.72 I-0.95 J0
X88.844 Y-39.4 Z-4.895 I0.95 J0
X86.944 Y-39.4 Z-5.07 I-0.95 J0
X88.844 Y-39.4 Z-5.245 I0.95 J0
X86.944 Y-39.4 Z-5.419 I-0.95 J0
X88.844 Y-39.4 Z-5.594 I0.95 J0
X86.944 Y-39.4 Z-5.769 I-0.95 J0
X88.844 Y-39.4 Z-5.944 I0.95 J0
X86.944 Y-39.4 Z-6.119 I-0.95 J0
X87.95 Y-40.348 Z-6.209 I0.95 J0
X88.837 Y-39.288 Z-6.3 I-0.056 J0.948
X86.951 Y-39.512 I-0.943 J-0.112
X88.837 Y-39.288 I0.943 J0.112
X88.493 Y-39.017 I-0.308 J-0.037 F50
G1 X88.339 Y-39.035
X88.27 Y-39.043 Z-6.292
X88.205 Y-39.051 Z-6.269
X88.147 Y-39.058 Z-6.232
X88.098 Y-39.064 Z-6.183
X88.062 Y-39.068 Z-6.125
X88.039 Y-39.071 Z-6.059
X88.031 Y-39.072 Z-5.99
Z5 F250
X92.825 Y-57.46
Z2
Z0.31 F50
G18 G2 X93.135 Z0 I0.31 K0
G1 X93.29
G17 G3 X93.6 Y-57.15 I0 J0.31
X91.7 Y-57.15 Z-0.175 I-0.95 J0 F250
X93.6 Y-57.15 Z-0.35 I0.95 J0
X91.7 Y-57.15 Z-0.524 I-0.95 J0
X93.6 Y-57.15 Z-0.699 I0.95 J0
X91.7 Y-57.15 Z-0.874 I-0.95 J0
X93.6 Y-57.15 Z-1.049 I0.95 J0
X91.7 Y-57.15 Z-1.224 I-0.95 J0
X93.6 Y-57.15 Z-1.399 I0.95 J0
X91.7 Y-57.15 Z-1.573 I-0.95 J0
X93.6 Y-57.15 Z-1.748 I0.95 J0
X91.7 Y-57.15 Z-1.923 I-0.95 J0
X93.6 Y-57.15 Z-2.098 I0.95 J0
X91.7 Y-57.15 Z-2.273 I-0.95 J0
X93.6 Y-57.15 Z-2.447 I0.95 J0
X91.7 Y-57.15 Z-2.622 I-0.95 J0
X93.6 Y-57.15 Z-2.797 I0.95 J0
X91.7 Y-57.15 Z-2.972 I-0.95 J0
X93.6 Y-57.15 Z-3.147 I0.95 J0
X91.7 Y-57.15 Z-3.322 I-0.95 J0
X93.6 Y-57.15 Z-3.496 I0.95 J0
X91.7 Y-57.15 Z-3.671 I-0.95 J0
X93.6 Y-57.15 Z-3.846 I0.95 J0
X91.7 Y-57.15 Z-4.021 I-0.95 J0
X93.6 Y-57.15 Z-4.196 I0.95 J0
X91.7 Y-57.15 Z-4.37 I-0.95 J0
X93.6 Y-57.15 Z-4.545 I0.95 J0
X91.7 Y-57.15 Z-4.72 I-0.95 J0
X93.6 Y-57.15 Z-4.895 I0.95 J0
X91.7 Y-57.15 Z-5.07 I-0.95 J0
X93.6 Y-57.15 Z-5.245 I0.95 J0
X91.7 Y-57.15 Z-5.419 I-0.95 J0
X93.6 Y-57.15 Z-5.594 I0.95 J0
X91.7 Y-57.15 Z-5.769 I-0.95 J0
X93.6 Y-57.15 Z-5.944 I0.95 J0
X91.7 Y-57.15 Z-6.119 I-0.95 J0
X92.706 Y-58.098 Z-6.209 I0.95 J0
X93.593 Y-57.038 Z-6.3 I-0.056 J0.948
X91.707 Y-57.262 I-0.943 J-0.112
X93.593 Y-57.038 I0.943 J0.112
X93.249 Y-56.767 I-0.308 J-0.037 F50
G1 X93.095 Y-56.785
X93.026 Y-56.793 Z-6.292
X92.961 Y-56.801 Z-6.269
X92.903 Y-56.808 Z-6.232
X92.854 Y-56.814 Z-6.183
X92.818 Y-56.818 Z-6.125
X92.795 Y-56.821 Z-6.059
X92.787 Y-56.822 Z-5.99
Z15 F250
(When using Fusion for Personal Use, the feedrate of rapid)
(moves is reduced to match the feedrate of cutting moves,)
(which can increase machining time. Unrestricted rapid moves)
(are available with a Fusion Subscription.)

(Bore6)
G0 X8 Y-8
G1 Z15 F250
Z1.69
Z0 F50
X7.975 Y-7.975
X7.957 Y-7.982
X7.95 Y-8
X7.958 Y-8.027 Z-0.02 F250
X7.979 Y-8.045 Z-0.04
X8.006 Y-8.05 Z-0.061
X8.032 Y-8.038 Z-0.081
X8.048 Y-8.015 Z-0.101
Y-7.987 Z-0.121
X8.034 Y-7.963 Z-0.141
X8.009 Y-7.951 Z-0.162
X7.981 Y-7.954 Z-0.182
X7.959 Y-7.971 Z-0.202
X7.95 Y-7.998 Z-0.222
X7.957 Y-8.025 Z-0.242
X7.977 Y-8.044 Z-0.263
X8.004 Y-8.05 Z-0.283
X8.03 Y-8.04 Z-0.303
X8.047 Y-8.017 Z-0.323
X8.049 Y-7.989 Z-0.343
X8.036 Y-7.965 Z-0.363
X8.011 Y-7.951 Z-0.384
X7.983 Y-7.953 Z-0.404
X7.96 Y-7.969 Z-0.424
X7.95 Y-7.995 Z-0.444
X7.956 Y-8.023 Z-0.464
X7.975 Y-8.043 Z-0.485
X8.002 Y-8.05 Z-0.505
X8.028 Y-8.041 Z-0.525
X8.046 Y-8.019 Z-0.545
X8.049 Y-7.992 Z-0.565
X8.037 Y-7.966 Z-0.586
X8.013 Y-7.952 Z-0.606
X7.985 Z-0.626
X7.962 Y-7.968 Z-0.646
X7.95 Y-7.993 Z-0.666
X7.955 Y-8.021 Z-0.687
X7.973 Y-8.042 Z-0.707
X8 Y-8.05 Z-0.727
X8.026 Y-8.042 Z-0.747
X8.045 Y-8.022 Z-0.767
X8.05 Y-7.994 Z-0.788
X8.039 Y-7.968 Z-0.808
X8.016 Y-7.952 Z-0.828
X7.988 Z-0.848
X7.963 Y-7.966 Z-0.868
X7.951 Y-7.991 Z-0.888
X7.954 Y-8.019 Z-0.909
X7.971 Y-8.041 Z-0.929
X7.997 Y-8.05 Z-0.949
X8.024 Y-8.044 Z-0.969
X8.044 Y-8.024 Z-0.989
X8.05 Y-7.996 Z-1.01
X8.04 Y-7.97 Z-1.03
X8.018 Y-7.953 Z-1.05
X7.99 Y-7.951 Z-1.07
X7.965 Y-7.964 Z-1.09
X7.951 Y-7.989 Z-1.111
X7.953 Y-8.016 Z-1.131
X7.969 Y-8.039 Z-1.151
X7.995 Y-8.05 Z-1.171
X8.022 Y-8.045 Z-1.191
X8.043 Y-8.026 Z-1.212
X8.05 Y-7.999 Z-1.232
X8.041 Y-7.972 Z-1.252
X8.02 Y-7.954 Z-1.272
X7.992 Y-7.951 Z-1.292
X7.967 Y-7.963 Z-1.313
X7.952 Y-7.986 Z-1.333
Y-8.014 Z-1.353
X7.967 Y-8.038 Z-1.373
X7.993 Y-8.049 Z-1.393
X8.02 Y-8.046 Z-1.413
X8.042 Y-8.028 Z-1.434
X8.05 Y-8.001 Z-1.454
X8.043 Y-7.974 Z-1.474
X8.022 Y-7.955 Z-1.494
X7.994 Y-7.95 Z-1.514
X7.969 Y-7.961 Z-1.535
X7.953 Y-7.984 Z-1.555
X7.951 Y-8.012 Z-1.575
X7.966 Y-8.036 Z-1.595
X7.99 Y-8.049 Z-1.615
X8.018 Y-8.047 Z-1.636
X8.04 Y-8.03 Z-1.656
X8.05 Y-8.003 Z-1.676
X8.044 Y-7.976 Z-1.696
X8.024 Y-7.956 Z-1.716
X7.997 Y-7.95 Z-1.737
X7.97 Y-7.96 Z-1.757
X7.953 Y-7.982 Z-1.777
X7.951 Y-8.01 Z-1.797
X7.964 Y-8.035 Z-1.817
X7.988 Y-8.049 Z-1.838
X8.016 Y-8.047 Z-1.858
X8.039 Y-8.031 Z-1.878
X8.05 Y-8.006 Z-1.898
X8.045 Y-7.978 Z-1.918
X8.026 Y-7.957 Z-1.938
X7.999 Y-7.95 Z-1.959
X7.972 Y-7.958 Z-1.979
X7.954 Y-7.98 Z-1.999
X7.951 Y-8.007 Z-2.019
X7.962 Y-8.033 Z-2.039
X7.986 Y-8.048 Z-2.06
X8.014 Z-2.08
X8.037 Y-8.033 Z-2.1
X8.049 Y-8.008 Z-2.12
X8.046 Y-7.98 Z-2.14
X8.028 Y-7.959 Z-2.161
X8.001 Y-7.95 Z-2.181
X7.974 Y-7.957 Z-2.201
X7.955 Y-7.978 Z-2.221
X7.95 Y-8.005 Z-2.241
X7.961 Y-8.031 Z-2.262
X7.984 Y-8.047 Z-2.282
X8.012 Y-8.049 Z-2.302
X8.036 Y-8.035 Z-2.322
X8.049 Y-8.01 Z-2.342
X8.047 Y-7.982 Z-2.363
X8.03 Y-7.96 Z-2.383
X8.004 Y-7.95 Z-2.403
X7.976 Y-7.956 Z-2.423
X7.956 Y-7.976 Z-2.443
X7.95 Y-8.003 Z-2.463
X7.959 Y-8.029 Z-2.484
X7.981 Y-8.046 Z-2.504
X8.009 Y-8.049 Z-2.524
X8.034 Y-8.036 Z-2.544
X8.048 Y-8.012 Z-2.564
Y-7.984 Z-2.585
X8.032 Y-7.961 Z-2.605
X8.006 Y-7.95 Z-2.625
X7.978 Y-7.955 Z-2.645
X7.958 Y-7.974 Z-2.665
X7.95 Y-8.001 Z-2.686
X7.958 Y-8.027 Z-2.706
X7.979 Y-8.046 Z-2.726
X8.007 Y-8.05 Z-2.746
X8.033 Y-8.038 Z-2.766
X8.048 Y-8.015 Z-2.787
Y-7.987 Z-2.807
X8.033 Y-7.963 Z-2.827
X8.008 Y-7.951 Z-2.847
X7.98 Y-7.954 Z-2.867
X7.959 Y-7.972 Z-2.888
X7.95 Y-7.998 Z-2.908
X7.957 Y-8.025 Z-2.928
X7.977 Y-8.045 Z-2.948
X8.005 Y-8.05 Z-2.968
X8.031 Y-8.039 Z-2.988
X8.047 Y-8.017 Z-3.009
X8.049 Y-7.989 Z-3.029
X8.035 Y-7.964 Z-3.049
X8.011 Y-7.951 Z-3.069
X7.983 Y-7.953 Z-3.089
X7.96 Y-7.97 Z-3.11
X7.95 Y-7.996 Z-3.13
X7.956 Y-8.023 Z-3.15
X7.975 Y-8.043 Z-3.17
X8.002 Y-8.05 Z-3.19
X8.029 Y-8.041 Z-3.211
X8.046 Y-8.019 Z-3.231
X8.049 Y-7.991 Z-3.251
X8.037 Y-7.966 Z-3.271
X8.013 Y-7.952 Z-3.291
X7.985 Z-3.312
X7.962 Y-7.968 Z-3.332
X7.95 Y-7.994 Z-3.352
X7.955 Y-8.021 Z-3.372
X7.973 Y-8.042 Z-3.392
X8 Y-8.05 Z-3.413
X8.027 Y-8.042 Z-3.433
X8.045 Y-8.021 Z-3.453
X8.05 Y-7.993 Z-3.473
X8.038 Y-7.968 Z-3.493
X8.015 Y-7.952 Z-3.513
X7.987 Z-3.534
X7.963 Y-7.966 Z-3.554
X7.951 Y-7.991 Z-3.574
X7.954 Y-8.019 Z-3.594
X7.971 Y-8.041 Z-3.614
X7.998 Y-8.05 Z-3.635
X8.025 Y-8.043 Z-3.655
X8.044 Y-8.023 Z-3.675
X8.05 Y-7.996 Z-3.695
X8.04 Y-7.97 Z-3.715
X8.017 Y-7.953 Z-3.736
X7.989 Y-7.951 Z-3.756
X7.965 Y-7.965 Z-3.776
X7.951 Y-7.989 Z-3.796
X7.953 Y-8.017 Z-3.816
X7.969 Y-8.04 Z-3.837
X7.995 Y-8.05 Z-3.857
X8.023 Y-8.044 Z-3.877
X8.043 Y-8.025 Z-3.897
X8.05 Y-7.998 Z-3.917
X8.041 Y-7.972 Z-3.938
X8.019 Y-7.954 Z-3.958
X7.992 Y-7.951 Z-3.978
X7.966 Y-7.963 Z-3.998
X7.952 Y-7.987 Z-4.018
Y-8.015 Z-4.038
X7.968 Y-8.038 Z-4.059
X7.993 Y-8.05 Z-4.079
X8.021 Y-8.045 Z-4.099
X8.042 Y-8.027 Z-4.119
X8.05 Y-8 Z-4.139
X8.042 Y-7.973 Z-4.16
X8.021 Y-7.955 Z-4.18
X7.994 Y-7.95 Z-4.2
X7.968 Y-7.961 Z-4.22
X7.952 Y-7.985 Z-4.24
Y-8.013 Z-4.261
X7.966 Y-8.037 Z-4.281
X7.991 Y-8.049 Z-4.301
X8.019 Y-8.046 Z-4.321
X8.041 Y-8.029 Z-4.341
X8.05 Y-8.003 Z-4.362
X8.044 Y-7.975 Z-4.382
X8.024 Y-7.956 Z-4.402
X7.996 Y-7.95 Z-4.422
X7.97 Y-7.96 Z-4.442
X7.953 Y-7.982 Z-4.463
X7.951 Y-8.01 Z-4.483
X7.964 Y-8.035 Z-4.503
X7.989 Y-8.049 Z-4.523
X8.017 Y-8.047 Z-4.543
X8.039 Y-8.031 Z-4.563
X8.05 Y-8.005 Z-4.584
X8.045 Y-7.977 Z-4.604
X8.026 Y-7.957 Z-4.624
X7.998 Y-7.95 Z-4.644
X7.972 Y-7.959 Z-4.664
X7.954 Y-7.98 Z-4.685
X7.951 Y-8.008 Z-4.705
X7.963 Y-8.033 Z-4.725
X7.986 Y-8.048 Z-4.745
X8.014 Z-4.765
X8.038 Y-8.033 Z-4.786
X8.049 Y-8.007 Z-4.806
X8.046 Y-7.98 Z-4.826
X8.028 Y-7.958 Z-4.846
X8.001 Y-7.95 Z-4.866
X7.974 Y-7.957 Z-4.887
X7.955 Y-7.978 Z-4.907
X7.95 Y-8.006 Z-4.927
X7.961 Y-8.031 Z-4.947
X7.984 Y-8.047 Z-4.967
X8.012 Y-8.049 Z-4.988
X8.036 Y-8.034 Z-5.008
X8.049 Y-8.01 Z-5.028
X8.047 Y-7.982 Z-5.048
X8.029 Y-7.96 Z-5.068
X8.003 Y-7.95 Z-5.088
X7.976 Y-7.956 Z-5.109
X7.956 Y-7.976 Z-5.129
X7.95 Y-8.003 Z-5.149
X7.96 Y-8.03 Z-5.169
X7.982 Y-8.047 Z-5.189
X8.01 Y-8.049 Z-5.21
X8.035 Y-8.036 Z-5.23
X8.049 Y-8.012 Z-5.25
X8.047 Y-7.984 Z-5.27
X8.031 Y-7.961 Z-5.29
X8.005 Y-7.95 Z-5.311
X7.978 Y-7.955 Z-5.331
X7.957 Y-7.974 Z-5.351
X7.95 Y-8.001 Z-5.371
X7.958 Y-8.028 Z-5.391
X7.98 Y-8.046 Z-5.412
X8.008 Y-8.049 Z-5.432
X8.033 Y-8.038 Z-5.452
X8.048 Y-8.014 Z-5.472
Y-7.986 Z-5.492
X8.033 Y-7.962 Z-5.513
X8.008 Y-7.951 Z-5.533
X7.98 Y-7.954 Z-5.553
X7.958 Y-7.972 Z-5.573
X7.95 Y-7.999 Z-5.593
X7.957 Y-8.026 Z-5.613
X7.978 Y-8.045 Z-5.634
X8.005 Y-8.05 Z-5.654
X8.031 Y-8.039 Z-5.674
X8.047 Y-8.016 Z-5.694
X8.049 Y-7.988 Z-5.714
X8.035 Y-7.964 Z-5.735
X8.01 Y-7.951 Z-5.755
X7.982 Y-7.953 Z-5.775
X7.96 Y-7.97 Z-5.795
X7.95 Y-7.996 Z-5.815
X7.956 Y-8.024 Z-5.836
X7.976 Y-8.044 Z-5.856
X8.003 Y-8.05 Z-5.876
X8.029 Y-8.041 Z-5.896
X8.046 Y-8.018 Z-5.916
X8.049 Y-7.991 Z-5.937
X8.036 Y-7.966 Z-5.957
X8.012 Y-7.952 Z-5.977
X7.984 Y-7.953 Z-5.997
X7.961 Y-7.968 Z-6.017
X7.95 Y-7.994 Z-6.038
X7.955 Y-8.022 Z-6.058
X7.974 Y-8.043 Z-6.078
X8.001 Y-8.05 Z-6.098
X8.027 Y-8.042 Z-6.118
X8.046 Y-8.021 Z-6.138
X8.049 Y-7.993 Z-6.159
X8.038 Y-7.967 Z-6.179
X8.014 Y-7.952 Z-6.199
X7.987 Z-6.219
X7.963 Y-7.967 Z-6.239
X7.951 Y-7.992 Z-6.26
X7.954 Y-8.02 Z-6.28
X7.972 Y-8.041 Z-6.3
G3 X8.028 Y-7.959 I0.028 J0.041
X7.972 Y-8.041 I-0.028 J-0.041
G1 X7.99 Y-8.045 F50
X8.007 Y-8.035
X8 Y-8
Z5 F250
X98
Z1.69
Z0 F50
X97.975 Y-7.975
X97.957 Y-7.982
X97.95 Y-8
X97.958 Y-8.027 Z-0.02 F250
X97.979 Y-8.045 Z-0.04
X98.006 Y-8.05 Z-0.061
X98.032 Y-8.038 Z-0.081
X98.048 Y-8.015 Z-0.101
Y-7.987 Z-0.121
X98.034 Y-7.963 Z-0.141
X98.009 Y-7.951 Z-0.162
X97.981 Y-7.954 Z-0.182
X97.959 Y-7.971 Z-0.202
X97.95 Y-7.998 Z-0.222
X97.957 Y-8.025 Z-0.242
X97.977 Y-8.044 Z-0.263
X98.004 Y-8.05 Z-0.283
X98.03 Y-8.04 Z-0.303
X98.047 Y-8.017 Z-0.323
X98.049 Y-7.989 Z-0.343
X98.036 Y-7.965 Z-0.363
X98.011 Y-7.951 Z-0.384
X97.983 Y-7.953 Z-0.404
X97.96 Y-7.969 Z-0.424
X97.95 Y-7.995 Z-0.444
X97.956 Y-8.023 Z-0.464
X97.975 Y-8.043 Z-0.485
X98.002 Y-8.05 Z-0.505
X98.028 Y-8.041 Z-0.525
X98.046 Y-8.019 Z-0.545
X98.049 Y-7.992 Z-0.565
X98.037 Y-7.966 Z-0.586
X98.013 Y-7.952 Z-0.606
X97.985 Z-0.626
X97.962 Y-7.968 Z-0.646
X97.95 Y-7.993 Z-0.666
X97.955 Y-8.021 Z-0.687
X97.973 Y-8.042 Z-0.707
X98 Y-8.05 Z-0.727
X98.026 Y-8.042 Z-0.747
X98.045 Y-8.022 Z-0.767
X98.05 Y-7.994 Z-0.788
X98.039 Y-7.968 Z-0.808
X98.016 Y-7.952 Z-0.828
X97.988 Z-0.848
X97.963 Y-7.966 Z-0.868
X97.951 Y-7.991 Z-0.888
X97.954 Y-8.019 Z-0.909
X97.971 Y-8.041 Z-0.929
X97.997 Y-8.05 Z-0.949
X98.024 Y-8.044 Z-0.969
X98.044 Y-8.024 Z-0.989
X98.05 Y-7.996 Z-1.01
X98.04 Y-7.97 Z-1.03
X98.018 Y-7.953 Z-1.05
X97.99 Y-7.951 Z-1.07
X97.965 Y-7.964 Z-1.09
X97.951 Y-7.989 Z-1.111
X97.953 Y-8.016 Z-1.131
X97.969 Y-8.039 Z-1.151
X97.995 Y-8.05 Z-1.171
X98.022 Y-8.045 Z-1.191
X98.043 Y-8.026 Z-1.212
X98.05 Y-7.999 Z-1.232
X98.041 Y-7.972 Z-1.252
X98.02 Y-7.954 Z-1.272
X97.992 Y-7.951 Z-1.292
X97.967 Y-7.963 Z-1.313
X97.952 Y-7.986 Z-1.333
Y-8.014 Z-1.353
X97.967 Y-8.038 Z-1.373
X97.993 Y-8.049 Z-1.393
X98.02 Y-8.046 Z-1.413
X98.042 Y-8.028 Z-1.434
X98.05 Y-8.001 Z-1.454
X98.043 Y-7.974 Z-1.474
X98.022 Y-7.955 Z-1.494
X97.994 Y-7.95 Z-1.514
X97.969 Y-7.961 Z-1.535
X97.953 Y-7.984 Z-1.555
X97.951 Y-8.012 Z-1.575
X97.966 Y-8.036 Z-1.595
X97.99 Y-8.049 Z-1.615
X98.018 Y-8.047 Z-1.636
X98.04 Y-8.03 Z-1.656
X98.05 Y-8.003 Z-1.676
X98.044 Y-7.976 Z-1.696
X98.024 Y-7.956 Z-1.716
X97.997 Y-7.95 Z-1.737
X97.97 Y-7.96 Z-1.757
X97.953 Y-7.982 Z-1.777
X97.951 Y-8.01 Z-1.797
X97.964 Y-8.035 Z-1.817
X97.988 Y-8.049 Z-1.838
X98.016 Y-8.047 Z-1.858
X98.039 Y-8.031 Z-1.878
X98.05 Y-8.006 Z-1.898
X98.045 Y-7.978 Z-1.918
X98.026 Y-7.957 Z-1.938
X97.999 Y-7.95 Z-1.959
X97.972 Y-7.958 Z-1.979
X97.954 Y-7.98 Z-1.999
X97.951 Y-8.007 Z-2.019
X97.962 Y-8.033 Z-2.039
X97.986 Y-8.048 Z-2.06
X98.014 Z-2.08
X98.037 Y-8.033 Z-2.1
X98.049 Y-8.008 Z-2.12
X98.046 Y-7.98 Z-2.14
X98.028 Y-7.959 Z-2.161
X98.001 Y-7.95 Z-2.181
X97.974 Y-7.957 Z-2.201
X97.955 Y-7.978 Z-2.221
X97.95 Y-8.005 Z-2.241
X97.961 Y-8.031 Z-2.262
X97.984 Y-8.047 Z-2.282
X98.012 Y-8.049 Z-2.302
X98.036 Y-8.035 Z-2.322
X98.049 Y-8.01 Z-2.342
X98.047 Y-7.982 Z-2.363
X98.03 Y-7.96 Z-2.383
X98.004 Y-7.95 Z-2.403
X97.976 Y-7.956 Z-2.423
X97.956 Y-7.976 Z-2.443
X97.95 Y-8.003 Z-2.463
X97.959 Y-8.029 Z-2.484
X97.981 Y-8.046 Z-2.504
X98.009 Y-8.049 Z-2.524
X98.034 Y-8.036 Z-2.544
X98.048 Y-8.012 Z-2.564
Y-7.984 Z-2.585
X98.032 Y-7.961 Z-2.605
X98.006 Y-7.95 Z-2.625
X97.978 Y-7.955 Z-2.645
X97.958 Y-7.974 Z-2.665
X97.95 Y-8.001 Z-2.686
X97.958 Y-8.027 Z-2.706
X97.979 Y-8.046 Z-2.726
X98.007 Y-8.05 Z-2.746
X98.033 Y-8.038 Z-2.766
X98.048 Y-8.015 Z-2.787
Y-7.987 Z-2.807
X98.033 Y-7.963 Z-2.827
X98.008 Y-7.951 Z-2.847
X97.98 Y-7.954 Z-2.867
X97.959 Y-7.972 Z-2.888
X97.95 Y-7.998 Z-2.908
X97.957 Y-8.025 Z-2.928
X97.977 Y-8.045 Z-2.948
X98.005 Y-8.05 Z-2.968
X98.031 Y-8.039 Z-2.988
X98.047 Y-8.017 Z-3.009
X98.049 Y-7.989 Z-3.029
X98.035 Y-7.964 Z-3.049
X98.011 Y-7.951 Z-3.069
X97.983 Y-7.953 Z-3.089
X97.96 Y-7.97 Z-3.11
X97.95 Y-7.996 Z-3.13
X97.956 Y-8.023 Z-3.15
X97.975 Y-8.043 Z-3.17
X98.002 Y-8.05 Z-3.19
X98.029 Y-8.041 Z-3.211
X98.046 Y-8.019 Z-3.231
X98.049 Y-7.991 Z-3.251
X98.037 Y-7.966 Z-3.271
X98.013 Y-7.952 Z-3.291
X97.985 Z-3.312
X97.962 Y-7.968 Z-3.332
X97.95 Y-7.994 Z-3.352
X97.955 Y-8.021 Z-3.372
X97.973 Y-8.042 Z-3.392
X98 Y-8.05 Z-3.413
X98.027 Y-8.042 Z-3.433
X98.045 Y-8.021 Z-3.453
X98.05 Y-7.993 Z-3.473
X98.038 Y-7.968 Z-3.493
X98.015 Y-7.952 Z-3.513
X97.987 Z-3.534
X97.963 Y-7.966 Z-3.554
X97.951 Y-7.991 Z-3.574
X97.954 Y-8.019 Z-3.594
X97.971 Y-8.041 Z-3.614
X97.998 Y-8.05 Z-3.635
X98.025 Y-8.043 Z-3.655
X98.044 Y-8.023 Z-3.675
X98.05 Y-7.996 Z-3.695
X98.04 Y-7.97 Z-3.715
X98.017 Y-7.953 Z-3.736
X97.989 Y-7.951 Z-3.756
X97.965 Y-7.965 Z-3.776
X97.951 Y-7.989 Z-3.796
X97.953 Y-8.017 Z-3.816
X97.969 Y-8.04 Z-3.837
X97.995 Y-8.05 Z-3.857
X98.023 Y-8.044 Z-3.877
X98.043 Y-8.025 Z-3.897
X98.05 Y-7.998 Z-3.917
X98.041 Y-7.972 Z-3.938
X98.019 Y-7.954 Z-3.958
X97.992 Y-7.951 Z-3.978
X97.966 Y-7.963 Z-3.998
X97.952 Y-7.987 Z-4.018
Y-8.015 Z-4.038
X97.968 Y-8.038 Z-4.059
X97.993 Y-8.05 Z-4.079
X98.021 Y-8.045 Z-4.099
X98.042 Y-8.027 Z-4.119
X98.05 Y-8 Z-4.139
X98.042 Y-7.973 Z-4.16
X98.021 Y-7.955 Z-4.18
X97.994 Y-7.95 Z-4.2
X97.968 Y-7.961 Z-4.22
X97.952 Y-7.985 Z-4.24
Y-8.013 Z-4.261
X97.966 Y-8.037 Z-4.281
X97.991 Y-8.049 Z-4.301
X98.019 Y-8.046 Z-4.321
X98.041 Y-8.029 Z-4.341
X98.05 Y-8.003 Z-4.362
X98.044 Y-7.975 Z-4.382
X98.024 Y-7.956 Z-4.402
X97.996 Y-7.95 Z-4.422
X97.97 Y-7.96 Z-4.442
X97.953 Y-7.982 Z-4.463
X97.951 Y-8.01 Z-4.483
X97.964 Y-8.035 Z-4.503
X97.989 Y-8.049 Z-4.523
X98.017 Y-8.047 Z-4.543
X98.039 Y-8.031 Z-4.563
X98.05 Y-8.005 Z-4.584
X98.045 Y-7.977 Z-4.604
X98.026 Y-7.957 Z-4.624
X97.998 Y-7.95 Z-4.644
X97.972 Y-7.959 Z-4.664
X97.954 Y-7.98 Z-4.685
X97.951 Y-8.008 Z-4.705
X97.963 Y-8.033 Z-4.725
X97.986 Y-8.048 Z-4.745
X98.014 Z-4.765
X98.038 Y-8.033 Z-4.786
X98.049 Y-8.007 Z-4.806
X98.046 Y-7.98 Z-4.826
X98.028 Y-7.958 Z-4.846
X98.001 Y-7.95 Z-4.866
X97.974 Y-7.957 Z-4.887
X97.955 Y-7.978 Z-4.907
X97.95 Y-8.006 Z-4.927
X97.961 Y-8.031 Z-4.947
X97.984 Y-8.047 Z-4.967
X98.012 Y-8.049 Z-4.988
X98.036 Y-8.034 Z-5.008
X98.049 Y-8.01 Z-5.028
X98.047 Y-7.982 Z-5.048
X98.029 Y-7.96 Z-5.068
X98.003 Y-7.95 Z-5.088
X97.976 Y-7.956 Z-5.109
X97.956 Y-7.976 Z-5.129
X97.95 Y-8.003 Z-5.149
X97.96 Y-8.03 Z-5.169
X97.982 Y-8.047 Z-5.189
X98.01 Y-8.049 Z-5.21
X98.035 Y-8.036 Z-5.23
X98.049 Y-8.012 Z-5.25
X98.047 Y-7.984 Z-5.27
X98.031 Y-7.961 Z-5.29
X98.005 Y-7.95 Z-5.311
X97.978 Y-7.955 Z-5.331
X97.957 Y-7.974 Z-5.351
X97.95 Y-8.001 Z-5.371
X97.958 Y-8.028 Z-5.391
X97.98 Y-8.046 Z-5.412
X98.008 Y-8.049 Z-5.432
X98.033 Y-8.038 Z-5.452
X98.048 Y-8.014 Z-5.472
Y-7.986 Z-5.492
X98.033 Y-7.962 Z-5.513
X98.008 Y-7.951 Z-5.533
X97.98 Y-7.954 Z-5.553
X97.958 Y-7.972 Z-5.573
X97.95 Y-7.999 Z-5.593
X97.957 Y-8.026 Z-5.613
X97.978 Y-8.045 Z-5.634
X98.005 Y-8.05 Z-5.654
X98.031 Y-8.039 Z-5.674
X98.047 Y-8.016 Z-5.694
X98.049 Y-7.988 Z-5.714
X98.035 Y-7.964 Z-5.735
X98.01 Y-7.951 Z-5.755
X97.982 Y-7.953 Z-5.775
X97.96 Y-7.97 Z-5.795
X97.95 Y-7.996 Z-5.815
X97.956 Y-8.024 Z-5.836
X97.976 Y-8.044 Z-5.856
X98.003 Y-8.05 Z-5.876
X98.029 Y-8.041 Z-5.896
X98.046 Y-8.018 Z-5.916
X98.049 Y-7.991 Z-5.937
X98.036 Y-7.966 Z-5.957
X98.012 Y-7.952 Z-5.977
X97.984 Y-7.953 Z-5.997
X97.961 Y-7.968 Z-6.017
X97.95 Y-7.994 Z-6.038
X97.955 Y-8.022 Z-6.058
X97.974 Y-8.043 Z-6.078
X98.001 Y-8.05 Z-6.098
X98.027 Y-8.042 Z-6.118
X98.046 Y-8.021 Z-6.138
X98.049 Y-7.993 Z-6.159
X98.038 Y-7.967 Z-6.179
X98.014 Y-7.952 Z-6.199
X97.987 Z-6.219
X97.963 Y-7.967 Z-6.239
X97.951 Y-7.992 Z-6.26
X97.954 Y-8.02 Z-6.28
X97.972 Y-8.041 Z-6.3
G3 X98.028 Y-7.959 I0.028 J0.041
X97.972 Y-8.041 I-0.028 J-0.041
G1 X97.99 Y-8.045 F50
X98.007 Y-8.035
X98 Y-8
Z15 F250
(When using Fusion for Personal Use, the feedrate of rapid)
(moves is reduced to match the feedrate of cutting moves,)
(which can increase machining time. Unrestricted rapid moves)
(are available with a Fusion Subscription.)

(Trace1)
G0 X88.699 Y-56.437
G1 Z15 F250
Z1.7
Z0.01 F50
Y-56.429 Z-0.059
X88.697 Y-56.406 Z-0.125
X88.696 Y-56.369 Z-0.183
X88.693 Y-56.32 Z-0.232
X88.69 Y-56.262 Z-0.269
X88.687 Y-56.196 Z-0.292
X88.683 Y-56.127 Z-0.3
X88.628 Y-55.013 F250
X88.532 Y-53.901
X88.398 Y-52.794
X88.224 Y-51.692
X88.012 Y-50.596
X87.761 Y-49.509
X87.471 Y-48.432
X87.144 Y-47.365
X86.78 Y-46.311
X86.378 Y-45.27
X85.939 Y-44.244
X85.465 Y-43.234
X84.955 Y-42.241
X84.411 Y-41.268
X83.832 Y-40.314
X83.22 Y-39.381
X82.576 Y-38.47
X81.899 Y-37.583
X81.192 Y-36.72
X80.455 Y-35.883
X79.688 Y-35.072
X78.893 Y-34.289
X78.072 Y-33.534
X77.223 Y-32.81
X76.35 Y-32.115
X75.453 Y-31.452
X74.533 Y-30.821
X73.591 Y-30.222
X72.629 Y-29.658
X71.647 Y-29.128
X70.647 Y-28.633
X69.631 Y-28.173
X68.598 Y-27.75
X67.551 Y-27.364
X66.492 Y-27.015
X65.42 Y-26.703
X64.339 Y-26.43
X63.248 Y-26.195
X62.15 Y-25.999
X61.045 Y-25.841
X59.936 Y-25.723
X58.823 Y-25.644
X57.708 Y-25.605
X56.592
X55.477 Y-25.644
X54.364 Y-25.723
X53.255 Y-25.841
X52.15 Y-25.999
X51.052 Y-26.195
X49.961 Y-26.43
X48.88 Y-26.703
X47.808 Y-27.015
X46.749 Y-27.364
X45.702 Y-27.75
X44.669 Y-28.173
X43.653 Y-28.633
X42.653 Y-29.128
X41.671 Y-29.658
X40.709 Y-30.222
X39.767 Y-30.821
X38.847 Y-31.452
X37.95 Y-32.115
X37.077 Y-32.81
X36.229 Y-33.534
X35.407 Y-34.289
X34.612 Y-35.072
X33.845 Y-35.883
X33.108 Y-36.72
X32.401 Y-37.583
X31.724 Y-38.47
X31.08 Y-39.381
X30.468 Y-40.314
X29.889 Y-41.268
X29.345 Y-42.241
X28.835 Y-43.234
X28.361 Y-44.244
X27.922 Y-45.27
X27.521 Y-46.311
X27.156 Y-47.365
X26.829 Y-48.432
X26.539 Y-49.509
X26.288 Y-50.596
X26.076 Y-51.692
X25.902 Y-52.794
X25.768 Y-53.901
X25.673 Y-55.013
X25.617 Y-56.127
X88.683
Z0 F50
Z5 F250
X88.699 Y-56.437
Z0.7
Z-0.99 F50
Y-56.429 Z-1.059
X88.697 Y-56.406 Z-1.125
X88.696 Y-56.369 Z-1.183
X88.693 Y-56.32 Z-1.232
X88.69 Y-56.262 Z-1.269
X88.687 Y-56.196 Z-1.292
X88.683 Y-56.127 Z-1.3
X88.628 Y-55.013 F250
X88.532 Y-53.901
X88.398 Y-52.794
X88.224 Y-51.692
X88.012 Y-50.596
X87.761 Y-49.509
X87.471 Y-48.432
X87.144 Y-47.365
X86.78 Y-46.311
X86.378 Y-45.27
X85.939 Y-44.244
X85.465 Y-43.234
X84.955 Y-42.241
X84.411 Y-41.268
X83.832 Y-40.314
X83.22 Y-39.381
X82.576 Y-38.47
X81.899 Y-37.583
X81.192 Y-36.72
X80.455 Y-35.883
X79.688 Y-35.072
X78.893 Y-34.289
X78.072 Y-33.534
X77.223 Y-32.81
X76.35 Y-32.115
X75.453 Y-31.452
X74.533 Y-30.821
X73.591 Y-30.222
X72.629 Y-29.658
X71.647 Y-29.128
X70.647 Y-28.633
X69.631 Y-28.173
X68.598 Y-27.75
X67.551 Y-27.364
X66.492 Y-27.015
X65.42 Y-26.703
X64.339 Y-26.43
X63.248 Y-26.195
X62.15 Y-25.999
X61.045 Y-25.841
X59.936 Y-25.723
X58.823 Y-25.644
X57.708 Y-25.605
X56.592
X55.477 Y-25.644
X54.364 Y-25.723
X53.255 Y-25.841
X52.15 Y-25.999
X51.052 Y-26.195
X49.961 Y-26.43
X48.88 Y-26.703
X47.808 Y-27.015
X46.749 Y-27.364
X45.702 Y-27.75
X44.669 Y-28.173
X43.653 Y-28.633
X42.653 Y-29.128
X41.671 Y-29.658
X40.709 Y-30.222
X39.767 Y-30.821
X38.847 Y-31.452
X37.95 Y-32.115
X37.077 Y-32.81
X36.229 Y-33.534
X35.407 Y-34.289
X34.612 Y-35.072
X33.845 Y-35.883
X33.108 Y-36.72
X32.401 Y-37.583
X31.724 Y-38.47
X31.08 Y-39.381
X30.468 Y-40.314
X29.889 Y-41.268
X29.345 Y-42.241
X28.835 Y-43.234
X28.361 Y-44.244
X27.922 Y-45.27
X27.521 Y-46.311
X27.156 Y-47.365
X26.829 Y-48.432
X26.539 Y-49.509
X26.288 Y-50.596
X26.076 Y-51.692
X25.902 Y-52.794
X25.768 Y-53.901
X25.673 Y-55.013
X25.617 Y-56.127
X88.683
Z0 F50
Z5 F250
X88.699 Y-56.437
Z0
Z-0.3 F50
Z-1.99
Y-56.429 Z-2.059
X88.697 Y-56.406 Z-2.125
X88.696 Y-56.369 Z-2.183
X88.693 Y-56.32 Z-2.232
X88.69 Y-56.262 Z-2.269
X88.687 Y-56.196 Z-2.292
X88.683 Y-56.127 Z-2.3
X88.628 Y-55.013 F250
X88.532 Y-53.901
X88.398 Y-52.794
X88.224 Y-51.692
X88.012 Y-50.596
X87.761 Y-49.509
X87.471 Y-48.432
X87.144 Y-47.365
X86.78 Y-46.311
X86.378 Y-45.27
X85.939 Y-44.244
X85.465 Y-43.234
X84.955 Y-42.241
X84.411 Y-41.268
X83.832 Y-40.314
X83.22 Y-39.381
X82.576 Y-38.47
X81.899 Y-37.583
X81.192 Y-36.72
X80.455 Y-35.883
X79.688 Y-35.072
X78.893 Y-34.289
X78.072 Y-33.534
X77.223 Y-32.81
X76.35 Y-32.115
X75.453 Y-31.452
X74.533 Y-30.821
X73.591 Y-30.222
X72.629 Y-29.658
X71.647 Y-29.128
X70.647 Y-28.633
X69.631 Y-28.173
X68.598 Y-27.75
X67.551 Y-27.364
X66.492 Y-27.015
X65.42 Y-26.703
X64.339 Y-26.43
X63.248 Y-26.195
X62.15 Y-25.999
X61.045 Y-25.841
X59.936 Y-25.723
X58.823 Y-25.644
X57.708 Y-25.605
X56.592
X55.477 Y-25.644
X54.364 Y-25.723
X53.255 Y-25.841
X52.15 Y-25.999
X51.052 Y-26.195
X49.961 Y-26.43
X48.88 Y-26.703
X47.808 Y-27.015
X46.749 Y-27.364
X45.702 Y-27.75
X44.669 Y-28.173
X43.653 Y-28.633
X42.653 Y-29.128
X41.671 Y-29.658
X40.709 Y-30.222
X39.767 Y-30.821
X38.847 Y-31.452
X37.95 Y-32.115
X37.077 Y-32.81
X36.229 Y-33.534
X35.407 Y-34.289
X34.612 Y-35.072
X33.845 Y-35.883
X33.108 Y-36.72
X32.401 Y-37.583
X31.724 Y-38.47
X31.08 Y-39.381
X30.468 Y-40.314
X29.889 Y-41.268
X29.345 Y-42.241
X28.835 Y-43.234
X28.361 Y-44.244
X27.922 Y-45.27
X27.521 Y-46.311
X27.156 Y-47.365
X26.829 Y-48.432
X26.539 Y-49.509
X26.288 Y-50.596
X26.076 Y-51.692
X25.902 Y-52.794
X25.768 Y-53.901
X25.673 Y-55.013
X25.617 Y-56.127
X88.683
Z0 F50
Z5 F250
X88.699 Y-56.437
Z0
Z-1.3 F50
Z-2.99
Y-56.429 Z-3.059
X88.697 Y-56.406 Z-3.125
X88.696 Y-56.369 Z-3.183
X88.693 Y-56.32 Z-3.232
X88.69 Y-56.262 Z-3.269
X88.687 Y-56.196 Z-3.292
X88.683 Y-56.127 Z-3.3
X88.628 Y-55.013 F250
X88.532 Y-53.901
X88.398 Y-52.794
X88.224 Y-51.692
X88.012 Y-50.596
X87.761 Y-49.509
X87.471 Y-48.432
X87.144 Y-47.365
X86.78 Y-46.311
X86.378 Y-45.27
X85.939 Y-44.244
X85.465 Y-43.234
X84.955 Y-42.241
X84.411 Y-41.268
X83.832 Y-40.314
X83.22 Y-39.381
X82.576 Y-38.47
X81.899 Y-37.583
X81.192 Y-36.72
X80.455 Y-35.883
X79.688 Y-35.072
X78.893 Y-34.289
X78.072 Y-33.534
X77.223 Y-32.81
X76.35 Y-32.115
X75.453 Y-31.452
X74.533 Y-30.821
X73.591 Y-30.222
X72.629 Y-29.658
X71.647 Y-29.128
X70.647 Y-28.633
X69.631 Y-28.173
X68.598 Y-27.75
X67.551 Y-27.364
X66.492 Y-27.015
X65.42 Y-26.703
X64.339 Y-26.43
X63.248 Y-26.195
X62.15 Y-25.999
X61.045 Y-25.841
X59.936 Y-25.723
X58.823 Y-25.644
X57.708 Y-25.605
X56.592
X55.477 Y-25.644
X54.364 Y-25.723
X53.255 Y-25.841
X52.15 Y-25.999
X51.052 Y-26.195
X49.961 Y-26.43
X48.88 Y-26.703
X47.808 Y-27.015
X46.749 Y-27.364
X45.702 Y-27.75
X44.669 Y-28.173
X43.653 Y-28.633
X42.653 Y-29.128
X41.671 Y-29.658
X40.709 Y-30.222
X39.767 Y-30.821
X38.847 Y-31.452
X37.95 Y-32.115
X37.077 Y-32.81
X36.229 Y-33.534
X35.407 Y-34.289
X34.612 Y-35.072
X33.845 Y-35.883
X33.108 Y-36.72
X32.401 Y-37.583
X31.724 Y-38.47
X31.08 Y-39.381
X30.468 Y-40.314
X29.889 Y-41.268
X29.345 Y-42.241
X28.835 Y-43.234
X28.361 Y-44.244
X27.922 Y-45.27
X27.521 Y-46.311
X27.156 Y-47.365
X26.829 Y-48.432
X26.539 Y-49.509
X26.288 Y-50.596
X26.076 Y-51.692
X25.902 Y-52.794
X25.768 Y-53.901
X25.673 Y-55.013
X25.617 Y-56.127
X88.683
Z0 F50
Z5 F250
X88.699 Y-56.437
Z0
Z-2.3 F50
Z-3.99
Y-56.429 Z-4.059
X88.697 Y-56.406 Z-4.125
X88.696 Y-56.369 Z-4.183
X88.693 Y-56.32 Z-4.232
X88.69 Y-56.262 Z-4.269
X88.687 Y-56.196 Z-4.292
X88.683 Y-56.127 Z-4.3
X88.628 Y-55.013 F250
X88.532 Y-53.901
X88.398 Y-52.794
X88.224 Y-51.692
X88.012 Y-50.596
X87.761 Y-49.509
X87.471 Y-48.432
X87.144 Y-47.365
X86.78 Y-46.311
X86.378 Y-45.27
X85.939 Y-44.244
X85.465 Y-43.234
X84.955 Y-42.241
X84.411 Y-41.268
X83.832 Y-40.314
X83.22 Y-39.381
X82.576 Y-38.47
X81.899 Y-37.583
X81.192 Y-36.72
X80.455 Y-35.883
X79.688 Y-35.072
X78.893 Y-34.289
X78.072 Y-33.534
X77.223 Y-32.81
X76.35 Y-32.115
X75.453 Y-31.452
X74.533 Y-30.821
X73.591 Y-30.222
X72.629 Y-29.658
X71.647 Y-29.128
X70.647 Y-28.633
X69.631 Y-28.173
X68.598 Y-27.75
X67.551 Y-27.364
X66.492 Y-27.015
X65.42 Y-26.703
X64.339 Y-26.43
X63.248 Y-26.195
X62.15 Y-25.999
X61.045 Y-25.841
X59.936 Y-25.723
X58.823 Y-25.644
X57.708 Y-25.605
X56.592
X55.477 Y-25.644
X54.364 Y-25.723
X53.255 Y-25.841
X52.15 Y-25.999
X51.052 Y-26.195
X49.961 Y-26.43
X48.88 Y-26.703
X47.808 Y-27.015
X46.749 Y-27.364
X45.702 Y-27.75
X44.669 Y-28.173
X43.653 Y-28.633
X42.653 Y-29.128
X41.671 Y-29.658
X40.709 Y-30.222
X39.767 Y-30.821
X38.847 Y-31.452
X37.95 Y-32.115
X37.077 Y-32.81
X36.229 Y-33.534
X35.407 Y-34.289
X34.612 Y-35.072
X33.845 Y-35.883
X33.108 Y-36.72
X32.401 Y-37.583
X31.724 Y-38.47
X31.08 Y-39.381
X30.468 Y-40.314
X29.889 Y-41.268
X29.345 Y-42.241
X28.835 Y-43.234
X28.361 Y-44.244
X27.922 Y-45.27
X27.521 Y-46.311
X27.156 Y-47.365
X26.829 Y-48.432
X26.539 Y-49.509
X26.288 Y-50.596
X26.076 Y-51.692
X25.902 Y-52.794
X25.768 Y-53.901
X25.673 Y-55.013
X25.617 Y-56.127
X88.683
Z0 F50
Z5 F250
X88.699 Y-56.437
Z0
Z-3.3 F50
Z-4.99
Y-56.429 Z-5.059
X88.697 Y-56.406 Z-5.125
X88.696 Y-56.369 Z-5.183
X88.693 Y-56.32 Z-5.232
X88.69 Y-56.262 Z-5.269
X88.687 Y-56.196 Z-5.292
X88.683 Y-56.127 Z-5.3
X88.628 Y-55.013 F250
X88.532 Y-53.901
X88.398 Y-52.794
X88.224 Y-51.692
X88.012 Y-50.596
X87.761 Y-49.509
X87.471 Y-48.432
X87.144 Y-47.365
X86.78 Y-46.311
X86.378 Y-45.27
X85.939 Y-44.244
X85.465 Y-43.234
X84.955 Y-42.241
X84.411 Y-41.268
X83.832 Y-40.314
X83.22 Y-39.381
X82.576 Y-38.47
X81.899 Y-37.583
X81.192 Y-36.72
X80.455 Y-35.883
X79.688 Y-35.072
X78.893 Y-34.289
X78.072 Y-33.534
X77.223 Y-32.81
X76.35 Y-32.115
X75.453 Y-31.452
X74.533 Y-30.821
X73.591 Y-30.222
X72.629 Y-29.658
X71.647 Y-29.128
X70.647 Y-28.633
X69.631 Y-28.173
X68.598 Y-27.75
X67.551 Y-27.364
X66.492 Y-27.015
X65.42 Y-26.703
X64.339 Y-26.43
X63.248 Y-26.195
X62.15 Y-25.999
X61.045 Y-25.841
X59.936 Y-25.723
X58.823 Y-25.644
X57.708 Y-25.605
X56.592
X55.477 Y-25.644
X54.364 Y-25.723
X53.255 Y-25.841
X52.15 Y-25.999
X51.052 Y-26.195
X49.961 Y-26.43
X48.88 Y-26.703
X47.808 Y-27.015
X46.749 Y-27.364
X45.702 Y-27.75
X44.669 Y-28.173
X43.653 Y-28.633
X42.653 Y-29.128
X41.671 Y-29.658
X40.709 Y-30.222
X39.767 Y-30.821
X38.847 Y-31.452
X37.95 Y-32.115
X37.077 Y-32.81
X36.229 Y-33.534
X35.407 Y-34.289
X34.612 Y-35.072
X33.845 Y-35.883
X33.108 Y-36.72
X32.401 Y-37.583
X31.724 Y-38.47
X31.08 Y-39.381
X30.468 Y-40.314
X29.889 Y-41.268
X29.345 Y-42.241
X28.835 Y-43.234
X28.361 Y-44.244
X27.922 Y-45.27
X27.521 Y-46.311
X27.156 Y-47.365
X26.829 Y-48.432
X26.539 Y-49.509
X26.288 Y-50.596
X26.076 Y-51.692
X25.902 Y-52.794
X25.768 Y-53.901
X25.673 Y-55.013
X25.617 Y-56.127
X88.683
Z0 F50
Z5 F250
X88.699 Y-56.437
Z0
Z-4.3 F50
Z-5.99
Y-56.429 Z-6.059
X88.697 Y-56.406 Z-6.125
X88.696 Y-56.369 Z-6.183
X88.693 Y-56.32 Z-6.232
X88.69 Y-56.262 Z-6.269
X88.687 Y-56.196 Z-6.292
X88.683 Y-56.127 Z-6.3
X88.628 Y-55.013 F250
X88.532 Y-53.901
X88.398 Y-52.794
X88.224 Y-51.692
X88.012 Y-50.596
X87.761 Y-49.509
X87.471 Y-48.432
X87.144 Y-47.365
X86.78 Y-46.311
X86.378 Y-45.27
X85.939 Y-44.244
X85.465 Y-43.234
X84.955 Y-42.241
X84.411 Y-41.268
X83.832 Y-40.314
X83.22 Y-39.381
X82.576 Y-38.47
X81.899 Y-37.583
X81.192 Y-36.72
X80.455 Y-35.883
X79.688 Y-35.072
X78.893 Y-34.289
X78.072 Y-33.534
X77.223 Y-32.81
X76.35 Y-32.115
X75.453 Y-31.452
X74.533 Y-30.821
X73.591 Y-30.222
X72.629 Y-29.658
X71.647 Y-29.128
X70.647 Y-28.633
X69.631 Y-28.173
X68.598 Y-27.75
X67.551 Y-27.364
X66.492 Y-27.015
X65.42 Y-26.703
X64.339 Y-26.43
X63.248 Y-26.195
X62.15 Y-25.999
X61.045 Y-25.841
X59.936 Y-25.723
X58.823 Y-25.644
X57.708 Y-25.605
X56.592
X55.477 Y-25.644
X54.364 Y-25.723
X53.255 Y-25.841
X52.15 Y-25.999
X51.052 Y-26.195
X49.961 Y-26.43
X48.88 Y-26.703
X47.808 Y-27.015
X46.749 Y-27.364
X45.702 Y-27.75
X44.669 Y-28.173
X43.653 Y-28.633
X42.653 Y-29.128
X41.671 Y-29.658
X40.709 Y-30.222
X39.767 Y-30.821
X38.847 Y-31.452
X37.95 Y-32.115
X37.077 Y-32.81
X36.229 Y-33.534
X35.407 Y-34.289
X34.612 Y-35.072
X33.845 Y-35.883
X33.108 Y-36.72
X32.401 Y-37.583
X31.724 Y-38.47
X31.08 Y-39.381
X30.468 Y-40.314
X29.889 Y-41.268
X29.345 Y-42.241
X28.835 Y-43.234
X28.361 Y-44.244
X27.922 Y-45.27
X27.521 Y-46.311
X27.156 Y-47.365
X26.829 Y-48.432
X26.539 Y-49.509
X26.288 Y-50.596
X26.076 Y-51.692
X25.902 Y-52.794
X25.768 Y-53.901
X25.673 Y-55.013
X25.617 Y-56.127
X88.683
Z0 F50
Z15 F250

M9
G28 G91 Z0
G90
G28 G91 X0 Y0
G90
M5
M30
