(link1_bottom)
(Machine)
(  vendor: Autodesk)
(  model: Generic 3-axis)
(  description: This machine has XY axis on the Table and Z axis on the Head)
(T3 D=3.1 CR=0 - ZMIN=-6.3 - flat end mill)
G90 G94
G17
G21
(When using Fusion for Personal Use, the feedrate of rapid)
(moves is reduced to match the feedrate of cutting moves,)
(which can increase machining time. Unrestricted rapid moves)
(are available with a Fusion Subscription.)
G28 G91 Z0
G90

(Bore3)
T3
S18000 M3
G17 G90 G94
G54
M8
G0 X92.825 Y56.84
Z15
G1 Z2 F250
Z0.31 F50
G18 G2 X93.135 Z0 I0.31 K0
G1 X93.29
G17 G3 X93.6 Y57.15 I0 J0.31
X91.7 Y57.15 Z-0.175 I-0.95 J0 F250
X93.6 Y57.15 Z-0.35 I0.95 J0
X91.7 Y57.15 Z-0.524 I-0.95 J0
X93.6 Y57.15 Z-0.699 I0.95 J0
X91.7 Y57.15 Z-0.874 I-0.95 J0
X93.6 Y57.15 Z-1.049 I0.95 J0
X91.7 Y57.15 Z-1.224 I-0.95 J0
X93.6 Y57.15 Z-1.399 I0.95 J0
X91.7 Y57.15 Z-1.573 I-0.95 J0
X93.6 Y57.15 Z-1.748 I0.95 J0
X91.7 Y57.15 Z-1.923 I-0.95 J0
X93.6 Y57.15 Z-2.098 I0.95 J0
X91.7 Y57.15 Z-2.273 I-0.95 J0
X93.6 Y57.15 Z-2.447 I0.95 J0
X91.7 Y57.15 Z-2.622 I-0.95 J0
X93.6 Y57.15 Z-2.797 I0.95 J0
X91.7 Y57.15 Z-2.972 I-0.95 J0
X93.6 Y57.15 Z-3.147 I0.95 J0
X91.7 Y57.15 Z-3.322 I-0.95 J0
X93.6 Y57.15 Z-3.496 I0.95 J0
X91.7 Y57.15 Z-3.671 I-0.95 J0
X93.6 Y57.15 Z-3.846 I0.95 J0
X91.7 Y57.15 Z-4.021 I-0.95 J0
X93.6 Y57.15 Z-4.196 I0.95 J0
X91.7 Y57.15 Z-4.37 I-0.95 J0
X93.6 Y57.15 Z-4.545 I0.95 J0
X91.7 Y57.15 Z-4.72 I-0.95 J0
X93.6 Y57.15 Z-4.895 I0.95 J0
X91.7 Y57.15 Z-5.07 I-0.95 J0
X93.6 Y57.15 Z-5.245 I0.95 J0
X91.7 Y57.15 Z-5.419 I-0.95 J0
X93.6 Y57.15 Z-5.594 I0.95 J0
X91.7 Y57.15 Z-5.769 I-0.95 J0
X93.6 Y57.15 Z-5.944 I0.95 J0
X91.7 Y57.15 Z-6.119 I-0.95 J0
X92.706 Y56.202 Z-6.209 I0.95 J0
X93.593 Y57.262 Z-6.3 I-0.056 J0.948
X91.707 Y57.038 I-0.943 J-0.112
X93.593 Y57.262 I0.943 J0.112
X93.249 Y57.533 I-0.308 J-0.037 F50
G1 X93.095 Y57.515
X93.026 Y57.507 Z-6.292
X92.961 Y57.499 Z-6.269
X92.903 Y57.492 Z-6.232
X92.854 Y57.486 Z-6.183
X92.818 Y57.482 Z-6.125
X92.795 Y57.479 Z-6.059
X92.787 Y57.478 Z-5.99
Z5 F250
X88.069 Y39.09
Z2
Z0.31 F50
G18 G2 X88.379 Z0 I0.31 K0
G1 X88.534
G17 G3 X88.844 Y39.4 I0 J0.31
X86.944 Y39.4 Z-0.175 I-0.95 J0 F250
X88.844 Y39.4 Z-0.35 I0.95 J0
X86.944 Y39.4 Z-0.524 I-0.95 J0
X88.844 Y39.4 Z-0.699 I0.95 J0
X86.944 Y39.4 Z-0.874 I-0.95 J0
X88.844 Y39.4 Z-1.049 I0.95 J0
X86.944 Y39.4 Z-1.224 I-0.95 J0
X88.844 Y39.4 Z-1.399 I0.95 J0
X86.944 Y39.4 Z-1.573 I-0.95 J0
X88.844 Y39.4 Z-1.748 I0.95 J0
X86.944 Y39.4 Z-1.923 I-0.95 J0
X88.844 Y39.4 Z-2.098 I0.95 J0
X86.944 Y39.4 Z-2.273 I-0.95 J0
X88.844 Y39.4 Z-2.447 I0.95 J0
X86.944 Y39.4 Z-2.622 I-0.95 J0
X88.844 Y39.4 Z-2.797 I0.95 J0
X86.944 Y39.4 Z-2.972 I-0.95 J0
X88.844 Y39.4 Z-3.147 I0.95 J0
X86.944 Y39.4 Z-3.322 I-0.95 J0
X88.844 Y39.4 Z-3.496 I0.95 J0
X86.944 Y39.4 Z-3.671 I-0.95 J0
X88.844 Y39.4 Z-3.846 I0.95 J0
X86.944 Y39.4 Z-4.021 I-0.95 J0
X88.844 Y39.4 Z-4.196 I0.95 J0
X86.944 Y39.4 Z-4.37 I-0.95 J0
X88.844 Y39.4 Z-4.545 I0.95 J0
X86.944 Y39.4 Z-4.72 I-0.95 J0
X88.844 Y39.4 Z-4.895 I0.95 J0
X86.944 Y39.4 Z-5.07 I-0.95 J0
X88.844 Y39.4 Z-5.245 I0.95 J0
X86.944 Y39.4 Z-5.419 I-0.95 J0
X88.844 Y39.4 Z-5.594 I0.95 J0
X86.944 Y39.4 Z-5.769 I-0.95 J0
X88.844 Y39.4 Z-5.944 I0.95 J0
X86.944 Y39.4 Z-6.119 I-0.95 J0
X87.95 Y38.452 Z-6.209 I0.95 J0
X88.837 Y39.512 Z-6.3 I-0.056 J0.948
X86.951 Y39.288 I-0.943 J-0.112
X88.837 Y39.512 I0.943 J0.112
X88.493 Y39.783 I-0.308 J-0.037 F50
G1 X88.339 Y39.765
X88.27 Y39.757 Z-6.292
X88.205 Y39.749 Z-6.269
X88.147 Y39.742 Z-6.232
X88.098 Y39.736 Z-6.183
X88.062 Y39.732 Z-6.125
X88.039 Y39.729 Z-6.059
X88.031 Y39.728 Z-5.99
Z5 F250
X75.075 Y26.096
Z2
Z0.31 F50
G18 G2 X75.385 Z0 I0.31 K0
G1 X75.54
G17 G3 X75.85 Y26.406 I0 J0.31
X73.95 Y26.406 Z-0.175 I-0.95 J0 F250
X75.85 Y26.406 Z-0.35 I0.95 J0
X73.95 Y26.406 Z-0.524 I-0.95 J0
X75.85 Y26.406 Z-0.699 I0.95 J0
X73.95 Y26.406 Z-0.874 I-0.95 J0
X75.85 Y26.406 Z-1.049 I0.95 J0
X73.95 Y26.406 Z-1.224 I-0.95 J0
X75.85 Y26.406 Z-1.399 I0.95 J0
X73.95 Y26.406 Z-1.573 I-0.95 J0
X75.85 Y26.406 Z-1.748 I0.95 J0
X73.95 Y26.406 Z-1.923 I-0.95 J0
X75.85 Y26.406 Z-2.098 I0.95 J0
X73.95 Y26.406 Z-2.273 I-0.95 J0
X75.85 Y26.406 Z-2.447 I0.95 J0
X73.95 Y26.406 Z-2.622 I-0.95 J0
X75.85 Y26.406 Z-2.797 I0.95 J0
X73.95 Y26.406 Z-2.972 I-0.95 J0
X75.85 Y26.406 Z-3.147 I0.95 J0
X73.95 Y26.406 Z-3.322 I-0.95 J0
X75.85 Y26.406 Z-3.496 I0.95 J0
X73.95 Y26.406 Z-3.671 I-0.95 J0
X75.85 Y26.406 Z-3.846 I0.95 J0
X73.95 Y26.406 Z-4.021 I-0.95 J0
X75.85 Y26.406 Z-4.196 I0.95 J0
X73.95 Y26.406 Z-4.37 I-0.95 J0
X75.85 Y26.406 Z-4.545 I0.95 J0
X73.95 Y26.406 Z-4.72 I-0.95 J0
X75.85 Y26.406 Z-4.895 I0.95 J0
X73.95 Y26.406 Z-5.07 I-0.95 J0
X75.85 Y26.406 Z-5.245 I0.95 J0
X73.95 Y26.406 Z-5.419 I-0.95 J0
X75.85 Y26.406 Z-5.594 I0.95 J0
X73.95 Y26.406 Z-5.769 I-0.95 J0
X75.85 Y26.406 Z-5.944 I0.95 J0
X73.95 Y26.406 Z-6.119 I-0.95 J0
X74.956 Y25.458 Z-6.209 I0.95 J0
X75.843 Y26.518 Z-6.3 I-0.056 J0.948
X73.957 Y26.294 I-0.943 J-0.112
X75.843 Y26.518 I0.943 J0.112
X75.499 Y26.79 I-0.308 J-0.037 F50
G1 X75.345 Y26.771
X75.276 Y26.763 Z-6.292
X75.211 Y26.755 Z-6.269
X75.153 Y26.748 Z-6.232
X75.104 Y26.743 Z-6.183
X75.068 Y26.738 Z-6.125
X75.045 Y26.736 Z-6.059
X75.037 Y26.735 Z-5.99
Z5 F250
X57.325 Y21.34
Z2
Z0.31 F50
G18 G2 X57.635 Z0 I0.31 K0
G1 X57.79
G17 G3 X58.1 Y21.65 I0 J0.31
X56.2 Y21.65 Z-0.175 I-0.95 J0 F250
X58.1 Y21.65 Z-0.35 I0.95 J0
X56.2 Y21.65 Z-0.524 I-0.95 J0
X58.1 Y21.65 Z-0.699 I0.95 J0
X56.2 Y21.65 Z-0.874 I-0.95 J0
X58.1 Y21.65 Z-1.049 I0.95 J0
X56.2 Y21.65 Z-1.224 I-0.95 J0
X58.1 Y21.65 Z-1.399 I0.95 J0
X56.2 Y21.65 Z-1.573 I-0.95 J0
X58.1 Y21.65 Z-1.748 I0.95 J0
X56.2 Y21.65 Z-1.923 I-0.95 J0
X58.1 Y21.65 Z-2.098 I0.95 J0
X56.2 Y21.65 Z-2.273 I-0.95 J0
X58.1 Y21.65 Z-2.447 I0.95 J0
X56.2 Y21.65 Z-2.622 I-0.95 J0
X58.1 Y21.65 Z-2.797 I0.95 J0
X56.2 Y21.65 Z-2.972 I-0.95 J0
X58.1 Y21.65 Z-3.147 I0.95 J0
X56.2 Y21.65 Z-3.322 I-0.95 J0
X58.1 Y21.65 Z-3.496 I0.95 J0
X56.2 Y21.65 Z-3.671 I-0.95 J0
X58.1 Y21.65 Z-3.846 I0.95 J0
X56.2 Y21.65 Z-4.021 I-0.95 J0
X58.1 Y21.65 Z-4.196 I0.95 J0
X56.2 Y21.65 Z-4.37 I-0.95 J0
X58.1 Y21.65 Z-4.545 I0.95 J0
X56.2 Y21.65 Z-4.72 I-0.95 J0
X58.1 Y21.65 Z-4.895 I0.95 J0
X56.2 Y21.65 Z-5.07 I-0.95 J0
X58.1 Y21.65 Z-5.245 I0.95 J0
X56.2 Y21.65 Z-5.419 I-0.95 J0
X58.1 Y21.65 Z-5.594 I0.95 J0
X56.2 Y21.65 Z-5.769 I-0.95 J0
X58.1 Y21.65 Z-5.944 I0.95 J0
X56.2 Y21.65 Z-6.119 I-0.95 J0
X57.206 Y20.702 Z-6.209 I0.95 J0
X58.093 Y21.762 Z-6.3 I-0.056 J0.948
X56.207 Y21.538 I-0.943 J-0.112
X58.093 Y21.762 I0.943 J0.112
X57.749 Y22.033 I-0.308 J-0.037 F50
G1 X57.595 Y22.015
X57.526 Y22.007 Z-6.292
X57.461 Y21.999 Z-6.269
X57.403 Y21.992 Z-6.232
X57.354 Y21.986 Z-6.183
X57.318 Y21.982 Z-6.125
X57.295 Y21.979 Z-6.059
X57.287 Y21.978 Z-5.99
Z5 F250
X39.575 Y26.096
Z2
Z0.31 F50
G18 G2 X39.885 Z0 I0.31 K0
G1 X40.04
G17 G3 X40.35 Y26.406 I0 J0.31
X38.45 Y26.406 Z-0.175 I-0.95 J0 F250
X40.35 Y26.406 Z-0.35 I0.95 J0
X38.45 Y26.406 Z-0.524 I-0.95 J0
X40.35 Y26.406 Z-0.699 I0.95 J0
X38.45 Y26.406 Z-0.874 I-0.95 J0
X40.35 Y26.406 Z-1.049 I0.95 J0
X38.45 Y26.406 Z-1.224 I-0.95 J0
X40.35 Y26.406 Z-1.399 I0.95 J0
X38.45 Y26.406 Z-1.573 I-0.95 J0
X40.35 Y26.406 Z-1.748 I0.95 J0
X38.45 Y26.406 Z-1.923 I-0.95 J0
X40.35 Y26.406 Z-2.098 I0.95 J0
X38.45 Y26.406 Z-2.273 I-0.95 J0
X40.35 Y26.406 Z-2.447 I0.95 J0
X38.45 Y26.406 Z-2.622 I-0.95 J0
X40.35 Y26.406 Z-2.797 I0.95 J0
X38.45 Y26.406 Z-2.972 I-0.95 J0
X40.35 Y26.406 Z-3.147 I0.95 J0
X38.45 Y26.406 Z-3.322 I-0.95 J0
X40.35 Y26.406 Z-3.496 I0.95 J0
X38.45 Y26.406 Z-3.671 I-0.95 J0
X40.35 Y26.406 Z-3.846 I0.95 J0
X38.45 Y26.406 Z-4.021 I-0.95 J0
X40.35 Y26.406 Z-4.196 I0.95 J0
X38.45 Y26.406 Z-4.37 I-0.95 J0
X40.35 Y26.406 Z-4.545 I0.95 J0
X38.45 Y26.406 Z-4.72 I-0.95 J0
X40.35 Y26.406 Z-4.895 I0.95 J0
X38.45 Y26.406 Z-5.07 I-0.95 J0
X40.35 Y26.406 Z-5.245 I0.95 J0
X38.45 Y26.406 Z-5.419 I-0.95 J0
X40.35 Y26.406 Z-5.594 I0.95 J0
X38.45 Y26.406 Z-5.769 I-0.95 J0
X40.35 Y26.406 Z-5.944 I0.95 J0
X38.45 Y26.406 Z-6.119 I-0.95 J0
X39.456 Y25.458 Z-6.209 I0.95 J0
X40.343 Y26.518 Z-6.3 I-0.056 J0.948
X38.457 Y26.294 I-0.943 J-0.112
X40.343 Y26.518 I0.943 J0.112
X39.999 Y26.79 I-0.308 J-0.037 F50
G1 X39.845 Y26.771
X39.776 Y26.763 Z-6.292
X39.711 Y26.755 Z-6.269
X39.653 Y26.748 Z-6.232
X39.604 Y26.743 Z-6.183
X39.568 Y26.738 Z-6.125
X39.545 Y26.736 Z-6.059
X39.537 Y26.735 Z-5.99
Z5 F250
X26.581 Y39.09
Z2
Z0.31 F50
G18 G2 X26.891 Z0 I0.31 K0
G1 X27.046
G17 G3 X27.356 Y39.4 I0 J0.31
X25.456 Y39.4 Z-0.175 I-0.95 J0 F250
X27.356 Y39.4 Z-0.35 I0.95 J0
X25.456 Y39.4 Z-0.524 I-0.95 J0
X27.356 Y39.4 Z-0.699 I0.95 J0
X25.456 Y39.4 Z-0.874 I-0.95 J0
X27.356 Y39.4 Z-1.049 I0.95 J0
X25.456 Y39.4 Z-1.224 I-0.95 J0
X27.356 Y39.4 Z-1.399 I0.95 J0
X25.456 Y39.4 Z-1.573 I-0.95 J0
X27.356 Y39.4 Z-1.748 I0.95 J0
X25.456 Y39.4 Z-1.923 I-0.95 J0
X27.356 Y39.4 Z-2.098 I0.95 J0
X25.456 Y39.4 Z-2.273 I-0.95 J0
X27.356 Y39.4 Z-2.447 I0.95 J0
X25.456 Y39.4 Z-2.622 I-0.95 J0
X27.356 Y39.4 Z-2.797 I0.95 J0
X25.456 Y39.4 Z-2.972 I-0.95 J0
X27.356 Y39.4 Z-3.147 I0.95 J0
X25.456 Y39.4 Z-3.322 I-0.95 J0
X27.356 Y39.4 Z-3.496 I0.95 J0
X25.456 Y39.4 Z-3.671 I-0.95 J0
X27.356 Y39.4 Z-3.846 I0.95 J0
X25.456 Y39.4 Z-4.021 I-0.95 J0
X27.356 Y39.4 Z-4.196 I0.95 J0
X25.456 Y39.4 Z-4.37 I-0.95 J0
X27.356 Y39.4 Z-4.545 I0.95 J0
X25.456 Y39.4 Z-4.72 I-0.95 J0
X27.356 Y39.4 Z-4.895 I0.95 J0
X25.456 Y39.4 Z-5.07 I-0.95 J0
X27.356 Y39.4 Z-5.245 I0.95 J0
X25.456 Y39.4 Z-5.419 I-0.95 J0
X27.356 Y39.4 Z-5.594 I0.95 J0
X25.456 Y39.4 Z-5.769 I-0.95 J0
X27.356 Y39.4 Z-5.944 I0.95 J0
X25.456 Y39.4 Z-6.119 I-0.95 J0
X26.462 Y38.452 Z-6.209 I0.95 J0
X27.349 Y39.512 Z-6.3 I-0.056 J0.948
X25.463 Y39.288 I-0.943 J-0.112
X27.349 Y39.512 I0.943 J0.112
X27.005 Y39.783 I-0.308 J-0.037 F50
G1 X26.851 Y39.765
X26.783 Y39.757 Z-6.292
X26.718 Y39.749 Z-6.269
X26.659 Y39.742 Z-6.232
X26.61 Y39.736 Z-6.183
X26.574 Y39.732 Z-6.125
X26.551 Y39.729 Z-6.059
X26.543 Y39.728 Z-5.99
Z5 F250
X21.825 Y56.84
Z2
Z0.31 F50
G18 G2 X22.135 Z0 I0.31 K0
G1 X22.29
G17 G3 X22.6 Y57.15 I0 J0.31
X20.7 Y57.15 Z-0.175 I-0.95 J0 F250
X22.6 Y57.15 Z-0.35 I0.95 J0
X20.7 Y57.15 Z-0.524 I-0.95 J0
X22.6 Y57.15 Z-0.699 I0.95 J0
X20.7 Y57.15 Z-0.874 I-0.95 J0
X22.6 Y57.15 Z-1.049 I0.95 J0
X20.7 Y57.15 Z-1.224 I-0.95 J0
X22.6 Y57.15 Z-1.399 I0.95 J0
X20.7 Y57.15 Z-1.573 I-0.95 J0
X22.6 Y57.15 Z-1.748 I0.95 J0
X20.7 Y57.15 Z-1.923 I-0.95 J0
X22.6 Y57.15 Z-2.098 I0.95 J0
X20.7 Y57.15 Z-2.273 I-0.95 J0
X22.6 Y57.15 Z-2.447 I0.95 J0
X20.7 Y57.15 Z-2.622 I-0.95 J0
X22.6 Y57.15 Z-2.797 I0.95 J0
X20.7 Y57.15 Z-2.972 I-0.95 J0
X22.6 Y57.15 Z-3.147 I0.95 J0
X20.7 Y57.15 Z-3.322 I-0.95 J0
X22.6 Y57.15 Z-3.496 I0.95 J0
X20.7 Y57.15 Z-3.671 I-0.95 J0
X22.6 Y57.15 Z-3.846 I0.95 J0
X20.7 Y57.15 Z-4.021 I-0.95 J0
X22.6 Y57.15 Z-4.196 I0.95 J0
X20.7 Y57.15 Z-4.37 I-0.95 J0
X22.6 Y57.15 Z-4.545 I0.95 J0
X20.7 Y57.15 Z-4.72 I-0.95 J0
X22.6 Y57.15 Z-4.895 I0.95 J0
X20.7 Y57.15 Z-5.07 I-0.95 J0
X22.6 Y57.15 Z-5.245 I0.95 J0
X20.7 Y57.15 Z-5.419 I-0.95 J0
X22.6 Y57.15 Z-5.594 I0.95 J0
X20.7 Y57.15 Z-5.769 I-0.95 J0
X22.6 Y57.15 Z-5.944 I0.95 J0
X20.7 Y57.15 Z-6.119 I-0.95 J0
X21.706 Y56.202 Z-6.209 I0.95 J0
X22.593 Y57.262 Z-6.3 I-0.056 J0.948
X20.707 Y57.038 I-0.943 J-0.112
X22.593 Y57.262 I0.943 J0.112
X22.249 Y57.533 I-0.308 J-0.037 F50
G1 X22.095 Y57.515
X22.026 Y57.507 Z-6.292
X21.961 Y57.499 Z-6.269
X21.903 Y57.492 Z-6.232
X21.854 Y57.486 Z-6.183
X21.818 Y57.482 Z-6.125
X21.795 Y57.479 Z-6.059
X21.787 Y57.478 Z-5.99
Z5 F250
X26.581 Y74.59
Z2
Z0.31 F50
G18 G2 X26.891 Z0 I0.31 K0
G1 X27.046
G17 G3 X27.356 Y74.9 I0 J0.31
X25.456 Y74.9 Z-0.175 I-0.95 J0 F250
X27.356 Y74.9 Z-0.35 I0.95 J0
X25.456 Y74.9 Z-0.524 I-0.95 J0
X27.356 Y74.9 Z-0.699 I0.95 J0
X25.456 Y74.9 Z-0.874 I-0.95 J0
X27.356 Y74.9 Z-1.049 I0.95 J0
X25.456 Y74.9 Z-1.224 I-0.95 J0
X27.356 Y74.9 Z-1.399 I0.95 J0
X25.456 Y74.9 Z-1.573 I-0.95 J0
X27.356 Y74.9 Z-1.748 I0.95 J0
X25.456 Y74.9 Z-1.923 I-0.95 J0
X27.356 Y74.9 Z-2.098 I0.95 J0
X25.456 Y74.9 Z-2.273 I-0.95 J0
X27.356 Y74.9 Z-2.447 I0.95 J0
X25.456 Y74.9 Z-2.622 I-0.95 J0
X27.356 Y74.9 Z-2.797 I0.95 J0
X25.456 Y74.9 Z-2.972 I-0.95 J0
X27.356 Y74.9 Z-3.147 I0.95 J0
X25.456 Y74.9 Z-3.322 I-0.95 J0
X27.356 Y74.9 Z-3.496 I0.95 J0
X25.456 Y74.9 Z-3.671 I-0.95 J0
X27.356 Y74.9 Z-3.846 I0.95 J0
X25.456 Y74.9 Z-4.021 I-0.95 J0
X27.356 Y74.9 Z-4.196 I0.95 J0
X25.456 Y74.9 Z-4.37 I-0.95 J0
X27.356 Y74.9 Z-4.545 I0.95 J0
X25.456 Y74.9 Z-4.72 I-0.95 J0
X27.356 Y74.9 Z-4.895 I0.95 J0
X25.456 Y74.9 Z-5.07 I-0.95 J0
X27.356 Y74.9 Z-5.245 I0.95 J0
X25.456 Y74.9 Z-5.419 I-0.95 J0
X27.356 Y74.9 Z-5.594 I0.95 J0
X25.456 Y74.9 Z-5.769 I-0.95 J0
X27.356 Y74.9 Z-5.944 I0.95 J0
X25.456 Y74.9 Z-6.119 I-0.95 J0
X26.462 Y73.952 Z-6.209 I0.95 J0
X27.349 Y75.012 Z-6.3 I-0.056 J0.948
X25.463 Y74.788 I-0.943 J-0.112
X27.349 Y75.012 I0.943 J0.112
X27.005 Y75.283 I-0.308 J-0.037 F50
G1 X26.851 Y75.265
X26.783 Y75.257 Z-6.292
X26.718 Y75.249 Z-6.269
X26.659 Y75.242 Z-6.232
X26.61 Y75.236 Z-6.183
X26.574 Y75.232 Z-6.125
X26.551 Y75.229 Z-6.059
X26.543 Z-5.99
Z5 F250
X39.575 Y87.584
Z2
Z0.31 F50
G18 G2 X39.885 Z0 I0.31 K0
G1 X40.04
G17 G3 X40.35 Y87.894 I0 J0.31
X38.45 Y87.894 Z-0.175 I-0.95 J0 F250
X40.35 Y87.894 Z-0.35 I0.95 J0
X38.45 Y87.894 Z-0.524 I-0.95 J0
X40.35 Y87.894 Z-0.699 I0.95 J0
X38.45 Y87.894 Z-0.874 I-0.95 J0
X40.35 Y87.894 Z-1.049 I0.95 J0
X38.45 Y87.894 Z-1.224 I-0.95 J0
X40.35 Y87.894 Z-1.399 I0.95 J0
X38.45 Y87.894 Z-1.573 I-0.95 J0
X40.35 Y87.894 Z-1.748 I0.95 J0
X38.45 Y87.894 Z-1.923 I-0.95 J0
X40.35 Y87.894 Z-2.098 I0.95 J0
X38.45 Y87.894 Z-2.273 I-0.95 J0
X40.35 Y87.894 Z-2.447 I0.95 J0
X38.45 Y87.894 Z-2.622 I-0.95 J0
X40.35 Y87.894 Z-2.797 I0.95 J0
X38.45 Y87.894 Z-2.972 I-0.95 J0
X40.35 Y87.894 Z-3.147 I0.95 J0
X38.45 Y87.894 Z-3.322 I-0.95 J0
X40.35 Y87.894 Z-3.496 I0.95 J0
X38.45 Y87.894 Z-3.671 I-0.95 J0
X40.35 Y87.894 Z-3.846 I0.95 J0
X38.45 Y87.894 Z-4.021 I-0.95 J0
X40.35 Y87.894 Z-4.196 I0.95 J0
X38.45 Y87.894 Z-4.37 I-0.95 J0
X40.35 Y87.894 Z-4.545 I0.95 J0
X38.45 Y87.894 Z-4.72 I-0.95 J0
X40.35 Y87.894 Z-4.895 I0.95 J0
X38.45 Y87.894 Z-5.07 I-0.95 J0
X40.35 Y87.894 Z-5.245 I0.95 J0
X38.45 Y87.894 Z-5.419 I-0.95 J0
X40.35 Y87.894 Z-5.594 I0.95 J0
X38.45 Y87.894 Z-5.769 I-0.95 J0
X40.35 Y87.894 Z-5.944 I0.95 J0
X38.45 Y87.894 Z-6.119 I-0.95 J0
X39.456 Y86.946 Z-6.209 I0.95 J0
X40.343 Y88.006 Z-6.3 I-0.056 J0.948
X38.457 Y87.782 I-0.943 J-0.112
X40.343 Y88.006 I0.943 J0.112
X39.999 Y88.277 I-0.308 J-0.037 F50
G1 X39.845 Y88.259
X39.776 Y88.251 Z-6.292
X39.711 Y88.243 Z-6.269
X39.653 Y88.236 Z-6.232
X39.604 Y88.23 Z-6.183
X39.568 Y88.226 Z-6.125
X39.545 Y88.223 Z-6.059
X39.537 Y88.222 Z-5.99
Z5 F250
X57.325 Y92.34
Z2
Z0.31 F50
G18 G2 X57.635 Z0 I0.31 K0
G1 X57.79
G17 G3 X58.1 Y92.65 I0 J0.31
X56.2 Y92.65 Z-0.175 I-0.95 J0 F250
X58.1 Y92.65 Z-0.35 I0.95 J0
X56.2 Y92.65 Z-0.524 I-0.95 J0
X58.1 Y92.65 Z-0.699 I0.95 J0
X56.2 Y92.65 Z-0.874 I-0.95 J0
X58.1 Y92.65 Z-1.049 I0.95 J0
X56.2 Y92.65 Z-1.224 I-0.95 J0
X58.1 Y92.65 Z-1.399 I0.95 J0
X56.2 Y92.65 Z-1.573 I-0.95 J0
X58.1 Y92.65 Z-1.748 I0.95 J0
X56.2 Y92.65 Z-1.923 I-0.95 J0
X58.1 Y92.65 Z-2.098 I0.95 J0
X56.2 Y92.65 Z-2.273 I-0.95 J0
X58.1 Y92.65 Z-2.447 I0.95 J0
X56.2 Y92.65 Z-2.622 I-0.95 J0
X58.1 Y92.65 Z-2.797 I0.95 J0
X56.2 Y92.65 Z-2.972 I-0.95 J0
X58.1 Y92.65 Z-3.147 I0.95 J0
X56.2 Y92.65 Z-3.322 I-0.95 J0
X58.1 Y92.65 Z-3.496 I0.95 J0
X56.2 Y92.65 Z-3.671 I-0.95 J0
X58.1 Y92.65 Z-3.846 I0.95 J0
X56.2 Y92.65 Z-4.021 I-0.95 J0
X58.1 Y92.65 Z-4.196 I0.95 J0
X56.2 Y92.65 Z-4.37 I-0.95 J0
X58.1 Y92.65 Z-4.545 I0.95 J0
X56.2 Y92.65 Z-4.72 I-0.95 J0
X58.1 Y92.65 Z-4.895 I0.95 J0
X56.2 Y92.65 Z-5.07 I-0.95 J0
X58.1 Y92.65 Z-5.245 I0.95 J0
X56.2 Y92.65 Z-5.419 I-0.95 J0
X58.1 Y92.65 Z-5.594 I0.95 J0
X56.2 Y92.65 Z-5.769 I-0.95 J0
X58.1 Y92.65 Z-5.944 I0.95 J0
X56.2 Y92.65 Z-6.119 I-0.95 J0
X57.206 Y91.702 Z-6.209 I0.95 J0
X58.093 Y92.762 Z-6.3 I-0.056 J0.948
X56.207 Y92.538 I-0.943 J-0.112
X58.093 Y92.762 I0.943 J0.112
X57.749 Y93.033 I-0.308 J-0.037 F50
G1 X57.595 Y93.015
X57.526 Y93.007 Z-6.292
X57.461 Y92.999 Z-6.269
X57.403 Y92.992 Z-6.232
X57.354 Y92.986 Z-6.183
X57.318 Y92.982 Z-6.125
X57.295 Y92.979 Z-6.059
X57.287 Z-5.99
Z5 F250
X75.075 Y87.584
Z2
Z0.31 F50
G18 G2 X75.385 Z0 I0.31 K0
G1 X75.54
G17 G3 X75.85 Y87.894 I0 J0.31
X73.95 Y87.894 Z-0.175 I-0.95 J0 F250
X75.85 Y87.894 Z-0.35 I0.95 J0
X73.95 Y87.894 Z-0.524 I-0.95 J0
X75.85 Y87.894 Z-0.699 I0.95 J0
X73.95 Y87.894 Z-0.874 I-0.95 J0
X75.85 Y87.894 Z-1.049 I0.95 J0
X73.95 Y87.894 Z-1.224 I-0.95 J0
X75.85 Y87.894 Z-1.399 I0.95 J0
X73.95 Y87.894 Z-1.573 I-0.95 J0
X75.85 Y87.894 Z-1.748 I0.95 J0
X73.95 Y87.894 Z-1.923 I-0.95 J0
X75.85 Y87.894 Z-2.098 I0.95 J0
X73.95 Y87.894 Z-2.273 I-0.95 J0
X75.85 Y87.894 Z-2.447 I0.95 J0
X73.95 Y87.894 Z-2.622 I-0.95 J0
X75.85 Y87.894 Z-2.797 I0.95 J0
X73.95 Y87.894 Z-2.972 I-0.95 J0
X75.85 Y87.894 Z-3.147 I0.95 J0
X73.95 Y87.894 Z-3.322 I-0.95 J0
X75.85 Y87.894 Z-3.496 I0.95 J0
X73.95 Y87.894 Z-3.671 I-0.95 J0
X75.85 Y87.894 Z-3.846 I0.95 J0
X73.95 Y87.894 Z-4.021 I-0.95 J0
X75.85 Y87.894 Z-4.196 I0.95 J0
X73.95 Y87.894 Z-4.37 I-0.95 J0
X75.85 Y87.894 Z-4.545 I0.95 J0
X73.95 Y87.894 Z-4.72 I-0.95 J0
X75.85 Y87.894 Z-4.895 I0.95 J0
X73.95 Y87.894 Z-5.07 I-0.95 J0
X75.85 Y87.894 Z-5.245 I0.95 J0
X73.95 Y87.894 Z-5.419 I-0.95 J0
X75.85 Y87.894 Z-5.594 I0.95 J0
X73.95 Y87.894 Z-5.769 I-0.95 J0
X75.85 Y87.894 Z-5.944 I0.95 J0
X73.95 Y87.894 Z-6.119 I-0.95 J0
X74.956 Y86.946 Z-6.209 I0.95 J0
X75.843 Y88.006 Z-6.3 I-0.056 J0.948
X73.957 Y87.782 I-0.943 J-0.112
X75.843 Y88.006 I0.943 J0.112
X75.499 Y88.277 I-0.308 J-0.037 F50
G1 X75.345 Y88.259
X75.276 Y88.251 Z-6.292
X75.211 Y88.243 Z-6.269
X75.153 Y88.236 Z-6.232
X75.104 Y88.23 Z-6.183
X75.068 Y88.226 Z-6.125
X75.045 Y88.223 Z-6.059
X75.037 Y88.222 Z-5.99
Z5 F250
X88.069 Y74.59
Z2
Z0.31 F50
G18 G2 X88.379 Z0 I0.31 K0
G1 X88.534
G17 G3 X88.844 Y74.9 I0 J0.31
X86.944 Y74.9 Z-0.175 I-0.95 J0 F250
X88.844 Y74.9 Z-0.35 I0.95 J0
X86.944 Y74.9 Z-0.524 I-0.95 J0
X88.844 Y74.9 Z-0.699 I0.95 J0
X86.944 Y74.9 Z-0.874 I-0.95 J0
X88.844 Y74.9 Z-1.049 I0.95 J0
X86.944 Y74.9 Z-1.224 I-0.95 J0
X88.844 Y74.9 Z-1.399 I0.95 J0
X86.944 Y74.9 Z-1.573 I-0.95 J0
X88.844 Y74.9 Z-1.748 I0.95 J0
X86.944 Y74.9 Z-1.923 I-0.95 J0
X88.844 Y74.9 Z-2.098 I0.95 J0
X86.944 Y74.9 Z-2.273 I-0.95 J0
X88.844 Y74.9 Z-2.447 I0.95 J0
X86.944 Y74.9 Z-2.622 I-0.95 J0
X88.844 Y74.9 Z-2.797 I0.95 J0
X86.944 Y74.9 Z-2.972 I-0.95 J0
X88.844 Y74.9 Z-3.147 I0.95 J0
X86.944 Y74.9 Z-3.322 I-0.95 J0
X88.844 Y74.9 Z-3.496 I0.95 J0
X86.944 Y74.9 Z-3.671 I-0.95 J0
X88.844 Y74.9 Z-3.846 I0.95 J0
X86.944 Y74.9 Z-4.021 I-0.95 J0
X88.844 Y74.9 Z-4.196 I0.95 J0
X86.944 Y74.9 Z-4.37 I-0.95 J0
X88.844 Y74.9 Z-4.545 I0.95 J0
X86.944 Y74.9 Z-4.72 I-0.95 J0
X88.844 Y74.9 Z-4.895 I0.95 J0
X86.944 Y74.9 Z-5.07 I-0.95 J0
X88.844 Y74.9 Z-5.245 I0.95 J0
X86.944 Y74.9 Z-5.419 I-0.95 J0
X88.844 Y74.9 Z-5.594 I0.95 J0
X86.944 Y74.9 Z-5.769 I-0.95 J0
X88.844 Y74.9 Z-5.944 I0.95 J0
X86.944 Y74.9 Z-6.119 I-0.95 J0
X87.95 Y73.952 Z-6.209 I0.95 J0
X88.837 Y75.012 Z-6.3 I-0.056 J0.948
X86.951 Y74.788 I-0.943 J-0.112
X88.837 Y75.012 I0.943 J0.112
X88.493 Y75.283 I-0.308 J-0.037 F50
G1 X88.339 Y75.265
X88.27 Y75.257 Z-6.292
X88.205 Y75.249 Z-6.269
X88.147 Y75.242 Z-6.232
X88.098 Y75.236 Z-6.183
X88.062 Y75.232 Z-6.125
X88.039 Y75.229 Z-6.059
X88.031 Z-5.99
Z15 F250
(When using Fusion for Personal Use, the feedrate of rapid)
(moves is reduced to match the feedrate of cutting moves,)
(which can increase machining time. Unrestricted rapid moves)
(are available with a Fusion Subscription.)

(Bore6)
G0 X8 Y106.3
G1 Z15 F250
Z1.69
Z0 F50
X7.975 Y106.325
X7.957 Y106.318
X7.95 Y106.3
X7.958 Y106.273 Z-0.02 F250
X7.979 Y106.255 Z-0.04
X8.006 Y106.25 Z-0.061
X8.032 Y106.262 Z-0.081
X8.048 Y106.285 Z-0.101
Y106.313 Z-0.121
X8.034 Y106.337 Z-0.141
X8.009 Y106.349 Z-0.162
X7.981 Y106.346 Z-0.182
X7.959 Y106.329 Z-0.202
X7.95 Y106.302 Z-0.222
X7.957 Y106.275 Z-0.242
X7.977 Y106.256 Z-0.263
X8.004 Y106.25 Z-0.283
X8.03 Y106.26 Z-0.303
X8.047 Y106.283 Z-0.323
X8.049 Y106.311 Z-0.343
X8.036 Y106.335 Z-0.363
X8.011 Y106.349 Z-0.384
X7.983 Y106.347 Z-0.404
X7.96 Y106.331 Z-0.424
X7.95 Y106.305 Z-0.444
X7.956 Y106.277 Z-0.464
X7.975 Y106.257 Z-0.485
X8.002 Y106.25 Z-0.505
X8.028 Y106.259 Z-0.525
X8.046 Y106.281 Z-0.545
X8.049 Y106.308 Z-0.565
X8.037 Y106.334 Z-0.586
X8.013 Y106.348 Z-0.606
X7.985 Z-0.626
X7.962 Y106.332 Z-0.646
X7.95 Y106.307 Z-0.666
X7.955 Y106.279 Z-0.687
X7.973 Y106.258 Z-0.707
X8 Y106.25 Z-0.727
X8.026 Y106.258 Z-0.747
X8.045 Y106.278 Z-0.767
X8.05 Y106.306 Z-0.788
X8.039 Y106.332 Z-0.808
X8.016 Y106.348 Z-0.828
X7.988 Z-0.848
X7.963 Y106.334 Z-0.868
X7.951 Y106.309 Z-0.888
X7.954 Y106.281 Z-0.909
X7.971 Y106.259 Z-0.929
X7.997 Y106.25 Z-0.949
X8.024 Y106.256 Z-0.969
X8.044 Y106.276 Z-0.989
X8.05 Y106.304 Z-1.01
X8.04 Y106.33 Z-1.03
X8.018 Y106.347 Z-1.05
X7.99 Y106.349 Z-1.07
X7.965 Y106.336 Z-1.09
X7.951 Y106.311 Z-1.111
X7.953 Y106.284 Z-1.131
X7.969 Y106.261 Z-1.151
X7.995 Y106.25 Z-1.171
X8.022 Y106.255 Z-1.191
X8.043 Y106.274 Z-1.212
X8.05 Y106.301 Z-1.232
X8.041 Y106.328 Z-1.252
X8.02 Y106.346 Z-1.272
X7.992 Y106.349 Z-1.292
X7.967 Y106.337 Z-1.313
X7.952 Y106.314 Z-1.333
Y106.286 Z-1.353
X7.967 Y106.262 Z-1.373
X7.993 Y106.251 Z-1.393
X8.02 Y106.254 Z-1.413
X8.042 Y106.272 Z-1.434
X8.05 Y106.299 Z-1.454
X8.043 Y106.326 Z-1.474
X8.022 Y106.345 Z-1.494
X7.994 Y106.35 Z-1.514
X7.969 Y106.339 Z-1.535
X7.953 Y106.316 Z-1.555
X7.951 Y106.288 Z-1.575
X7.966 Y106.264 Z-1.595
X7.99 Y106.251 Z-1.615
X8.018 Y106.253 Z-1.636
X8.04 Y106.271 Z-1.656
X8.05 Y106.297 Z-1.676
X8.044 Y106.324 Z-1.696
X8.024 Y106.344 Z-1.716
X7.997 Y106.35 Z-1.737
X7.97 Y106.34 Z-1.757
X7.953 Y106.318 Z-1.777
X7.951 Y106.29 Z-1.797
X7.964 Y106.265 Z-1.817
X7.988 Y106.251 Z-1.838
X8.016 Y106.253 Z-1.858
X8.039 Y106.269 Z-1.878
X8.05 Y106.294 Z-1.898
X8.045 Y106.322 Z-1.918
X8.026 Y106.343 Z-1.938
X7.999 Y106.35 Z-1.959
X7.972 Y106.342 Z-1.979
X7.954 Y106.32 Z-1.999
X7.951 Y106.293 Z-2.019
X7.962 Y106.267 Z-2.039
X7.986 Y106.252 Z-2.06
X8.014 Z-2.08
X8.037 Y106.267 Z-2.1
X8.049 Y106.292 Z-2.12
X8.046 Y106.32 Z-2.14
X8.028 Y106.341 Z-2.161
X8.001 Y106.35 Z-2.181
X7.974 Y106.343 Z-2.201
X7.955 Y106.322 Z-2.221
X7.95 Y106.295 Z-2.241
X7.961 Y106.269 Z-2.262
X7.984 Y106.253 Z-2.282
X8.012 Y106.251 Z-2.302
X8.036 Y106.265 Z-2.322
X8.049 Y106.29 Z-2.342
X8.047 Y106.318 Z-2.363
X8.03 Y106.34 Z-2.383
X8.004 Y106.35 Z-2.403
X7.976 Y106.344 Z-2.423
X7.956 Y106.324 Z-2.443
X7.95 Y106.297 Z-2.463
X7.959 Y106.271 Z-2.484
X7.981 Y106.254 Z-2.504
X8.009 Y106.251 Z-2.524
X8.034 Y106.264 Z-2.544
X8.048 Y106.288 Z-2.564
Y106.316 Z-2.585
X8.032 Y106.339 Z-2.605
X8.006 Y106.35 Z-2.625
X7.978 Y106.345 Z-2.645
X7.958 Y106.326 Z-2.665
X7.95 Y106.299 Z-2.686
X7.958 Y106.273 Z-2.706
X7.979 Y106.254 Z-2.726
X8.007 Y106.25 Z-2.746
X8.033 Y106.262 Z-2.766
X8.048 Y106.285 Z-2.787
Y106.313 Z-2.807
X8.033 Y106.337 Z-2.827
X8.008 Y106.349 Z-2.847
X7.98 Y106.346 Z-2.867
X7.959 Y106.328 Z-2.888
X7.95 Y106.302 Z-2.908
X7.957 Y106.275 Z-2.928
X7.977 Y106.255 Z-2.948
X8.005 Y106.25 Z-2.968
X8.031 Y106.261 Z-2.988
X8.047 Y106.283 Z-3.009
X8.049 Y106.311 Z-3.029
X8.035 Y106.336 Z-3.049
X8.011 Y106.349 Z-3.069
X7.983 Y106.347 Z-3.089
X7.96 Y106.33 Z-3.11
X7.95 Y106.304 Z-3.13
X7.956 Y106.277 Z-3.15
X7.975 Y106.257 Z-3.17
X8.002 Y106.25 Z-3.19
X8.029 Y106.259 Z-3.211
X8.046 Y106.281 Z-3.231
X8.049 Y106.309 Z-3.251
X8.037 Y106.334 Z-3.271
X8.013 Y106.348 Z-3.291
X7.985 Z-3.312
X7.962 Y106.332 Z-3.332
X7.95 Y106.306 Z-3.352
X7.955 Y106.279 Z-3.372
X7.973 Y106.258 Z-3.392
X8 Y106.25 Z-3.413
X8.027 Y106.258 Z-3.433
X8.045 Y106.279 Z-3.453
X8.05 Y106.307 Z-3.473
X8.038 Y106.332 Z-3.493
X8.015 Y106.348 Z-3.513
X7.987 Z-3.534
X7.963 Y106.334 Z-3.554
X7.951 Y106.309 Z-3.574
X7.954 Y106.281 Z-3.594
X7.971 Y106.259 Z-3.614
X7.998 Y106.25 Z-3.635
X8.025 Y106.257 Z-3.655
X8.044 Y106.277 Z-3.675
X8.05 Y106.304 Z-3.695
X8.04 Y106.33 Z-3.715
X8.017 Y106.347 Z-3.736
X7.989 Y106.349 Z-3.756
X7.965 Y106.335 Z-3.776
X7.951 Y106.311 Z-3.796
X7.953 Y106.283 Z-3.816
X7.969 Y106.26 Z-3.837
X7.995 Y106.25 Z-3.857
X8.023 Y106.256 Z-3.877
X8.043 Y106.275 Z-3.897
X8.05 Y106.302 Z-3.917
X8.041 Y106.329 Z-3.938
X8.019 Y106.346 Z-3.958
X7.992 Y106.349 Z-3.978
X7.966 Y106.337 Z-3.998
X7.952 Y106.313 Z-4.018
Y106.285 Z-4.038
X7.968 Y106.262 Z-4.059
X7.993 Y106.25 Z-4.079
X8.021 Y106.255 Z-4.099
X8.042 Y106.273 Z-4.119
X8.05 Y106.3 Z-4.139
X8.042 Y106.327 Z-4.16
X8.021 Y106.345 Z-4.18
X7.994 Y106.35 Z-4.2
X7.968 Y106.339 Z-4.22
X7.952 Y106.315 Z-4.24
Y106.287 Z-4.261
X7.966 Y106.263 Z-4.281
X7.991 Y106.251 Z-4.301
X8.019 Y106.254 Z-4.321
X8.041 Y106.271 Z-4.341
X8.05 Y106.297 Z-4.362
X8.044 Y106.325 Z-4.382
X8.024 Y106.344 Z-4.402
X7.996 Y106.35 Z-4.422
X7.97 Y106.34 Z-4.442
X7.953 Y106.318 Z-4.463
X7.951 Y106.29 Z-4.483
X7.964 Y106.265 Z-4.503
X7.989 Y106.251 Z-4.523
X8.017 Y106.253 Z-4.543
X8.039 Y106.269 Z-4.563
X8.05 Y106.295 Z-4.584
X8.045 Y106.323 Z-4.604
X8.026 Y106.343 Z-4.624
X7.998 Y106.35 Z-4.644
X7.972 Y106.341 Z-4.664
X7.954 Y106.32 Z-4.685
X7.951 Y106.292 Z-4.705
X7.963 Y106.267 Z-4.725
X7.986 Y106.252 Z-4.745
X8.014 Z-4.765
X8.038 Y106.267 Z-4.786
X8.049 Y106.293 Z-4.806
X8.046 Y106.32 Z-4.826
X8.028 Y106.342 Z-4.846
X8.001 Y106.35 Z-4.866
X7.974 Y106.343 Z-4.887
X7.955 Y106.322 Z-4.907
X7.95 Y106.294 Z-4.927
X7.961 Y106.269 Z-4.947
X7.984 Y106.253 Z-4.967
X8.012 Y106.251 Z-4.988
X8.036 Y106.266 Z-5.008
X8.049 Y106.29 Z-5.028
X8.047 Y106.318 Z-5.048
X8.029 Y106.34 Z-5.068
X8.003 Y106.35 Z-5.088
X7.976 Y106.344 Z-5.109
X7.956 Y106.324 Z-5.129
X7.95 Y106.297 Z-5.149
X7.96 Y106.27 Z-5.169
X7.982 Y106.253 Z-5.189
X8.01 Y106.251 Z-5.21
X8.035 Y106.264 Z-5.23
X8.049 Y106.288 Z-5.25
X8.047 Y106.316 Z-5.27
X8.031 Y106.339 Z-5.29
X8.005 Y106.35 Z-5.311
X7.978 Y106.345 Z-5.331
X7.957 Y106.326 Z-5.351
X7.95 Y106.299 Z-5.371
X7.958 Y106.272 Z-5.391
X7.98 Y106.254 Z-5.412
X8.008 Y106.251 Z-5.432
X8.033 Y106.262 Z-5.452
X8.048 Y106.286 Z-5.472
Y106.314 Z-5.492
X8.033 Y106.338 Z-5.513
X8.008 Y106.349 Z-5.533
X7.98 Y106.346 Z-5.553
X7.958 Y106.328 Z-5.573
X7.95 Y106.301 Z-5.593
X7.957 Y106.274 Z-5.613
X7.978 Y106.255 Z-5.634
X8.005 Y106.25 Z-5.654
X8.031 Y106.261 Z-5.674
X8.047 Y106.284 Z-5.694
X8.049 Y106.312 Z-5.714
X8.035 Y106.336 Z-5.735
X8.01 Y106.349 Z-5.755
X7.982 Y106.347 Z-5.775
X7.96 Y106.33 Z-5.795
X7.95 Y106.304 Z-5.815
X7.956 Y106.276 Z-5.836
X7.976 Y106.256 Z-5.856
X8.003 Y106.25 Z-5.876
X8.029 Y106.259 Z-5.896
X8.046 Y106.282 Z-5.916
X8.049 Y106.309 Z-5.937
X8.036 Y106.334 Z-5.957
X8.012 Y106.348 Z-5.977
X7.984 Y106.347 Z-5.997
X7.961 Y106.332 Z-6.017
X7.95 Y106.306 Z-6.038
X7.955 Y106.278 Z-6.058
X7.974 Y106.257 Z-6.078
X8.001 Y106.25 Z-6.098
X8.027 Y106.258 Z-6.118
X8.046 Y106.279 Z-6.138
X8.049 Y106.307 Z-6.159
X8.038 Y106.333 Z-6.179
X8.014 Y106.348 Z-6.199
X7.987 Z-6.219
X7.963 Y106.333 Z-6.239
X7.951 Y106.308 Z-6.26
X7.954 Y106.28 Z-6.28
X7.972 Y106.259 Z-6.3
G3 X8.028 Y106.341 I0.028 J0.041
X7.972 Y106.259 I-0.028 J-0.041
G1 X7.99 Y106.255 F50
X8.007 Y106.265
X8 Y106.3
Z5 F250
X98
Z1.69
Z0 F50
X97.975 Y106.325
X97.957 Y106.318
X97.95 Y106.3
X97.958 Y106.273 Z-0.02 F250
X97.979 Y106.255 Z-0.04
X98.006 Y106.25 Z-0.061
X98.032 Y106.262 Z-0.081
X98.048 Y106.285 Z-0.101
Y106.313 Z-0.121
X98.034 Y106.337 Z-0.141
X98.009 Y106.349 Z-0.162
X97.981 Y106.346 Z-0.182
X97.959 Y106.329 Z-0.202
X97.95 Y106.302 Z-0.222
X97.957 Y106.275 Z-0.242
X97.977 Y106.256 Z-0.263
X98.004 Y106.25 Z-0.283
X98.03 Y106.26 Z-0.303
X98.047 Y106.283 Z-0.323
X98.049 Y106.311 Z-0.343
X98.036 Y106.335 Z-0.363
X98.011 Y106.349 Z-0.384
X97.983 Y106.347 Z-0.404
X97.96 Y106.331 Z-0.424
X97.95 Y106.305 Z-0.444
X97.956 Y106.277 Z-0.464
X97.975 Y106.257 Z-0.485
X98.002 Y106.25 Z-0.505
X98.028 Y106.259 Z-0.525
X98.046 Y106.281 Z-0.545
X98.049 Y106.308 Z-0.565
X98.037 Y106.334 Z-0.586
X98.013 Y106.348 Z-0.606
X97.985 Z-0.626
X97.962 Y106.332 Z-0.646
X97.95 Y106.307 Z-0.666
X97.955 Y106.279 Z-0.687
X97.973 Y106.258 Z-0.707
X98 Y106.25 Z-0.727
X98.026 Y106.258 Z-0.747
X98.045 Y106.278 Z-0.767
X98.05 Y106.306 Z-0.788
X98.039 Y106.332 Z-0.808
X98.016 Y106.348 Z-0.828
X97.988 Z-0.848
X97.963 Y106.334 Z-0.868
X97.951 Y106.309 Z-0.888
X97.954 Y106.281 Z-0.909
X97.971 Y106.259 Z-0.929
X97.997 Y106.25 Z-0.949
X98.024 Y106.256 Z-0.969
X98.044 Y106.276 Z-0.989
X98.05 Y106.304 Z-1.01
X98.04 Y106.33 Z-1.03
X98.018 Y106.347 Z-1.05
X97.99 Y106.349 Z-1.07
X97.965 Y106.336 Z-1.09
X97.951 Y106.311 Z-1.111
X97.953 Y106.284 Z-1.131
X97.969 Y106.261 Z-1.151
X97.995 Y106.25 Z-1.171
X98.022 Y106.255 Z-1.191
X98.043 Y106.274 Z-1.212
X98.05 Y106.301 Z-1.232
X98.041 Y106.328 Z-1.252
X98.02 Y106.346 Z-1.272
X97.992 Y106.349 Z-1.292
X97.967 Y106.337 Z-1.313
X97.952 Y106.314 Z-1.333
Y106.286 Z-1.353
X97.967 Y106.262 Z-1.373
X97.993 Y106.251 Z-1.393
X98.02 Y106.254 Z-1.413
X98.042 Y106.272 Z-1.434
X98.05 Y106.299 Z-1.454
X98.043 Y106.326 Z-1.474
X98.022 Y106.345 Z-1.494
X97.994 Y106.35 Z-1.514
X97.969 Y106.339 Z-1.535
X97.953 Y106.316 Z-1.555
X97.951 Y106.288 Z-1.575
X97.966 Y106.264 Z-1.595
X97.99 Y106.251 Z-1.615
X98.018 Y106.253 Z-1.636
X98.04 Y106.271 Z-1.656
X98.05 Y106.297 Z-1.676
X98.044 Y106.324 Z-1.696
X98.024 Y106.344 Z-1.716
X97.997 Y106.35 Z-1.737
X97.97 Y106.34 Z-1.757
X97.953 Y106.318 Z-1.777
X97.951 Y106.29 Z-1.797
X97.964 Y106.265 Z-1.817
X97.988 Y106.251 Z-1.838
X98.016 Y106.253 Z-1.858
X98.039 Y106.269 Z-1.878
X98.05 Y106.294 Z-1.898
X98.045 Y106.322 Z-1.918
X98.026 Y106.343 Z-1.938
X97.999 Y106.35 Z-1.959
X97.972 Y106.342 Z-1.979
X97.954 Y106.32 Z-1.999
X97.951 Y106.293 Z-2.019
X97.962 Y106.267 Z-2.039
X97.986 Y106.252 Z-2.06
X98.014 Z-2.08
X98.037 Y106.267 Z-2.1
X98.049 Y106.292 Z-2.12
X98.046 Y106.32 Z-2.14
X98.028 Y106.341 Z-2.161
X98.001 Y106.35 Z-2.181
X97.974 Y106.343 Z-2.201
X97.955 Y106.322 Z-2.221
X97.95 Y106.295 Z-2.241
X97.961 Y106.269 Z-2.262
X97.984 Y106.253 Z-2.282
X98.012 Y106.251 Z-2.302
X98.036 Y106.265 Z-2.322
X98.049 Y106.29 Z-2.342
X98.047 Y106.318 Z-2.363
X98.03 Y106.34 Z-2.383
X98.004 Y106.35 Z-2.403
X97.976 Y106.344 Z-2.423
X97.956 Y106.324 Z-2.443
X97.95 Y106.297 Z-2.463
X97.959 Y106.271 Z-2.484
X97.981 Y106.254 Z-2.504
X98.009 Y106.251 Z-2.524
X98.034 Y106.264 Z-2.544
X98.048 Y106.288 Z-2.564
Y106.316 Z-2.585
X98.032 Y106.339 Z-2.605
X98.006 Y106.35 Z-2.625
X97.978 Y106.345 Z-2.645
X97.958 Y106.326 Z-2.665
X97.95 Y106.299 Z-2.686
X97.958 Y106.273 Z-2.706
X97.979 Y106.254 Z-2.726
X98.007 Y106.25 Z-2.746
X98.033 Y106.262 Z-2.766
X98.048 Y106.285 Z-2.787
Y106.313 Z-2.807
X98.033 Y106.337 Z-2.827
X98.008 Y106.349 Z-2.847
X97.98 Y106.346 Z-2.867
X97.959 Y106.328 Z-2.888
X97.95 Y106.302 Z-2.908
X97.957 Y106.275 Z-2.928
X97.977 Y106.255 Z-2.948
X98.005 Y106.25 Z-2.968
X98.031 Y106.261 Z-2.988
X98.047 Y106.283 Z-3.009
X98.049 Y106.311 Z-3.029
X98.035 Y106.336 Z-3.049
X98.011 Y106.349 Z-3.069
X97.983 Y106.347 Z-3.089
X97.96 Y106.33 Z-3.11
X97.95 Y106.304 Z-3.13
X97.956 Y106.277 Z-3.15
X97.975 Y106.257 Z-3.17
X98.002 Y106.25 Z-3.19
X98.029 Y106.259 Z-3.211
X98.046 Y106.281 Z-3.231
X98.049 Y106.309 Z-3.251
X98.037 Y106.334 Z-3.271
X98.013 Y106.348 Z-3.291
X97.985 Z-3.312
X97.962 Y106.332 Z-3.332
X97.95 Y106.306 Z-3.352
X97.955 Y106.279 Z-3.372
X97.973 Y106.258 Z-3.392
X98 Y106.25 Z-3.413
X98.027 Y106.258 Z-3.433
X98.045 Y106.279 Z-3.453
X98.05 Y106.307 Z-3.473
X98.038 Y106.332 Z-3.493
X98.015 Y106.348 Z-3.513
X97.987 Z-3.534
X97.963 Y106.334 Z-3.554
X97.951 Y106.309 Z-3.574
X97.954 Y106.281 Z-3.594
X97.971 Y106.259 Z-3.614
X97.998 Y106.25 Z-3.635
X98.025 Y106.257 Z-3.655
X98.044 Y106.277 Z-3.675
X98.05 Y106.304 Z-3.695
X98.04 Y106.33 Z-3.715
X98.017 Y106.347 Z-3.736
X97.989 Y106.349 Z-3.756
X97.965 Y106.335 Z-3.776
X97.951 Y106.311 Z-3.796
X97.953 Y106.283 Z-3.816
X97.969 Y106.26 Z-3.837
X97.995 Y106.25 Z-3.857
X98.023 Y106.256 Z-3.877
X98.043 Y106.275 Z-3.897
X98.05 Y106.302 Z-3.917
X98.041 Y106.329 Z-3.938
X98.019 Y106.346 Z-3.958
X97.992 Y106.349 Z-3.978
X97.966 Y106.337 Z-3.998
X97.952 Y106.313 Z-4.018
Y106.285 Z-4.038
X97.968 Y106.262 Z-4.059
X97.993 Y106.25 Z-4.079
X98.021 Y106.255 Z-4.099
X98.042 Y106.273 Z-4.119
X98.05 Y106.3 Z-4.139
X98.042 Y106.327 Z-4.16
X98.021 Y106.345 Z-4.18
X97.994 Y106.35 Z-4.2
X97.968 Y106.339 Z-4.22
X97.952 Y106.315 Z-4.24
Y106.287 Z-4.261
X97.966 Y106.263 Z-4.281
X97.991 Y106.251 Z-4.301
X98.019 Y106.254 Z-4.321
X98.041 Y106.271 Z-4.341
X98.05 Y106.297 Z-4.362
X98.044 Y106.325 Z-4.382
X98.024 Y106.344 Z-4.402
X97.996 Y106.35 Z-4.422
X97.97 Y106.34 Z-4.442
X97.953 Y106.318 Z-4.463
X97.951 Y106.29 Z-4.483
X97.964 Y106.265 Z-4.503
X97.989 Y106.251 Z-4.523
X98.017 Y106.253 Z-4.543
X98.039 Y106.269 Z-4.563
X98.05 Y106.295 Z-4.584
X98.045 Y106.323 Z-4.604
X98.026 Y106.343 Z-4.624
X97.998 Y106.35 Z-4.644
X97.972 Y106.341 Z-4.664
X97.954 Y106.32 Z-4.685
X97.951 Y106.292 Z-4.705
X97.963 Y106.267 Z-4.725
X97.986 Y106.252 Z-4.745
X98.014 Z-4.765
X98.038 Y106.267 Z-4.786
X98.049 Y106.293 Z-4.806
X98.046 Y106.32 Z-4.826
X98.028 Y106.342 Z-4.846
X98.001 Y106.35 Z-4.866
X97.974 Y106.343 Z-4.887
X97.955 Y106.322 Z-4.907
X97.95 Y106.294 Z-4.927
X97.961 Y106.269 Z-4.947
X97.984 Y106.253 Z-4.967
X98.012 Y106.251 Z-4.988
X98.036 Y106.266 Z-5.008
X98.049 Y106.29 Z-5.028
X98.047 Y106.318 Z-5.048
X98.029 Y106.34 Z-5.068
X98.003 Y106.35 Z-5.088
X97.976 Y106.344 Z-5.109
X97.956 Y106.324 Z-5.129
X97.95 Y106.297 Z-5.149
X97.96 Y106.27 Z-5.169
X97.982 Y106.253 Z-5.189
X98.01 Y106.251 Z-5.21
X98.035 Y106.264 Z-5.23
X98.049 Y106.288 Z-5.25
X98.047 Y106.316 Z-5.27
X98.031 Y106.339 Z-5.29
X98.005 Y106.35 Z-5.311
X97.978 Y106.345 Z-5.331
X97.957 Y106.326 Z-5.351
X97.95 Y106.299 Z-5.371
X97.958 Y106.272 Z-5.391
X97.98 Y106.254 Z-5.412
X98.008 Y106.251 Z-5.432
X98.033 Y106.262 Z-5.452
X98.048 Y106.286 Z-5.472
Y106.314 Z-5.492
X98.033 Y106.338 Z-5.513
X98.008 Y106.349 Z-5.533
X97.98 Y106.346 Z-5.553
X97.958 Y106.328 Z-5.573
X97.95 Y106.301 Z-5.593
X97.957 Y106.274 Z-5.613
X97.978 Y106.255 Z-5.634
X98.005 Y106.25 Z-5.654
X98.031 Y106.261 Z-5.674
X98.047 Y106.284 Z-5.694
X98.049 Y106.312 Z-5.714
X98.035 Y106.336 Z-5.735
X98.01 Y106.349 Z-5.755
X97.982 Y106.347 Z-5.775
X97.96 Y106.33 Z-5.795
X97.95 Y106.304 Z-5.815
X97.956 Y106.276 Z-5.836
X97.976 Y106.256 Z-5.856
X98.003 Y106.25 Z-5.876
X98.029 Y106.259 Z-5.896
X98.046 Y106.282 Z-5.916
X98.049 Y106.309 Z-5.937
X98.036 Y106.334 Z-5.957
X98.012 Y106.348 Z-5.977
X97.984 Y106.347 Z-5.997
X97.961 Y106.332 Z-6.017
X97.95 Y106.306 Z-6.038
X97.955 Y106.278 Z-6.058
X97.974 Y106.257 Z-6.078
X98.001 Y106.25 Z-6.098
X98.027 Y106.258 Z-6.118
X98.046 Y106.279 Z-6.138
X98.049 Y106.307 Z-6.159
X98.038 Y106.333 Z-6.179
X98.014 Y106.348 Z-6.199
X97.987 Z-6.219
X97.963 Y106.333 Z-6.239
X97.951 Y106.308 Z-6.26
X97.954 Y106.28 Z-6.28
X97.972 Y106.259 Z-6.3
G3 X98.028 Y106.341 I0.028 J0.041
X97.972 Y106.259 I-0.028 J-0.041
G1 X97.99 Y106.255 F50
X98.007 Y106.265
X98 Y106.3
Z5 F250
Y8
Z1.69
Z0 F50
X97.975 Y8.025
X97.957 Y8.018
X97.95 Y8
X97.958 Y7.973 Z-0.02 F250
X97.979 Y7.955 Z-0.04
X98.006 Y7.95 Z-0.061
X98.032 Y7.962 Z-0.081
X98.048 Y7.985 Z-0.101
Y8.013 Z-0.121
X98.034 Y8.037 Z-0.141
X98.009 Y8.049 Z-0.162
X97.981 Y8.046 Z-0.182
X97.959 Y8.029 Z-0.202
X97.95 Y8.002 Z-0.222
X97.957 Y7.975 Z-0.242
X97.977 Y7.956 Z-0.263
X98.004 Y7.95 Z-0.283
X98.03 Y7.96 Z-0.303
X98.047 Y7.983 Z-0.323
X98.049 Y8.011 Z-0.343
X98.036 Y8.035 Z-0.363
X98.011 Y8.049 Z-0.384
X97.983 Y8.047 Z-0.404
X97.96 Y8.031 Z-0.424
X97.95 Y8.005 Z-0.444
X97.956 Y7.977 Z-0.464
X97.975 Y7.957 Z-0.485
X98.002 Y7.95 Z-0.505
X98.028 Y7.959 Z-0.525
X98.046 Y7.981 Z-0.545
X98.049 Y8.008 Z-0.565
X98.037 Y8.034 Z-0.586
X98.013 Y8.048 Z-0.606
X97.985 Z-0.626
X97.962 Y8.032 Z-0.646
X97.95 Y8.007 Z-0.666
X97.955 Y7.979 Z-0.687
X97.973 Y7.958 Z-0.707
X98 Y7.95 Z-0.727
X98.026 Y7.958 Z-0.747
X98.045 Y7.978 Z-0.767
X98.05 Y8.006 Z-0.788
X98.039 Y8.032 Z-0.808
X98.016 Y8.048 Z-0.828
X97.988 Z-0.848
X97.963 Y8.034 Z-0.868
X97.951 Y8.009 Z-0.888
X97.954 Y7.981 Z-0.909
X97.971 Y7.959 Z-0.929
X97.997 Y7.95 Z-0.949
X98.024 Y7.956 Z-0.969
X98.044 Y7.976 Z-0.989
X98.05 Y8.004 Z-1.01
X98.04 Y8.03 Z-1.03
X98.018 Y8.047 Z-1.05
X97.99 Y8.049 Z-1.07
X97.965 Y8.036 Z-1.09
X97.951 Y8.011 Z-1.111
X97.953 Y7.984 Z-1.131
X97.969 Y7.961 Z-1.151
X97.995 Y7.95 Z-1.171
X98.022 Y7.955 Z-1.191
X98.043 Y7.974 Z-1.212
X98.05 Y8.001 Z-1.232
X98.041 Y8.028 Z-1.252
X98.02 Y8.046 Z-1.272
X97.992 Y8.049 Z-1.292
X97.967 Y8.037 Z-1.313
X97.952 Y8.014 Z-1.333
Y7.986 Z-1.353
X97.967 Y7.962 Z-1.373
X97.993 Y7.951 Z-1.393
X98.02 Y7.954 Z-1.413
X98.042 Y7.972 Z-1.434
X98.05 Y7.999 Z-1.454
X98.043 Y8.026 Z-1.474
X98.022 Y8.045 Z-1.494
X97.994 Y8.05 Z-1.514
X97.969 Y8.039 Z-1.535
X97.953 Y8.016 Z-1.555
X97.951 Y7.988 Z-1.575
X97.966 Y7.964 Z-1.595
X97.99 Y7.951 Z-1.615
X98.018 Y7.953 Z-1.636
X98.04 Y7.97 Z-1.656
X98.05 Y7.997 Z-1.676
X98.044 Y8.024 Z-1.696
X98.024 Y8.044 Z-1.716
X97.997 Y8.05 Z-1.737
X97.97 Y8.04 Z-1.757
X97.953 Y8.018 Z-1.777
X97.951 Y7.99 Z-1.797
X97.964 Y7.965 Z-1.817
X97.988 Y7.951 Z-1.838
X98.016 Y7.953 Z-1.858
X98.039 Y7.969 Z-1.878
X98.05 Y7.994 Z-1.898
X98.045 Y8.022 Z-1.918
X98.026 Y8.043 Z-1.938
X97.999 Y8.05 Z-1.959
X97.972 Y8.042 Z-1.979
X97.954 Y8.02 Z-1.999
X97.951 Y7.993 Z-2.019
X97.962 Y7.967 Z-2.039
X97.986 Y7.952 Z-2.06
X98.014 Z-2.08
X98.037 Y7.967 Z-2.1
X98.049 Y7.992 Z-2.12
X98.046 Y8.02 Z-2.14
X98.028 Y8.041 Z-2.161
X98.001 Y8.05 Z-2.181
X97.974 Y8.043 Z-2.201
X97.955 Y8.022 Z-2.221
X97.95 Y7.995 Z-2.241
X97.961 Y7.969 Z-2.262
X97.984 Y7.953 Z-2.282
X98.012 Y7.951 Z-2.302
X98.036 Y7.965 Z-2.322
X98.049 Y7.99 Z-2.342
X98.047 Y8.018 Z-2.363
X98.03 Y8.04 Z-2.383
X98.004 Y8.05 Z-2.403
X97.976 Y8.044 Z-2.423
X97.956 Y8.024 Z-2.443
X97.95 Y7.997 Z-2.463
X97.959 Y7.971 Z-2.484
X97.981 Y7.954 Z-2.504
X98.009 Y7.951 Z-2.524
X98.034 Y7.964 Z-2.544
X98.048 Y7.988 Z-2.564
Y8.016 Z-2.585
X98.032 Y8.039 Z-2.605
X98.006 Y8.05 Z-2.625
X97.978 Y8.045 Z-2.645
X97.958 Y8.026 Z-2.665
X97.95 Y7.999 Z-2.686
X97.958 Y7.973 Z-2.706
X97.979 Y7.954 Z-2.726
X98.007 Y7.95 Z-2.746
X98.033 Y7.962 Z-2.766
X98.048 Y7.985 Z-2.787
Y8.013 Z-2.807
X98.033 Y8.037 Z-2.827
X98.008 Y8.049 Z-2.847
X97.98 Y8.046 Z-2.867
X97.959 Y8.028 Z-2.888
X97.95 Y8.002 Z-2.908
X97.957 Y7.975 Z-2.928
X97.977 Y7.955 Z-2.948
X98.005 Y7.95 Z-2.968
X98.031 Y7.961 Z-2.988
X98.047 Y7.983 Z-3.009
X98.049 Y8.011 Z-3.029
X98.035 Y8.036 Z-3.049
X98.011 Y8.049 Z-3.069
X97.983 Y8.047 Z-3.089
X97.96 Y8.03 Z-3.11
X97.95 Y8.004 Z-3.13
X97.956 Y7.977 Z-3.15
X97.975 Y7.957 Z-3.17
X98.002 Y7.95 Z-3.19
X98.029 Y7.959 Z-3.211
X98.046 Y7.981 Z-3.231
X98.049 Y8.009 Z-3.251
X98.037 Y8.034 Z-3.271
X98.013 Y8.048 Z-3.291
X97.985 Z-3.312
X97.962 Y8.032 Z-3.332
X97.95 Y8.006 Z-3.352
X97.955 Y7.979 Z-3.372
X97.973 Y7.958 Z-3.392
X98 Y7.95 Z-3.413
X98.027 Y7.958 Z-3.433
X98.045 Y7.979 Z-3.453
X98.05 Y8.007 Z-3.473
X98.038 Y8.032 Z-3.493
X98.015 Y8.048 Z-3.513
X97.987 Z-3.534
X97.963 Y8.034 Z-3.554
X97.951 Y8.009 Z-3.574
X97.954 Y7.981 Z-3.594
X97.971 Y7.959 Z-3.614
X97.998 Y7.95 Z-3.635
X98.025 Y7.957 Z-3.655
X98.044 Y7.977 Z-3.675
X98.05 Y8.004 Z-3.695
X98.04 Y8.03 Z-3.715
X98.017 Y8.047 Z-3.736
X97.989 Y8.049 Z-3.756
X97.965 Y8.035 Z-3.776
X97.951 Y8.011 Z-3.796
X97.953 Y7.983 Z-3.816
X97.969 Y7.96 Z-3.837
X97.995 Y7.95 Z-3.857
X98.023 Y7.956 Z-3.877
X98.043 Y7.975 Z-3.897
X98.05 Y8.002 Z-3.917
X98.041 Y8.028 Z-3.938
X98.019 Y8.046 Z-3.958
X97.992 Y8.049 Z-3.978
X97.966 Y8.037 Z-3.998
X97.952 Y8.013 Z-4.018
Y7.985 Z-4.038
X97.968 Y7.962 Z-4.059
X97.993 Y7.95 Z-4.079
X98.021 Y7.955 Z-4.099
X98.042 Y7.973 Z-4.119
X98.05 Y8 Z-4.139
X98.042 Y8.027 Z-4.16
X98.021 Y8.045 Z-4.18
X97.994 Y8.05 Z-4.2
X97.968 Y8.039 Z-4.22
X97.952 Y8.015 Z-4.24
Y7.987 Z-4.261
X97.966 Y7.963 Z-4.281
X97.991 Y7.951 Z-4.301
X98.019 Y7.954 Z-4.321
X98.041 Y7.971 Z-4.341
X98.05 Y7.997 Z-4.362
X98.044 Y8.025 Z-4.382
X98.024 Y8.044 Z-4.402
X97.996 Y8.05 Z-4.422
X97.97 Y8.04 Z-4.442
X97.953 Y8.018 Z-4.463
X97.951 Y7.99 Z-4.483
X97.964 Y7.965 Z-4.503
X97.989 Y7.951 Z-4.523
X98.017 Y7.953 Z-4.543
X98.039 Y7.969 Z-4.563
X98.05 Y7.995 Z-4.584
X98.045 Y8.023 Z-4.604
X98.026 Y8.043 Z-4.624
X97.998 Y8.05 Z-4.644
X97.972 Y8.041 Z-4.664
X97.954 Y8.02 Z-4.685
X97.951 Y7.992 Z-4.705
X97.963 Y7.967 Z-4.725
X97.986 Y7.952 Z-4.745
X98.014 Z-4.765
X98.038 Y7.967 Z-4.786
X98.049 Y7.993 Z-4.806
X98.046 Y8.02 Z-4.826
X98.028 Y8.042 Z-4.846
X98.001 Y8.05 Z-4.866
X97.974 Y8.043 Z-4.887
X97.955 Y8.022 Z-4.907
X97.95 Y7.994 Z-4.927
X97.961 Y7.969 Z-4.947
X97.984 Y7.953 Z-4.967
X98.012 Y7.951 Z-4.988
X98.036 Y7.966 Z-5.008
X98.049 Y7.99 Z-5.028
X98.047 Y8.018 Z-5.048
X98.029 Y8.04 Z-5.068
X98.003 Y8.05 Z-5.088
X97.976 Y8.044 Z-5.109
X97.956 Y8.024 Z-5.129
X97.95 Y7.997 Z-5.149
X97.96 Y7.97 Z-5.169
X97.982 Y7.953 Z-5.189
X98.01 Y7.951 Z-5.21
X98.035 Y7.964 Z-5.23
X98.049 Y7.988 Z-5.25
X98.047 Y8.016 Z-5.27
X98.031 Y8.039 Z-5.29
X98.005 Y8.05 Z-5.311
X97.978 Y8.045 Z-5.331
X97.957 Y8.026 Z-5.351
X97.95 Y7.999 Z-5.371
X97.958 Y7.972 Z-5.391
X97.98 Y7.954 Z-5.412
X98.008 Y7.951 Z-5.432
X98.033 Y7.962 Z-5.452
X98.048 Y7.986 Z-5.472
Y8.014 Z-5.492
X98.033 Y8.038 Z-5.513
X98.008 Y8.049 Z-5.533
X97.98 Y8.046 Z-5.553
X97.958 Y8.028 Z-5.573
X97.95 Y8.001 Z-5.593
X97.957 Y7.974 Z-5.613
X97.978 Y7.955 Z-5.634
X98.005 Y7.95 Z-5.654
X98.031 Y7.961 Z-5.674
X98.047 Y7.984 Z-5.694
X98.049 Y8.012 Z-5.714
X98.035 Y8.036 Z-5.735
X98.01 Y8.049 Z-5.755
X97.982 Y8.047 Z-5.775
X97.96 Y8.03 Z-5.795
X97.95 Y8.004 Z-5.815
X97.956 Y7.976 Z-5.836
X97.976 Y7.956 Z-5.856
X98.003 Y7.95 Z-5.876
X98.029 Y7.959 Z-5.896
X98.046 Y7.982 Z-5.916
X98.049 Y8.009 Z-5.937
X98.036 Y8.034 Z-5.957
X98.012 Y8.048 Z-5.977
X97.984 Y8.047 Z-5.997
X97.961 Y8.032 Z-6.017
X97.95 Y8.006 Z-6.038
X97.955 Y7.978 Z-6.058
X97.974 Y7.957 Z-6.078
X98.001 Y7.95 Z-6.098
X98.027 Y7.958 Z-6.118
X98.046 Y7.979 Z-6.138
X98.049 Y8.007 Z-6.159
X98.038 Y8.033 Z-6.179
X98.014 Y8.048 Z-6.199
X97.987 Z-6.219
X97.963 Y8.033 Z-6.239
X97.951 Y8.008 Z-6.26
X97.954 Y7.98 Z-6.28
X97.972 Y7.959 Z-6.3
G3 X98.028 Y8.041 I0.028 J0.041
X97.972 Y7.959 I-0.028 J-0.041
G1 X97.99 Y7.955 F50
X98.007 Y7.965
X98 Y8
Z5 F250
X8
Z1.69
Z0 F50
X7.975 Y8.025
X7.957 Y8.018
X7.95 Y8
X7.958 Y7.973 Z-0.02 F250
X7.979 Y7.955 Z-0.04
X8.006 Y7.95 Z-0.061
X8.032 Y7.962 Z-0.081
X8.048 Y7.985 Z-0.101
Y8.013 Z-0.121
X8.034 Y8.037 Z-0.141
X8.009 Y8.049 Z-0.162
X7.981 Y8.046 Z-0.182
X7.959 Y8.029 Z-0.202
X7.95 Y8.002 Z-0.222
X7.957 Y7.975 Z-0.242
X7.977 Y7.956 Z-0.263
X8.004 Y7.95 Z-0.283
X8.03 Y7.96 Z-0.303
X8.047 Y7.983 Z-0.323
X8.049 Y8.011 Z-0.343
X8.036 Y8.035 Z-0.363
X8.011 Y8.049 Z-0.384
X7.983 Y8.047 Z-0.404
X7.96 Y8.031 Z-0.424
X7.95 Y8.005 Z-0.444
X7.956 Y7.977 Z-0.464
X7.975 Y7.957 Z-0.485
X8.002 Y7.95 Z-0.505
X8.028 Y7.959 Z-0.525
X8.046 Y7.981 Z-0.545
X8.049 Y8.008 Z-0.565
X8.037 Y8.034 Z-0.586
X8.013 Y8.048 Z-0.606
X7.985 Z-0.626
X7.962 Y8.032 Z-0.646
X7.95 Y8.007 Z-0.666
X7.955 Y7.979 Z-0.687
X7.973 Y7.958 Z-0.707
X8 Y7.95 Z-0.727
X8.026 Y7.958 Z-0.747
X8.045 Y7.978 Z-0.767
X8.05 Y8.006 Z-0.788
X8.039 Y8.032 Z-0.808
X8.016 Y8.048 Z-0.828
X7.988 Z-0.848
X7.963 Y8.034 Z-0.868
X7.951 Y8.009 Z-0.888
X7.954 Y7.981 Z-0.909
X7.971 Y7.959 Z-0.929
X7.997 Y7.95 Z-0.949
X8.024 Y7.956 Z-0.969
X8.044 Y7.976 Z-0.989
X8.05 Y8.004 Z-1.01
X8.04 Y8.03 Z-1.03
X8.018 Y8.047 Z-1.05
X7.99 Y8.049 Z-1.07
X7.965 Y8.036 Z-1.09
X7.951 Y8.011 Z-1.111
X7.953 Y7.984 Z-1.131
X7.969 Y7.961 Z-1.151
X7.995 Y7.95 Z-1.171
X8.022 Y7.955 Z-1.191
X8.043 Y7.974 Z-1.212
X8.05 Y8.001 Z-1.232
X8.041 Y8.028 Z-1.252
X8.02 Y8.046 Z-1.272
X7.992 Y8.049 Z-1.292
X7.967 Y8.037 Z-1.313
X7.952 Y8.014 Z-1.333
Y7.986 Z-1.353
X7.967 Y7.962 Z-1.373
X7.993 Y7.951 Z-1.393
X8.02 Y7.954 Z-1.413
X8.042 Y7.972 Z-1.434
X8.05 Y7.999 Z-1.454
X8.043 Y8.026 Z-1.474
X8.022 Y8.045 Z-1.494
X7.994 Y8.05 Z-1.514
X7.969 Y8.039 Z-1.535
X7.953 Y8.016 Z-1.555
X7.951 Y7.988 Z-1.575
X7.966 Y7.964 Z-1.595
X7.99 Y7.951 Z-1.615
X8.018 Y7.953 Z-1.636
X8.04 Y7.97 Z-1.656
X8.05 Y7.997 Z-1.676
X8.044 Y8.024 Z-1.696
X8.024 Y8.044 Z-1.716
X7.997 Y8.05 Z-1.737
X7.97 Y8.04 Z-1.757
X7.953 Y8.018 Z-1.777
X7.951 Y7.99 Z-1.797
X7.964 Y7.965 Z-1.817
X7.988 Y7.951 Z-1.838
X8.016 Y7.953 Z-1.858
X8.039 Y7.969 Z-1.878
X8.05 Y7.994 Z-1.898
X8.045 Y8.022 Z-1.918
X8.026 Y8.043 Z-1.938
X7.999 Y8.05 Z-1.959
X7.972 Y8.042 Z-1.979
X7.954 Y8.02 Z-1.999
X7.951 Y7.993 Z-2.019
X7.962 Y7.967 Z-2.039
X7.986 Y7.952 Z-2.06
X8.014 Z-2.08
X8.037 Y7.967 Z-2.1
X8.049 Y7.992 Z-2.12
X8.046 Y8.02 Z-2.14
X8.028 Y8.041 Z-2.161
X8.001 Y8.05 Z-2.181
X7.974 Y8.043 Z-2.201
X7.955 Y8.022 Z-2.221
X7.95 Y7.995 Z-2.241
X7.961 Y7.969 Z-2.262
X7.984 Y7.953 Z-2.282
X8.012 Y7.951 Z-2.302
X8.036 Y7.965 Z-2.322
X8.049 Y7.99 Z-2.342
X8.047 Y8.018 Z-2.363
X8.03 Y8.04 Z-2.383
X8.004 Y8.05 Z-2.403
X7.976 Y8.044 Z-2.423
X7.956 Y8.024 Z-2.443
X7.95 Y7.997 Z-2.463
X7.959 Y7.971 Z-2.484
X7.981 Y7.954 Z-2.504
X8.009 Y7.951 Z-2.524
X8.034 Y7.964 Z-2.544
X8.048 Y7.988 Z-2.564
Y8.016 Z-2.585
X8.032 Y8.039 Z-2.605
X8.006 Y8.05 Z-2.625
X7.978 Y8.045 Z-2.645
X7.958 Y8.026 Z-2.665
X7.95 Y7.999 Z-2.686
X7.958 Y7.973 Z-2.706
X7.979 Y7.954 Z-2.726
X8.007 Y7.95 Z-2.746
X8.033 Y7.962 Z-2.766
X8.048 Y7.985 Z-2.787
Y8.013 Z-2.807
X8.033 Y8.037 Z-2.827
X8.008 Y8.049 Z-2.847
X7.98 Y8.046 Z-2.867
X7.959 Y8.028 Z-2.888
X7.95 Y8.002 Z-2.908
X7.957 Y7.975 Z-2.928
X7.977 Y7.955 Z-2.948
X8.005 Y7.95 Z-2.968
X8.031 Y7.961 Z-2.988
X8.047 Y7.983 Z-3.009
X8.049 Y8.011 Z-3.029
X8.035 Y8.036 Z-3.049
X8.011 Y8.049 Z-3.069
X7.983 Y8.047 Z-3.089
X7.96 Y8.03 Z-3.11
X7.95 Y8.004 Z-3.13
X7.956 Y7.977 Z-3.15
X7.975 Y7.957 Z-3.17
X8.002 Y7.95 Z-3.19
X8.029 Y7.959 Z-3.211
X8.046 Y7.981 Z-3.231
X8.049 Y8.009 Z-3.251
X8.037 Y8.034 Z-3.271
X8.013 Y8.048 Z-3.291
X7.985 Z-3.312
X7.962 Y8.032 Z-3.332
X7.95 Y8.006 Z-3.352
X7.955 Y7.979 Z-3.372
X7.973 Y7.958 Z-3.392
X8 Y7.95 Z-3.413
X8.027 Y7.958 Z-3.433
X8.045 Y7.979 Z-3.453
X8.05 Y8.007 Z-3.473
X8.038 Y8.032 Z-3.493
X8.015 Y8.048 Z-3.513
X7.987 Z-3.534
X7.963 Y8.034 Z-3.554
X7.951 Y8.009 Z-3.574
X7.954 Y7.981 Z-3.594
X7.971 Y7.959 Z-3.614
X7.998 Y7.95 Z-3.635
X8.025 Y7.957 Z-3.655
X8.044 Y7.977 Z-3.675
X8.05 Y8.004 Z-3.695
X8.04 Y8.03 Z-3.715
X8.017 Y8.047 Z-3.736
X7.989 Y8.049 Z-3.756
X7.965 Y8.035 Z-3.776
X7.951 Y8.011 Z-3.796
X7.953 Y7.983 Z-3.816
X7.969 Y7.96 Z-3.837
X7.995 Y7.95 Z-3.857
X8.023 Y7.956 Z-3.877
X8.043 Y7.975 Z-3.897
X8.05 Y8.002 Z-3.917
X8.041 Y8.028 Z-3.938
X8.019 Y8.046 Z-3.958
X7.992 Y8.049 Z-3.978
X7.966 Y8.037 Z-3.998
X7.952 Y8.013 Z-4.018
Y7.985 Z-4.038
X7.968 Y7.962 Z-4.059
X7.993 Y7.95 Z-4.079
X8.021 Y7.955 Z-4.099
X8.042 Y7.973 Z-4.119
X8.05 Y8 Z-4.139
X8.042 Y8.027 Z-4.16
X8.021 Y8.045 Z-4.18
X7.994 Y8.05 Z-4.2
X7.968 Y8.039 Z-4.22
X7.952 Y8.015 Z-4.24
Y7.987 Z-4.261
X7.966 Y7.963 Z-4.281
X7.991 Y7.951 Z-4.301
X8.019 Y7.954 Z-4.321
X8.041 Y7.971 Z-4.341
X8.05 Y7.997 Z-4.362
X8.044 Y8.025 Z-4.382
X8.024 Y8.044 Z-4.402
X7.996 Y8.05 Z-4.422
X7.97 Y8.04 Z-4.442
X7.953 Y8.018 Z-4.463
X7.951 Y7.99 Z-4.483
X7.964 Y7.965 Z-4.503
X7.989 Y7.951 Z-4.523
X8.017 Y7.953 Z-4.543
X8.039 Y7.969 Z-4.563
X8.05 Y7.995 Z-4.584
X8.045 Y8.023 Z-4.604
X8.026 Y8.043 Z-4.624
X7.998 Y8.05 Z-4.644
X7.972 Y8.041 Z-4.664
X7.954 Y8.02 Z-4.685
X7.951 Y7.992 Z-4.705
X7.963 Y7.967 Z-4.725
X7.986 Y7.952 Z-4.745
X8.014 Z-4.765
X8.038 Y7.967 Z-4.786
X8.049 Y7.993 Z-4.806
X8.046 Y8.02 Z-4.826
X8.028 Y8.042 Z-4.846
X8.001 Y8.05 Z-4.866
X7.974 Y8.043 Z-4.887
X7.955 Y8.022 Z-4.907
X7.95 Y7.994 Z-4.927
X7.961 Y7.969 Z-4.947
X7.984 Y7.953 Z-4.967
X8.012 Y7.951 Z-4.988
X8.036 Y7.966 Z-5.008
X8.049 Y7.99 Z-5.028
X8.047 Y8.018 Z-5.048
X8.029 Y8.04 Z-5.068
X8.003 Y8.05 Z-5.088
X7.976 Y8.044 Z-5.109
X7.956 Y8.024 Z-5.129
X7.95 Y7.997 Z-5.149
X7.96 Y7.97 Z-5.169
X7.982 Y7.953 Z-5.189
X8.01 Y7.951 Z-5.21
X8.035 Y7.964 Z-5.23
X8.049 Y7.988 Z-5.25
X8.047 Y8.016 Z-5.27
X8.031 Y8.039 Z-5.29
X8.005 Y8.05 Z-5.311
X7.978 Y8.045 Z-5.331
X7.957 Y8.026 Z-5.351
X7.95 Y7.999 Z-5.371
X7.958 Y7.972 Z-5.391
X7.98 Y7.954 Z-5.412
X8.008 Y7.951 Z-5.432
X8.033 Y7.962 Z-5.452
X8.048 Y7.986 Z-5.472
Y8.014 Z-5.492
X8.033 Y8.038 Z-5.513
X8.008 Y8.049 Z-5.533
X7.98 Y8.046 Z-5.553
X7.958 Y8.028 Z-5.573
X7.95 Y8.001 Z-5.593
X7.957 Y7.974 Z-5.613
X7.978 Y7.955 Z-5.634
X8.005 Y7.95 Z-5.654
X8.031 Y7.961 Z-5.674
X8.047 Y7.984 Z-5.694
X8.049 Y8.012 Z-5.714
X8.035 Y8.036 Z-5.735
X8.01 Y8.049 Z-5.755
X7.982 Y8.047 Z-5.775
X7.96 Y8.03 Z-5.795
X7.95 Y8.004 Z-5.815
X7.956 Y7.976 Z-5.836
X7.976 Y7.956 Z-5.856
X8.003 Y7.95 Z-5.876
X8.029 Y7.959 Z-5.896
X8.046 Y7.982 Z-5.916
X8.049 Y8.009 Z-5.937
X8.036 Y8.034 Z-5.957
X8.012 Y8.048 Z-5.977
X7.984 Y8.047 Z-5.997
X7.961 Y8.032 Z-6.017
X7.95 Y8.006 Z-6.038
X7.955 Y7.978 Z-6.058
X7.974 Y7.957 Z-6.078
X8.001 Y7.95 Z-6.098
X8.027 Y7.958 Z-6.118
X8.046 Y7.979 Z-6.138
X8.049 Y8.007 Z-6.159
X8.038 Y8.033 Z-6.179
X8.014 Y8.048 Z-6.199
X7.987 Z-6.219
X7.963 Y8.033 Z-6.239
X7.951 Y8.008 Z-6.26
X7.954 Y7.98 Z-6.28
X7.972 Y7.959 Z-6.3
G3 X8.028 Y8.041 I0.028 J0.041
X7.972 Y7.959 I-0.028 J-0.041
G1 X7.99 Y7.955 F50
X8.007 Y7.965
X8 Y8
Z15 F250
(When using Fusion for Personal Use, the feedrate of rapid)
(moves is reduced to match the feedrate of cutting moves,)
(which can increase machining time. Unrestricted rapid moves)
(are available with a Fusion Subscription.)

(2D Contour1)
G0 X85.426 Y55.297
G1 Z6 F250
Z0.62
Z-0.69 F50
X85.431 Y55.303 Z-0.759
X85.447 Y55.319 Z-0.825
X85.474 Y55.345 Z-0.883
X85.508 Y55.38 Z-0.932
X85.55 Y55.421 Z-0.969
X85.596 Y55.468 Z-0.992
X85.645 Y55.517 Z-1
X87.059 Y56.931
X87.098 Y56.978
X87.126 Y57.031
X87.144 Y57.09
X87.15 Y57.15
G3 X27.15 Y57.15 I-30 J0 F250
X87.15 Y57.15 I30 J0
G1 X87.144 Y57.21 F50
X87.126 Y57.269
X87.098 Y57.322
X87.059 Y57.369
X85.645 Y58.783
X85.596 Y58.832 Z-0.992
X85.55 Y58.879 Z-0.969
X85.508 Y58.92 Z-0.932
X85.474 Y58.955 Z-0.883
X85.447 Y58.981 Z-0.825
X85.431 Y58.997 Z-0.759
X85.426 Y59.003 Z-0.69
Z1 F250
Y55.297
Z0.33
Z-0.38 F50
Z-1.69
X85.431 Y55.303 Z-1.759
X85.447 Y55.319 Z-1.825
X85.474 Y55.345 Z-1.883
X85.508 Y55.38 Z-1.932
X85.55 Y55.421 Z-1.969
X85.596 Y55.468 Z-1.992
X85.645 Y55.517 Z-2
X87.059 Y56.931
X87.098 Y56.978
X87.126 Y57.031
X87.144 Y57.09
X87.15 Y57.15
G3 X27.15 Y57.15 I-30 J0 F250
X87.15 Y57.15 I30 J0
G1 X87.144 Y57.21 F50
X87.126 Y57.269
X87.098 Y57.322
X87.059 Y57.369
X85.645 Y58.783
X85.596 Y58.832 Z-1.992
X85.55 Y58.879 Z-1.969
X85.508 Y58.92 Z-1.932
X85.474 Y58.955 Z-1.883
X85.447 Y58.981 Z-1.825
X85.431 Y58.997 Z-1.759
X85.426 Y59.003 Z-1.69
Z1 F250
Y55.297
Z0.33
Z-1.38 F50
Z-2.69
X85.431 Y55.303 Z-2.759
X85.447 Y55.319 Z-2.825
X85.474 Y55.345 Z-2.883
X85.508 Y55.38 Z-2.932
X85.55 Y55.421 Z-2.969
X85.596 Y55.468 Z-2.992
X85.645 Y55.517 Z-3
X87.059 Y56.931
X87.098 Y56.978
X87.126 Y57.031
X87.144 Y57.09
X87.15 Y57.15
G3 X27.15 Y57.15 I-30 J0 F250
X87.15 Y57.15 I30 J0
G1 X87.144 Y57.21 F50
X87.126 Y57.269
X87.098 Y57.322
X87.059 Y57.369
X85.645 Y58.783
X85.596 Y58.832 Z-2.992
X85.55 Y58.879 Z-2.969
X85.508 Y58.92 Z-2.932
X85.474 Y58.955 Z-2.883
X85.447 Y58.981 Z-2.825
X85.431 Y58.997 Z-2.759
X85.426 Y59.003 Z-2.69
Z1 F250
Y55.297
Z0.33
Z-2.38 F50
Z-3.69
X85.431 Y55.303 Z-3.759
X85.447 Y55.319 Z-3.825
X85.474 Y55.345 Z-3.883
X85.508 Y55.38 Z-3.932
X85.55 Y55.421 Z-3.969
X85.596 Y55.468 Z-3.992
X85.645 Y55.517 Z-4
X87.059 Y56.931
X87.098 Y56.978
X87.126 Y57.031
X87.144 Y57.09
X87.15 Y57.15
G3 X27.15 Y57.15 I-30 J0 F250
X87.15 Y57.15 I30 J0
G1 X87.144 Y57.21 F50
X87.126 Y57.269
X87.098 Y57.322
X87.059 Y57.369
X85.645 Y58.783
X85.596 Y58.832 Z-3.992
X85.55 Y58.879 Z-3.969
X85.508 Y58.92 Z-3.932
X85.474 Y58.955 Z-3.883
X85.447 Y58.981 Z-3.825
X85.431 Y58.997 Z-3.759
X85.426 Y59.003 Z-3.69
Z1 F250
Y55.297
Z0.33
Z-3.38 F50
Z-4.69
X85.431 Y55.303 Z-4.759
X85.447 Y55.319 Z-4.825
X85.474 Y55.345 Z-4.883
X85.508 Y55.38 Z-4.932
X85.55 Y55.421 Z-4.969
X85.596 Y55.468 Z-4.992
X85.645 Y55.517 Z-5
X87.059 Y56.931
X87.098 Y56.978
X87.126 Y57.031
X87.144 Y57.09
X87.15 Y57.15
G3 X27.15 Y57.15 I-30 J0 F250
X87.15 Y57.15 I30 J0
G1 X87.144 Y57.21 F50
X87.126 Y57.269
X87.098 Y57.322
X87.059 Y57.369
X85.645 Y58.783
X85.596 Y58.832 Z-4.992
X85.55 Y58.879 Z-4.969
X85.508 Y58.92 Z-4.932
X85.474 Y58.955 Z-4.883
X85.447 Y58.981 Z-4.825
X85.431 Y58.997 Z-4.759
X85.426 Y59.003 Z-4.69
Z1 F250
Y55.297
Z0.33
Z-4.38 F50
Z-5.69
X85.431 Y55.303 Z-5.759
X85.447 Y55.319 Z-5.825
X85.474 Y55.345 Z-5.883
X85.508 Y55.38 Z-5.932
X85.55 Y55.421 Z-5.969
X85.596 Y55.468 Z-5.992
X85.645 Y55.517 Z-6
X87.059 Y56.931
X87.098 Y56.978
X87.126 Y57.031
X87.144 Y57.09
X87.15 Y57.15
G3 X27.15 Y57.15 I-30 J0 F250
X87.15 Y57.15 I30 J0
G1 X87.144 Y57.21 F50
X87.126 Y57.269
X87.098 Y57.322
X87.059 Y57.369
X85.645 Y58.783
X85.596 Y58.832 Z-5.992
X85.55 Y58.879 Z-5.969
X85.508 Y58.92 Z-5.932
X85.474 Y58.955 Z-5.883
X85.447 Y58.981 Z-5.825
X85.431 Y58.997 Z-5.759
X85.426 Y59.003 Z-5.69
Z1 F250
Y55.297
Z0.33
Z-5.38 F50
Z-5.99
X85.431 Y55.303 Z-6.059
X85.447 Y55.319 Z-6.125
X85.474 Y55.345 Z-6.183
X85.508 Y55.38 Z-6.232
X85.55 Y55.421 Z-6.269
X85.596 Y55.468 Z-6.292
X85.645 Y55.517 Z-6.3
X87.059 Y56.931
X87.098 Y56.978
X87.126 Y57.031
X87.144 Y57.09
X87.15 Y57.15
G3 X27.15 Y57.15 I-30 J0 F250
X87.15 Y57.15 I30 J0
G1 X87.144 Y57.21 F50
X87.126 Y57.269
X87.098 Y57.322
X87.059 Y57.369
X85.645 Y58.783
X85.596 Y58.832 Z-6.292
X85.55 Y58.879 Z-6.269
X85.508 Y58.92 Z-6.232
X85.474 Y58.955 Z-6.183
X85.447 Y58.981 Z-6.125
X85.431 Y58.997 Z-6.059
X85.426 Y59.003 Z-5.99
Z6 F250

M9
G28 G91 Z0
G90
G28 G91 X0 Y0
G90
M5
M30
