(link1_side)
(Machine)
(  vendor: Autodesk)
(  model: Generic 3-axis)
(  description: This machine has XY axis on the Table and Z axis on the Head)
(T3 D=3.1 CR=0 - ZMIN=-6.3 - flat end mill)
G90 G94
G17
G21
(When using Fusion for Personal Use, the feedrate of rapid)
(moves is reduced to match the feedrate of cutting moves,)
(which can increase machining time. Unrestricted rapid moves)
(are available with a Fusion Subscription.)
G28 G91 Z0
G90

(Bore7)
T3
S18000 M3
G17 G90 G94
G54
M8
G0 X-37.766 Y51.64
Z15
G1 Z2 F200
Z0.31 F50
G19 G2 Y51.33 Z0 J-0.31 K0
G1 Y51.175
G17 G3 X-37.541 Y50.95 I0.225 J0
X-37.541 Y51.85 Z-0.14 I0 J0.45 F200
X-37.541 Y50.95 Z-0.28 I0 J-0.45
X-37.541 Y51.85 Z-0.42 I0 J0.45
X-37.541 Y50.95 Z-0.559 I0 J-0.45
X-37.541 Y51.85 Z-0.699 I0 J0.45
X-37.541 Y50.95 Z-0.839 I0 J-0.45
X-37.541 Y51.85 Z-0.979 I0 J0.45
X-37.541 Y50.95 Z-1.119 I0 J-0.45
X-37.541 Y51.85 Z-1.259 I0 J0.45
X-37.541 Y50.95 Z-1.399 I0 J-0.45
X-37.541 Y51.85 Z-1.538 I0 J0.45
X-37.541 Y50.95 Z-1.678 I0 J-0.45
X-37.541 Y51.85 Z-1.818 I0 J0.45
X-37.541 Y50.95 Z-1.958 I0 J-0.45
X-37.541 Y51.85 Z-2.098 I0 J0.45
X-37.541 Y50.95 Z-2.238 I0 J-0.45
X-37.541 Y51.85 Z-2.378 I0 J0.45
X-37.541 Y50.95 Z-2.517 I0 J-0.45
X-37.541 Y51.85 Z-2.657 I0 J0.45
X-37.541 Y50.95 Z-2.797 I0 J-0.45
X-37.541 Y51.85 Z-2.937 I0 J0.45
X-37.541 Y50.95 Z-3.077 I0 J-0.45
X-37.541 Y51.85 Z-3.217 I0 J0.45
X-37.541 Y50.95 Z-3.356 I0 J-0.45
X-37.541 Y51.85 Z-3.496 I0 J0.45
X-37.541 Y50.95 Z-3.636 I0 J-0.45
X-37.541 Y51.85 Z-3.776 I0 J0.45
X-37.541 Y50.95 Z-3.916 I0 J-0.45
X-37.541 Y51.85 Z-4.056 I0 J0.45
X-37.541 Y50.95 Z-4.196 I0 J-0.45
X-37.541 Y51.85 Z-4.335 I0 J0.45
X-37.541 Y50.95 Z-4.475 I0 J-0.45
X-37.541 Y51.85 Z-4.615 I0 J0.45
X-37.541 Y50.95 Z-4.755 I0 J-0.45
X-37.541 Y51.85 Z-4.895 I0 J0.45
X-37.541 Y50.95 Z-5.035 I0 J-0.45
X-37.541 Y51.85 Z-5.175 I0 J0.45
X-37.541 Y50.95 Z-5.314 I0 J-0.45
X-37.541 Y51.85 Z-5.454 I0 J0.45
X-37.541 Y50.95 Z-5.594 I0 J-0.45
X-37.541 Y51.85 Z-5.734 I0 J0.45
X-37.541 Y50.95 Z-5.874 I0 J-0.45
X-37.541 Y51.85 Z-6.014 I0 J0.45
X-37.541 Y50.95 Z-6.154 I0 J-0.45
X-37.092 Y51.433 Z-6.227 I0 J0.45
X-37.607 Y51.845 Z-6.3 I-0.449 J-0.033
X-37.474 Y50.955 I0.066 J-0.445
X-37.607 Y51.845 I-0.066 J0.445
X-37.796 Y51.589 I0.033 J-0.223 F50
G1 X-37.774 Y51.436
X-37.763 Y51.368 Z-6.292
X-37.754 Y51.303 Z-6.269
X-37.745 Y51.245 Z-6.232
X-37.738 Y51.196 Z-6.183
X-37.732 Y51.16 Z-6.125
X-37.729 Y51.137 Z-6.059
X-37.728 Y51.129 Z-5.99
Z5 F200
X-47.725 Y45.89
Z2
Z0.31 F50
G19 G2 Y45.58 Z0 J-0.31 K0
G1 Y45.425
G17 G3 X-47.5 Y45.2 I0.225 J0
X-47.5 Y46.1 Z-0.14 I0 J0.45 F200
X-47.5 Y45.2 Z-0.28 I0 J-0.45
X-47.5 Y46.1 Z-0.42 I0 J0.45
X-47.5 Y45.2 Z-0.559 I0 J-0.45
X-47.5 Y46.1 Z-0.699 I0 J0.45
X-47.5 Y45.2 Z-0.839 I0 J-0.45
X-47.5 Y46.1 Z-0.979 I0 J0.45
X-47.5 Y45.2 Z-1.119 I0 J-0.45
X-47.5 Y46.1 Z-1.259 I0 J0.45
X-47.5 Y45.2 Z-1.399 I0 J-0.45
X-47.5 Y46.1 Z-1.538 I0 J0.45
X-47.5 Y45.2 Z-1.678 I0 J-0.45
X-47.5 Y46.1 Z-1.818 I0 J0.45
X-47.5 Y45.2 Z-1.958 I0 J-0.45
X-47.5 Y46.1 Z-2.098 I0 J0.45
X-47.5 Y45.2 Z-2.238 I0 J-0.45
X-47.5 Y46.1 Z-2.378 I0 J0.45
X-47.5 Y45.2 Z-2.517 I0 J-0.45
X-47.5 Y46.1 Z-2.657 I0 J0.45
X-47.5 Y45.2 Z-2.797 I0 J-0.45
X-47.5 Y46.1 Z-2.937 I0 J0.45
X-47.5 Y45.2 Z-3.077 I0 J-0.45
X-47.5 Y46.1 Z-3.217 I0 J0.45
X-47.5 Y45.2 Z-3.356 I0 J-0.45
X-47.5 Y46.1 Z-3.496 I0 J0.45
X-47.5 Y45.2 Z-3.636 I0 J-0.45
X-47.5 Y46.1 Z-3.776 I0 J0.45
X-47.5 Y45.2 Z-3.916 I0 J-0.45
X-47.5 Y46.1 Z-4.056 I0 J0.45
X-47.5 Y45.2 Z-4.196 I0 J-0.45
X-47.5 Y46.1 Z-4.335 I0 J0.45
X-47.5 Y45.2 Z-4.475 I0 J-0.45
X-47.5 Y46.1 Z-4.615 I0 J0.45
X-47.5 Y45.2 Z-4.755 I0 J-0.45
X-47.5 Y46.1 Z-4.895 I0 J0.45
X-47.5 Y45.2 Z-5.035 I0 J-0.45
X-47.5 Y46.1 Z-5.175 I0 J0.45
X-47.5 Y45.2 Z-5.314 I0 J-0.45
X-47.5 Y46.1 Z-5.454 I0 J0.45
X-47.5 Y45.2 Z-5.594 I0 J-0.45
X-47.5 Y46.1 Z-5.734 I0 J0.45
X-47.5 Y45.2 Z-5.874 I0 J-0.45
X-47.5 Y46.1 Z-6.014 I0 J0.45
X-47.5 Y45.2 Z-6.154 I0 J-0.45
X-47.051 Y45.683 Z-6.227 I0 J0.45
X-47.566 Y46.095 Z-6.3 I-0.449 J-0.033
X-47.434 Y45.205 I0.066 J-0.445
X-47.566 Y46.095 I-0.066 J0.445
X-47.756 Y45.839 I0.033 J-0.223 F50
G1 X-47.733 Y45.686
X-47.723 Y45.618 Z-6.292
X-47.713 Y45.553 Z-6.269
X-47.704 Y45.495 Z-6.232
X-47.697 Y45.446 Z-6.183
X-47.692 Y45.41 Z-6.125
X-47.688 Y45.387 Z-6.059
X-47.687 Y45.379 Z-5.99
Z5 F200
X-57.684 Y51.64
Z2
Z0.31 F50
G19 G2 Y51.33 Z0 J-0.31 K0
G1 Y51.175
G17 G3 X-57.459 Y50.95 I0.225 J0
X-57.459 Y51.85 Z-0.14 I0 J0.45 F200
X-57.459 Y50.95 Z-0.28 I0 J-0.45
X-57.459 Y51.85 Z-0.42 I0 J0.45
X-57.459 Y50.95 Z-0.559 I0 J-0.45
X-57.459 Y51.85 Z-0.699 I0 J0.45
X-57.459 Y50.95 Z-0.839 I0 J-0.45
X-57.459 Y51.85 Z-0.979 I0 J0.45
X-57.459 Y50.95 Z-1.119 I0 J-0.45
X-57.459 Y51.85 Z-1.259 I0 J0.45
X-57.459 Y50.95 Z-1.399 I0 J-0.45
X-57.459 Y51.85 Z-1.538 I0 J0.45
X-57.459 Y50.95 Z-1.678 I0 J-0.45
X-57.459 Y51.85 Z-1.818 I0 J0.45
X-57.459 Y50.95 Z-1.958 I0 J-0.45
X-57.459 Y51.85 Z-2.098 I0 J0.45
X-57.459 Y50.95 Z-2.238 I0 J-0.45
X-57.459 Y51.85 Z-2.378 I0 J0.45
X-57.459 Y50.95 Z-2.517 I0 J-0.45
X-57.459 Y51.85 Z-2.657 I0 J0.45
X-57.459 Y50.95 Z-2.797 I0 J-0.45
X-57.459 Y51.85 Z-2.937 I0 J0.45
X-57.459 Y50.95 Z-3.077 I0 J-0.45
X-57.459 Y51.85 Z-3.217 I0 J0.45
X-57.459 Y50.95 Z-3.356 I0 J-0.45
X-57.459 Y51.85 Z-3.496 I0 J0.45
X-57.459 Y50.95 Z-3.636 I0 J-0.45
X-57.459 Y51.85 Z-3.776 I0 J0.45
X-57.459 Y50.95 Z-3.916 I0 J-0.45
X-57.459 Y51.85 Z-4.056 I0 J0.45
X-57.459 Y50.95 Z-4.196 I0 J-0.45
X-57.459 Y51.85 Z-4.335 I0 J0.45
X-57.459 Y50.95 Z-4.475 I0 J-0.45
X-57.459 Y51.85 Z-4.615 I0 J0.45
X-57.459 Y50.95 Z-4.755 I0 J-0.45
X-57.459 Y51.85 Z-4.895 I0 J0.45
X-57.459 Y50.95 Z-5.035 I0 J-0.45
X-57.459 Y51.85 Z-5.175 I0 J0.45
X-57.459 Y50.95 Z-5.314 I0 J-0.45
X-57.459 Y51.85 Z-5.454 I0 J0.45
X-57.459 Y50.95 Z-5.594 I0 J-0.45
X-57.459 Y51.85 Z-5.734 I0 J0.45
X-57.459 Y50.95 Z-5.874 I0 J-0.45
X-57.459 Y51.85 Z-6.014 I0 J0.45
X-57.459 Y50.95 Z-6.154 I0 J-0.45
X-57.011 Y51.433 Z-6.227 I0 J0.45
X-57.526 Y51.845 Z-6.3 I-0.449 J-0.033
X-57.393 Y50.955 I0.066 J-0.445
X-57.526 Y51.845 I-0.066 J0.445
X-57.715 Y51.589 I0.033 J-0.223 F50
G1 X-57.692 Y51.436
X-57.682 Y51.368 Z-6.292
X-57.672 Y51.303 Z-6.269
X-57.664 Y51.245 Z-6.232
X-57.656 Y51.196 Z-6.183
X-57.651 Y51.16 Z-6.125
X-57.648 Y51.137 Z-6.059
X-57.646 Y51.129 Z-5.99
Z5 F200
X-57.684 Y63.14
Z2
Z0.31 F50
G19 G2 Y62.83 Z0 J-0.31 K0
G1 Y62.675
G17 G3 X-57.459 Y62.45 I0.225 J0
X-57.459 Y63.35 Z-0.14 I0 J0.45 F200
X-57.459 Y62.45 Z-0.28 I0 J-0.45
X-57.459 Y63.35 Z-0.42 I0 J0.45
X-57.459 Y62.45 Z-0.559 I0 J-0.45
X-57.459 Y63.35 Z-0.699 I0 J0.45
X-57.459 Y62.45 Z-0.839 I0 J-0.45
X-57.459 Y63.35 Z-0.979 I0 J0.45
X-57.459 Y62.45 Z-1.119 I0 J-0.45
X-57.459 Y63.35 Z-1.259 I0 J0.45
X-57.459 Y62.45 Z-1.399 I0 J-0.45
X-57.459 Y63.35 Z-1.538 I0 J0.45
X-57.459 Y62.45 Z-1.678 I0 J-0.45
X-57.459 Y63.35 Z-1.818 I0 J0.45
X-57.459 Y62.45 Z-1.958 I0 J-0.45
X-57.459 Y63.35 Z-2.098 I0 J0.45
X-57.459 Y62.45 Z-2.238 I0 J-0.45
X-57.459 Y63.35 Z-2.378 I0 J0.45
X-57.459 Y62.45 Z-2.517 I0 J-0.45
X-57.459 Y63.35 Z-2.657 I0 J0.45
X-57.459 Y62.45 Z-2.797 I0 J-0.45
X-57.459 Y63.35 Z-2.937 I0 J0.45
X-57.459 Y62.45 Z-3.077 I0 J-0.45
X-57.459 Y63.35 Z-3.217 I0 J0.45
X-57.459 Y62.45 Z-3.356 I0 J-0.45
X-57.459 Y63.35 Z-3.496 I0 J0.45
X-57.459 Y62.45 Z-3.636 I0 J-0.45
X-57.459 Y63.35 Z-3.776 I0 J0.45
X-57.459 Y62.45 Z-3.916 I0 J-0.45
X-57.459 Y63.35 Z-4.056 I0 J0.45
X-57.459 Y62.45 Z-4.196 I0 J-0.45
X-57.459 Y63.35 Z-4.335 I0 J0.45
X-57.459 Y62.45 Z-4.475 I0 J-0.45
X-57.459 Y63.35 Z-4.615 I0 J0.45
X-57.459 Y62.45 Z-4.755 I0 J-0.45
X-57.459 Y63.35 Z-4.895 I0 J0.45
X-57.459 Y62.45 Z-5.035 I0 J-0.45
X-57.459 Y63.35 Z-5.175 I0 J0.45
X-57.459 Y62.45 Z-5.314 I0 J-0.45
X-57.459 Y63.35 Z-5.454 I0 J0.45
X-57.459 Y62.45 Z-5.594 I0 J-0.45
X-57.459 Y63.35 Z-5.734 I0 J0.45
X-57.459 Y62.45 Z-5.874 I0 J-0.45
X-57.459 Y63.35 Z-6.014 I0 J0.45
X-57.459 Y62.45 Z-6.154 I0 J-0.45
X-57.011 Y62.933 Z-6.227 I0 J0.45
X-57.526 Y63.345 Z-6.3 I-0.449 J-0.033
X-57.393 Y62.455 I0.066 J-0.445
X-57.526 Y63.345 I-0.066 J0.445
X-57.715 Y63.089 I0.033 J-0.223 F50
G1 X-57.692 Y62.936
X-57.682 Y62.868 Z-6.292
X-57.672 Y62.803 Z-6.269
X-57.664 Y62.745 Z-6.232
X-57.656 Y62.696 Z-6.183
X-57.651 Y62.66 Z-6.125
X-57.648 Y62.637 Z-6.059
X-57.646 Y62.629 Z-5.99
Z5 F200
X-47.725 Y68.89
Z2
Z0.31 F50
G19 G2 Y68.58 Z0 J-0.31 K0
G1 Y68.425
G17 G3 X-47.5 Y68.2 I0.225 J0
X-47.5 Y69.1 Z-0.14 I0 J0.45 F200
X-47.5 Y68.2 Z-0.28 I0 J-0.45
X-47.5 Y69.1 Z-0.42 I0 J0.45
X-47.5 Y68.2 Z-0.559 I0 J-0.45
X-47.5 Y69.1 Z-0.699 I0 J0.45
X-47.5 Y68.2 Z-0.839 I0 J-0.45
X-47.5 Y69.1 Z-0.979 I0 J0.45
X-47.5 Y68.2 Z-1.119 I0 J-0.45
X-47.5 Y69.1 Z-1.259 I0 J0.45
X-47.5 Y68.2 Z-1.399 I0 J-0.45
X-47.5 Y69.1 Z-1.538 I0 J0.45
X-47.5 Y68.2 Z-1.678 I0 J-0.45
X-47.5 Y69.1 Z-1.818 I0 J0.45
X-47.5 Y68.2 Z-1.958 I0 J-0.45
X-47.5 Y69.1 Z-2.098 I0 J0.45
X-47.5 Y68.2 Z-2.238 I0 J-0.45
X-47.5 Y69.1 Z-2.378 I0 J0.45
X-47.5 Y68.2 Z-2.517 I0 J-0.45
X-47.5 Y69.1 Z-2.657 I0 J0.45
X-47.5 Y68.2 Z-2.797 I0 J-0.45
X-47.5 Y69.1 Z-2.937 I0 J0.45
X-47.5 Y68.2 Z-3.077 I0 J-0.45
X-47.5 Y69.1 Z-3.217 I0 J0.45
X-47.5 Y68.2 Z-3.356 I0 J-0.45
X-47.5 Y69.1 Z-3.496 I0 J0.45
X-47.5 Y68.2 Z-3.636 I0 J-0.45
X-47.5 Y69.1 Z-3.776 I0 J0.45
X-47.5 Y68.2 Z-3.916 I0 J-0.45
X-47.5 Y69.1 Z-4.056 I0 J0.45
X-47.5 Y68.2 Z-4.196 I0 J-0.45
X-47.5 Y69.1 Z-4.335 I0 J0.45
X-47.5 Y68.2 Z-4.475 I0 J-0.45
X-47.5 Y69.1 Z-4.615 I0 J0.45
X-47.5 Y68.2 Z-4.755 I0 J-0.45
X-47.5 Y69.1 Z-4.895 I0 J0.45
X-47.5 Y68.2 Z-5.035 I0 J-0.45
X-47.5 Y69.1 Z-5.175 I0 J0.45
X-47.5 Y68.2 Z-5.314 I0 J-0.45
X-47.5 Y69.1 Z-5.454 I0 J0.45
X-47.5 Y68.2 Z-5.594 I0 J-0.45
X-47.5 Y69.1 Z-5.734 I0 J0.45
X-47.5 Y68.2 Z-5.874 I0 J-0.45
X-47.5 Y69.1 Z-6.014 I0 J0.45
X-47.5 Y68.2 Z-6.154 I0 J-0.45
X-47.051 Y68.683 Z-6.227 I0 J0.45
X-47.566 Y69.095 Z-6.3 I-0.449 J-0.033
X-47.434 Y68.205 I0.066 J-0.445
X-47.566 Y69.095 I-0.066 J0.445
X-47.756 Y68.839 I0.033 J-0.223 F50
G1 X-47.733 Y68.686
X-47.723 Y68.618 Z-6.292
X-47.713 Y68.553 Z-6.269
X-47.704 Y68.495 Z-6.232
X-47.697 Y68.446 Z-6.183
X-47.692 Y68.41 Z-6.125
X-47.688 Y68.387 Z-6.059
X-47.687 Y68.379 Z-5.99
Z5 F200
X-37.766 Y63.14
Z2
Z0.31 F50
G19 G2 Y62.83 Z0 J-0.31 K0
G1 Y62.675
G17 G3 X-37.541 Y62.45 I0.225 J0
X-37.541 Y63.35 Z-0.14 I0 J0.45 F200
X-37.541 Y62.45 Z-0.28 I0 J-0.45
X-37.541 Y63.35 Z-0.42 I0 J0.45
X-37.541 Y62.45 Z-0.559 I0 J-0.45
X-37.541 Y63.35 Z-0.699 I0 J0.45
X-37.541 Y62.45 Z-0.839 I0 J-0.45
X-37.541 Y63.35 Z-0.979 I0 J0.45
X-37.541 Y62.45 Z-1.119 I0 J-0.45
X-37.541 Y63.35 Z-1.259 I0 J0.45
X-37.541 Y62.45 Z-1.399 I0 J-0.45
X-37.541 Y63.35 Z-1.538 I0 J0.45
X-37.541 Y62.45 Z-1.678 I0 J-0.45
X-37.541 Y63.35 Z-1.818 I0 J0.45
X-37.541 Y62.45 Z-1.958 I0 J-0.45
X-37.541 Y63.35 Z-2.098 I0 J0.45
X-37.541 Y62.45 Z-2.238 I0 J-0.45
X-37.541 Y63.35 Z-2.378 I0 J0.45
X-37.541 Y62.45 Z-2.517 I0 J-0.45
X-37.541 Y63.35 Z-2.657 I0 J0.45
X-37.541 Y62.45 Z-2.797 I0 J-0.45
X-37.541 Y63.35 Z-2.937 I0 J0.45
X-37.541 Y62.45 Z-3.077 I0 J-0.45
X-37.541 Y63.35 Z-3.217 I0 J0.45
X-37.541 Y62.45 Z-3.356 I0 J-0.45
X-37.541 Y63.35 Z-3.496 I0 J0.45
X-37.541 Y62.45 Z-3.636 I0 J-0.45
X-37.541 Y63.35 Z-3.776 I0 J0.45
X-37.541 Y62.45 Z-3.916 I0 J-0.45
X-37.541 Y63.35 Z-4.056 I0 J0.45
X-37.541 Y62.45 Z-4.196 I0 J-0.45
X-37.541 Y63.35 Z-4.335 I0 J0.45
X-37.541 Y62.45 Z-4.475 I0 J-0.45
X-37.541 Y63.35 Z-4.615 I0 J0.45
X-37.541 Y62.45 Z-4.755 I0 J-0.45
X-37.541 Y63.35 Z-4.895 I0 J0.45
X-37.541 Y62.45 Z-5.035 I0 J-0.45
X-37.541 Y63.35 Z-5.175 I0 J0.45
X-37.541 Y62.45 Z-5.314 I0 J-0.45
X-37.541 Y63.35 Z-5.454 I0 J0.45
X-37.541 Y62.45 Z-5.594 I0 J-0.45
X-37.541 Y63.35 Z-5.734 I0 J0.45
X-37.541 Y62.45 Z-5.874 I0 J-0.45
X-37.541 Y63.35 Z-6.014 I0 J0.45
X-37.541 Y62.45 Z-6.154 I0 J-0.45
X-37.092 Y62.933 Z-6.227 I0 J0.45
X-37.607 Y63.345 Z-6.3 I-0.449 J-0.033
X-37.474 Y62.455 I0.066 J-0.445
X-37.607 Y63.345 I-0.066 J0.445
X-37.796 Y63.089 I0.033 J-0.223 F50
G1 X-37.774 Y62.936
X-37.763 Y62.868 Z-6.292
X-37.754 Y62.803 Z-6.269
X-37.745 Y62.745 Z-6.232
X-37.738 Y62.696 Z-6.183
X-37.732 Y62.66 Z-6.125
X-37.729 Y62.637 Z-6.059
X-37.728 Y62.629 Z-5.99
Z15 F200
(When using Fusion for Personal Use, the feedrate of rapid)
(moves is reduced to match the feedrate of cutting moves,)
(which can increase machining time. Unrestricted rapid moves)
(are available with a Fusion Subscription.)

(Bore8)
G0 X-8 Y8
G1 Z15 F200
Z1.69
Z0 F50
X-8.025 Y7.975
X-8.018 Y7.957
X-8 Y7.95
X-7.973 Y7.958 Z-0.02 F200
X-7.955 Y7.979 Z-0.04
X-7.95 Y8.006 Z-0.061
X-7.962 Y8.032 Z-0.081
X-7.985 Y8.048 Z-0.101
X-8.013 Z-0.121
X-8.037 Y8.034 Z-0.141
X-8.049 Y8.009 Z-0.162
X-8.046 Y7.981 Z-0.182
X-8.029 Y7.959 Z-0.202
X-8.002 Y7.95 Z-0.222
X-7.975 Y7.957 Z-0.242
X-7.956 Y7.977 Z-0.263
X-7.95 Y8.004 Z-0.283
X-7.96 Y8.03 Z-0.303
X-7.983 Y8.047 Z-0.323
X-8.011 Y8.049 Z-0.343
X-8.035 Y8.036 Z-0.363
X-8.049 Y8.011 Z-0.384
X-8.047 Y7.983 Z-0.404
X-8.031 Y7.96 Z-0.424
X-8.005 Y7.95 Z-0.444
X-7.977 Y7.956 Z-0.464
X-7.957 Y7.975 Z-0.485
X-7.95 Y8.002 Z-0.505
X-7.959 Y8.028 Z-0.525
X-7.981 Y8.046 Z-0.545
X-8.008 Y8.049 Z-0.565
X-8.034 Y8.037 Z-0.586
X-8.048 Y8.013 Z-0.606
Y7.985 Z-0.626
X-8.032 Y7.962 Z-0.646
X-8.007 Y7.95 Z-0.666
X-7.979 Y7.955 Z-0.687
X-7.958 Y7.973 Z-0.707
X-7.95 Y8 Z-0.727
X-7.958 Y8.026 Z-0.747
X-7.978 Y8.045 Z-0.767
X-8.006 Y8.05 Z-0.788
X-8.032 Y8.039 Z-0.808
X-8.048 Y8.016 Z-0.828
Y7.988 Z-0.848
X-8.034 Y7.963 Z-0.868
X-8.009 Y7.951 Z-0.888
X-7.981 Y7.954 Z-0.909
X-7.959 Y7.971 Z-0.929
X-7.95 Y7.997 Z-0.949
X-7.956 Y8.024 Z-0.969
X-7.976 Y8.044 Z-0.989
X-8.004 Y8.05 Z-1.01
X-8.03 Y8.04 Z-1.03
X-8.047 Y8.018 Z-1.05
X-8.049 Y7.99 Z-1.07
X-8.036 Y7.965 Z-1.09
X-8.011 Y7.951 Z-1.111
X-7.984 Y7.953 Z-1.131
X-7.961 Y7.969 Z-1.151
X-7.95 Y7.995 Z-1.171
X-7.955 Y8.022 Z-1.191
X-7.974 Y8.043 Z-1.212
X-8.001 Y8.05 Z-1.232
X-8.028 Y8.041 Z-1.252
X-8.046 Y8.02 Z-1.272
X-8.049 Y7.992 Z-1.292
X-8.037 Y7.967 Z-1.313
X-8.014 Y7.952 Z-1.333
X-7.986 Z-1.353
X-7.962 Y7.967 Z-1.373
X-7.951 Y7.993 Z-1.393
X-7.954 Y8.02 Z-1.413
X-7.972 Y8.042 Z-1.434
X-7.999 Y8.05 Z-1.454
X-8.026 Y8.043 Z-1.474
X-8.045 Y8.022 Z-1.494
X-8.05 Y7.994 Z-1.514
X-8.039 Y7.969 Z-1.535
X-8.016 Y7.953 Z-1.555
X-7.988 Y7.951 Z-1.575
X-7.964 Y7.966 Z-1.595
X-7.951 Y7.99 Z-1.615
X-7.953 Y8.018 Z-1.636
X-7.97 Y8.04 Z-1.656
X-7.997 Y8.05 Z-1.676
X-8.024 Y8.044 Z-1.696
X-8.044 Y8.024 Z-1.716
X-8.05 Y7.997 Z-1.737
X-8.04 Y7.97 Z-1.757
X-8.018 Y7.953 Z-1.777
X-7.99 Y7.951 Z-1.797
X-7.965 Y7.964 Z-1.817
X-7.951 Y7.988 Z-1.838
X-7.953 Y8.016 Z-1.858
X-7.969 Y8.039 Z-1.878
X-7.994 Y8.05 Z-1.898
X-8.022 Y8.045 Z-1.918
X-8.043 Y8.026 Z-1.938
X-8.05 Y7.999 Z-1.959
X-8.042 Y7.972 Z-1.979
X-8.02 Y7.954 Z-1.999
X-7.993 Y7.951 Z-2.019
X-7.967 Y7.962 Z-2.039
X-7.952 Y7.986 Z-2.06
Y8.014 Z-2.08
X-7.967 Y8.037 Z-2.1
X-7.992 Y8.049 Z-2.12
X-8.02 Y8.046 Z-2.14
X-8.041 Y8.028 Z-2.161
X-8.05 Y8.001 Z-2.181
X-8.043 Y7.974 Z-2.201
X-8.022 Y7.955 Z-2.221
X-7.995 Y7.95 Z-2.241
X-7.969 Y7.961 Z-2.262
X-7.953 Y7.984 Z-2.282
X-7.951 Y8.012 Z-2.302
X-7.965 Y8.036 Z-2.322
X-7.99 Y8.049 Z-2.342
X-8.018 Y8.047 Z-2.363
X-8.04 Y8.03 Z-2.383
X-8.05 Y8.004 Z-2.403
X-8.044 Y7.976 Z-2.423
X-8.024 Y7.956 Z-2.443
X-7.997 Y7.95 Z-2.463
X-7.971 Y7.959 Z-2.484
X-7.954 Y7.981 Z-2.504
X-7.951 Y8.009 Z-2.524
X-7.964 Y8.034 Z-2.544
X-7.988 Y8.048 Z-2.564
X-8.016 Z-2.585
X-8.039 Y8.032 Z-2.605
X-8.05 Y8.006 Z-2.625
X-8.045 Y7.978 Z-2.645
X-8.026 Y7.958 Z-2.665
X-7.999 Y7.95 Z-2.686
X-7.973 Y7.958 Z-2.706
X-7.954 Y7.979 Z-2.726
X-7.95 Y8.007 Z-2.746
X-7.962 Y8.033 Z-2.766
X-7.985 Y8.048 Z-2.787
X-8.013 Z-2.807
X-8.037 Y8.033 Z-2.827
X-8.049 Y8.008 Z-2.847
X-8.046 Y7.98 Z-2.867
X-8.028 Y7.959 Z-2.888
X-8.002 Y7.95 Z-2.908
X-7.975 Y7.957 Z-2.928
X-7.955 Y7.977 Z-2.948
X-7.95 Y8.005 Z-2.968
X-7.961 Y8.031 Z-2.988
X-7.983 Y8.047 Z-3.009
X-8.011 Y8.049 Z-3.029
X-8.036 Y8.035 Z-3.049
X-8.049 Y8.011 Z-3.069
X-8.047 Y7.983 Z-3.089
X-8.03 Y7.96 Z-3.11
X-8.004 Y7.95 Z-3.13
X-7.977 Y7.956 Z-3.15
X-7.957 Y7.975 Z-3.17
X-7.95 Y8.002 Z-3.19
X-7.959 Y8.029 Z-3.211
X-7.981 Y8.046 Z-3.231
X-8.009 Y8.049 Z-3.251
X-8.034 Y8.037 Z-3.271
X-8.048 Y8.013 Z-3.291
Y7.985 Z-3.312
X-8.032 Y7.962 Z-3.332
X-8.006 Y7.95 Z-3.352
X-7.979 Y7.955 Z-3.372
X-7.958 Y7.973 Z-3.392
X-7.95 Y8 Z-3.413
X-7.958 Y8.027 Z-3.433
X-7.979 Y8.045 Z-3.453
X-8.007 Y8.05 Z-3.473
X-8.032 Y8.038 Z-3.493
X-8.048 Y8.015 Z-3.513
Y7.987 Z-3.534
X-8.034 Y7.963 Z-3.554
X-8.009 Y7.951 Z-3.574
X-7.981 Y7.954 Z-3.594
X-7.959 Y7.971 Z-3.614
X-7.95 Y7.998 Z-3.635
X-7.957 Y8.025 Z-3.655
X-7.977 Y8.044 Z-3.675
X-8.004 Y8.05 Z-3.695
X-8.03 Y8.04 Z-3.715
X-8.047 Y8.017 Z-3.736
X-8.049 Y7.989 Z-3.756
X-8.035 Y7.965 Z-3.776
X-8.011 Y7.951 Z-3.796
X-7.983 Y7.953 Z-3.816
X-7.96 Y7.969 Z-3.837
X-7.95 Y7.995 Z-3.857
X-7.956 Y8.023 Z-3.877
X-7.975 Y8.043 Z-3.897
X-8.002 Y8.05 Z-3.917
X-8.028 Y8.041 Z-3.938
X-8.046 Y8.019 Z-3.958
X-8.049 Y7.992 Z-3.978
X-8.037 Y7.966 Z-3.998
X-8.013 Y7.952 Z-4.018
X-7.985 Z-4.038
X-7.962 Y7.968 Z-4.059
X-7.95 Y7.993 Z-4.079
X-7.955 Y8.021 Z-4.099
X-7.973 Y8.042 Z-4.119
X-8 Y8.05 Z-4.139
X-8.027 Y8.042 Z-4.16
X-8.045 Y8.021 Z-4.18
X-8.05 Y7.994 Z-4.2
X-8.039 Y7.968 Z-4.22
X-8.015 Y7.952 Z-4.24
X-7.987 Z-4.261
X-7.963 Y7.966 Z-4.281
X-7.951 Y7.991 Z-4.301
X-7.954 Y8.019 Z-4.321
X-7.971 Y8.041 Z-4.341
X-7.997 Y8.05 Z-4.362
X-8.025 Y8.044 Z-4.382
X-8.044 Y8.024 Z-4.402
X-8.05 Y7.996 Z-4.422
X-8.04 Y7.97 Z-4.442
X-8.018 Y7.953 Z-4.463
X-7.99 Y7.951 Z-4.483
X-7.965 Y7.964 Z-4.503
X-7.951 Y7.989 Z-4.523
X-7.953 Y8.017 Z-4.543
X-7.969 Y8.039 Z-4.563
X-7.995 Y8.05 Z-4.584
X-8.023 Y8.045 Z-4.604
X-8.043 Y8.026 Z-4.624
X-8.05 Y7.998 Z-4.644
X-8.041 Y7.972 Z-4.664
X-8.02 Y7.954 Z-4.685
X-7.992 Y7.951 Z-4.705
X-7.967 Y7.963 Z-4.725
X-7.952 Y7.986 Z-4.745
Y8.014 Z-4.765
X-7.967 Y8.038 Z-4.786
X-7.993 Y8.049 Z-4.806
X-8.02 Y8.046 Z-4.826
X-8.042 Y8.028 Z-4.846
X-8.05 Y8.001 Z-4.866
X-8.043 Y7.974 Z-4.887
X-8.022 Y7.955 Z-4.907
X-7.994 Y7.95 Z-4.927
X-7.969 Y7.961 Z-4.947
X-7.953 Y7.984 Z-4.967
X-7.951 Y8.012 Z-4.988
X-7.966 Y8.036 Z-5.008
X-7.99 Y8.049 Z-5.028
X-8.018 Y8.047 Z-5.048
X-8.04 Y8.029 Z-5.068
X-8.05 Y8.003 Z-5.088
X-8.044 Y7.976 Z-5.109
X-8.024 Y7.956 Z-5.129
X-7.997 Y7.95 Z-5.149
X-7.97 Y7.96 Z-5.169
X-7.953 Y7.982 Z-5.189
X-7.951 Y8.01 Z-5.21
X-7.964 Y8.035 Z-5.23
X-7.988 Y8.049 Z-5.25
X-8.016 Y8.047 Z-5.27
X-8.039 Y8.031 Z-5.29
X-8.05 Y8.005 Z-5.311
X-8.045 Y7.978 Z-5.331
X-8.026 Y7.957 Z-5.351
X-7.999 Y7.95 Z-5.371
X-7.972 Y7.958 Z-5.391
X-7.954 Y7.98 Z-5.412
X-7.951 Y8.008 Z-5.432
X-7.962 Y8.033 Z-5.452
X-7.986 Y8.048 Z-5.472
X-8.014 Z-5.492
X-8.038 Y8.033 Z-5.513
X-8.049 Y8.008 Z-5.533
X-8.046 Y7.98 Z-5.553
X-8.028 Y7.958 Z-5.573
X-8.001 Y7.95 Z-5.593
X-7.974 Y7.957 Z-5.613
X-7.955 Y7.978 Z-5.634
X-7.95 Y8.005 Z-5.654
X-7.961 Y8.031 Z-5.674
X-7.984 Y8.047 Z-5.694
X-8.012 Y8.049 Z-5.714
X-8.036 Y8.035 Z-5.735
X-8.049 Y8.01 Z-5.755
X-8.047 Y7.982 Z-5.775
X-8.03 Y7.96 Z-5.795
X-8.004 Y7.95 Z-5.815
X-7.976 Y7.956 Z-5.836
X-7.956 Y7.976 Z-5.856
X-7.95 Y8.003 Z-5.876
X-7.959 Y8.029 Z-5.896
X-7.982 Y8.046 Z-5.916
X-8.009 Y8.049 Z-5.937
X-8.034 Y8.036 Z-5.957
X-8.048 Y8.012 Z-5.977
X-8.047 Y7.984 Z-5.997
X-8.032 Y7.961 Z-6.017
X-8.006 Y7.95 Z-6.038
X-7.978 Y7.955 Z-6.058
X-7.957 Y7.974 Z-6.078
X-7.95 Y8.001 Z-6.098
X-7.958 Y8.027 Z-6.118
X-7.979 Y8.046 Z-6.138
X-8.007 Y8.049 Z-6.159
X-8.033 Y8.038 Z-6.179
X-8.048 Y8.014 Z-6.199
Y7.987 Z-6.219
X-8.033 Y7.963 Z-6.239
X-8.008 Y7.951 Z-6.26
X-7.98 Y7.954 Z-6.28
X-7.959 Y7.972 Z-6.3
G3 X-8.041 Y8.028 I-0.041 J0.028
X-7.959 Y7.972 I0.041 J-0.028
G1 X-7.955 Y7.99 F50
X-7.965 Y8.007
X-8 Y8
Z5 F200
X-98
Z1.69
Z0 F50
X-98.025 Y7.975
X-98.018 Y7.957
X-98 Y7.95
X-97.973 Y7.958 Z-0.02 F200
X-97.955 Y7.979 Z-0.04
X-97.95 Y8.006 Z-0.061
X-97.962 Y8.032 Z-0.081
X-97.985 Y8.048 Z-0.101
X-98.013 Z-0.121
X-98.037 Y8.034 Z-0.141
X-98.049 Y8.009 Z-0.162
X-98.046 Y7.981 Z-0.182
X-98.029 Y7.959 Z-0.202
X-98.002 Y7.95 Z-0.222
X-97.975 Y7.957 Z-0.242
X-97.956 Y7.977 Z-0.263
X-97.95 Y8.004 Z-0.283
X-97.96 Y8.03 Z-0.303
X-97.983 Y8.047 Z-0.323
X-98.011 Y8.049 Z-0.343
X-98.035 Y8.036 Z-0.363
X-98.049 Y8.011 Z-0.384
X-98.047 Y7.983 Z-0.404
X-98.031 Y7.96 Z-0.424
X-98.005 Y7.95 Z-0.444
X-97.977 Y7.956 Z-0.464
X-97.957 Y7.975 Z-0.485
X-97.95 Y8.002 Z-0.505
X-97.959 Y8.028 Z-0.525
X-97.981 Y8.046 Z-0.545
X-98.008 Y8.049 Z-0.565
X-98.034 Y8.037 Z-0.586
X-98.048 Y8.013 Z-0.606
Y7.985 Z-0.626
X-98.032 Y7.962 Z-0.646
X-98.007 Y7.95 Z-0.666
X-97.979 Y7.955 Z-0.687
X-97.958 Y7.973 Z-0.707
X-97.95 Y8 Z-0.727
X-97.958 Y8.026 Z-0.747
X-97.978 Y8.045 Z-0.767
X-98.006 Y8.05 Z-0.788
X-98.032 Y8.039 Z-0.808
X-98.048 Y8.016 Z-0.828
Y7.988 Z-0.848
X-98.034 Y7.963 Z-0.868
X-98.009 Y7.951 Z-0.888
X-97.981 Y7.954 Z-0.909
X-97.959 Y7.971 Z-0.929
X-97.95 Y7.997 Z-0.949
X-97.956 Y8.024 Z-0.969
X-97.976 Y8.044 Z-0.989
X-98.004 Y8.05 Z-1.01
X-98.03 Y8.04 Z-1.03
X-98.047 Y8.018 Z-1.05
X-98.049 Y7.99 Z-1.07
X-98.036 Y7.965 Z-1.09
X-98.011 Y7.951 Z-1.111
X-97.984 Y7.953 Z-1.131
X-97.961 Y7.969 Z-1.151
X-97.95 Y7.995 Z-1.171
X-97.955 Y8.022 Z-1.191
X-97.974 Y8.043 Z-1.212
X-98.001 Y8.05 Z-1.232
X-98.028 Y8.041 Z-1.252
X-98.046 Y8.02 Z-1.272
X-98.049 Y7.992 Z-1.292
X-98.037 Y7.967 Z-1.313
X-98.014 Y7.952 Z-1.333
X-97.986 Z-1.353
X-97.962 Y7.967 Z-1.373
X-97.951 Y7.993 Z-1.393
X-97.954 Y8.02 Z-1.413
X-97.972 Y8.042 Z-1.434
X-97.999 Y8.05 Z-1.454
X-98.026 Y8.043 Z-1.474
X-98.045 Y8.022 Z-1.494
X-98.05 Y7.994 Z-1.514
X-98.039 Y7.969 Z-1.535
X-98.016 Y7.953 Z-1.555
X-97.988 Y7.951 Z-1.575
X-97.964 Y7.966 Z-1.595
X-97.951 Y7.99 Z-1.615
X-97.953 Y8.018 Z-1.636
X-97.97 Y8.04 Z-1.656
X-97.997 Y8.05 Z-1.676
X-98.024 Y8.044 Z-1.696
X-98.044 Y8.024 Z-1.716
X-98.05 Y7.997 Z-1.737
X-98.04 Y7.97 Z-1.757
X-98.018 Y7.953 Z-1.777
X-97.99 Y7.951 Z-1.797
X-97.965 Y7.964 Z-1.817
X-97.951 Y7.988 Z-1.838
X-97.953 Y8.016 Z-1.858
X-97.969 Y8.039 Z-1.878
X-97.994 Y8.05 Z-1.898
X-98.022 Y8.045 Z-1.918
X-98.043 Y8.026 Z-1.938
X-98.05 Y7.999 Z-1.959
X-98.042 Y7.972 Z-1.979
X-98.02 Y7.954 Z-1.999
X-97.993 Y7.951 Z-2.019
X-97.967 Y7.962 Z-2.039
X-97.952 Y7.986 Z-2.06
Y8.014 Z-2.08
X-97.967 Y8.037 Z-2.1
X-97.992 Y8.049 Z-2.12
X-98.02 Y8.046 Z-2.14
X-98.041 Y8.028 Z-2.161
X-98.05 Y8.001 Z-2.181
X-98.043 Y7.974 Z-2.201
X-98.022 Y7.955 Z-2.221
X-97.995 Y7.95 Z-2.241
X-97.969 Y7.961 Z-2.262
X-97.953 Y7.984 Z-2.282
X-97.951 Y8.012 Z-2.302
X-97.965 Y8.036 Z-2.322
X-97.99 Y8.049 Z-2.342
X-98.018 Y8.047 Z-2.363
X-98.04 Y8.03 Z-2.383
X-98.05 Y8.004 Z-2.403
X-98.044 Y7.976 Z-2.423
X-98.024 Y7.956 Z-2.443
X-97.997 Y7.95 Z-2.463
X-97.971 Y7.959 Z-2.484
X-97.954 Y7.981 Z-2.504
X-97.951 Y8.009 Z-2.524
X-97.964 Y8.034 Z-2.544
X-97.988 Y8.048 Z-2.564
X-98.016 Y8.047 Z-2.585
X-98.039 Y8.032 Z-2.605
X-98.05 Y8.006 Z-2.625
X-98.045 Y7.978 Z-2.645
X-98.026 Y7.958 Z-2.665
X-97.999 Y7.95 Z-2.686
X-97.973 Y7.958 Z-2.706
X-97.954 Y7.979 Z-2.726
X-97.95 Y8.007 Z-2.746
X-97.962 Y8.033 Z-2.766
X-97.985 Y8.048 Z-2.787
X-98.013 Z-2.807
X-98.037 Y8.033 Z-2.827
X-98.049 Y8.008 Z-2.847
X-98.046 Y7.98 Z-2.867
X-98.028 Y7.959 Z-2.888
X-98.002 Y7.95 Z-2.908
X-97.975 Y7.957 Z-2.928
X-97.955 Y7.977 Z-2.948
X-97.95 Y8.005 Z-2.968
X-97.961 Y8.031 Z-2.988
X-97.983 Y8.047 Z-3.009
X-98.011 Y8.049 Z-3.029
X-98.036 Y8.035 Z-3.049
X-98.049 Y8.011 Z-3.069
X-98.047 Y7.983 Z-3.089
X-98.03 Y7.96 Z-3.11
X-98.004 Y7.95 Z-3.13
X-97.977 Y7.956 Z-3.15
X-97.957 Y7.975 Z-3.17
X-97.95 Y8.002 Z-3.19
X-97.959 Y8.029 Z-3.211
X-97.981 Y8.046 Z-3.231
X-98.009 Y8.049 Z-3.251
X-98.034 Y8.037 Z-3.271
X-98.048 Y8.013 Z-3.291
Y7.985 Z-3.312
X-98.032 Y7.962 Z-3.332
X-98.006 Y7.95 Z-3.352
X-97.979 Y7.955 Z-3.372
X-97.958 Y7.973 Z-3.392
X-97.95 Y8 Z-3.413
X-97.958 Y8.027 Z-3.433
X-97.979 Y8.045 Z-3.453
X-98.007 Y8.05 Z-3.473
X-98.032 Y8.038 Z-3.493
X-98.048 Y8.015 Z-3.513
Y7.987 Z-3.534
X-98.034 Y7.963 Z-3.554
X-98.009 Y7.951 Z-3.574
X-97.981 Y7.954 Z-3.594
X-97.959 Y7.971 Z-3.614
X-97.95 Y7.998 Z-3.635
X-97.957 Y8.025 Z-3.655
X-97.977 Y8.044 Z-3.675
X-98.004 Y8.05 Z-3.695
X-98.03 Y8.04 Z-3.715
X-98.047 Y8.017 Z-3.736
X-98.049 Y7.989 Z-3.756
X-98.035 Y7.965 Z-3.776
X-98.011 Y7.951 Z-3.796
X-97.983 Y7.953 Z-3.816
X-97.96 Y7.969 Z-3.837
X-97.95 Y7.995 Z-3.857
X-97.956 Y8.023 Z-3.877
X-97.975 Y8.043 Z-3.897
X-98.002 Y8.05 Z-3.917
X-98.028 Y8.041 Z-3.938
X-98.046 Y8.019 Z-3.958
X-98.049 Y7.992 Z-3.978
X-98.037 Y7.966 Z-3.998
X-98.013 Y7.952 Z-4.018
X-97.985 Z-4.038
X-97.962 Y7.968 Z-4.059
X-97.95 Y7.993 Z-4.079
X-97.955 Y8.021 Z-4.099
X-97.973 Y8.042 Z-4.119
X-98 Y8.05 Z-4.139
X-98.027 Y8.042 Z-4.16
X-98.045 Y8.021 Z-4.18
X-98.05 Y7.994 Z-4.2
X-98.039 Y7.968 Z-4.22
X-98.015 Y7.952 Z-4.24
X-97.987 Z-4.261
X-97.963 Y7.966 Z-4.281
X-97.951 Y7.991 Z-4.301
X-97.954 Y8.019 Z-4.321
X-97.971 Y8.041 Z-4.341
X-97.997 Y8.05 Z-4.362
X-98.025 Y8.044 Z-4.382
X-98.044 Y8.024 Z-4.402
X-98.05 Y7.996 Z-4.422
X-98.04 Y7.97 Z-4.442
X-98.018 Y7.953 Z-4.463
X-97.99 Y7.951 Z-4.483
X-97.965 Y7.964 Z-4.503
X-97.951 Y7.989 Z-4.523
X-97.953 Y8.017 Z-4.543
X-97.969 Y8.039 Z-4.563
X-97.995 Y8.05 Z-4.584
X-98.023 Y8.045 Z-4.604
X-98.043 Y8.026 Z-4.624
X-98.05 Y7.998 Z-4.644
X-98.041 Y7.972 Z-4.664
X-98.02 Y7.954 Z-4.685
X-97.992 Y7.951 Z-4.705
X-97.967 Y7.963 Z-4.725
X-97.952 Y7.986 Z-4.745
Y8.014 Z-4.765
X-97.967 Y8.038 Z-4.786
X-97.993 Y8.049 Z-4.806
X-98.02 Y8.046 Z-4.826
X-98.042 Y8.028 Z-4.846
X-98.05 Y8.001 Z-4.866
X-98.043 Y7.974 Z-4.887
X-98.022 Y7.955 Z-4.907
X-97.994 Y7.95 Z-4.927
X-97.969 Y7.961 Z-4.947
X-97.953 Y7.984 Z-4.967
X-97.951 Y8.012 Z-4.988
X-97.966 Y8.036 Z-5.008
X-97.99 Y8.049 Z-5.028
X-98.018 Y8.047 Z-5.048
X-98.04 Y8.029 Z-5.068
X-98.05 Y8.003 Z-5.088
X-98.044 Y7.976 Z-5.109
X-98.024 Y7.956 Z-5.129
X-97.997 Y7.95 Z-5.149
X-97.97 Y7.96 Z-5.169
X-97.953 Y7.982 Z-5.189
X-97.951 Y8.01 Z-5.21
X-97.964 Y8.035 Z-5.23
X-97.988 Y8.049 Z-5.25
X-98.016 Y8.047 Z-5.27
X-98.039 Y8.031 Z-5.29
X-98.05 Y8.005 Z-5.311
X-98.045 Y7.978 Z-5.331
X-98.026 Y7.957 Z-5.351
X-97.999 Y7.95 Z-5.371
X-97.972 Y7.958 Z-5.391
X-97.954 Y7.98 Z-5.412
X-97.951 Y8.008 Z-5.432
X-97.962 Y8.033 Z-5.452
X-97.986 Y8.048 Z-5.472
X-98.014 Z-5.492
X-98.038 Y8.033 Z-5.513
X-98.049 Y8.008 Z-5.533
X-98.046 Y7.98 Z-5.553
X-98.028 Y7.958 Z-5.573
X-98.001 Y7.95 Z-5.593
X-97.974 Y7.957 Z-5.613
X-97.955 Y7.978 Z-5.634
X-97.95 Y8.005 Z-5.654
X-97.961 Y8.031 Z-5.674
X-97.984 Y8.047 Z-5.694
X-98.012 Y8.049 Z-5.714
X-98.036 Y8.035 Z-5.735
X-98.049 Y8.01 Z-5.755
X-98.047 Y7.982 Z-5.775
X-98.03 Y7.96 Z-5.795
X-98.004 Y7.95 Z-5.815
X-97.976 Y7.956 Z-5.836
X-97.956 Y7.976 Z-5.856
X-97.95 Y8.003 Z-5.876
X-97.959 Y8.029 Z-5.896
X-97.982 Y8.046 Z-5.916
X-98.009 Y8.049 Z-5.937
X-98.034 Y8.036 Z-5.957
X-98.048 Y8.012 Z-5.977
X-98.047 Y7.984 Z-5.997
X-98.032 Y7.961 Z-6.017
X-98.006 Y7.95 Z-6.038
X-97.978 Y7.955 Z-6.058
X-97.957 Y7.974 Z-6.078
X-97.95 Y8.001 Z-6.098
X-97.958 Y8.027 Z-6.118
X-97.979 Y8.046 Z-6.138
X-98.007 Y8.049 Z-6.159
X-98.033 Y8.038 Z-6.179
X-98.048 Y8.014 Z-6.199
Y7.987 Z-6.219
X-98.033 Y7.963 Z-6.239
X-98.008 Y7.951 Z-6.26
X-97.98 Y7.954 Z-6.28
X-97.959 Y7.972 Z-6.3
G3 X-98.041 Y8.028 I-0.041 J0.028
X-97.959 Y7.972 I0.041 J-0.028
G1 X-97.955 Y7.99 F50
X-97.965 Y8.007
X-98 Y8
Z5 F200
Y106.3
Z1.69
Z0 F50
X-98.025 Y106.275
X-98.018 Y106.257
X-98 Y106.25
X-97.973 Y106.258 Z-0.02 F200
X-97.955 Y106.279 Z-0.04
X-97.95 Y106.306 Z-0.061
X-97.962 Y106.332 Z-0.081
X-97.985 Y106.348 Z-0.101
X-98.013 Z-0.121
X-98.037 Y106.334 Z-0.141
X-98.049 Y106.309 Z-0.162
X-98.046 Y106.281 Z-0.182
X-98.029 Y106.259 Z-0.202
X-98.002 Y106.25 Z-0.222
X-97.975 Y106.257 Z-0.242
X-97.956 Y106.277 Z-0.263
X-97.95 Y106.304 Z-0.283
X-97.96 Y106.33 Z-0.303
X-97.983 Y106.347 Z-0.323
X-98.011 Y106.349 Z-0.343
X-98.035 Y106.336 Z-0.363
X-98.049 Y106.311 Z-0.384
X-98.047 Y106.283 Z-0.404
X-98.031 Y106.26 Z-0.424
X-98.005 Y106.25 Z-0.444
X-97.977 Y106.256 Z-0.464
X-97.957 Y106.275 Z-0.485
X-97.95 Y106.302 Z-0.505
X-97.959 Y106.328 Z-0.525
X-97.981 Y106.346 Z-0.545
X-98.008 Y106.349 Z-0.565
X-98.034 Y106.337 Z-0.586
X-98.048 Y106.313 Z-0.606
Y106.285 Z-0.626
X-98.032 Y106.262 Z-0.646
X-98.007 Y106.25 Z-0.666
X-97.979 Y106.255 Z-0.687
X-97.958 Y106.273 Z-0.707
X-97.95 Y106.3 Z-0.727
X-97.958 Y106.326 Z-0.747
X-97.978 Y106.345 Z-0.767
X-98.006 Y106.35 Z-0.788
X-98.032 Y106.339 Z-0.808
X-98.048 Y106.316 Z-0.828
Y106.288 Z-0.848
X-98.034 Y106.263 Z-0.868
X-98.009 Y106.251 Z-0.888
X-97.981 Y106.254 Z-0.909
X-97.959 Y106.271 Z-0.929
X-97.95 Y106.297 Z-0.949
X-97.956 Y106.324 Z-0.969
X-97.976 Y106.344 Z-0.989
X-98.004 Y106.35 Z-1.01
X-98.03 Y106.34 Z-1.03
X-98.047 Y106.318 Z-1.05
X-98.049 Y106.29 Z-1.07
X-98.036 Y106.265 Z-1.09
X-98.011 Y106.251 Z-1.111
X-97.984 Y106.253 Z-1.131
X-97.961 Y106.269 Z-1.151
X-97.95 Y106.295 Z-1.171
X-97.955 Y106.322 Z-1.191
X-97.974 Y106.343 Z-1.212
X-98.001 Y106.35 Z-1.232
X-98.028 Y106.341 Z-1.252
X-98.046 Y106.32 Z-1.272
X-98.049 Y106.292 Z-1.292
X-98.037 Y106.267 Z-1.313
X-98.014 Y106.252 Z-1.333
X-97.986 Z-1.353
X-97.962 Y106.267 Z-1.373
X-97.951 Y106.293 Z-1.393
X-97.954 Y106.32 Z-1.413
X-97.972 Y106.342 Z-1.434
X-97.999 Y106.35 Z-1.454
X-98.026 Y106.343 Z-1.474
X-98.045 Y106.322 Z-1.494
X-98.05 Y106.294 Z-1.514
X-98.039 Y106.269 Z-1.535
X-98.016 Y106.253 Z-1.555
X-97.988 Y106.251 Z-1.575
X-97.964 Y106.266 Z-1.595
X-97.951 Y106.29 Z-1.615
X-97.953 Y106.318 Z-1.636
X-97.97 Y106.34 Z-1.656
X-97.997 Y106.35 Z-1.676
X-98.024 Y106.344 Z-1.696
X-98.044 Y106.324 Z-1.716
X-98.05 Y106.297 Z-1.737
X-98.04 Y106.27 Z-1.757
X-98.018 Y106.253 Z-1.777
X-97.99 Y106.251 Z-1.797
X-97.965 Y106.264 Z-1.817
X-97.951 Y106.288 Z-1.838
X-97.953 Y106.316 Z-1.858
X-97.969 Y106.339 Z-1.878
X-97.994 Y106.35 Z-1.898
X-98.022 Y106.345 Z-1.918
X-98.043 Y106.326 Z-1.938
X-98.05 Y106.299 Z-1.959
X-98.042 Y106.272 Z-1.979
X-98.02 Y106.254 Z-1.999
X-97.993 Y106.251 Z-2.019
X-97.967 Y106.262 Z-2.039
X-97.952 Y106.286 Z-2.06
Y106.314 Z-2.08
X-97.967 Y106.337 Z-2.1
X-97.992 Y106.349 Z-2.12
X-98.02 Y106.346 Z-2.14
X-98.041 Y106.328 Z-2.161
X-98.05 Y106.301 Z-2.181
X-98.043 Y106.274 Z-2.201
X-98.022 Y106.255 Z-2.221
X-97.995 Y106.25 Z-2.241
X-97.969 Y106.261 Z-2.262
X-97.953 Y106.284 Z-2.282
X-97.951 Y106.312 Z-2.302
X-97.965 Y106.336 Z-2.322
X-97.99 Y106.349 Z-2.342
X-98.018 Y106.347 Z-2.363
X-98.04 Y106.33 Z-2.383
X-98.05 Y106.304 Z-2.403
X-98.044 Y106.276 Z-2.423
X-98.024 Y106.256 Z-2.443
X-97.997 Y106.25 Z-2.463
X-97.971 Y106.259 Z-2.484
X-97.954 Y106.281 Z-2.504
X-97.951 Y106.309 Z-2.524
X-97.964 Y106.334 Z-2.544
X-97.988 Y106.348 Z-2.564
X-98.016 Z-2.585
X-98.039 Y106.332 Z-2.605
X-98.05 Y106.306 Z-2.625
X-98.045 Y106.278 Z-2.645
X-98.026 Y106.258 Z-2.665
X-97.999 Y106.25 Z-2.686
X-97.973 Y106.258 Z-2.706
X-97.954 Y106.279 Z-2.726
X-97.95 Y106.307 Z-2.746
X-97.962 Y106.333 Z-2.766
X-97.985 Y106.348 Z-2.787
X-98.013 Z-2.807
X-98.037 Y106.333 Z-2.827
X-98.049 Y106.308 Z-2.847
X-98.046 Y106.28 Z-2.867
X-98.028 Y106.259 Z-2.888
X-98.002 Y106.25 Z-2.908
X-97.975 Y106.257 Z-2.928
X-97.955 Y106.277 Z-2.948
X-97.95 Y106.305 Z-2.968
X-97.961 Y106.331 Z-2.988
X-97.983 Y106.347 Z-3.009
X-98.011 Y106.349 Z-3.029
X-98.036 Y106.335 Z-3.049
X-98.049 Y106.311 Z-3.069
X-98.047 Y106.283 Z-3.089
X-98.03 Y106.26 Z-3.11
X-98.004 Y106.25 Z-3.13
X-97.977 Y106.256 Z-3.15
X-97.957 Y106.275 Z-3.17
X-97.95 Y106.302 Z-3.19
X-97.959 Y106.329 Z-3.211
X-97.981 Y106.346 Z-3.231
X-98.009 Y106.349 Z-3.251
X-98.034 Y106.337 Z-3.271
X-98.048 Y106.313 Z-3.291
Y106.285 Z-3.312
X-98.032 Y106.262 Z-3.332
X-98.006 Y106.25 Z-3.352
X-97.979 Y106.255 Z-3.372
X-97.958 Y106.273 Z-3.392
X-97.95 Y106.3 Z-3.413
X-97.958 Y106.327 Z-3.433
X-97.979 Y106.345 Z-3.453
X-98.007 Y106.35 Z-3.473
X-98.032 Y106.338 Z-3.493
X-98.048 Y106.315 Z-3.513
Y106.287 Z-3.534
X-98.034 Y106.263 Z-3.554
X-98.009 Y106.251 Z-3.574
X-97.981 Y106.254 Z-3.594
X-97.959 Y106.271 Z-3.614
X-97.95 Y106.298 Z-3.635
X-97.957 Y106.325 Z-3.655
X-97.977 Y106.344 Z-3.675
X-98.004 Y106.35 Z-3.695
X-98.03 Y106.34 Z-3.715
X-98.047 Y106.317 Z-3.736
X-98.049 Y106.289 Z-3.756
X-98.035 Y106.265 Z-3.776
X-98.011 Y106.251 Z-3.796
X-97.983 Y106.253 Z-3.816
X-97.96 Y106.269 Z-3.837
X-97.95 Y106.295 Z-3.857
X-97.956 Y106.323 Z-3.877
X-97.975 Y106.343 Z-3.897
X-98.002 Y106.35 Z-3.917
X-98.028 Y106.341 Z-3.938
X-98.046 Y106.319 Z-3.958
X-98.049 Y106.292 Z-3.978
X-98.037 Y106.266 Z-3.998
X-98.013 Y106.252 Z-4.018
X-97.985 Z-4.038
X-97.962 Y106.268 Z-4.059
X-97.95 Y106.293 Z-4.079
X-97.955 Y106.321 Z-4.099
X-97.973 Y106.342 Z-4.119
X-98 Y106.35 Z-4.139
X-98.027 Y106.342 Z-4.16
X-98.045 Y106.321 Z-4.18
X-98.05 Y106.294 Z-4.2
X-98.039 Y106.268 Z-4.22
X-98.015 Y106.252 Z-4.24
X-97.987 Z-4.261
X-97.963 Y106.266 Z-4.281
X-97.951 Y106.291 Z-4.301
X-97.954 Y106.319 Z-4.321
X-97.971 Y106.341 Z-4.341
X-97.997 Y106.35 Z-4.362
X-98.025 Y106.344 Z-4.382
X-98.044 Y106.324 Z-4.402
X-98.05 Y106.296 Z-4.422
X-98.04 Y106.27 Z-4.442
X-98.018 Y106.253 Z-4.463
X-97.99 Y106.251 Z-4.483
X-97.965 Y106.264 Z-4.503
X-97.951 Y106.289 Z-4.523
X-97.953 Y106.317 Z-4.543
X-97.969 Y106.339 Z-4.563
X-97.995 Y106.35 Z-4.584
X-98.023 Y106.345 Z-4.604
X-98.043 Y106.326 Z-4.624
X-98.05 Y106.298 Z-4.644
X-98.041 Y106.272 Z-4.664
X-98.02 Y106.254 Z-4.685
X-97.992 Y106.251 Z-4.705
X-97.967 Y106.263 Z-4.725
X-97.952 Y106.286 Z-4.745
Y106.314 Z-4.765
X-97.967 Y106.338 Z-4.786
X-97.993 Y106.349 Z-4.806
X-98.02 Y106.346 Z-4.826
X-98.042 Y106.328 Z-4.846
X-98.05 Y106.301 Z-4.866
X-98.043 Y106.274 Z-4.887
X-98.022 Y106.255 Z-4.907
X-97.994 Y106.25 Z-4.927
X-97.969 Y106.261 Z-4.947
X-97.953 Y106.284 Z-4.967
X-97.951 Y106.312 Z-4.988
X-97.966 Y106.336 Z-5.008
X-97.99 Y106.349 Z-5.028
X-98.018 Y106.347 Z-5.048
X-98.04 Y106.329 Z-5.068
X-98.05 Y106.303 Z-5.088
X-98.044 Y106.276 Z-5.109
X-98.024 Y106.256 Z-5.129
X-97.997 Y106.25 Z-5.149
X-97.97 Y106.26 Z-5.169
X-97.953 Y106.282 Z-5.189
X-97.951 Y106.31 Z-5.21
X-97.964 Y106.335 Z-5.23
X-97.988 Y106.349 Z-5.25
X-98.016 Y106.347 Z-5.27
X-98.039 Y106.331 Z-5.29
X-98.05 Y106.305 Z-5.311
X-98.045 Y106.278 Z-5.331
X-98.026 Y106.257 Z-5.351
X-97.999 Y106.25 Z-5.371
X-97.972 Y106.258 Z-5.391
X-97.954 Y106.28 Z-5.412
X-97.951 Y106.308 Z-5.432
X-97.962 Y106.333 Z-5.452
X-97.986 Y106.348 Z-5.472
X-98.014 Z-5.492
X-98.038 Y106.333 Z-5.513
X-98.049 Y106.308 Z-5.533
X-98.046 Y106.28 Z-5.553
X-98.028 Y106.259 Z-5.573
X-98.001 Y106.25 Z-5.593
X-97.974 Y106.257 Z-5.613
X-97.955 Y106.278 Z-5.634
X-97.95 Y106.305 Z-5.654
X-97.961 Y106.331 Z-5.674
X-97.984 Y106.347 Z-5.694
X-98.012 Y106.349 Z-5.714
X-98.036 Y106.335 Z-5.735
X-98.049 Y106.31 Z-5.755
X-98.047 Y106.282 Z-5.775
X-98.03 Y106.26 Z-5.795
X-98.004 Y106.25 Z-5.815
X-97.976 Y106.256 Z-5.836
X-97.956 Y106.276 Z-5.856
X-97.95 Y106.303 Z-5.876
X-97.959 Y106.329 Z-5.896
X-97.982 Y106.346 Z-5.916
X-98.009 Y106.349 Z-5.937
X-98.034 Y106.336 Z-5.957
X-98.048 Y106.312 Z-5.977
X-98.047 Y106.284 Z-5.997
X-98.032 Y106.261 Z-6.017
X-98.006 Y106.25 Z-6.038
X-97.978 Y106.255 Z-6.058
X-97.957 Y106.274 Z-6.078
X-97.95 Y106.301 Z-6.098
X-97.958 Y106.327 Z-6.118
X-97.979 Y106.346 Z-6.138
X-98.007 Y106.349 Z-6.159
X-98.033 Y106.338 Z-6.179
X-98.048 Y106.314 Z-6.199
Y106.287 Z-6.219
X-98.033 Y106.263 Z-6.239
X-98.008 Y106.251 Z-6.26
X-97.98 Y106.254 Z-6.28
X-97.959 Y106.272 Z-6.3
G3 X-98.041 Y106.328 I-0.041 J0.028
X-97.959 Y106.272 I0.041 J-0.028
G1 X-97.955 Y106.29 F50
X-97.965 Y106.307
X-98 Y106.3
Z5 F200
X-8
Z1.69
Z0 F50
X-8.025 Y106.275
X-8.018 Y106.257
X-8 Y106.25
X-7.973 Y106.258 Z-0.02 F200
X-7.955 Y106.279 Z-0.04
X-7.95 Y106.306 Z-0.061
X-7.962 Y106.332 Z-0.081
X-7.985 Y106.348 Z-0.101
X-8.013 Z-0.121
X-8.037 Y106.334 Z-0.141
X-8.049 Y106.309 Z-0.162
X-8.046 Y106.281 Z-0.182
X-8.029 Y106.259 Z-0.202
X-8.002 Y106.25 Z-0.222
X-7.975 Y106.257 Z-0.242
X-7.956 Y106.277 Z-0.263
X-7.95 Y106.304 Z-0.283
X-7.96 Y106.33 Z-0.303
X-7.983 Y106.347 Z-0.323
X-8.011 Y106.349 Z-0.343
X-8.035 Y106.336 Z-0.363
X-8.049 Y106.311 Z-0.384
X-8.047 Y106.283 Z-0.404
X-8.031 Y106.26 Z-0.424
X-8.005 Y106.25 Z-0.444
X-7.977 Y106.256 Z-0.464
X-7.957 Y106.275 Z-0.485
X-7.95 Y106.302 Z-0.505
X-7.959 Y106.328 Z-0.525
X-7.981 Y106.346 Z-0.545
X-8.008 Y106.349 Z-0.565
X-8.034 Y106.337 Z-0.586
X-8.048 Y106.313 Z-0.606
Y106.285 Z-0.626
X-8.032 Y106.262 Z-0.646
X-8.007 Y106.25 Z-0.666
X-7.979 Y106.255 Z-0.687
X-7.958 Y106.273 Z-0.707
X-7.95 Y106.3 Z-0.727
X-7.958 Y106.326 Z-0.747
X-7.978 Y106.345 Z-0.767
X-8.006 Y106.35 Z-0.788
X-8.032 Y106.339 Z-0.808
X-8.048 Y106.316 Z-0.828
Y106.288 Z-0.848
X-8.034 Y106.263 Z-0.868
X-8.009 Y106.251 Z-0.888
X-7.981 Y106.254 Z-0.909
X-7.959 Y106.271 Z-0.929
X-7.95 Y106.297 Z-0.949
X-7.956 Y106.324 Z-0.969
X-7.976 Y106.344 Z-0.989
X-8.004 Y106.35 Z-1.01
X-8.03 Y106.34 Z-1.03
X-8.047 Y106.318 Z-1.05
X-8.049 Y106.29 Z-1.07
X-8.036 Y106.265 Z-1.09
X-8.011 Y106.251 Z-1.111
X-7.984 Y106.253 Z-1.131
X-7.961 Y106.269 Z-1.151
X-7.95 Y106.295 Z-1.171
X-7.955 Y106.322 Z-1.191
X-7.974 Y106.343 Z-1.212
X-8.001 Y106.35 Z-1.232
X-8.028 Y106.341 Z-1.252
X-8.046 Y106.32 Z-1.272
X-8.049 Y106.292 Z-1.292
X-8.037 Y106.267 Z-1.313
X-8.014 Y106.252 Z-1.333
X-7.986 Z-1.353
X-7.962 Y106.267 Z-1.373
X-7.951 Y106.293 Z-1.393
X-7.954 Y106.32 Z-1.413
X-7.972 Y106.342 Z-1.434
X-7.999 Y106.35 Z-1.454
X-8.026 Y106.343 Z-1.474
X-8.045 Y106.322 Z-1.494
X-8.05 Y106.294 Z-1.514
X-8.039 Y106.269 Z-1.535
X-8.016 Y106.253 Z-1.555
X-7.988 Y106.251 Z-1.575
X-7.964 Y106.266 Z-1.595
X-7.951 Y106.29 Z-1.615
X-7.953 Y106.318 Z-1.636
X-7.97 Y106.34 Z-1.656
X-7.997 Y106.35 Z-1.676
X-8.024 Y106.344 Z-1.696
X-8.044 Y106.324 Z-1.716
X-8.05 Y106.297 Z-1.737
X-8.04 Y106.27 Z-1.757
X-8.018 Y106.253 Z-1.777
X-7.99 Y106.251 Z-1.797
X-7.965 Y106.264 Z-1.817
X-7.951 Y106.288 Z-1.838
X-7.953 Y106.316 Z-1.858
X-7.969 Y106.339 Z-1.878
X-7.994 Y106.35 Z-1.898
X-8.022 Y106.345 Z-1.918
X-8.043 Y106.326 Z-1.938
X-8.05 Y106.299 Z-1.959
X-8.042 Y106.272 Z-1.979
X-8.02 Y106.254 Z-1.999
X-7.993 Y106.251 Z-2.019
X-7.967 Y106.262 Z-2.039
X-7.952 Y106.286 Z-2.06
Y106.314 Z-2.08
X-7.967 Y106.337 Z-2.1
X-7.992 Y106.349 Z-2.12
X-8.02 Y106.346 Z-2.14
X-8.041 Y106.328 Z-2.161
X-8.05 Y106.301 Z-2.181
X-8.043 Y106.274 Z-2.201
X-8.022 Y106.255 Z-2.221
X-7.995 Y106.25 Z-2.241
X-7.969 Y106.261 Z-2.262
X-7.953 Y106.284 Z-2.282
X-7.951 Y106.312 Z-2.302
X-7.965 Y106.336 Z-2.322
X-7.99 Y106.349 Z-2.342
X-8.018 Y106.347 Z-2.363
X-8.04 Y106.33 Z-2.383
X-8.05 Y106.304 Z-2.403
X-8.044 Y106.276 Z-2.423
X-8.024 Y106.256 Z-2.443
X-7.997 Y106.25 Z-2.463
X-7.971 Y106.259 Z-2.484
X-7.954 Y106.281 Z-2.504
X-7.951 Y106.309 Z-2.524
X-7.964 Y106.334 Z-2.544
X-7.988 Y106.348 Z-2.564
X-8.016 Z-2.585
X-8.039 Y106.332 Z-2.605
X-8.05 Y106.306 Z-2.625
X-8.045 Y106.278 Z-2.645
X-8.026 Y106.258 Z-2.665
X-7.999 Y106.25 Z-2.686
X-7.973 Y106.258 Z-2.706
X-7.954 Y106.279 Z-2.726
X-7.95 Y106.307 Z-2.746
X-7.962 Y106.333 Z-2.766
X-7.985 Y106.348 Z-2.787
X-8.013 Z-2.807
X-8.037 Y106.333 Z-2.827
X-8.049 Y106.308 Z-2.847
X-8.046 Y106.28 Z-2.867
X-8.028 Y106.259 Z-2.888
X-8.002 Y106.25 Z-2.908
X-7.975 Y106.257 Z-2.928
X-7.955 Y106.277 Z-2.948
X-7.95 Y106.305 Z-2.968
X-7.961 Y106.331 Z-2.988
X-7.983 Y106.347 Z-3.009
X-8.011 Y106.349 Z-3.029
X-8.036 Y106.335 Z-3.049
X-8.049 Y106.311 Z-3.069
X-8.047 Y106.283 Z-3.089
X-8.03 Y106.26 Z-3.11
X-8.004 Y106.25 Z-3.13
X-7.977 Y106.256 Z-3.15
X-7.957 Y106.275 Z-3.17
X-7.95 Y106.302 Z-3.19
X-7.959 Y106.329 Z-3.211
X-7.981 Y106.346 Z-3.231
X-8.009 Y106.349 Z-3.251
X-8.034 Y106.337 Z-3.271
X-8.048 Y106.313 Z-3.291
Y106.285 Z-3.312
X-8.032 Y106.262 Z-3.332
X-8.006 Y106.25 Z-3.352
X-7.979 Y106.255 Z-3.372
X-7.958 Y106.273 Z-3.392
X-7.95 Y106.3 Z-3.413
X-7.958 Y106.327 Z-3.433
X-7.979 Y106.345 Z-3.453
X-8.007 Y106.35 Z-3.473
X-8.032 Y106.338 Z-3.493
X-8.048 Y106.315 Z-3.513
Y106.287 Z-3.534
X-8.034 Y106.263 Z-3.554
X-8.009 Y106.251 Z-3.574
X-7.981 Y106.254 Z-3.594
X-7.959 Y106.271 Z-3.614
X-7.95 Y106.298 Z-3.635
X-7.957 Y106.325 Z-3.655
X-7.977 Y106.344 Z-3.675
X-8.004 Y106.35 Z-3.695
X-8.03 Y106.34 Z-3.715
X-8.047 Y106.317 Z-3.736
X-8.049 Y106.289 Z-3.756
X-8.035 Y106.265 Z-3.776
X-8.011 Y106.251 Z-3.796
X-7.983 Y106.253 Z-3.816
X-7.96 Y106.269 Z-3.837
X-7.95 Y106.295 Z-3.857
X-7.956 Y106.323 Z-3.877
X-7.975 Y106.343 Z-3.897
X-8.002 Y106.35 Z-3.917
X-8.028 Y106.341 Z-3.938
X-8.046 Y106.319 Z-3.958
X-8.049 Y106.292 Z-3.978
X-8.037 Y106.266 Z-3.998
X-8.013 Y106.252 Z-4.018
X-7.985 Z-4.038
X-7.962 Y106.268 Z-4.059
X-7.95 Y106.293 Z-4.079
X-7.955 Y106.321 Z-4.099
X-7.973 Y106.342 Z-4.119
X-8 Y106.35 Z-4.139
X-8.027 Y106.342 Z-4.16
X-8.045 Y106.321 Z-4.18
X-8.05 Y106.294 Z-4.2
X-8.039 Y106.268 Z-4.22
X-8.015 Y106.252 Z-4.24
X-7.987 Z-4.261
X-7.963 Y106.266 Z-4.281
X-7.951 Y106.291 Z-4.301
X-7.954 Y106.319 Z-4.321
X-7.971 Y106.341 Z-4.341
X-7.997 Y106.35 Z-4.362
X-8.025 Y106.344 Z-4.382
X-8.044 Y106.324 Z-4.402
X-8.05 Y106.296 Z-4.422
X-8.04 Y106.27 Z-4.442
X-8.018 Y106.253 Z-4.463
X-7.99 Y106.251 Z-4.483
X-7.965 Y106.264 Z-4.503
X-7.951 Y106.289 Z-4.523
X-7.953 Y106.317 Z-4.543
X-7.969 Y106.339 Z-4.563
X-7.995 Y106.35 Z-4.584
X-8.023 Y106.345 Z-4.604
X-8.043 Y106.326 Z-4.624
X-8.05 Y106.298 Z-4.644
X-8.041 Y106.272 Z-4.664
X-8.02 Y106.254 Z-4.685
X-7.992 Y106.251 Z-4.705
X-7.967 Y106.263 Z-4.725
X-7.952 Y106.286 Z-4.745
Y106.314 Z-4.765
X-7.967 Y106.338 Z-4.786
X-7.993 Y106.349 Z-4.806
X-8.02 Y106.346 Z-4.826
X-8.042 Y106.328 Z-4.846
X-8.05 Y106.301 Z-4.866
X-8.043 Y106.274 Z-4.887
X-8.022 Y106.255 Z-4.907
X-7.994 Y106.25 Z-4.927
X-7.969 Y106.261 Z-4.947
X-7.953 Y106.284 Z-4.967
X-7.951 Y106.312 Z-4.988
X-7.966 Y106.336 Z-5.008
X-7.99 Y106.349 Z-5.028
X-8.018 Y106.347 Z-5.048
X-8.04 Y106.329 Z-5.068
X-8.05 Y106.303 Z-5.088
X-8.044 Y106.276 Z-5.109
X-8.024 Y106.256 Z-5.129
X-7.997 Y106.25 Z-5.149
X-7.97 Y106.26 Z-5.169
X-7.953 Y106.282 Z-5.189
X-7.951 Y106.31 Z-5.21
X-7.964 Y106.335 Z-5.23
X-7.988 Y106.349 Z-5.25
X-8.016 Y106.347 Z-5.27
X-8.039 Y106.331 Z-5.29
X-8.05 Y106.305 Z-5.311
X-8.045 Y106.278 Z-5.331
X-8.026 Y106.257 Z-5.351
X-7.999 Y106.25 Z-5.371
X-7.972 Y106.258 Z-5.391
X-7.954 Y106.28 Z-5.412
X-7.951 Y106.308 Z-5.432
X-7.962 Y106.333 Z-5.452
X-7.986 Y106.348 Z-5.472
X-8.014 Z-5.492
X-8.038 Y106.333 Z-5.513
X-8.049 Y106.308 Z-5.533
X-8.046 Y106.28 Z-5.553
X-8.028 Y106.258 Z-5.573
X-8.001 Y106.25 Z-5.593
X-7.974 Y106.257 Z-5.613
X-7.955 Y106.278 Z-5.634
X-7.95 Y106.305 Z-5.654
X-7.961 Y106.331 Z-5.674
X-7.984 Y106.347 Z-5.694
X-8.012 Y106.349 Z-5.714
X-8.036 Y106.335 Z-5.735
X-8.049 Y106.31 Z-5.755
X-8.047 Y106.282 Z-5.775
X-8.03 Y106.26 Z-5.795
X-8.004 Y106.25 Z-5.815
X-7.976 Y106.256 Z-5.836
X-7.956 Y106.276 Z-5.856
X-7.95 Y106.303 Z-5.876
X-7.959 Y106.329 Z-5.896
X-7.982 Y106.346 Z-5.916
X-8.009 Y106.349 Z-5.937
X-8.034 Y106.336 Z-5.957
X-8.048 Y106.312 Z-5.977
X-8.047 Y106.284 Z-5.997
X-8.032 Y106.261 Z-6.017
X-8.006 Y106.25 Z-6.038
X-7.978 Y106.255 Z-6.058
X-7.957 Y106.274 Z-6.078
X-7.95 Y106.301 Z-6.098
X-7.958 Y106.327 Z-6.118
X-7.979 Y106.346 Z-6.138
X-8.007 Y106.349 Z-6.159
X-8.033 Y106.338 Z-6.179
X-8.048 Y106.314 Z-6.199
Y106.287 Z-6.219
X-8.033 Y106.263 Z-6.239
X-8.008 Y106.251 Z-6.26
X-7.98 Y106.254 Z-6.28
X-7.959 Y106.272 Z-6.3
G3 X-8.041 Y106.328 I-0.041 J0.028
X-7.959 Y106.272 I0.041 J-0.028
G1 X-7.955 Y106.29 F50
X-7.965 Y106.307
X-8 Y106.3
Z15 F200

M9
G28 G91 Z0
G90
G28 G91 X0 Y0
G90
M5
M30
