(side_upperleft)
(Machine)
(  vendor: Autodesk)
(  model: Generic 3-axis)
(  description: This machine has XY axis on the Table and Z axis on the Head)
(T3 D=3.1 CR=0 - ZMIN=-8.3 - flat end mill)
G90 G94
G17
G21
(When using Fusion for Personal Use, the feedrate of rapid)
(moves is reduced to match the feedrate of cutting moves,)
(which can increase machining time. Unrestricted rapid moves)
(are available with a Fusion Subscription.)
G28 G91 Z0
G90

(Bore7)
T3
S19000 M3
G17 G90 G94
G54
M8
G0 X37.766 Y-51.64
Z15
G1 Z2 F250
Z0.31 F50
G19 G3 Y-51.33 Z0 J0.31 K0
G1 Y-51.175
G17 G3 X37.541 Y-50.95 I-0.225 J0
X37.541 Y-51.85 Z-0.14 I0 J-0.45 F250
X37.541 Y-50.95 Z-0.28 I0 J0.45
X37.541 Y-51.85 Z-0.42 I0 J-0.45
X37.541 Y-50.95 Z-0.559 I0 J0.45
X37.541 Y-51.85 Z-0.699 I0 J-0.45
X37.541 Y-50.95 Z-0.839 I0 J0.45
X37.541 Y-51.85 Z-0.979 I0 J-0.45
X37.541 Y-50.95 Z-1.119 I0 J0.45
X37.541 Y-51.85 Z-1.259 I0 J-0.45
X37.541 Y-50.95 Z-1.399 I0 J0.45
X37.541 Y-51.85 Z-1.538 I0 J-0.45
X37.541 Y-50.95 Z-1.678 I0 J0.45
X37.541 Y-51.85 Z-1.818 I0 J-0.45
X37.541 Y-50.95 Z-1.958 I0 J0.45
X37.541 Y-51.85 Z-2.098 I0 J-0.45
X37.541 Y-50.95 Z-2.238 I0 J0.45
X37.541 Y-51.85 Z-2.378 I0 J-0.45
X37.541 Y-50.95 Z-2.517 I0 J0.45
X37.541 Y-51.85 Z-2.657 I0 J-0.45
X37.541 Y-50.95 Z-2.797 I0 J0.45
X37.541 Y-51.85 Z-2.937 I0 J-0.45
X37.541 Y-50.95 Z-3.077 I0 J0.45
X37.541 Y-51.85 Z-3.217 I0 J-0.45
X37.541 Y-50.95 Z-3.356 I0 J0.45
X37.541 Y-51.85 Z-3.496 I0 J-0.45
X37.541 Y-50.95 Z-3.636 I0 J0.45
X37.541 Y-51.85 Z-3.776 I0 J-0.45
X37.541 Y-50.95 Z-3.916 I0 J0.45
X37.541 Y-51.85 Z-4.056 I0 J-0.45
X37.541 Y-50.95 Z-4.196 I0 J0.45
X37.541 Y-51.85 Z-4.335 I0 J-0.45
X37.541 Y-50.95 Z-4.475 I0 J0.45
X37.541 Y-51.85 Z-4.615 I0 J-0.45
X37.541 Y-50.95 Z-4.755 I0 J0.45
X37.541 Y-51.85 Z-4.895 I0 J-0.45
X37.541 Y-50.95 Z-5.035 I0 J0.45
X37.541 Y-51.85 Z-5.175 I0 J-0.45
X37.541 Y-50.95 Z-5.314 I0 J0.45
X37.541 Y-51.85 Z-5.454 I0 J-0.45
X37.541 Y-50.95 Z-5.594 I0 J0.45
X37.541 Y-51.85 Z-5.734 I0 J-0.45
X37.541 Y-50.95 Z-5.874 I0 J0.45
X37.541 Y-51.85 Z-6.014 I0 J-0.45
X37.541 Y-50.95 Z-6.154 I0 J0.45
X37.541 Y-51.85 Z-6.293 I0 J-0.45
X37.541 Y-50.95 Z-6.433 I0 J0.45
X37.541 Y-51.85 Z-6.573 I0 J-0.45
X37.541 Y-50.95 Z-6.713 I0 J0.45
X37.541 Y-51.85 Z-6.853 I0 J-0.45
X37.541 Y-50.95 Z-6.993 I0 J0.45
X37.541 Y-51.85 Z-7.133 I0 J-0.45
X37.541 Y-50.95 Z-7.272 I0 J0.45
X37.541 Y-51.85 Z-7.412 I0 J-0.45
X37.541 Y-50.95 Z-7.552 I0 J0.45
X37.541 Y-51.85 Z-7.692 I0 J-0.45
X37.541 Y-50.95 Z-7.832 I0 J0.45
X37.541 Y-51.85 Z-7.972 I0 J-0.45
X37.541 Y-50.95 Z-8.112 I0 J0.45
X37.541 Y-51.85 Z-8.251 I0 J-0.45
X37.94 Y-51.607 Z-8.3 I0 J0.45
X37.141 Y-51.193 I-0.4 J0.207
X37.94 Y-51.607 I0.4 J-0.207
X37.844 Y-51.304 I-0.2 J0.104 F50
G1 X37.706 Y-51.232
X37.645 Y-51.201 Z-8.292
X37.587 Y-51.171 Z-8.269
X37.535 Y-51.144 Z-8.232
X37.491 Y-51.121 Z-8.183
X37.458 Y-51.104 Z-8.125
X37.438 Y-51.093 Z-8.059
X37.431 Y-51.09 Z-7.99
Z5 F250
X47.725 Y-45.89
Z2
Z0.31 F50
G19 G3 Y-45.58 Z0 J0.31 K0
G1 Y-45.425
G17 G3 X47.5 Y-45.2 I-0.225 J0
X47.5 Y-46.1 Z-0.14 I0 J-0.45 F250
X47.5 Y-45.2 Z-0.28 I0 J0.45
X47.5 Y-46.1 Z-0.42 I0 J-0.45
X47.5 Y-45.2 Z-0.559 I0 J0.45
X47.5 Y-46.1 Z-0.699 I0 J-0.45
X47.5 Y-45.2 Z-0.839 I0 J0.45
X47.5 Y-46.1 Z-0.979 I0 J-0.45
X47.5 Y-45.2 Z-1.119 I0 J0.45
X47.5 Y-46.1 Z-1.259 I0 J-0.45
X47.5 Y-45.2 Z-1.399 I0 J0.45
X47.5 Y-46.1 Z-1.538 I0 J-0.45
X47.5 Y-45.2 Z-1.678 I0 J0.45
X47.5 Y-46.1 Z-1.818 I0 J-0.45
X47.5 Y-45.2 Z-1.958 I0 J0.45
X47.5 Y-46.1 Z-2.098 I0 J-0.45
X47.5 Y-45.2 Z-2.238 I0 J0.45
X47.5 Y-46.1 Z-2.378 I0 J-0.45
X47.5 Y-45.2 Z-2.517 I0 J0.45
X47.5 Y-46.1 Z-2.657 I0 J-0.45
X47.5 Y-45.2 Z-2.797 I0 J0.45
X47.5 Y-46.1 Z-2.937 I0 J-0.45
X47.5 Y-45.2 Z-3.077 I0 J0.45
X47.5 Y-46.1 Z-3.217 I0 J-0.45
X47.5 Y-45.2 Z-3.356 I0 J0.45
X47.5 Y-46.1 Z-3.496 I0 J-0.45
X47.5 Y-45.2 Z-3.636 I0 J0.45
X47.5 Y-46.1 Z-3.776 I0 J-0.45
X47.5 Y-45.2 Z-3.916 I0 J0.45
X47.5 Y-46.1 Z-4.056 I0 J-0.45
X47.5 Y-45.2 Z-4.196 I0 J0.45
X47.5 Y-46.1 Z-4.335 I0 J-0.45
X47.5 Y-45.2 Z-4.475 I0 J0.45
X47.5 Y-46.1 Z-4.615 I0 J-0.45
X47.5 Y-45.2 Z-4.755 I0 J0.45
X47.5 Y-46.1 Z-4.895 I0 J-0.45
X47.5 Y-45.2 Z-5.035 I0 J0.45
X47.5 Y-46.1 Z-5.175 I0 J-0.45
X47.5 Y-45.2 Z-5.314 I0 J0.45
X47.5 Y-46.1 Z-5.454 I0 J-0.45
X47.5 Y-45.2 Z-5.594 I0 J0.45
X47.5 Y-46.1 Z-5.734 I0 J-0.45
X47.5 Y-45.2 Z-5.874 I0 J0.45
X47.5 Y-46.1 Z-6.014 I0 J-0.45
X47.5 Y-45.2 Z-6.154 I0 J0.45
X47.5 Y-46.1 Z-6.293 I0 J-0.45
X47.5 Y-45.2 Z-6.433 I0 J0.45
X47.5 Y-46.1 Z-6.573 I0 J-0.45
X47.5 Y-45.2 Z-6.713 I0 J0.45
X47.5 Y-46.1 Z-6.853 I0 J-0.45
X47.5 Y-45.2 Z-6.993 I0 J0.45
X47.5 Y-46.1 Z-7.133 I0 J-0.45
X47.5 Y-45.2 Z-7.272 I0 J0.45
X47.5 Y-46.1 Z-7.412 I0 J-0.45
X47.5 Y-45.2 Z-7.552 I0 J0.45
X47.5 Y-46.1 Z-7.692 I0 J-0.45
X47.5 Y-45.2 Z-7.832 I0 J0.45
X47.5 Y-46.1 Z-7.972 I0 J-0.45
X47.5 Y-45.2 Z-8.112 I0 J0.45
X47.5 Y-46.1 Z-8.251 I0 J-0.45
X47.9 Y-45.857 Z-8.3 I0 J0.45
X47.1 Y-45.443 I-0.4 J0.207
X47.9 Y-45.857 I0.4 J-0.207
X47.803 Y-45.554 I-0.2 J0.104 F50
G1 X47.666 Y-45.482
X47.604 Y-45.451 Z-8.292
X47.546 Y-45.421 Z-8.269
X47.494 Y-45.394 Z-8.232
X47.451 Y-45.371 Z-8.183
X47.418 Y-45.354 Z-8.125
X47.397 Y-45.343 Z-8.059
X47.39 Y-45.34 Z-7.99
Z5 F250
X57.684 Y-51.64
Z2
Z0.31 F50
G19 G3 Y-51.33 Z0 J0.31 K0
G1 Y-51.175
G17 G3 X57.459 Y-50.95 I-0.225 J0
X57.459 Y-51.85 Z-0.14 I0 J-0.45 F250
X57.459 Y-50.95 Z-0.28 I0 J0.45
X57.459 Y-51.85 Z-0.42 I0 J-0.45
X57.459 Y-50.95 Z-0.559 I0 J0.45
X57.459 Y-51.85 Z-0.699 I0 J-0.45
X57.459 Y-50.95 Z-0.839 I0 J0.45
X57.459 Y-51.85 Z-0.979 I0 J-0.45
X57.459 Y-50.95 Z-1.119 I0 J0.45
X57.459 Y-51.85 Z-1.259 I0 J-0.45
X57.459 Y-50.95 Z-1.399 I0 J0.45
X57.459 Y-51.85 Z-1.538 I0 J-0.45
X57.459 Y-50.95 Z-1.678 I0 J0.45
X57.459 Y-51.85 Z-1.818 I0 J-0.45
X57.459 Y-50.95 Z-1.958 I0 J0.45
X57.459 Y-51.85 Z-2.098 I0 J-0.45
X57.459 Y-50.95 Z-2.238 I0 J0.45
X57.459 Y-51.85 Z-2.378 I0 J-0.45
X57.459 Y-50.95 Z-2.517 I0 J0.45
X57.459 Y-51.85 Z-2.657 I0 J-0.45
X57.459 Y-50.95 Z-2.797 I0 J0.45
X57.459 Y-51.85 Z-2.937 I0 J-0.45
X57.459 Y-50.95 Z-3.077 I0 J0.45
X57.459 Y-51.85 Z-3.217 I0 J-0.45
X57.459 Y-50.95 Z-3.356 I0 J0.45
X57.459 Y-51.85 Z-3.496 I0 J-0.45
X57.459 Y-50.95 Z-3.636 I0 J0.45
X57.459 Y-51.85 Z-3.776 I0 J-0.45
X57.459 Y-50.95 Z-3.916 I0 J0.45
X57.459 Y-51.85 Z-4.056 I0 J-0.45
X57.459 Y-50.95 Z-4.196 I0 J0.45
X57.459 Y-51.85 Z-4.335 I0 J-0.45
X57.459 Y-50.95 Z-4.475 I0 J0.45
X57.459 Y-51.85 Z-4.615 I0 J-0.45
X57.459 Y-50.95 Z-4.755 I0 J0.45
X57.459 Y-51.85 Z-4.895 I0 J-0.45
X57.459 Y-50.95 Z-5.035 I0 J0.45
X57.459 Y-51.85 Z-5.175 I0 J-0.45
X57.459 Y-50.95 Z-5.314 I0 J0.45
X57.459 Y-51.85 Z-5.454 I0 J-0.45
X57.459 Y-50.95 Z-5.594 I0 J0.45
X57.459 Y-51.85 Z-5.734 I0 J-0.45
X57.459 Y-50.95 Z-5.874 I0 J0.45
X57.459 Y-51.85 Z-6.014 I0 J-0.45
X57.459 Y-50.95 Z-6.154 I0 J0.45
X57.459 Y-51.85 Z-6.293 I0 J-0.45
X57.459 Y-50.95 Z-6.433 I0 J0.45
X57.459 Y-51.85 Z-6.573 I0 J-0.45
X57.459 Y-50.95 Z-6.713 I0 J0.45
X57.459 Y-51.85 Z-6.853 I0 J-0.45
X57.459 Y-50.95 Z-6.993 I0 J0.45
X57.459 Y-51.85 Z-7.133 I0 J-0.45
X57.459 Y-50.95 Z-7.272 I0 J0.45
X57.459 Y-51.85 Z-7.412 I0 J-0.45
X57.459 Y-50.95 Z-7.552 I0 J0.45
X57.459 Y-51.85 Z-7.692 I0 J-0.45
X57.459 Y-50.95 Z-7.832 I0 J0.45
X57.459 Y-51.85 Z-7.972 I0 J-0.45
X57.459 Y-50.95 Z-8.112 I0 J0.45
X57.459 Y-51.85 Z-8.251 I0 J-0.45
X57.859 Y-51.607 Z-8.3 I0 J0.45
X57.06 Y-51.193 I-0.4 J0.207
X57.859 Y-51.607 I0.4 J-0.207
X57.763 Y-51.304 I-0.2 J0.104 F50
G1 X57.625 Y-51.232
X57.564 Y-51.201 Z-8.292
X57.506 Y-51.171 Z-8.269
X57.453 Y-51.144 Z-8.232
X57.41 Y-51.121 Z-8.183
X57.377 Y-51.104 Z-8.125
X57.357 Y-51.093 Z-8.059
X57.35 Y-51.09 Z-7.99
Z15 F250
(When using Fusion for Personal Use, the feedrate of rapid)
(moves is reduced to match the feedrate of cutting moves,)
(which can increase machining time. Unrestricted rapid moves)
(are available with a Fusion Subscription.)

(Bore8)
G0 X8 Y-8
G1 Z15 F250
Z1.69
Z0 F50
X8.025 Y-7.975
X8.018 Y-7.957
X8 Y-7.95
X7.973 Y-7.958 Z-0.02 F250
X7.955 Y-7.979 Z-0.04
X7.95 Y-8.006 Z-0.061
X7.962 Y-8.032 Z-0.081
X7.985 Y-8.048 Z-0.101
X8.013 Z-0.121
X8.037 Y-8.034 Z-0.141
X8.049 Y-8.009 Z-0.162
X8.046 Y-7.981 Z-0.182
X8.029 Y-7.959 Z-0.202
X8.002 Y-7.95 Z-0.222
X7.975 Y-7.957 Z-0.242
X7.956 Y-7.977 Z-0.263
X7.95 Y-8.004 Z-0.283
X7.96 Y-8.03 Z-0.303
X7.983 Y-8.047 Z-0.323
X8.011 Y-8.049 Z-0.343
X8.035 Y-8.035 Z-0.364
X8.049 Y-8.011 Z-0.384
X8.047 Y-7.983 Z-0.404
X8.031 Y-7.96 Z-0.424
X8.005 Y-7.95 Z-0.444
X7.977 Y-7.956 Z-0.464
X7.957 Y-7.975 Z-0.485
X7.95 Y-8.002 Z-0.505
X7.959 Y-8.028 Z-0.525
X7.981 Y-8.046 Z-0.545
X8.008 Y-8.049 Z-0.565
X8.034 Y-8.037 Z-0.586
X8.048 Y-8.013 Z-0.606
Y-7.985 Z-0.626
X8.032 Y-7.962 Z-0.646
X8.007 Y-7.95 Z-0.666
X7.979 Y-7.955 Z-0.687
X7.958 Y-7.973 Z-0.707
X7.95 Y-8 Z-0.727
X7.958 Y-8.027 Z-0.747
X7.979 Y-8.045 Z-0.767
X8.006 Y-8.05 Z-0.788
X8.032 Y-8.039 Z-0.808
X8.048 Y-8.015 Z-0.828
Y-7.987 Z-0.848
X8.034 Y-7.963 Z-0.868
X8.009 Y-7.951 Z-0.889
X7.981 Y-7.954 Z-0.909
X7.959 Y-7.971 Z-0.929
X7.95 Y-7.997 Z-0.949
X7.956 Y-8.025 Z-0.969
X7.977 Y-8.044 Z-0.99
X8.004 Y-8.05 Z-1.01
X8.03 Y-8.04 Z-1.03
X8.047 Y-8.018 Z-1.05
X8.049 Y-7.99 Z-1.07
X8.036 Y-7.965 Z-1.091
X8.011 Y-7.951 Z-1.111
X7.983 Y-7.953 Z-1.131
X7.961 Y-7.969 Z-1.151
X7.95 Y-7.995 Z-1.171
X7.955 Y-8.023 Z-1.191
X7.975 Y-8.043 Z-1.212
X8.002 Y-8.05 Z-1.232
X8.028 Y-8.041 Z-1.252
X8.046 Y-8.02 Z-1.272
X8.049 Y-7.992 Z-1.292
X8.037 Y-7.967 Z-1.313
X8.014 Y-7.952 Z-1.333
X7.986 Z-1.353
X7.962 Y-7.967 Z-1.373
X7.951 Y-7.993 Z-1.393
X7.954 Y-8.021 Z-1.414
X7.973 Y-8.042 Z-1.434
X7.999 Y-8.05 Z-1.454
X8.026 Y-8.043 Z-1.474
X8.045 Y-8.022 Z-1.494
X8.05 Y-7.994 Z-1.515
X8.039 Y-7.968 Z-1.535
X8.016 Y-7.953 Z-1.555
X7.988 Y-7.952 Z-1.575
X7.964 Y-7.966 Z-1.595
X7.951 Y-7.991 Z-1.616
X7.954 Y-8.018 Z-1.636
X7.971 Y-8.041 Z-1.656
X7.997 Y-8.05 Z-1.676
X8.024 Y-8.044 Z-1.696
X8.044 Y-8.024 Z-1.717
X8.05 Y-7.996 Z-1.737
X8.04 Y-7.97 Z-1.757
X8.018 Y-7.953 Z-1.777
X7.99 Y-7.951 Z-1.797
X7.965 Y-7.964 Z-1.818
X7.951 Y-7.988 Z-1.838
X7.953 Y-8.016 Z-1.858
X7.969 Y-8.039 Z-1.878
X7.995 Y-8.05 Z-1.898
X8.022 Y-8.045 Z-1.918
X8.043 Y-8.026 Z-1.939
X8.05 Y-7.999 Z-1.959
X8.041 Y-7.972 Z-1.979
X8.02 Y-7.954 Z-1.999
X7.992 Y-7.951 Z-2.019
X7.967 Y-7.963 Z-2.04
X7.952 Y-7.986 Z-2.06
Y-8.014 Z-2.08
X7.967 Y-8.038 Z-2.1
X7.993 Y-8.049 Z-2.12
X8.02 Y-8.046 Z-2.141
X8.042 Y-8.028 Z-2.161
X8.05 Y-8.001 Z-2.181
X8.043 Y-7.974 Z-2.201
X8.022 Y-7.955 Z-2.221
X7.994 Y-7.95 Z-2.242
X7.969 Y-7.961 Z-2.262
X7.953 Y-7.984 Z-2.282
X7.951 Y-8.012 Z-2.302
X7.965 Y-8.036 Z-2.322
X7.99 Y-8.049 Z-2.343
X8.018 Y-8.047 Z-2.363
X8.04 Y-8.03 Z-2.383
X8.05 Y-8.003 Z-2.403
X8.044 Y-7.976 Z-2.423
X8.024 Y-7.956 Z-2.444
X7.997 Y-7.95 Z-2.464
X7.97 Y-7.96 Z-2.484
X7.953 Y-7.982 Z-2.504
X7.951 Y-8.01 Z-2.524
X7.964 Y-8.035 Z-2.545
X7.988 Y-8.049 Z-2.565
X8.016 Y-8.047 Z-2.585
X8.039 Y-8.031 Z-2.605
X8.05 Y-8.006 Z-2.625
X8.045 Y-7.978 Z-2.645
X8.026 Y-7.957 Z-2.666
X7.999 Y-7.95 Z-2.686
X7.972 Y-7.958 Z-2.706
X7.954 Y-7.98 Z-2.726
X7.951 Y-8.007 Z-2.746
X7.962 Y-8.033 Z-2.767
X7.986 Y-8.048 Z-2.787
X8.014 Z-2.807
X8.037 Y-8.033 Z-2.827
X8.049 Y-8.008 Z-2.847
X8.046 Y-7.98 Z-2.868
X8.028 Y-7.959 Z-2.888
X8.001 Y-7.95 Z-2.908
X7.974 Y-7.957 Z-2.928
X7.955 Y-7.978 Z-2.948
X7.95 Y-8.005 Z-2.969
X7.961 Y-8.031 Z-2.989
X7.984 Y-8.047 Z-3.009
X8.012 Y-8.049 Z-3.029
X8.036 Y-8.035 Z-3.049
X8.049 Y-8.01 Z-3.07
X8.047 Y-7.982 Z-3.09
X8.03 Y-7.96 Z-3.11
X8.004 Y-7.95 Z-3.13
X7.976 Y-7.956 Z-3.15
X7.956 Y-7.976 Z-3.171
X7.95 Y-8.003 Z-3.191
X7.959 Y-8.029 Z-3.211
X7.982 Y-8.046 Z-3.231
X8.009 Y-8.049 Z-3.251
X8.034 Y-8.036 Z-3.272
X8.048 Y-8.012 Z-3.292
X8.047 Y-7.984 Z-3.312
X8.032 Y-7.961 Z-3.332
X8.006 Y-7.95 Z-3.352
X7.978 Y-7.955 Z-3.373
X7.957 Y-7.974 Z-3.393
X7.95 Y-8.001 Z-3.413
X7.958 Y-8.027 Z-3.433
X7.979 Y-8.046 Z-3.453
X8.007 Y-8.049 Z-3.473
X8.033 Y-8.038 Z-3.494
X8.048 Y-8.014 Z-3.514
Y-7.986 Z-3.534
X8.033 Y-7.963 Z-3.554
X8.008 Y-7.951 Z-3.574
X7.98 Y-7.954 Z-3.595
X7.959 Y-7.972 Z-3.615
X7.95 Y-7.998 Z-3.635
X7.957 Y-8.025 Z-3.655
X7.977 Y-8.045 Z-3.675
X8.005 Y-8.05 Z-3.696
X8.031 Y-8.039 Z-3.716
X8.047 Y-8.017 Z-3.736
X8.049 Y-7.989 Z-3.756
X8.035 Y-7.964 Z-3.776
X8.01 Y-7.951 Z-3.797
X7.982 Y-7.953 Z-3.817
X7.96 Y-7.97 Z-3.837
X7.95 Y-7.996 Z-3.857
X7.956 Y-8.023 Z-3.877
X7.975 Y-8.044 Z-3.898
X8.003 Y-8.05 Z-3.918
X8.029 Y-8.041 Z-3.938
X8.046 Y-8.019 Z-3.958
X8.049 Y-7.991 Z-3.978
X8.037 Y-7.966 Z-3.999
X8.013 Y-7.952 Z-4.019
X7.985 Z-4.039
X7.961 Y-7.968 Z-4.059
X7.95 Y-7.994 Z-4.079
X7.955 Y-8.021 Z-4.1
X7.973 Y-8.042 Z-4.12
X8 Y-8.05 Z-4.14
X8.027 Y-8.042 Z-4.16
X8.045 Y-8.021 Z-4.18
X8.05 Y-7.993 Z-4.2
X8.038 Y-7.968 Z-4.221
X8.015 Y-7.952 Z-4.241
X7.987 Z-4.261
X7.963 Y-7.966 Z-4.281
X7.951 Y-7.992 Z-4.301
X7.954 Y-8.019 Z-4.322
X7.972 Y-8.041 Z-4.342
X7.998 Y-8.05 Z-4.362
X8.025 Y-8.043 Z-4.382
X8.044 Y-8.023 Z-4.402
X8.05 Y-7.995 Z-4.423
X8.04 Y-7.969 Z-4.443
X8.017 Y-7.953 Z-4.463
X7.989 Y-7.951 Z-4.483
X7.965 Y-7.965 Z-4.503
X7.951 Y-7.989 Z-4.524
X7.953 Y-8.017 Z-4.544
X7.97 Y-8.04 Z-4.564
X7.996 Y-8.05 Z-4.584
X8.023 Y-8.044 Z-4.604
X8.043 Y-8.025 Z-4.625
X8.05 Y-7.998 Z-4.645
X8.041 Y-7.971 Z-4.665
X8.019 Y-7.954 Z-4.685
X7.991 Y-7.951 Z-4.705
X7.966 Y-7.963 Z-4.726
X7.952 Y-7.987 Z-4.746
Y-8.015 Z-4.766
X7.968 Y-8.038 Z-4.786
X7.994 Y-8.05 Z-4.806
X8.021 Y-8.045 Z-4.827
X8.042 Y-8.027 Z-4.847
X8.05 Y-8 Z-4.867
X8.042 Y-7.973 Z-4.887
X8.021 Y-7.955 Z-4.907
X7.993 Y-7.95 Z-4.927
X7.968 Y-7.962 Z-4.948
X7.952 Y-7.985 Z-4.968
Y-8.013 Z-4.988
X7.966 Y-8.037 Z-5.008
X7.991 Y-8.049 Z-5.028
X8.019 Y-8.046 Z-5.049
X8.041 Y-8.029 Z-5.069
X8.05 Y-8.002 Z-5.089
X8.043 Y-7.975 Z-5.109
X8.023 Y-7.956 Z-5.129
X7.996 Y-7.95 Z-5.15
X7.97 Y-7.96 Z-5.17
X7.953 Y-7.983 Z-5.19
X7.951 Y-8.011 Z-5.21
X7.965 Y-8.035 Z-5.23
X7.989 Y-8.049 Z-5.251
X8.017 Y-8.047 Z-5.271
X8.04 Y-8.031 Z-5.291
X8.05 Y-8.005 Z-5.311
X8.044 Y-7.977 Z-5.331
X8.025 Y-7.957 Z-5.352
X7.998 Y-7.95 Z-5.372
X7.972 Y-7.959 Z-5.392
X7.954 Y-7.981 Z-5.412
X7.951 Y-8.008 Z-5.432
X7.963 Y-8.034 Z-5.453
X7.987 Y-8.048 Z-5.473
X8.015 Z-5.493
X8.038 Y-8.032 Z-5.513
X8.05 Y-8.007 Z-5.533
X8.045 Y-7.979 Z-5.554
X8.027 Y-7.958 Z-5.574
X8 Y-7.95 Z-5.594
X7.973 Y-7.958 Z-5.614
X7.955 Y-7.979 Z-5.634
X7.95 Y-8.006 Z-5.655
X7.961 Y-8.032 Z-5.675
X7.985 Y-8.048 Z-5.695
X8.013 Z-5.715
X8.037 Y-8.034 Z-5.735
X8.049 Y-8.009 Z-5.755
X8.046 Y-7.981 Z-5.776
X8.029 Y-7.959 Z-5.796
X8.003 Y-7.95 Z-5.816
X7.975 Y-7.956 Z-5.836
X7.956 Y-7.977 Z-5.856
X7.95 Y-8.004 Z-5.877
X7.96 Y-8.03 Z-5.897
X7.982 Y-8.047 Z-5.917
X8.01 Y-8.049 Z-5.937
X8.035 Y-8.036 Z-5.957
X8.049 Y-8.011 Z-5.978
X8.047 Y-7.983 Z-5.998
X8.031 Y-7.961 Z-6.018
X8.005 Y-7.95 Z-6.038
X7.977 Y-7.955 Z-6.058
X7.957 Y-7.975 Z-6.079
X7.95 Y-8.002 Z-6.099
X7.959 Y-8.028 Z-6.119
X7.98 Y-8.046 Z-6.139
X8.008 Y-8.049 Z-6.159
X8.033 Y-8.037 Z-6.18
X8.048 Y-8.014 Z-6.2
Y-7.986 Z-6.22
X8.033 Y-7.962 Z-6.24
X8.007 Y-7.951 Z-6.26
X7.979 Y-7.954 Z-6.281
X7.958 Y-7.973 Z-6.301
X7.95 Y-7.999 Z-6.321
X7.957 Y-8.026 Z-6.341
X7.978 Y-8.045 Z-6.361
X8.006 Y-8.05 Z-6.382
X8.032 Y-8.039 Z-6.402
X8.047 Y-8.016 Z-6.422
X8.048 Y-7.988 Z-6.442
X8.034 Y-7.964 Z-6.462
X8.009 Y-7.951 Z-6.482
X7.982 Y-7.954 Z-6.503
X7.959 Y-7.971 Z-6.523
X7.95 Y-7.997 Z-6.543
X7.956 Y-8.024 Z-6.563
X7.976 Y-8.044 Z-6.583
X8.004 Y-8.05 Z-6.604
X8.03 Y-8.04 Z-6.624
X8.047 Y-8.018 Z-6.644
X8.049 Y-7.99 Z-6.664
X8.036 Y-7.965 Z-6.684
X8.012 Y-7.951 Z-6.705
X7.984 Y-7.953 Z-6.725
X7.961 Y-7.969 Z-6.745
X7.95 Y-7.995 Z-6.765
X7.955 Y-8.022 Z-6.785
X7.974 Y-8.043 Z-6.806
X8.001 Y-8.05 Z-6.826
X8.028 Y-8.041 Z-6.846
X8.046 Y-8.02 Z-6.866
X8.049 Y-7.992 Z-6.886
X8.037 Y-7.967 Z-6.907
X8.014 Y-7.952 Z-6.927
X7.986 Z-6.947
X7.962 Y-7.967 Z-6.967
X7.951 Y-7.993 Z-6.987
X7.954 Y-8.02 Z-7.008
X7.972 Y-8.042 Z-7.028
X7.999 Y-8.05 Z-7.048
X8.026 Y-8.043 Z-7.068
X8.045 Y-8.022 Z-7.088
X8.05 Y-7.994 Z-7.109
X8.039 Y-7.969 Z-7.129
X8.016 Y-7.953 Z-7.149
X7.988 Y-7.951 Z-7.169
X7.964 Y-7.965 Z-7.189
X7.951 Y-7.99 Z-7.209
X7.953 Y-8.018 Z-7.23
X7.97 Y-8.04 Z-7.25
X7.997 Y-8.05 Z-7.27
X8.024 Y-8.044 Z-7.29
X8.044 Y-8.024 Z-7.31
X8.05 Y-7.997 Z-7.331
X8.04 Y-7.97 Z-7.351
X8.018 Y-7.953 Z-7.371
X7.99 Y-7.951 Z-7.391
X7.965 Y-7.964 Z-7.411
X7.951 Y-7.988 Z-7.432
X7.953 Y-8.016 Z-7.452
X7.969 Y-8.039 Z-7.472
X7.994 Y-8.05 Z-7.492
X8.022 Y-8.045 Z-7.512
X8.043 Y-8.026 Z-7.533
X8.05 Y-7.999 Z-7.553
X8.042 Y-7.972 Z-7.573
X8.02 Y-7.954 Z-7.593
X7.993 Y-7.951 Z-7.613
X7.967 Y-7.962 Z-7.634
X7.952 Y-7.986 Z-7.654
Y-8.014 Z-7.674
X7.967 Y-8.037 Z-7.694
X7.992 Y-8.049 Z-7.714
X8.02 Y-8.046 Z-7.735
X8.041 Y-8.028 Z-7.755
X8.05 Y-8.001 Z-7.775
X8.043 Y-7.974 Z-7.795
X8.022 Y-7.955 Z-7.815
X7.995 Y-7.95 Z-7.836
X7.969 Y-7.961 Z-7.856
X7.953 Y-7.984 Z-7.876
X7.951 Y-8.012 Z-7.896
X7.965 Y-8.036 Z-7.916
X7.99 Y-8.049 Z-7.936
X8.018 Y-8.047 Z-7.957
X8.04 Y-8.03 Z-7.977
X8.05 Y-8.004 Z-7.997
X8.044 Y-7.976 Z-8.017
X8.024 Y-7.956 Z-8.037
X7.997 Y-7.95 Z-8.058
X7.971 Y-7.959 Z-8.078
X7.954 Y-7.982 Z-8.098
X7.951 Y-8.009 Z-8.118
X7.964 Y-8.034 Z-8.138
X7.988 Y-8.048 Z-8.159
X8.016 Y-8.047 Z-8.179
X8.039 Y-8.032 Z-8.199
X8.05 Y-8.006 Z-8.219
X8.045 Y-7.978 Z-8.239
X8.026 Y-7.957 Z-8.26
X7.999 Y-7.95 Z-8.28
X7.973 Y-7.958 Z-8.3
G3 X8.027 Y-8.042 I0.027 J-0.042
X7.973 Y-7.958 I-0.027 J0.042
G1 X7.962 Y-7.974 F50
X7.965 Y-7.993
X8 Y-8
Z5 F250
X98
Z1.69
Z0 F50
X98.025 Y-7.975
X98.018 Y-7.957
X98 Y-7.95
X97.973 Y-7.958 Z-0.02 F250
X97.955 Y-7.979 Z-0.04
X97.95 Y-8.006 Z-0.061
X97.962 Y-8.032 Z-0.081
X97.985 Y-8.048 Z-0.101
X98.013 Z-0.121
X98.037 Y-8.034 Z-0.141
X98.049 Y-8.009 Z-0.162
X98.046 Y-7.981 Z-0.182
X98.029 Y-7.959 Z-0.202
X98.002 Y-7.95 Z-0.222
X97.975 Y-7.957 Z-0.242
X97.956 Y-7.977 Z-0.263
X97.95 Y-8.004 Z-0.283
X97.96 Y-8.03 Z-0.303
X97.983 Y-8.047 Z-0.323
X98.011 Y-8.049 Z-0.343
X98.035 Y-8.035 Z-0.364
X98.049 Y-8.011 Z-0.384
X98.047 Y-7.983 Z-0.404
X98.031 Y-7.96 Z-0.424
X98.005 Y-7.95 Z-0.444
X97.977 Y-7.956 Z-0.464
X97.957 Y-7.975 Z-0.485
X97.95 Y-8.002 Z-0.505
X97.959 Y-8.028 Z-0.525
X97.981 Y-8.046 Z-0.545
X98.008 Y-8.049 Z-0.565
X98.034 Y-8.037 Z-0.586
X98.048 Y-8.013 Z-0.606
Y-7.985 Z-0.626
X98.032 Y-7.962 Z-0.646
X98.007 Y-7.95 Z-0.666
X97.979 Y-7.955 Z-0.687
X97.958 Y-7.973 Z-0.707
X97.95 Y-8 Z-0.727
X97.958 Y-8.027 Z-0.747
X97.979 Y-8.045 Z-0.767
X98.006 Y-8.05 Z-0.788
X98.032 Y-8.039 Z-0.808
X98.048 Y-8.015 Z-0.828
Y-7.987 Z-0.848
X98.034 Y-7.963 Z-0.868
X98.009 Y-7.951 Z-0.889
X97.981 Y-7.954 Z-0.909
X97.959 Y-7.971 Z-0.929
X97.95 Y-7.997 Z-0.949
X97.956 Y-8.025 Z-0.969
X97.977 Y-8.044 Z-0.99
X98.004 Y-8.05 Z-1.01
X98.03 Y-8.04 Z-1.03
X98.047 Y-8.018 Z-1.05
X98.049 Y-7.99 Z-1.07
X98.036 Y-7.965 Z-1.091
X98.011 Y-7.951 Z-1.111
X97.983 Y-7.953 Z-1.131
X97.961 Y-7.969 Z-1.151
X97.95 Y-7.995 Z-1.171
X97.955 Y-8.023 Z-1.191
X97.975 Y-8.043 Z-1.212
X98.002 Y-8.05 Z-1.232
X98.028 Y-8.041 Z-1.252
X98.046 Y-8.02 Z-1.272
X98.049 Y-7.992 Z-1.292
X98.037 Y-7.967 Z-1.313
X98.014 Y-7.952 Z-1.333
X97.986 Z-1.353
X97.962 Y-7.967 Z-1.373
X97.951 Y-7.993 Z-1.393
X97.954 Y-8.021 Z-1.414
X97.973 Y-8.042 Z-1.434
X97.999 Y-8.05 Z-1.454
X98.026 Y-8.043 Z-1.474
X98.045 Y-8.022 Z-1.494
X98.05 Y-7.994 Z-1.515
X98.039 Y-7.968 Z-1.535
X98.016 Y-7.953 Z-1.555
X97.988 Y-7.952 Z-1.575
X97.964 Y-7.966 Z-1.595
X97.951 Y-7.991 Z-1.616
X97.954 Y-8.018 Z-1.636
X97.971 Y-8.041 Z-1.656
X97.997 Y-8.05 Z-1.676
X98.024 Y-8.044 Z-1.696
X98.044 Y-8.024 Z-1.717
X98.05 Y-7.996 Z-1.737
X98.04 Y-7.97 Z-1.757
X98.018 Y-7.953 Z-1.777
X97.99 Y-7.951 Z-1.797
X97.965 Y-7.964 Z-1.818
X97.951 Y-7.988 Z-1.838
X97.953 Y-8.016 Z-1.858
X97.969 Y-8.039 Z-1.878
X97.995 Y-8.05 Z-1.898
X98.022 Y-8.045 Z-1.918
X98.043 Y-8.026 Z-1.939
X98.05 Y-7.999 Z-1.959
X98.041 Y-7.972 Z-1.979
X98.02 Y-7.954 Z-1.999
X97.992 Y-7.951 Z-2.019
X97.967 Y-7.963 Z-2.04
X97.952 Y-7.986 Z-2.06
Y-8.014 Z-2.08
X97.967 Y-8.038 Z-2.1
X97.993 Y-8.049 Z-2.12
X98.02 Y-8.046 Z-2.141
X98.042 Y-8.028 Z-2.161
X98.05 Y-8.001 Z-2.181
X98.043 Y-7.974 Z-2.201
X98.022 Y-7.955 Z-2.221
X97.994 Y-7.95 Z-2.242
X97.969 Y-7.961 Z-2.262
X97.953 Y-7.984 Z-2.282
X97.951 Y-8.012 Z-2.302
X97.965 Y-8.036 Z-2.322
X97.99 Y-8.049 Z-2.343
X98.018 Y-8.047 Z-2.363
X98.04 Y-8.03 Z-2.383
X98.05 Y-8.003 Z-2.403
X98.044 Y-7.976 Z-2.423
X98.024 Y-7.956 Z-2.444
X97.997 Y-7.95 Z-2.464
X97.97 Y-7.96 Z-2.484
X97.953 Y-7.982 Z-2.504
X97.951 Y-8.01 Z-2.524
X97.964 Y-8.035 Z-2.545
X97.988 Y-8.049 Z-2.565
X98.016 Y-8.047 Z-2.585
X98.039 Y-8.031 Z-2.605
X98.05 Y-8.006 Z-2.625
X98.045 Y-7.978 Z-2.645
X98.026 Y-7.957 Z-2.666
X97.999 Y-7.95 Z-2.686
X97.972 Y-7.958 Z-2.706
X97.954 Y-7.98 Z-2.726
X97.951 Y-8.007 Z-2.746
X97.962 Y-8.033 Z-2.767
X97.986 Y-8.048 Z-2.787
X98.014 Z-2.807
X98.037 Y-8.033 Z-2.827
X98.049 Y-8.008 Z-2.847
X98.046 Y-7.98 Z-2.868
X98.028 Y-7.959 Z-2.888
X98.001 Y-7.95 Z-2.908
X97.974 Y-7.957 Z-2.928
X97.955 Y-7.978 Z-2.948
X97.95 Y-8.005 Z-2.969
X97.961 Y-8.031 Z-2.989
X97.984 Y-8.047 Z-3.009
X98.012 Y-8.049 Z-3.029
X98.036 Y-8.035 Z-3.049
X98.049 Y-8.01 Z-3.07
X98.047 Y-7.982 Z-3.09
X98.03 Y-7.96 Z-3.11
X98.004 Y-7.95 Z-3.13
X97.976 Y-7.956 Z-3.15
X97.956 Y-7.976 Z-3.171
X97.95 Y-8.003 Z-3.191
X97.959 Y-8.029 Z-3.211
X97.982 Y-8.046 Z-3.231
X98.009 Y-8.049 Z-3.251
X98.034 Y-8.036 Z-3.272
X98.048 Y-8.012 Z-3.292
X98.047 Y-7.984 Z-3.312
X98.032 Y-7.961 Z-3.332
X98.006 Y-7.95 Z-3.352
X97.978 Y-7.955 Z-3.373
X97.957 Y-7.974 Z-3.393
X97.95 Y-8.001 Z-3.413
X97.958 Y-8.027 Z-3.433
X97.979 Y-8.046 Z-3.453
X98.007 Y-8.049 Z-3.473
X98.033 Y-8.038 Z-3.494
X98.048 Y-8.014 Z-3.514
Y-7.986 Z-3.534
X98.033 Y-7.963 Z-3.554
X98.008 Y-7.951 Z-3.574
X97.98 Y-7.954 Z-3.595
X97.959 Y-7.972 Z-3.615
X97.95 Y-7.998 Z-3.635
X97.957 Y-8.025 Z-3.655
X97.977 Y-8.045 Z-3.675
X98.005 Y-8.05 Z-3.696
X98.031 Y-8.039 Z-3.716
X98.047 Y-8.017 Z-3.736
X98.049 Y-7.989 Z-3.756
X98.035 Y-7.964 Z-3.776
X98.01 Y-7.951 Z-3.797
X97.982 Y-7.953 Z-3.817
X97.96 Y-7.97 Z-3.837
X97.95 Y-7.996 Z-3.857
X97.956 Y-8.023 Z-3.877
X97.975 Y-8.044 Z-3.898
X98.003 Y-8.05 Z-3.918
X98.029 Y-8.041 Z-3.938
X98.046 Y-8.019 Z-3.958
X98.049 Y-7.991 Z-3.978
X98.037 Y-7.966 Z-3.999
X98.013 Y-7.952 Z-4.019
X97.985 Z-4.039
X97.961 Y-7.968 Z-4.059
X97.95 Y-7.994 Z-4.079
X97.955 Y-8.021 Z-4.1
X97.973 Y-8.042 Z-4.12
X98 Y-8.05 Z-4.14
X98.027 Y-8.042 Z-4.16
X98.045 Y-8.021 Z-4.18
X98.05 Y-7.993 Z-4.2
X98.038 Y-7.968 Z-4.221
X98.015 Y-7.952 Z-4.241
X97.987 Z-4.261
X97.963 Y-7.966 Z-4.281
X97.951 Y-7.992 Z-4.301
X97.954 Y-8.019 Z-4.322
X97.972 Y-8.041 Z-4.342
X97.998 Y-8.05 Z-4.362
X98.025 Y-8.043 Z-4.382
X98.044 Y-8.023 Z-4.402
X98.05 Y-7.995 Z-4.423
X98.04 Y-7.969 Z-4.443
X98.017 Y-7.953 Z-4.463
X97.989 Y-7.951 Z-4.483
X97.965 Y-7.965 Z-4.503
X97.951 Y-7.989 Z-4.524
X97.953 Y-8.017 Z-4.544
X97.97 Y-8.04 Z-4.564
X97.996 Y-8.05 Z-4.584
X98.023 Y-8.044 Z-4.604
X98.043 Y-8.025 Z-4.625
X98.05 Y-7.998 Z-4.645
X98.041 Y-7.971 Z-4.665
X98.019 Y-7.954 Z-4.685
X97.991 Y-7.951 Z-4.705
X97.966 Y-7.963 Z-4.726
X97.952 Y-7.987 Z-4.746
Y-8.015 Z-4.766
X97.968 Y-8.038 Z-4.786
X97.994 Y-8.05 Z-4.806
X98.021 Y-8.045 Z-4.827
X98.042 Y-8.027 Z-4.847
X98.05 Y-8 Z-4.867
X98.042 Y-7.973 Z-4.887
X98.021 Y-7.955 Z-4.907
X97.993 Y-7.95 Z-4.927
X97.968 Y-7.962 Z-4.948
X97.952 Y-7.985 Z-4.968
Y-8.013 Z-4.988
X97.966 Y-8.037 Z-5.008
X97.991 Y-8.049 Z-5.028
X98.019 Y-8.046 Z-5.049
X98.041 Y-8.029 Z-5.069
X98.05 Y-8.002 Z-5.089
X98.043 Y-7.975 Z-5.109
X98.023 Y-7.956 Z-5.129
X97.996 Y-7.95 Z-5.15
X97.97 Y-7.96 Z-5.17
X97.953 Y-7.983 Z-5.19
X97.951 Y-8.011 Z-5.21
X97.965 Y-8.035 Z-5.23
X97.989 Y-8.049 Z-5.251
X98.017 Y-8.047 Z-5.271
X98.04 Y-8.031 Z-5.291
X98.05 Y-8.005 Z-5.311
X98.044 Y-7.977 Z-5.331
X98.025 Y-7.957 Z-5.352
X97.998 Y-7.95 Z-5.372
X97.972 Y-7.959 Z-5.392
X97.954 Y-7.981 Z-5.412
X97.951 Y-8.008 Z-5.432
X97.963 Y-8.034 Z-5.453
X97.987 Y-8.048 Z-5.473
X98.015 Z-5.493
X98.038 Y-8.032 Z-5.513
X98.05 Y-8.007 Z-5.533
X98.045 Y-7.979 Z-5.554
X98.027 Y-7.958 Z-5.574
X98 Y-7.95 Z-5.594
X97.973 Y-7.958 Z-5.614
X97.955 Y-7.979 Z-5.634
X97.95 Y-8.006 Z-5.655
X97.961 Y-8.032 Z-5.675
X97.985 Y-8.048 Z-5.695
X98.013 Z-5.715
X98.037 Y-8.034 Z-5.735
X98.049 Y-8.009 Z-5.755
X98.046 Y-7.981 Z-5.776
X98.029 Y-7.959 Z-5.796
X98.003 Y-7.95 Z-5.816
X97.975 Y-7.956 Z-5.836
X97.956 Y-7.977 Z-5.856
X97.95 Y-8.004 Z-5.877
X97.96 Y-8.03 Z-5.897
X97.982 Y-8.047 Z-5.917
X98.01 Y-8.049 Z-5.937
X98.035 Y-8.036 Z-5.957
X98.049 Y-8.011 Z-5.978
X98.047 Y-7.983 Z-5.998
X98.031 Y-7.961 Z-6.018
X98.005 Y-7.95 Z-6.038
X97.977 Y-7.955 Z-6.058
X97.957 Y-7.975 Z-6.079
X97.95 Y-8.002 Z-6.099
X97.959 Y-8.028 Z-6.119
X97.98 Y-8.046 Z-6.139
X98.008 Y-8.049 Z-6.159
X98.033 Y-8.037 Z-6.18
X98.048 Y-8.014 Z-6.2
Y-7.986 Z-6.22
X98.033 Y-7.962 Z-6.24
X98.007 Y-7.951 Z-6.26
X97.979 Y-7.954 Z-6.281
X97.958 Y-7.973 Z-6.301
X97.95 Y-7.999 Z-6.321
X97.957 Y-8.026 Z-6.341
X97.978 Y-8.045 Z-6.361
X98.006 Y-8.05 Z-6.382
X98.032 Y-8.039 Z-6.402
X98.047 Y-8.016 Z-6.422
X98.048 Y-7.988 Z-6.442
X98.034 Y-7.964 Z-6.462
X98.009 Y-7.951 Z-6.482
X97.982 Y-7.954 Z-6.503
X97.959 Y-7.971 Z-6.523
X97.95 Y-7.997 Z-6.543
X97.956 Y-8.024 Z-6.563
X97.976 Y-8.044 Z-6.583
X98.004 Y-8.05 Z-6.604
X98.03 Y-8.04 Z-6.624
X98.047 Y-8.018 Z-6.644
X98.049 Y-7.99 Z-6.664
X98.036 Y-7.965 Z-6.684
X98.012 Y-7.951 Z-6.705
X97.984 Y-7.953 Z-6.725
X97.961 Y-7.969 Z-6.745
X97.95 Y-7.995 Z-6.765
X97.955 Y-8.022 Z-6.785
X97.974 Y-8.043 Z-6.806
X98.001 Y-8.05 Z-6.826
X98.028 Y-8.041 Z-6.846
X98.046 Y-8.02 Z-6.866
X98.049 Y-7.992 Z-6.886
X98.037 Y-7.967 Z-6.907
X98.014 Y-7.952 Z-6.927
X97.986 Z-6.947
X97.962 Y-7.967 Z-6.967
X97.951 Y-7.993 Z-6.987
X97.954 Y-8.02 Z-7.008
X97.972 Y-8.042 Z-7.028
X97.999 Y-8.05 Z-7.048
X98.026 Y-8.043 Z-7.068
X98.045 Y-8.022 Z-7.088
X98.05 Y-7.994 Z-7.109
X98.039 Y-7.969 Z-7.129
X98.016 Y-7.953 Z-7.149
X97.988 Y-7.951 Z-7.169
X97.964 Y-7.965 Z-7.189
X97.951 Y-7.99 Z-7.209
X97.953 Y-8.018 Z-7.23
X97.97 Y-8.04 Z-7.25
X97.997 Y-8.05 Z-7.27
X98.024 Y-8.044 Z-7.29
X98.044 Y-8.024 Z-7.31
X98.05 Y-7.997 Z-7.331
X98.04 Y-7.97 Z-7.351
X98.018 Y-7.953 Z-7.371
X97.99 Y-7.951 Z-7.391
X97.965 Y-7.964 Z-7.411
X97.951 Y-7.988 Z-7.432
X97.953 Y-8.016 Z-7.452
X97.969 Y-8.039 Z-7.472
X97.994 Y-8.05 Z-7.492
X98.022 Y-8.045 Z-7.512
X98.043 Y-8.026 Z-7.533
X98.05 Y-7.999 Z-7.553
X98.042 Y-7.972 Z-7.573
X98.02 Y-7.954 Z-7.593
X97.993 Y-7.951 Z-7.613
X97.967 Y-7.962 Z-7.634
X97.952 Y-7.986 Z-7.654
Y-8.014 Z-7.674
X97.967 Y-8.037 Z-7.694
X97.992 Y-8.049 Z-7.714
X98.02 Y-8.046 Z-7.735
X98.041 Y-8.028 Z-7.755
X98.05 Y-8.001 Z-7.775
X98.043 Y-7.974 Z-7.795
X98.022 Y-7.955 Z-7.815
X97.995 Y-7.95 Z-7.836
X97.969 Y-7.961 Z-7.856
X97.953 Y-7.984 Z-7.876
X97.951 Y-8.012 Z-7.896
X97.965 Y-8.036 Z-7.916
X97.99 Y-8.049 Z-7.936
X98.018 Y-8.047 Z-7.957
X98.04 Y-8.03 Z-7.977
X98.05 Y-8.004 Z-7.997
X98.044 Y-7.976 Z-8.017
X98.024 Y-7.956 Z-8.037
X97.997 Y-7.95 Z-8.058
X97.971 Y-7.959 Z-8.078
X97.954 Y-7.982 Z-8.098
X97.951 Y-8.009 Z-8.118
X97.964 Y-8.034 Z-8.138
X97.988 Y-8.048 Z-8.159
X98.016 Y-8.047 Z-8.179
X98.039 Y-8.032 Z-8.199
X98.05 Y-8.006 Z-8.219
X98.045 Y-7.978 Z-8.239
X98.026 Y-7.957 Z-8.26
X97.999 Y-7.95 Z-8.28
X97.973 Y-7.958 Z-8.3
G3 X98.027 Y-8.042 I0.027 J-0.042
X97.973 Y-7.958 I-0.027 J0.042
G1 X97.962 Y-7.974 F50
X97.965 Y-7.993
X98 Y-8
Z15 F250

M9
G28 G91 Z0
G90
G28 G91 X0 Y0
G90
M5
M30
