(side_upperright)
(Machine)
(  vendor: Autodesk)
(  model: Generic 3-axis)
(  description: This machine has XY axis on the Table and Z axis on the Head)
(T3 D=3.1 CR=0 - ZMIN=-7.3 - flat end mill)
G90 G94
G17
G21
(When using Fusion for Personal Use, the feedrate of rapid)
(moves is reduced to match the feedrate of cutting moves,)
(which can increase machining time. Unrestricted rapid moves)
(are available with a Fusion Subscription.)
G28 G91 Z0
G90

(Bore7)
T3
S19000 M3
G17 G90 G94
G54
M8
G0 X37.766 Y-51.64
Z15
G1 Z2 F250
Z0.31 F50
G19 G3 Y-51.33 Z0 J0.31 K0
G1 Y-51.175
G17 G3 X37.541 Y-50.95 I-0.225 J0
X37.541 Y-51.85 Z-0.14 I0 J-0.45 F250
X37.541 Y-50.95 Z-0.28 I0 J0.45
X37.541 Y-51.85 Z-0.42 I0 J-0.45
X37.541 Y-50.95 Z-0.559 I0 J0.45
X37.541 Y-51.85 Z-0.699 I0 J-0.45
X37.541 Y-50.95 Z-0.839 I0 J0.45
X37.541 Y-51.85 Z-0.979 I0 J-0.45
X37.541 Y-50.95 Z-1.119 I0 J0.45
X37.541 Y-51.85 Z-1.259 I0 J-0.45
X37.541 Y-50.95 Z-1.399 I0 J0.45
X37.541 Y-51.85 Z-1.538 I0 J-0.45
X37.541 Y-50.95 Z-1.678 I0 J0.45
X37.541 Y-51.85 Z-1.818 I0 J-0.45
X37.541 Y-50.95 Z-1.958 I0 J0.45
X37.541 Y-51.85 Z-2.098 I0 J-0.45
X37.541 Y-50.95 Z-2.238 I0 J0.45
X37.541 Y-51.85 Z-2.378 I0 J-0.45
X37.541 Y-50.95 Z-2.517 I0 J0.45
X37.541 Y-51.85 Z-2.657 I0 J-0.45
X37.541 Y-50.95 Z-2.797 I0 J0.45
X37.541 Y-51.85 Z-2.937 I0 J-0.45
X37.541 Y-50.95 Z-3.077 I0 J0.45
X37.541 Y-51.85 Z-3.217 I0 J-0.45
X37.541 Y-50.95 Z-3.356 I0 J0.45
X37.541 Y-51.85 Z-3.496 I0 J-0.45
X37.541 Y-50.95 Z-3.636 I0 J0.45
X37.541 Y-51.85 Z-3.776 I0 J-0.45
X37.541 Y-50.95 Z-3.916 I0 J0.45
X37.541 Y-51.85 Z-4.056 I0 J-0.45
X37.541 Y-50.95 Z-4.196 I0 J0.45
X37.541 Y-51.85 Z-4.335 I0 J-0.45
X37.541 Y-50.95 Z-4.475 I0 J0.45
X37.541 Y-51.85 Z-4.615 I0 J-0.45
X37.541 Y-50.95 Z-4.755 I0 J0.45
X37.541 Y-51.85 Z-4.895 I0 J-0.45
X37.541 Y-50.95 Z-5.035 I0 J0.45
X37.541 Y-51.85 Z-5.175 I0 J-0.45
X37.541 Y-50.95 Z-5.314 I0 J0.45
X37.541 Y-51.85 Z-5.454 I0 J-0.45
X37.541 Y-50.95 Z-5.594 I0 J0.45
X37.541 Y-51.85 Z-5.734 I0 J-0.45
X37.541 Y-50.95 Z-5.874 I0 J0.45
X37.541 Y-51.85 Z-6.014 I0 J-0.45
X37.541 Y-50.95 Z-6.154 I0 J0.45
X37.541 Y-51.85 Z-6.293 I0 J-0.45
X37.541 Y-50.95 Z-6.433 I0 J0.45
X37.541 Y-51.85 Z-6.573 I0 J-0.45
X37.541 Y-50.95 Z-6.713 I0 J0.45
X37.541 Y-51.85 Z-6.853 I0 J-0.45
X37.541 Y-50.95 Z-6.993 I0 J0.45
X37.541 Y-51.85 Z-7.133 I0 J-0.45
X37.541 Y-50.95 Z-7.272 I0 J0.45
X37.279 Y-51.034 Z-7.3 I0 J-0.45
X37.802 Y-51.766 I0.262 J-0.366
X37.279 Y-51.034 I-0.262 J0.366
X37.227 Y-51.348 I0.131 J-0.183 F50
G1 X37.317 Y-51.474
X37.357 Y-51.53 Z-7.292
X37.395 Y-51.583 Z-7.269
X37.429 Y-51.631 Z-7.232
X37.458 Y-51.671 Z-7.183
X37.479 Y-51.701 Z-7.125
X37.493 Y-51.72 Z-7.059
X37.497 Y-51.726 Z-6.99
Z5 F250
X47.725 Y-45.89
Z2
Z0.31 F50
G19 G3 Y-45.58 Z0 J0.31 K0
G1 Y-45.425
G17 G3 X47.5 Y-45.2 I-0.225 J0
X47.5 Y-46.1 Z-0.14 I0 J-0.45 F250
X47.5 Y-45.2 Z-0.28 I0 J0.45
X47.5 Y-46.1 Z-0.42 I0 J-0.45
X47.5 Y-45.2 Z-0.559 I0 J0.45
X47.5 Y-46.1 Z-0.699 I0 J-0.45
X47.5 Y-45.2 Z-0.839 I0 J0.45
X47.5 Y-46.1 Z-0.979 I0 J-0.45
X47.5 Y-45.2 Z-1.119 I0 J0.45
X47.5 Y-46.1 Z-1.259 I0 J-0.45
X47.5 Y-45.2 Z-1.399 I0 J0.45
X47.5 Y-46.1 Z-1.538 I0 J-0.45
X47.5 Y-45.2 Z-1.678 I0 J0.45
X47.5 Y-46.1 Z-1.818 I0 J-0.45
X47.5 Y-45.2 Z-1.958 I0 J0.45
X47.5 Y-46.1 Z-2.098 I0 J-0.45
X47.5 Y-45.2 Z-2.238 I0 J0.45
X47.5 Y-46.1 Z-2.378 I0 J-0.45
X47.5 Y-45.2 Z-2.517 I0 J0.45
X47.5 Y-46.1 Z-2.657 I0 J-0.45
X47.5 Y-45.2 Z-2.797 I0 J0.45
X47.5 Y-46.1 Z-2.937 I0 J-0.45
X47.5 Y-45.2 Z-3.077 I0 J0.45
X47.5 Y-46.1 Z-3.217 I0 J-0.45
X47.5 Y-45.2 Z-3.356 I0 J0.45
X47.5 Y-46.1 Z-3.496 I0 J-0.45
X47.5 Y-45.2 Z-3.636 I0 J0.45
X47.5 Y-46.1 Z-3.776 I0 J-0.45
X47.5 Y-45.2 Z-3.916 I0 J0.45
X47.5 Y-46.1 Z-4.056 I0 J-0.45
X47.5 Y-45.2 Z-4.196 I0 J0.45
X47.5 Y-46.1 Z-4.335 I0 J-0.45
X47.5 Y-45.2 Z-4.475 I0 J0.45
X47.5 Y-46.1 Z-4.615 I0 J-0.45
X47.5 Y-45.2 Z-4.755 I0 J0.45
X47.5 Y-46.1 Z-4.895 I0 J-0.45
X47.5 Y-45.2 Z-5.035 I0 J0.45
X47.5 Y-46.1 Z-5.175 I0 J-0.45
X47.5 Y-45.2 Z-5.314 I0 J0.45
X47.5 Y-46.1 Z-5.454 I0 J-0.45
X47.5 Y-45.2 Z-5.594 I0 J0.45
X47.5 Y-46.1 Z-5.734 I0 J-0.45
X47.5 Y-45.2 Z-5.874 I0 J0.45
X47.5 Y-46.1 Z-6.014 I0 J-0.45
X47.5 Y-45.2 Z-6.154 I0 J0.45
X47.5 Y-46.1 Z-6.293 I0 J-0.45
X47.5 Y-45.2 Z-6.433 I0 J0.45
X47.5 Y-46.1 Z-6.573 I0 J-0.45
X47.5 Y-45.2 Z-6.713 I0 J0.45
X47.5 Y-46.1 Z-6.853 I0 J-0.45
X47.5 Y-45.2 Z-6.993 I0 J0.45
X47.5 Y-46.1 Z-7.133 I0 J-0.45
X47.5 Y-45.2 Z-7.272 I0 J0.45
X47.238 Y-45.284 Z-7.3 I0 J-0.45
X47.762 Y-46.016 I0.262 J-0.366
X47.238 Y-45.284 I-0.262 J0.366
X47.186 Y-45.598 I0.131 J-0.183 F50
G1 X47.276 Y-45.724
X47.316 Y-45.78 Z-7.292
X47.354 Y-45.833 Z-7.269
X47.389 Y-45.881 Z-7.232
X47.417 Y-45.921 Z-7.183
X47.439 Y-45.951 Z-7.125
X47.452 Y-45.97 Z-7.059
X47.456 Y-45.976 Z-6.99
Z5 F250
X57.684 Y-51.64
Z2
Z0.31 F50
G19 G3 Y-51.33 Z0 J0.31 K0
G1 Y-51.175
G17 G3 X57.459 Y-50.95 I-0.225 J0
X57.459 Y-51.85 Z-0.14 I0 J-0.45 F250
X57.459 Y-50.95 Z-0.28 I0 J0.45
X57.459 Y-51.85 Z-0.42 I0 J-0.45
X57.459 Y-50.95 Z-0.559 I0 J0.45
X57.459 Y-51.85 Z-0.699 I0 J-0.45
X57.459 Y-50.95 Z-0.839 I0 J0.45
X57.459 Y-51.85 Z-0.979 I0 J-0.45
X57.459 Y-50.95 Z-1.119 I0 J0.45
X57.459 Y-51.85 Z-1.259 I0 J-0.45
X57.459 Y-50.95 Z-1.399 I0 J0.45
X57.459 Y-51.85 Z-1.538 I0 J-0.45
X57.459 Y-50.95 Z-1.678 I0 J0.45
X57.459 Y-51.85 Z-1.818 I0 J-0.45
X57.459 Y-50.95 Z-1.958 I0 J0.45
X57.459 Y-51.85 Z-2.098 I0 J-0.45
X57.459 Y-50.95 Z-2.238 I0 J0.45
X57.459 Y-51.85 Z-2.378 I0 J-0.45
X57.459 Y-50.95 Z-2.517 I0 J0.45
X57.459 Y-51.85 Z-2.657 I0 J-0.45
X57.459 Y-50.95 Z-2.797 I0 J0.45
X57.459 Y-51.85 Z-2.937 I0 J-0.45
X57.459 Y-50.95 Z-3.077 I0 J0.45
X57.459 Y-51.85 Z-3.217 I0 J-0.45
X57.459 Y-50.95 Z-3.356 I0 J0.45
X57.459 Y-51.85 Z-3.496 I0 J-0.45
X57.459 Y-50.95 Z-3.636 I0 J0.45
X57.459 Y-51.85 Z-3.776 I0 J-0.45
X57.459 Y-50.95 Z-3.916 I0 J0.45
X57.459 Y-51.85 Z-4.056 I0 J-0.45
X57.459 Y-50.95 Z-4.196 I0 J0.45
X57.459 Y-51.85 Z-4.335 I0 J-0.45
X57.459 Y-50.95 Z-4.475 I0 J0.45
X57.459 Y-51.85 Z-4.615 I0 J-0.45
X57.459 Y-50.95 Z-4.755 I0 J0.45
X57.459 Y-51.85 Z-4.895 I0 J-0.45
X57.459 Y-50.95 Z-5.035 I0 J0.45
X57.459 Y-51.85 Z-5.175 I0 J-0.45
X57.459 Y-50.95 Z-5.314 I0 J0.45
X57.459 Y-51.85 Z-5.454 I0 J-0.45
X57.459 Y-50.95 Z-5.594 I0 J0.45
X57.459 Y-51.85 Z-5.734 I0 J-0.45
X57.459 Y-50.95 Z-5.874 I0 J0.45
X57.459 Y-51.85 Z-6.014 I0 J-0.45
X57.459 Y-50.95 Z-6.154 I0 J0.45
X57.459 Y-51.85 Z-6.293 I0 J-0.45
X57.459 Y-50.95 Z-6.433 I0 J0.45
X57.459 Y-51.85 Z-6.573 I0 J-0.45
X57.459 Y-50.95 Z-6.713 I0 J0.45
X57.459 Y-51.85 Z-6.853 I0 J-0.45
X57.459 Y-50.95 Z-6.993 I0 J0.45
X57.459 Y-51.85 Z-7.133 I0 J-0.45
X57.459 Y-50.95 Z-7.272 I0 J0.45
X57.198 Y-51.034 Z-7.3 I0 J-0.45
X57.721 Y-51.766 I0.262 J-0.366
X57.198 Y-51.034 I-0.262 J0.366
X57.145 Y-51.348 I0.131 J-0.183 F50
G1 X57.236 Y-51.474
X57.276 Y-51.53 Z-7.292
X57.314 Y-51.583 Z-7.269
X57.348 Y-51.631 Z-7.232
X57.376 Y-51.671 Z-7.183
X57.398 Y-51.701 Z-7.125
X57.411 Y-51.72 Z-7.059
X57.416 Y-51.726 Z-6.99
Z15 F250
(When using Fusion for Personal Use, the feedrate of rapid)
(moves is reduced to match the feedrate of cutting moves,)
(which can increase machining time. Unrestricted rapid moves)
(are available with a Fusion Subscription.)

(Bore8)
G0 X8 Y-8
G1 Z15 F250
Z1.69
Z0 F50
X8.025 Y-7.975
X8.018 Y-7.957
X8 Y-7.95
X7.973 Y-7.958 Z-0.02 F250
X7.955 Y-7.979 Z-0.04
X7.95 Y-8.006 Z-0.06
X7.962 Y-8.032 Z-0.081
X7.985 Y-8.048 Z-0.101
X8.013 Z-0.121
X8.037 Y-8.034 Z-0.141
X8.049 Y-8.009 Z-0.161
X8.046 Y-7.981 Z-0.181
X8.029 Y-7.959 Z-0.202
X8.003 Y-7.95 Z-0.222
X7.976 Y-7.956 Z-0.242
X7.956 Y-7.976 Z-0.262
X7.95 Y-8.004 Z-0.282
X7.96 Y-8.03 Z-0.302
X7.982 Y-8.047 Z-0.323
X8.01 Y-8.049 Z-0.343
X8.035 Y-8.036 Z-0.363
X8.049 Y-8.012 Z-0.383
X8.047 Y-7.984 Z-0.403
X8.031 Y-7.961 Z-0.423
X8.005 Y-7.95 Z-0.444
X7.978 Y-7.955 Z-0.464
X7.957 Y-7.974 Z-0.484
X7.95 Y-8.001 Z-0.504
X7.958 Y-8.028 Z-0.524
X7.98 Y-8.046 Z-0.544
X8.007 Y-8.049 Z-0.565
X8.033 Y-8.038 Z-0.585
X8.048 Y-8.014 Z-0.605
Y-7.986 Z-0.625
X8.033 Y-7.963 Z-0.645
X8.008 Y-7.951 Z-0.665
X7.98 Y-7.954 Z-0.686
X7.959 Y-7.972 Z-0.706
X7.95 Y-7.998 Z-0.726
X7.957 Y-8.025 Z-0.746
X7.977 Y-8.044 Z-0.766
X8.005 Y-8.05 Z-0.786
X8.031 Y-8.04 Z-0.807
X8.047 Y-8.017 Z-0.827
X8.049 Y-7.989 Z-0.847
X8.035 Y-7.965 Z-0.867
X8.011 Y-7.951 Z-0.887
X7.983 Y-7.953 Z-0.907
X7.96 Y-7.969 Z-0.928
X7.95 Y-7.995 Z-0.948
X7.956 Y-8.023 Z-0.968
X7.975 Y-8.043 Z-0.988
X8.002 Y-8.05 Z-1.008
X8.028 Y-8.041 Z-1.028
X8.046 Y-8.02 Z-1.049
X8.049 Y-7.992 Z-1.069
X8.037 Y-7.967 Z-1.089
X8.013 Y-7.952 Z-1.109
X7.986 Z-1.129
X7.962 Y-7.967 Z-1.149
X7.951 Y-7.993 Z-1.17
X7.954 Y-8.02 Z-1.19
X7.972 Y-8.042 Z-1.21
X7.999 Y-8.05 Z-1.23
X8.026 Y-8.043 Z-1.25
X8.045 Y-8.022 Z-1.27
X8.05 Y-7.994 Z-1.291
X8.039 Y-7.969 Z-1.311
X8.016 Y-7.953 Z-1.331
X7.988 Y-7.951 Z-1.351
X7.964 Y-7.965 Z-1.371
X7.951 Y-7.99 Z-1.391
X7.953 Y-8.018 Z-1.412
X7.97 Y-8.04 Z-1.432
X7.996 Y-8.05 Z-1.452
X8.024 Y-8.044 Z-1.472
X8.044 Y-8.024 Z-1.492
X8.05 Y-7.997 Z-1.512
X8.041 Y-7.971 Z-1.533
X8.019 Y-7.954 Z-1.553
X7.991 Y-7.951 Z-1.573
X7.966 Y-7.963 Z-1.593
X7.952 Y-7.987 Z-1.613
Y-8.015 Z-1.633
X7.968 Y-8.038 Z-1.654
X7.994 Y-8.05 Z-1.674
X8.021 Y-8.045 Z-1.694
X8.042 Y-8.027 Z-1.714
X8.05 Y-8 Z-1.734
X8.042 Y-7.973 Z-1.754
X8.021 Y-7.955 Z-1.775
X7.994 Y-7.95 Z-1.795
X7.968 Y-7.962 Z-1.815
X7.952 Y-7.985 Z-1.835
Y-8.013 Z-1.855
X7.966 Y-8.037 Z-1.875
X7.991 Y-8.049 Z-1.896
X8.019 Y-8.046 Z-1.916
X8.041 Y-8.029 Z-1.936
X8.05 Y-8.003 Z-1.956
X8.044 Y-7.975 Z-1.976
X8.024 Y-7.956 Z-1.996
X7.996 Y-7.95 Z-2.017
X7.97 Y-7.96 Z-2.037
X7.953 Y-7.982 Z-2.057
X7.951 Y-8.01 Z-2.077
X7.964 Y-8.035 Z-2.097
X7.988 Y-8.049 Z-2.117
X8.016 Y-8.047 Z-2.138
X8.039 Y-8.031 Z-2.158
X8.05 Y-8.005 Z-2.178
X8.045 Y-7.978 Z-2.198
X8.026 Y-7.957 Z-2.218
X7.999 Y-7.95 Z-2.238
X7.972 Y-7.958 Z-2.259
X7.954 Y-7.98 Z-2.279
X7.951 Y-8.007 Z-2.299
X7.962 Y-8.033 Z-2.319
X7.986 Y-8.048 Z-2.339
X8.014 Z-2.359
X8.037 Y-8.033 Z-2.38
X8.049 Y-8.008 Z-2.4
X8.046 Y-7.98 Z-2.42
X8.028 Y-7.959 Z-2.44
X8.002 Y-7.95 Z-2.46
X7.975 Y-7.957 Z-2.48
X7.955 Y-7.977 Z-2.501
X7.95 Y-8.005 Z-2.521
X7.961 Y-8.031 Z-2.541
X7.983 Y-8.047 Z-2.561
X8.011 Y-8.049 Z-2.581
X8.035 Y-8.035 Z-2.601
X8.049 Y-8.011 Z-2.622
X8.047 Y-7.983 Z-2.642
X8.03 Y-7.96 Z-2.662
X8.004 Y-7.95 Z-2.682
X7.977 Y-7.956 Z-2.702
X7.957 Y-7.975 Z-2.722
X7.95 Y-8.002 Z-2.743
X7.959 Y-8.028 Z-2.763
X7.981 Y-8.046 Z-2.783
X8.008 Y-8.049 Z-2.803
X8.033 Y-8.037 Z-2.823
X8.048 Y-8.013 Z-2.843
Y-7.985 Z-2.864
X8.033 Y-7.962 Z-2.884
X8.007 Y-7.951 Z-2.904
X7.979 Y-7.954 Z-2.924
X7.958 Y-7.973 Z-2.944
X7.95 Y-7.999 Z-2.964
X7.957 Y-8.026 Z-2.985
X7.978 Y-8.045 Z-3.005
X8.006 Y-8.05 Z-3.025
X8.031 Y-8.039 Z-3.045
X8.047 Y-8.016 Z-3.065
X8.049 Y-7.988 Z-3.085
X8.035 Y-7.964 Z-3.106
X8.01 Y-7.951 Z-3.126
X7.982 Y-7.953 Z-3.146
X7.96 Y-7.97 Z-3.166
X7.95 Y-7.997 Z-3.186
X7.956 Y-8.024 Z-3.206
X7.976 Y-8.044 Z-3.227
X8.003 Y-8.05 Z-3.247
X8.029 Y-8.041 Z-3.267
X8.046 Y-8.019 Z-3.287
X8.049 Y-7.991 Z-3.307
X8.036 Y-7.966 Z-3.327
X8.012 Y-7.952 Z-3.348
X7.985 Z-3.368
X7.961 Y-7.968 Z-3.388
X7.95 Y-7.994 Z-3.408
X7.955 Y-8.021 Z-3.428
X7.973 Y-8.042 Z-3.448
X8 Y-8.05 Z-3.469
X8.027 Y-8.042 Z-3.489
X8.045 Y-8.021 Z-3.509
X8.05 Y-7.993 Z-3.529
X8.038 Y-7.968 Z-3.549
X8.015 Y-7.952 Z-3.569
X7.987 Z-3.59
X7.963 Y-7.966 Z-3.61
X7.951 Y-7.991 Z-3.63
X7.954 Y-8.019 Z-3.65
X7.971 Y-8.041 Z-3.67
X7.997 Y-8.05 Z-3.69
X8.025 Y-8.044 Z-3.71
X8.044 Y-8.023 Z-3.731
X8.05 Y-7.996 Z-3.751
X8.04 Y-7.97 Z-3.771
X8.018 Y-7.953 Z-3.791
X7.99 Y-7.951 Z-3.811
X7.965 Y-7.964 Z-3.831
X7.951 Y-7.988 Z-3.852
X7.953 Y-8.016 Z-3.872
X7.969 Y-8.039 Z-3.892
X7.995 Y-8.05 Z-3.912
X8.022 Y-8.045 Z-3.932
X8.043 Y-8.026 Z-3.952
X8.05 Y-7.999 Z-3.973
X8.042 Y-7.972 Z-3.993
X8.02 Y-7.954 Z-4.013
X7.992 Y-7.951 Z-4.033
X7.967 Y-7.962 Z-4.053
X7.952 Y-7.986 Z-4.073
Y-8.014 Z-4.094
X7.967 Y-8.037 Z-4.114
X7.992 Y-8.049 Z-4.134
X8.02 Y-8.046 Z-4.154
X8.041 Y-8.028 Z-4.174
X8.05 Y-8.002 Z-4.194
X8.043 Y-7.975 Z-4.215
X8.023 Y-7.955 Z-4.235
X7.995 Y-7.95 Z-4.255
X7.969 Y-7.961 Z-4.275
X7.953 Y-7.983 Z-4.295
X7.951 Y-8.011 Z-4.315
X7.965 Y-8.036 Z-4.336
X7.989 Y-8.049 Z-4.356
X8.017 Y-8.047 Z-4.376
X8.04 Y-8.03 Z-4.396
X8.05 Y-8.004 Z-4.416
X8.044 Y-7.977 Z-4.436
X8.025 Y-7.957 Z-4.457
X7.998 Y-7.95 Z-4.477
X7.971 Y-7.959 Z-4.497
X7.954 Y-7.981 Z-4.517
X7.951 Y-8.008 Z-4.537
X7.963 Y-8.034 Z-4.557
X7.987 Y-8.048 Z-4.578
X8.015 Z-4.598
X8.038 Y-8.032 Z-4.618
X8.05 Y-8.007 Z-4.638
X8.046 Y-7.979 Z-4.658
X8.027 Y-7.958 Z-4.678
X8.001 Y-7.95 Z-4.699
X7.974 Y-7.957 Z-4.719
X7.955 Y-7.978 Z-4.739
X7.95 Y-8.006 Z-4.759
X7.961 Y-8.031 Z-4.779
X7.984 Y-8.047 Z-4.799
X8.012 Y-8.049 Z-4.82
X8.036 Y-8.035 Z-4.84
X8.049 Y-8.01 Z-4.86
X8.047 Y-7.982 Z-4.88
X8.03 Y-7.96 Z-4.9
X8.003 Y-7.95 Z-4.92
X7.976 Y-7.956 Z-4.941
X7.956 Y-7.976 Z-4.961
X7.95 Y-8.003 Z-4.981
X7.959 Y-8.029 Z-5.001
X7.982 Y-8.046 Z-5.021
X8.009 Y-8.049 Z-5.041
X8.034 Y-8.036 Z-5.062
X8.048 Y-8.012 Z-5.082
Y-7.984 Z-5.102
X8.032 Y-7.961 Z-5.122
X8.006 Y-7.95 Z-5.142
X7.979 Y-7.955 Z-5.162
X7.958 Y-7.973 Z-5.183
X7.95 Y-8 Z-5.203
X7.958 Y-8.027 Z-5.223
X7.979 Y-8.045 Z-5.243
X8.007 Y-8.05 Z-5.263
X8.032 Y-8.038 Z-5.283
X8.048 Y-8.015 Z-5.304
Y-7.987 Z-5.324
X8.034 Y-7.963 Z-5.344
X8.009 Y-7.951 Z-5.364
X7.981 Y-7.954 Z-5.384
X7.959 Y-7.971 Z-5.404
X7.95 Y-7.998 Z-5.425
X7.957 Y-8.025 Z-5.445
X7.977 Y-8.044 Z-5.465
X8.004 Y-8.05 Z-5.485
X8.03 Y-8.04 Z-5.505
X8.047 Y-8.018 Z-5.525
X8.049 Y-7.99 Z-5.546
X8.036 Y-7.965 Z-5.566
X8.011 Y-7.951 Z-5.586
X7.984 Y-7.953 Z-5.606
X7.961 Y-7.969 Z-5.626
X7.95 Y-7.995 Z-5.646
X7.955 Y-8.022 Z-5.667
X7.974 Y-8.043 Z-5.687
X8.001 Y-8.05 Z-5.707
X8.028 Y-8.042 Z-5.727
X8.046 Y-8.02 Z-5.747
X8.049 Y-7.992 Z-5.767
X8.038 Y-7.967 Z-5.788
X8.014 Y-7.952 Z-5.808
X7.986 Z-5.828
X7.963 Y-7.967 Z-5.848
X7.951 Y-7.992 Z-5.868
X7.954 Y-8.02 Z-5.888
X7.972 Y-8.041 Z-5.909
X7.999 Y-8.05 Z-5.929
X8.026 Y-8.043 Z-5.949
X8.045 Y-8.023 Z-5.969
X8.05 Y-7.995 Z-5.989
X8.039 Y-7.969 Z-6.009
X8.017 Y-7.953 Z-6.03
X7.989 Y-7.951 Z-6.05
X7.964 Y-7.965 Z-6.07
X7.951 Y-7.989 Z-6.09
X7.953 Y-8.017 Z-6.11
X7.97 Y-8.04 Z-6.13
X7.996 Y-8.05 Z-6.151
X8.023 Y-8.044 Z-6.171
X8.043 Y-8.025 Z-6.191
X8.05 Y-7.998 Z-6.211
X8.041 Y-7.971 Z-6.231
X8.019 Y-7.954 Z-6.251
X7.991 Y-7.951 Z-6.272
X7.966 Y-7.963 Z-6.292
X7.952 Y-7.987 Z-6.312
Y-8.015 Z-6.332
X7.968 Y-8.038 Z-6.352
X7.993 Y-8.05 Z-6.372
X8.021 Y-8.046 Z-6.393
X8.042 Y-8.027 Z-6.413
X8.05 Y-8.001 Z-6.433
X8.042 Y-7.974 Z-6.453
X8.022 Y-7.955 Z-6.473
X7.994 Y-7.95 Z-6.493
X7.968 Y-7.961 Z-6.514
X7.953 Y-7.984 Z-6.534
X7.951 Y-8.012 Z-6.554
X7.966 Y-8.036 Z-6.574
X7.99 Y-8.049 Z-6.594
X8.018 Y-8.047 Z-6.614
X8.04 Y-8.03 Z-6.635
X8.05 Y-8.003 Z-6.655
X8.044 Y-7.976 Z-6.675
X8.024 Y-7.956 Z-6.695
X7.997 Y-7.95 Z-6.715
X7.971 Y-7.96 Z-6.735
X7.953 Y-7.982 Z-6.756
X7.951 Y-8.009 Z-6.776
X7.964 Y-8.034 Z-6.796
X7.988 Y-8.048 Z-6.816
X8.016 Y-8.047 Z-6.836
X8.039 Y-8.032 Z-6.856
X8.05 Y-8.006 Z-6.877
X8.045 Y-7.978 Z-6.897
X8.026 Y-7.958 Z-6.917
X8 Y-7.95 Z-6.937
X7.973 Y-7.958 Z-6.957
X7.955 Y-7.979 Z-6.977
X7.95 Y-8.007 Z-6.998
X7.962 Y-8.032 Z-7.018
X7.985 Y-8.048 Z-7.038
X8.013 Z-7.058
X8.037 Y-8.034 Z-7.078
X8.049 Y-8.009 Z-7.098
X8.046 Y-7.981 Z-7.119
X8.029 Y-7.959 Z-7.139
X8.002 Y-7.95 Z-7.159
X7.975 Y-7.957 Z-7.179
X7.956 Y-7.977 Z-7.199
X7.95 Y-8.004 Z-7.219
X7.96 Y-8.03 Z-7.24
X7.983 Y-8.047 Z-7.26
X8.01 Y-8.049 Z-7.28
X8.035 Y-8.036 Z-7.3
G3 X7.965 Y-7.964 I-0.035 J0.036
X8.035 Y-8.036 I0.035 J-0.036
G1 X8.042 Y-8.018 F50
X8.035 Y-8
X8
Z5 F250
X98
Z1.69
Z0 F50
X98.025 Y-7.975
X98.018 Y-7.957
X98 Y-7.95
X97.973 Y-7.958 Z-0.02 F250
X97.955 Y-7.979 Z-0.04
X97.95 Y-8.006 Z-0.06
X97.962 Y-8.032 Z-0.081
X97.985 Y-8.048 Z-0.101
X98.013 Z-0.121
X98.037 Y-8.034 Z-0.141
X98.049 Y-8.009 Z-0.161
X98.046 Y-7.981 Z-0.181
X98.029 Y-7.959 Z-0.202
X98.003 Y-7.95 Z-0.222
X97.976 Y-7.956 Z-0.242
X97.956 Y-7.976 Z-0.262
X97.95 Y-8.004 Z-0.282
X97.96 Y-8.03 Z-0.302
X97.982 Y-8.047 Z-0.323
X98.01 Y-8.049 Z-0.343
X98.035 Y-8.036 Z-0.363
X98.049 Y-8.012 Z-0.383
X98.047 Y-7.984 Z-0.403
X98.031 Y-7.961 Z-0.423
X98.005 Y-7.95 Z-0.444
X97.978 Y-7.955 Z-0.464
X97.957 Y-7.974 Z-0.484
X97.95 Y-8.001 Z-0.504
X97.958 Y-8.028 Z-0.524
X97.98 Y-8.046 Z-0.544
X98.007 Y-8.049 Z-0.565
X98.033 Y-8.038 Z-0.585
X98.048 Y-8.014 Z-0.605
Y-7.986 Z-0.625
X98.033 Y-7.963 Z-0.645
X98.008 Y-7.951 Z-0.665
X97.98 Y-7.954 Z-0.686
X97.959 Y-7.972 Z-0.706
X97.95 Y-7.998 Z-0.726
X97.957 Y-8.025 Z-0.746
X97.977 Y-8.044 Z-0.766
X98.005 Y-8.05 Z-0.786
X98.031 Y-8.04 Z-0.807
X98.047 Y-8.017 Z-0.827
X98.049 Y-7.989 Z-0.847
X98.035 Y-7.965 Z-0.867
X98.011 Y-7.951 Z-0.887
X97.983 Y-7.953 Z-0.907
X97.96 Y-7.969 Z-0.928
X97.95 Y-7.995 Z-0.948
X97.956 Y-8.023 Z-0.968
X97.975 Y-8.043 Z-0.988
X98.002 Y-8.05 Z-1.008
X98.028 Y-8.041 Z-1.028
X98.046 Y-8.02 Z-1.049
X98.049 Y-7.992 Z-1.069
X98.037 Y-7.967 Z-1.089
X98.013 Y-7.952 Z-1.109
X97.986 Z-1.129
X97.962 Y-7.967 Z-1.149
X97.951 Y-7.993 Z-1.17
X97.954 Y-8.02 Z-1.19
X97.972 Y-8.042 Z-1.21
X97.999 Y-8.05 Z-1.23
X98.026 Y-8.043 Z-1.25
X98.045 Y-8.022 Z-1.27
X98.05 Y-7.994 Z-1.291
X98.039 Y-7.969 Z-1.311
X98.016 Y-7.953 Z-1.331
X97.988 Y-7.951 Z-1.351
X97.964 Y-7.965 Z-1.371
X97.951 Y-7.99 Z-1.391
X97.953 Y-8.018 Z-1.412
X97.97 Y-8.04 Z-1.432
X97.996 Y-8.05 Z-1.452
X98.024 Y-8.044 Z-1.472
X98.044 Y-8.024 Z-1.492
X98.05 Y-7.997 Z-1.512
X98.041 Y-7.971 Z-1.533
X98.019 Y-7.954 Z-1.553
X97.991 Y-7.951 Z-1.573
X97.966 Y-7.963 Z-1.593
X97.952 Y-7.987 Z-1.613
Y-8.015 Z-1.633
X97.968 Y-8.038 Z-1.654
X97.994 Y-8.05 Z-1.674
X98.021 Y-8.045 Z-1.694
X98.042 Y-8.027 Z-1.714
X98.05 Y-8 Z-1.734
X98.042 Y-7.973 Z-1.754
X98.021 Y-7.955 Z-1.775
X97.994 Y-7.95 Z-1.795
X97.968 Y-7.962 Z-1.815
X97.952 Y-7.985 Z-1.835
Y-8.013 Z-1.855
X97.966 Y-8.037 Z-1.875
X97.991 Y-8.049 Z-1.896
X98.019 Y-8.046 Z-1.916
X98.041 Y-8.029 Z-1.936
X98.05 Y-8.003 Z-1.956
X98.044 Y-7.975 Z-1.976
X98.024 Y-7.956 Z-1.996
X97.996 Y-7.95 Z-2.017
X97.97 Y-7.96 Z-2.037
X97.953 Y-7.982 Z-2.057
X97.951 Y-8.01 Z-2.077
X97.964 Y-8.035 Z-2.097
X97.988 Y-8.049 Z-2.117
X98.016 Y-8.047 Z-2.138
X98.039 Y-8.031 Z-2.158
X98.05 Y-8.005 Z-2.178
X98.045 Y-7.978 Z-2.198
X98.026 Y-7.957 Z-2.218
X97.999 Y-7.95 Z-2.238
X97.972 Y-7.958 Z-2.259
X97.954 Y-7.98 Z-2.279
X97.951 Y-8.007 Z-2.299
X97.962 Y-8.033 Z-2.319
X97.986 Y-8.048 Z-2.339
X98.014 Z-2.359
X98.037 Y-8.033 Z-2.38
X98.049 Y-8.008 Z-2.4
X98.046 Y-7.98 Z-2.42
X98.028 Y-7.959 Z-2.44
X98.002 Y-7.95 Z-2.46
X97.975 Y-7.957 Z-2.48
X97.955 Y-7.977 Z-2.501
X97.95 Y-8.005 Z-2.521
X97.961 Y-8.031 Z-2.541
X97.983 Y-8.047 Z-2.561
X98.011 Y-8.049 Z-2.581
X98.035 Y-8.035 Z-2.601
X98.049 Y-8.011 Z-2.622
X98.047 Y-7.983 Z-2.642
X98.03 Y-7.96 Z-2.662
X98.004 Y-7.95 Z-2.682
X97.977 Y-7.956 Z-2.702
X97.957 Y-7.975 Z-2.722
X97.95 Y-8.002 Z-2.743
X97.959 Y-8.028 Z-2.763
X97.981 Y-8.046 Z-2.783
X98.008 Y-8.049 Z-2.803
X98.033 Y-8.037 Z-2.823
X98.048 Y-8.013 Z-2.843
Y-7.985 Z-2.864
X98.033 Y-7.962 Z-2.884
X98.007 Y-7.951 Z-2.904
X97.979 Y-7.954 Z-2.924
X97.958 Y-7.973 Z-2.944
X97.95 Y-7.999 Z-2.964
X97.957 Y-8.026 Z-2.985
X97.978 Y-8.045 Z-3.005
X98.006 Y-8.05 Z-3.025
X98.031 Y-8.039 Z-3.045
X98.047 Y-8.016 Z-3.065
X98.049 Y-7.988 Z-3.085
X98.035 Y-7.964 Z-3.106
X98.01 Y-7.951 Z-3.126
X97.982 Y-7.953 Z-3.146
X97.96 Y-7.97 Z-3.166
X97.95 Y-7.997 Z-3.186
X97.956 Y-8.024 Z-3.206
X97.976 Y-8.044 Z-3.227
X98.003 Y-8.05 Z-3.247
X98.029 Y-8.041 Z-3.267
X98.046 Y-8.019 Z-3.287
X98.049 Y-7.991 Z-3.307
X98.036 Y-7.966 Z-3.327
X98.012 Y-7.952 Z-3.348
X97.985 Z-3.368
X97.961 Y-7.968 Z-3.388
X97.95 Y-7.994 Z-3.408
X97.955 Y-8.021 Z-3.428
X97.973 Y-8.042 Z-3.448
X98 Y-8.05 Z-3.469
X98.027 Y-8.042 Z-3.489
X98.045 Y-8.021 Z-3.509
X98.05 Y-7.993 Z-3.529
X98.038 Y-7.968 Z-3.549
X98.015 Y-7.952 Z-3.569
X97.987 Z-3.59
X97.963 Y-7.966 Z-3.61
X97.951 Y-7.991 Z-3.63
X97.954 Y-8.019 Z-3.65
X97.971 Y-8.041 Z-3.67
X97.997 Y-8.05 Z-3.69
X98.025 Y-8.044 Z-3.71
X98.044 Y-8.023 Z-3.731
X98.05 Y-7.996 Z-3.751
X98.04 Y-7.97 Z-3.771
X98.018 Y-7.953 Z-3.791
X97.99 Y-7.951 Z-3.811
X97.965 Y-7.964 Z-3.831
X97.951 Y-7.988 Z-3.852
X97.953 Y-8.016 Z-3.872
X97.969 Y-8.039 Z-3.892
X97.995 Y-8.05 Z-3.912
X98.022 Y-8.045 Z-3.932
X98.043 Y-8.026 Z-3.952
X98.05 Y-7.999 Z-3.973
X98.042 Y-7.972 Z-3.993
X98.02 Y-7.954 Z-4.013
X97.992 Y-7.951 Z-4.033
X97.967 Y-7.962 Z-4.053
X97.952 Y-7.986 Z-4.073
Y-8.014 Z-4.094
X97.967 Y-8.037 Z-4.114
X97.992 Y-8.049 Z-4.134
X98.02 Y-8.046 Z-4.154
X98.041 Y-8.028 Z-4.174
X98.05 Y-8.002 Z-4.194
X98.043 Y-7.975 Z-4.215
X98.023 Y-7.955 Z-4.235
X97.995 Y-7.95 Z-4.255
X97.969 Y-7.961 Z-4.275
X97.953 Y-7.983 Z-4.295
X97.951 Y-8.011 Z-4.315
X97.965 Y-8.036 Z-4.336
X97.989 Y-8.049 Z-4.356
X98.017 Y-8.047 Z-4.376
X98.04 Y-8.03 Z-4.396
X98.05 Y-8.004 Z-4.416
X98.044 Y-7.977 Z-4.436
X98.025 Y-7.957 Z-4.457
X97.998 Y-7.95 Z-4.477
X97.971 Y-7.959 Z-4.497
X97.954 Y-7.981 Z-4.517
X97.951 Y-8.008 Z-4.537
X97.963 Y-8.034 Z-4.557
X97.987 Y-8.048 Z-4.578
X98.015 Z-4.598
X98.038 Y-8.032 Z-4.618
X98.05 Y-8.007 Z-4.638
X98.046 Y-7.979 Z-4.658
X98.027 Y-7.958 Z-4.678
X98.001 Y-7.95 Z-4.699
X97.974 Y-7.957 Z-4.719
X97.955 Y-7.978 Z-4.739
X97.95 Y-8.006 Z-4.759
X97.961 Y-8.031 Z-4.779
X97.984 Y-8.047 Z-4.799
X98.012 Y-8.049 Z-4.82
X98.036 Y-8.035 Z-4.84
X98.049 Y-8.01 Z-4.86
X98.047 Y-7.982 Z-4.88
X98.03 Y-7.96 Z-4.9
X98.003 Y-7.95 Z-4.92
X97.976 Y-7.956 Z-4.941
X97.956 Y-7.976 Z-4.961
X97.95 Y-8.003 Z-4.981
X97.959 Y-8.029 Z-5.001
X97.982 Y-8.046 Z-5.021
X98.009 Y-8.049 Z-5.041
X98.034 Y-8.036 Z-5.062
X98.048 Y-8.012 Z-5.082
Y-7.984 Z-5.102
X98.032 Y-7.961 Z-5.122
X98.006 Y-7.95 Z-5.142
X97.979 Y-7.955 Z-5.162
X97.958 Y-7.973 Z-5.183
X97.95 Y-8 Z-5.203
X97.958 Y-8.027 Z-5.223
X97.979 Y-8.045 Z-5.243
X98.007 Y-8.05 Z-5.263
X98.032 Y-8.038 Z-5.283
X98.048 Y-8.015 Z-5.304
Y-7.987 Z-5.324
X98.034 Y-7.963 Z-5.344
X98.009 Y-7.951 Z-5.364
X97.981 Y-7.954 Z-5.384
X97.959 Y-7.971 Z-5.404
X97.95 Y-7.998 Z-5.425
X97.957 Y-8.025 Z-5.445
X97.977 Y-8.044 Z-5.465
X98.004 Y-8.05 Z-5.485
X98.03 Y-8.04 Z-5.505
X98.047 Y-8.018 Z-5.525
X98.049 Y-7.99 Z-5.546
X98.036 Y-7.965 Z-5.566
X98.011 Y-7.951 Z-5.586
X97.984 Y-7.953 Z-5.606
X97.961 Y-7.969 Z-5.626
X97.95 Y-7.995 Z-5.646
X97.955 Y-8.022 Z-5.667
X97.974 Y-8.043 Z-5.687
X98.001 Y-8.05 Z-5.707
X98.028 Y-8.042 Z-5.727
X98.046 Y-8.02 Z-5.747
X98.049 Y-7.992 Z-5.767
X98.038 Y-7.967 Z-5.788
X98.014 Y-7.952 Z-5.808
X97.986 Z-5.828
X97.963 Y-7.967 Z-5.848
X97.951 Y-7.992 Z-5.868
X97.954 Y-8.02 Z-5.888
X97.972 Y-8.041 Z-5.909
X97.999 Y-8.05 Z-5.929
X98.026 Y-8.043 Z-5.949
X98.045 Y-8.023 Z-5.969
X98.05 Y-7.995 Z-5.989
X98.039 Y-7.969 Z-6.009
X98.017 Y-7.953 Z-6.03
X97.989 Y-7.951 Z-6.05
X97.964 Y-7.965 Z-6.07
X97.951 Y-7.989 Z-6.09
X97.953 Y-8.017 Z-6.11
X97.97 Y-8.04 Z-6.13
X97.996 Y-8.05 Z-6.151
X98.023 Y-8.044 Z-6.171
X98.043 Y-8.025 Z-6.191
X98.05 Y-7.998 Z-6.211
X98.041 Y-7.971 Z-6.231
X98.019 Y-7.954 Z-6.251
X97.991 Y-7.951 Z-6.272
X97.966 Y-7.963 Z-6.292
X97.952 Y-7.987 Z-6.312
Y-8.015 Z-6.332
X97.968 Y-8.038 Z-6.352
X97.993 Y-8.05 Z-6.372
X98.021 Y-8.046 Z-6.393
X98.042 Y-8.027 Z-6.413
X98.05 Y-8.001 Z-6.433
X98.042 Y-7.974 Z-6.453
X98.022 Y-7.955 Z-6.473
X97.994 Y-7.95 Z-6.493
X97.968 Y-7.961 Z-6.514
X97.953 Y-7.984 Z-6.534
X97.951 Y-8.012 Z-6.554
X97.966 Y-8.036 Z-6.574
X97.99 Y-8.049 Z-6.594
X98.018 Y-8.047 Z-6.614
X98.04 Y-8.03 Z-6.635
X98.05 Y-8.003 Z-6.655
X98.044 Y-7.976 Z-6.675
X98.024 Y-7.956 Z-6.695
X97.997 Y-7.95 Z-6.715
X97.971 Y-7.96 Z-6.735
X97.953 Y-7.982 Z-6.756
X97.951 Y-8.009 Z-6.776
X97.964 Y-8.034 Z-6.796
X97.988 Y-8.048 Z-6.816
X98.016 Y-8.047 Z-6.836
X98.039 Y-8.032 Z-6.856
X98.05 Y-8.006 Z-6.877
X98.045 Y-7.978 Z-6.897
X98.026 Y-7.958 Z-6.917
X98 Y-7.95 Z-6.937
X97.973 Y-7.958 Z-6.957
X97.955 Y-7.979 Z-6.977
X97.95 Y-8.007 Z-6.998
X97.962 Y-8.032 Z-7.018
X97.985 Y-8.048 Z-7.038
X98.013 Z-7.058
X98.037 Y-8.034 Z-7.078
X98.049 Y-8.009 Z-7.098
X98.046 Y-7.981 Z-7.119
X98.029 Y-7.959 Z-7.139
X98.002 Y-7.95 Z-7.159
X97.975 Y-7.957 Z-7.179
X97.956 Y-7.977 Z-7.199
X97.95 Y-8.004 Z-7.219
X97.96 Y-8.03 Z-7.24
X97.983 Y-8.047 Z-7.26
X98.01 Y-8.049 Z-7.28
X98.035 Y-8.036 Z-7.3
G3 X97.965 Y-7.964 I-0.035 J0.036
X98.035 Y-8.036 I0.035 J-0.036
G1 X98.042 Y-8.018 F50
X98.035 Y-8
X98
Z15 F250

M9
G28 G91 Z0
G90
G28 G91 X0 Y0
G90
M5
M30
