(side_upperright)
(Machine)
(  vendor: Autodesk)
(  model: Generic 3-axis)
(  description: This machine has XY axis on the Table and Z axis on the Head)
(T3 D=3.1 CR=0 - ZMIN=-8.3 - flat end mill)
G90 G94
G17
G21
(When using Fusion for Personal Use, the feedrate of rapid)
(moves is reduced to match the feedrate of cutting moves,)
(which can increase machining time. Unrestricted rapid moves)
(are available with a Fusion Subscription.)
G28 G91 Z0
G90

(Bore7 2)
T3
S19000 M3
G17 G90 G94
G54
M8
G0 X-57.684 Y-51.16
Z15
G1 Z2 F250
Z0.31 F50
G19 G2 Y-51.47 Z0 J-0.31 K0
G1 Y-51.625
G17 G3 X-57.459 Y-51.85 I0.225 J0
X-57.459 Y-50.95 Z-0.14 I0 J0.45 F250
X-57.459 Y-51.85 Z-0.28 I0 J-0.45
X-57.459 Y-50.95 Z-0.42 I0 J0.45
X-57.459 Y-51.85 Z-0.559 I0 J-0.45
X-57.459 Y-50.95 Z-0.699 I0 J0.45
X-57.459 Y-51.85 Z-0.839 I0 J-0.45
X-57.459 Y-50.95 Z-0.979 I0 J0.45
X-57.459 Y-51.85 Z-1.119 I0 J-0.45
X-57.459 Y-50.95 Z-1.259 I0 J0.45
X-57.459 Y-51.85 Z-1.399 I0 J-0.45
X-57.459 Y-50.95 Z-1.538 I0 J0.45
X-57.459 Y-51.85 Z-1.678 I0 J-0.45
X-57.459 Y-50.95 Z-1.818 I0 J0.45
X-57.459 Y-51.85 Z-1.958 I0 J-0.45
X-57.459 Y-50.95 Z-2.098 I0 J0.45
X-57.459 Y-51.85 Z-2.238 I0 J-0.45
X-57.459 Y-50.95 Z-2.378 I0 J0.45
X-57.459 Y-51.85 Z-2.517 I0 J-0.45
X-57.459 Y-50.95 Z-2.657 I0 J0.45
X-57.459 Y-51.85 Z-2.797 I0 J-0.45
X-57.459 Y-50.95 Z-2.937 I0 J0.45
X-57.459 Y-51.85 Z-3.077 I0 J-0.45
X-57.459 Y-50.95 Z-3.217 I0 J0.45
X-57.459 Y-51.85 Z-3.356 I0 J-0.45
X-57.459 Y-50.95 Z-3.496 I0 J0.45
X-57.459 Y-51.85 Z-3.636 I0 J-0.45
X-57.459 Y-50.95 Z-3.776 I0 J0.45
X-57.459 Y-51.85 Z-3.916 I0 J-0.45
X-57.459 Y-50.95 Z-4.056 I0 J0.45
X-57.459 Y-51.85 Z-4.196 I0 J-0.45
X-57.459 Y-50.95 Z-4.335 I0 J0.45
X-57.459 Y-51.85 Z-4.475 I0 J-0.45
X-57.459 Y-50.95 Z-4.615 I0 J0.45
X-57.459 Y-51.85 Z-4.755 I0 J-0.45
X-57.459 Y-50.95 Z-4.895 I0 J0.45
X-57.459 Y-51.85 Z-5.035 I0 J-0.45
X-57.459 Y-50.95 Z-5.175 I0 J0.45
X-57.459 Y-51.85 Z-5.314 I0 J-0.45
X-57.459 Y-50.95 Z-5.454 I0 J0.45
X-57.459 Y-51.85 Z-5.594 I0 J-0.45
X-57.459 Y-50.95 Z-5.734 I0 J0.45
X-57.459 Y-51.85 Z-5.874 I0 J-0.45
X-57.459 Y-50.95 Z-6.014 I0 J0.45
X-57.459 Y-51.85 Z-6.154 I0 J-0.45
X-57.459 Y-50.95 Z-6.293 I0 J0.45
X-57.459 Y-51.85 Z-6.433 I0 J-0.45
X-57.459 Y-50.95 Z-6.573 I0 J0.45
X-57.459 Y-51.85 Z-6.713 I0 J-0.45
X-57.459 Y-50.95 Z-6.853 I0 J0.45
X-57.459 Y-51.85 Z-6.993 I0 J-0.45
X-57.459 Y-50.95 Z-7.133 I0 J0.45
X-57.459 Y-51.85 Z-7.272 I0 J-0.45
X-57.459 Y-50.95 Z-7.412 I0 J0.45
X-57.459 Y-51.85 Z-7.552 I0 J-0.45
X-57.459 Y-50.95 Z-7.692 I0 J0.45
X-57.459 Y-51.85 Z-7.832 I0 J-0.45
X-57.459 Y-50.95 Z-7.972 I0 J0.45
X-57.459 Y-51.85 Z-8.112 I0 J-0.45
X-57.459 Y-50.95 Z-8.251 I0 J0.45
X-57.859 Y-51.193 Z-8.3 I0 J-0.45
X-57.06 Y-51.607 I0.4 J-0.207
X-57.859 Y-51.193 I-0.4 J0.207
X-57.763 Y-51.496 I0.2 J-0.104 F50
G1 X-57.625 Y-51.568
X-57.564 Y-51.599 Z-8.292
X-57.506 Y-51.629 Z-8.269
X-57.453 Y-51.656 Z-8.232
X-57.41 Y-51.679 Z-8.183
X-57.377 Y-51.696 Z-8.125
X-57.357 Y-51.707 Z-8.059
X-57.35 Y-51.71 Z-7.99
Z5 F250
X-47.725 Y-45.41
Z2
Z0.31 F50
G19 G2 Y-45.72 Z0 J-0.31 K0
G1 Y-45.875
G17 G3 X-47.5 Y-46.1 I0.225 J0
X-47.5 Y-45.2 Z-0.14 I0 J0.45 F250
X-47.5 Y-46.1 Z-0.28 I0 J-0.45
X-47.5 Y-45.2 Z-0.42 I0 J0.45
X-47.5 Y-46.1 Z-0.559 I0 J-0.45
X-47.5 Y-45.2 Z-0.699 I0 J0.45
X-47.5 Y-46.1 Z-0.839 I0 J-0.45
X-47.5 Y-45.2 Z-0.979 I0 J0.45
X-47.5 Y-46.1 Z-1.119 I0 J-0.45
X-47.5 Y-45.2 Z-1.259 I0 J0.45
X-47.5 Y-46.1 Z-1.399 I0 J-0.45
X-47.5 Y-45.2 Z-1.538 I0 J0.45
X-47.5 Y-46.1 Z-1.678 I0 J-0.45
X-47.5 Y-45.2 Z-1.818 I0 J0.45
X-47.5 Y-46.1 Z-1.958 I0 J-0.45
X-47.5 Y-45.2 Z-2.098 I0 J0.45
X-47.5 Y-46.1 Z-2.238 I0 J-0.45
X-47.5 Y-45.2 Z-2.378 I0 J0.45
X-47.5 Y-46.1 Z-2.517 I0 J-0.45
X-47.5 Y-45.2 Z-2.657 I0 J0.45
X-47.5 Y-46.1 Z-2.797 I0 J-0.45
X-47.5 Y-45.2 Z-2.937 I0 J0.45
X-47.5 Y-46.1 Z-3.077 I0 J-0.45
X-47.5 Y-45.2 Z-3.217 I0 J0.45
X-47.5 Y-46.1 Z-3.356 I0 J-0.45
X-47.5 Y-45.2 Z-3.496 I0 J0.45
X-47.5 Y-46.1 Z-3.636 I0 J-0.45
X-47.5 Y-45.2 Z-3.776 I0 J0.45
X-47.5 Y-46.1 Z-3.916 I0 J-0.45
X-47.5 Y-45.2 Z-4.056 I0 J0.45
X-47.5 Y-46.1 Z-4.196 I0 J-0.45
X-47.5 Y-45.2 Z-4.335 I0 J0.45
X-47.5 Y-46.1 Z-4.475 I0 J-0.45
X-47.5 Y-45.2 Z-4.615 I0 J0.45
X-47.5 Y-46.1 Z-4.755 I0 J-0.45
X-47.5 Y-45.2 Z-4.895 I0 J0.45
X-47.5 Y-46.1 Z-5.035 I0 J-0.45
X-47.5 Y-45.2 Z-5.175 I0 J0.45
X-47.5 Y-46.1 Z-5.314 I0 J-0.45
X-47.5 Y-45.2 Z-5.454 I0 J0.45
X-47.5 Y-46.1 Z-5.594 I0 J-0.45
X-47.5 Y-45.2 Z-5.734 I0 J0.45
X-47.5 Y-46.1 Z-5.874 I0 J-0.45
X-47.5 Y-45.2 Z-6.014 I0 J0.45
X-47.5 Y-46.1 Z-6.154 I0 J-0.45
X-47.5 Y-45.2 Z-6.293 I0 J0.45
X-47.5 Y-46.1 Z-6.433 I0 J-0.45
X-47.5 Y-45.2 Z-6.573 I0 J0.45
X-47.5 Y-46.1 Z-6.713 I0 J-0.45
X-47.5 Y-45.2 Z-6.853 I0 J0.45
X-47.5 Y-46.1 Z-6.993 I0 J-0.45
X-47.5 Y-45.2 Z-7.133 I0 J0.45
X-47.5 Y-46.1 Z-7.272 I0 J-0.45
X-47.5 Y-45.2 Z-7.412 I0 J0.45
X-47.5 Y-46.1 Z-7.552 I0 J-0.45
X-47.5 Y-45.2 Z-7.692 I0 J0.45
X-47.5 Y-46.1 Z-7.832 I0 J-0.45
X-47.5 Y-45.2 Z-7.972 I0 J0.45
X-47.5 Y-46.1 Z-8.112 I0 J-0.45
X-47.5 Y-45.2 Z-8.251 I0 J0.45
X-47.9 Y-45.443 Z-8.3 I0 J-0.45
X-47.1 Y-45.857 I0.4 J-0.207
X-47.9 Y-45.443 I-0.4 J0.207
X-47.803 Y-45.746 I0.2 J-0.104 F50
G1 X-47.666 Y-45.818
X-47.604 Y-45.849 Z-8.292
X-47.546 Y-45.879 Z-8.269
X-47.494 Y-45.906 Z-8.232
X-47.451 Y-45.929 Z-8.183
X-47.418 Y-45.946 Z-8.125
X-47.397 Y-45.957 Z-8.059
X-47.39 Y-45.96 Z-7.99
Z5 F250
X-37.766 Y-51.16
Z2
Z0.31 F50
G19 G2 Y-51.47 Z0 J-0.31 K0
G1 Y-51.625
G17 G3 X-37.541 Y-51.85 I0.225 J0
X-37.541 Y-50.95 Z-0.14 I0 J0.45 F250
X-37.541 Y-51.85 Z-0.28 I0 J-0.45
X-37.541 Y-50.95 Z-0.42 I0 J0.45
X-37.541 Y-51.85 Z-0.559 I0 J-0.45
X-37.541 Y-50.95 Z-0.699 I0 J0.45
X-37.541 Y-51.85 Z-0.839 I0 J-0.45
X-37.541 Y-50.95 Z-0.979 I0 J0.45
X-37.541 Y-51.85 Z-1.119 I0 J-0.45
X-37.541 Y-50.95 Z-1.259 I0 J0.45
X-37.541 Y-51.85 Z-1.399 I0 J-0.45
X-37.541 Y-50.95 Z-1.538 I0 J0.45
X-37.541 Y-51.85 Z-1.678 I0 J-0.45
X-37.541 Y-50.95 Z-1.818 I0 J0.45
X-37.541 Y-51.85 Z-1.958 I0 J-0.45
X-37.541 Y-50.95 Z-2.098 I0 J0.45
X-37.541 Y-51.85 Z-2.238 I0 J-0.45
X-37.541 Y-50.95 Z-2.378 I0 J0.45
X-37.541 Y-51.85 Z-2.517 I0 J-0.45
X-37.541 Y-50.95 Z-2.657 I0 J0.45
X-37.541 Y-51.85 Z-2.797 I0 J-0.45
X-37.541 Y-50.95 Z-2.937 I0 J0.45
X-37.541 Y-51.85 Z-3.077 I0 J-0.45
X-37.541 Y-50.95 Z-3.217 I0 J0.45
X-37.541 Y-51.85 Z-3.356 I0 J-0.45
X-37.541 Y-50.95 Z-3.496 I0 J0.45
X-37.541 Y-51.85 Z-3.636 I0 J-0.45
X-37.541 Y-50.95 Z-3.776 I0 J0.45
X-37.541 Y-51.85 Z-3.916 I0 J-0.45
X-37.541 Y-50.95 Z-4.056 I0 J0.45
X-37.541 Y-51.85 Z-4.196 I0 J-0.45
X-37.541 Y-50.95 Z-4.335 I0 J0.45
X-37.541 Y-51.85 Z-4.475 I0 J-0.45
X-37.541 Y-50.95 Z-4.615 I0 J0.45
X-37.541 Y-51.85 Z-4.755 I0 J-0.45
X-37.541 Y-50.95 Z-4.895 I0 J0.45
X-37.541 Y-51.85 Z-5.035 I0 J-0.45
X-37.541 Y-50.95 Z-5.175 I0 J0.45
X-37.541 Y-51.85 Z-5.314 I0 J-0.45
X-37.541 Y-50.95 Z-5.454 I0 J0.45
X-37.541 Y-51.85 Z-5.594 I0 J-0.45
X-37.541 Y-50.95 Z-5.734 I0 J0.45
X-37.541 Y-51.85 Z-5.874 I0 J-0.45
X-37.541 Y-50.95 Z-6.014 I0 J0.45
X-37.541 Y-51.85 Z-6.154 I0 J-0.45
X-37.541 Y-50.95 Z-6.293 I0 J0.45
X-37.541 Y-51.85 Z-6.433 I0 J-0.45
X-37.541 Y-50.95 Z-6.573 I0 J0.45
X-37.541 Y-51.85 Z-6.713 I0 J-0.45
X-37.541 Y-50.95 Z-6.853 I0 J0.45
X-37.541 Y-51.85 Z-6.993 I0 J-0.45
X-37.541 Y-50.95 Z-7.133 I0 J0.45
X-37.541 Y-51.85 Z-7.272 I0 J-0.45
X-37.541 Y-50.95 Z-7.412 I0 J0.45
X-37.541 Y-51.85 Z-7.552 I0 J-0.45
X-37.541 Y-50.95 Z-7.692 I0 J0.45
X-37.541 Y-51.85 Z-7.832 I0 J-0.45
X-37.541 Y-50.95 Z-7.972 I0 J0.45
X-37.541 Y-51.85 Z-8.112 I0 J-0.45
X-37.541 Y-50.95 Z-8.251 I0 J0.45
X-37.94 Y-51.193 Z-8.3 I0 J-0.45
X-37.141 Y-51.607 I0.4 J-0.207
X-37.94 Y-51.193 I-0.4 J0.207
X-37.844 Y-51.496 I0.2 J-0.104 F50
G1 X-37.706 Y-51.568
X-37.645 Y-51.599 Z-8.292
X-37.587 Y-51.629 Z-8.269
X-37.535 Y-51.656 Z-8.232
X-37.491 Y-51.679 Z-8.183
X-37.458 Y-51.696 Z-8.125
X-37.438 Y-51.707 Z-8.059
X-37.431 Y-51.71 Z-7.99
Z15 F250
(When using Fusion for Personal Use, the feedrate of rapid)
(moves is reduced to match the feedrate of cutting moves,)
(which can increase machining time. Unrestricted rapid moves)
(are available with a Fusion Subscription.)

(Bore8 2)
G0 X-98 Y-8
G1 Z15 F250
Z1.69
Z0 F50
X-98.025 Y-8.025
X-98.018 Y-8.043
X-98 Y-8.05
X-97.973 Y-8.042 Z-0.02 F250
X-97.955 Y-8.021 Z-0.04
X-97.95 Y-7.994 Z-0.061
X-97.962 Y-7.968 Z-0.081
X-97.985 Y-7.952 Z-0.101
X-98.013 Z-0.121
X-98.037 Y-7.966 Z-0.141
X-98.049 Y-7.991 Z-0.162
X-98.046 Y-8.019 Z-0.182
X-98.029 Y-8.041 Z-0.202
X-98.002 Y-8.05 Z-0.222
X-97.975 Y-8.043 Z-0.242
X-97.956 Y-8.023 Z-0.263
X-97.95 Y-7.996 Z-0.283
X-97.96 Y-7.97 Z-0.303
X-97.983 Y-7.953 Z-0.323
X-98.011 Y-7.951 Z-0.343
X-98.035 Y-7.965 Z-0.364
X-98.049 Y-7.989 Z-0.384
X-98.047 Y-8.017 Z-0.404
X-98.031 Y-8.04 Z-0.424
X-98.005 Y-8.05 Z-0.444
X-97.977 Y-8.044 Z-0.464
X-97.957 Y-8.025 Z-0.485
X-97.95 Y-7.998 Z-0.505
X-97.959 Y-7.972 Z-0.525
X-97.981 Y-7.954 Z-0.545
X-98.008 Y-7.951 Z-0.565
X-98.034 Y-7.963 Z-0.586
X-98.048 Y-7.987 Z-0.606
Y-8.015 Z-0.626
X-98.032 Y-8.038 Z-0.646
X-98.007 Y-8.05 Z-0.666
X-97.979 Y-8.045 Z-0.687
X-97.958 Y-8.027 Z-0.707
X-97.95 Y-8 Z-0.727
X-97.958 Y-7.973 Z-0.747
X-97.979 Y-7.955 Z-0.767
X-98.006 Y-7.95 Z-0.788
X-98.032 Y-7.961 Z-0.808
X-98.048 Y-7.985 Z-0.828
Y-8.013 Z-0.848
X-98.034 Y-8.037 Z-0.868
X-98.009 Y-8.049 Z-0.889
X-97.981 Y-8.046 Z-0.909
X-97.959 Y-8.029 Z-0.929
X-97.95 Y-8.003 Z-0.949
X-97.956 Y-7.975 Z-0.969
X-97.977 Y-7.956 Z-0.99
X-98.004 Y-7.95 Z-1.01
X-98.03 Y-7.96 Z-1.03
X-98.047 Y-7.982 Z-1.05
X-98.049 Y-8.01 Z-1.07
X-98.036 Y-8.035 Z-1.091
X-98.011 Y-8.049 Z-1.111
X-97.983 Y-8.047 Z-1.131
X-97.961 Y-8.031 Z-1.151
X-97.95 Y-8.005 Z-1.171
X-97.955 Y-7.977 Z-1.191
X-97.975 Y-7.957 Z-1.212
X-98.002 Y-7.95 Z-1.232
X-98.028 Y-7.959 Z-1.252
X-98.046 Y-7.98 Z-1.272
X-98.049 Y-8.008 Z-1.292
X-98.037 Y-8.033 Z-1.313
X-98.014 Y-8.048 Z-1.333
X-97.986 Z-1.353
X-97.962 Y-8.033 Z-1.373
X-97.951 Y-8.007 Z-1.393
X-97.954 Y-7.979 Z-1.414
X-97.973 Y-7.958 Z-1.434
X-97.999 Y-7.95 Z-1.454
X-98.026 Y-7.957 Z-1.474
X-98.045 Y-7.978 Z-1.494
X-98.05 Y-8.006 Z-1.515
X-98.039 Y-8.032 Z-1.535
X-98.016 Y-8.047 Z-1.555
X-97.988 Y-8.048 Z-1.575
X-97.964 Y-8.034 Z-1.595
X-97.951 Y-8.009 Z-1.616
X-97.954 Y-7.982 Z-1.636
X-97.971 Y-7.959 Z-1.656
X-97.997 Y-7.95 Z-1.676
X-98.024 Y-7.956 Z-1.696
X-98.044 Y-7.976 Z-1.717
X-98.05 Y-8.004 Z-1.737
X-98.04 Y-8.03 Z-1.757
X-98.018 Y-8.047 Z-1.777
X-97.99 Y-8.049 Z-1.797
X-97.965 Y-8.036 Z-1.818
X-97.951 Y-8.012 Z-1.838
X-97.953 Y-7.984 Z-1.858
X-97.969 Y-7.961 Z-1.878
X-97.995 Y-7.95 Z-1.898
X-98.022 Y-7.955 Z-1.918
X-98.043 Y-7.974 Z-1.939
X-98.05 Y-8.001 Z-1.959
X-98.041 Y-8.028 Z-1.979
X-98.02 Y-8.046 Z-1.999
X-97.992 Y-8.049 Z-2.019
X-97.967 Y-8.037 Z-2.04
X-97.952 Y-8.014 Z-2.06
Y-7.986 Z-2.08
X-97.967 Y-7.962 Z-2.1
X-97.993 Y-7.951 Z-2.12
X-98.02 Y-7.954 Z-2.141
X-98.042 Y-7.972 Z-2.161
X-98.05 Y-7.999 Z-2.181
X-98.043 Y-8.026 Z-2.201
X-98.022 Y-8.045 Z-2.221
X-97.994 Y-8.05 Z-2.242
X-97.969 Y-8.039 Z-2.262
X-97.953 Y-8.016 Z-2.282
X-97.951 Y-7.988 Z-2.302
X-97.965 Y-7.964 Z-2.322
X-97.99 Y-7.951 Z-2.343
X-98.018 Y-7.953 Z-2.363
X-98.04 Y-7.97 Z-2.383
X-98.05 Y-7.997 Z-2.403
X-98.044 Y-8.024 Z-2.423
X-98.024 Y-8.044 Z-2.444
X-97.997 Y-8.05 Z-2.464
X-97.97 Y-8.04 Z-2.484
X-97.953 Y-8.018 Z-2.504
X-97.951 Y-7.99 Z-2.524
X-97.964 Y-7.965 Z-2.545
X-97.988 Y-7.951 Z-2.565
X-98.016 Y-7.953 Z-2.585
X-98.039 Y-7.969 Z-2.605
X-98.05 Y-7.994 Z-2.625
X-98.045 Y-8.022 Z-2.645
X-98.026 Y-8.043 Z-2.666
X-97.999 Y-8.05 Z-2.686
X-97.972 Y-8.042 Z-2.706
X-97.954 Y-8.02 Z-2.726
X-97.951 Y-7.993 Z-2.746
X-97.962 Y-7.967 Z-2.767
X-97.986 Y-7.952 Z-2.787
X-98.014 Z-2.807
X-98.037 Y-7.967 Z-2.827
X-98.049 Y-7.992 Z-2.847
X-98.046 Y-8.02 Z-2.868
X-98.028 Y-8.041 Z-2.888
X-98.001 Y-8.05 Z-2.908
X-97.974 Y-8.043 Z-2.928
X-97.955 Y-8.022 Z-2.948
X-97.95 Y-7.995 Z-2.969
X-97.961 Y-7.969 Z-2.989
X-97.984 Y-7.953 Z-3.009
X-98.012 Y-7.951 Z-3.029
X-98.036 Y-7.965 Z-3.049
X-98.049 Y-7.99 Z-3.07
X-98.047 Y-8.018 Z-3.09
X-98.03 Y-8.04 Z-3.11
X-98.004 Y-8.05 Z-3.13
X-97.976 Y-8.044 Z-3.15
X-97.956 Y-8.024 Z-3.171
X-97.95 Y-7.997 Z-3.191
X-97.959 Y-7.971 Z-3.211
X-97.982 Y-7.954 Z-3.231
X-98.009 Y-7.951 Z-3.251
X-98.034 Y-7.964 Z-3.272
X-98.048 Y-7.988 Z-3.292
X-98.047 Y-8.016 Z-3.312
X-98.032 Y-8.039 Z-3.332
X-98.006 Y-8.05 Z-3.352
X-97.978 Y-8.045 Z-3.373
X-97.957 Y-8.026 Z-3.393
X-97.95 Y-7.999 Z-3.413
X-97.958 Y-7.973 Z-3.433
X-97.979 Y-7.954 Z-3.453
X-98.007 Y-7.951 Z-3.473
X-98.033 Y-7.962 Z-3.494
X-98.048 Y-7.986 Z-3.514
Y-8.014 Z-3.534
X-98.033 Y-8.037 Z-3.554
X-98.008 Y-8.049 Z-3.574
X-97.98 Y-8.046 Z-3.595
X-97.959 Y-8.028 Z-3.615
X-97.95 Y-8.002 Z-3.635
X-97.957 Y-7.975 Z-3.655
X-97.977 Y-7.955 Z-3.675
X-98.005 Y-7.95 Z-3.696
X-98.031 Y-7.961 Z-3.716
X-98.047 Y-7.983 Z-3.736
X-98.049 Y-8.011 Z-3.756
X-98.035 Y-8.036 Z-3.776
X-98.01 Y-8.049 Z-3.797
X-97.982 Y-8.047 Z-3.817
X-97.96 Y-8.03 Z-3.837
X-97.95 Y-8.004 Z-3.857
X-97.956 Y-7.977 Z-3.877
X-97.975 Y-7.956 Z-3.898
X-98.003 Y-7.95 Z-3.918
X-98.029 Y-7.959 Z-3.938
X-98.046 Y-7.981 Z-3.958
X-98.049 Y-8.009 Z-3.978
X-98.037 Y-8.034 Z-3.999
X-98.013 Y-8.048 Z-4.019
X-97.985 Z-4.039
X-97.961 Y-8.032 Z-4.059
X-97.95 Y-8.006 Z-4.079
X-97.955 Y-7.979 Z-4.1
X-97.973 Y-7.958 Z-4.12
X-98 Y-7.95 Z-4.14
X-98.027 Y-7.958 Z-4.16
X-98.045 Y-7.979 Z-4.18
X-98.05 Y-8.007 Z-4.2
X-98.038 Y-8.032 Z-4.221
X-98.015 Y-8.048 Z-4.241
X-97.987 Z-4.261
X-97.963 Y-8.034 Z-4.281
X-97.951 Y-8.008 Z-4.301
X-97.954 Y-7.981 Z-4.322
X-97.972 Y-7.959 Z-4.342
X-97.998 Y-7.95 Z-4.362
X-98.025 Y-7.957 Z-4.382
X-98.044 Y-7.977 Z-4.402
X-98.05 Y-8.005 Z-4.423
X-98.04 Y-8.031 Z-4.443
X-98.017 Y-8.047 Z-4.463
X-97.989 Y-8.049 Z-4.483
X-97.965 Y-8.035 Z-4.503
X-97.951 Y-8.011 Z-4.524
X-97.953 Y-7.983 Z-4.544
X-97.97 Y-7.96 Z-4.564
X-97.996 Y-7.95 Z-4.584
X-98.023 Y-7.956 Z-4.604
X-98.043 Y-7.975 Z-4.625
X-98.05 Y-8.002 Z-4.645
X-98.041 Y-8.029 Z-4.665
X-98.019 Y-8.046 Z-4.685
X-97.991 Y-8.049 Z-4.705
X-97.966 Y-8.037 Z-4.726
X-97.952 Y-8.013 Z-4.746
Y-7.985 Z-4.766
X-97.968 Y-7.962 Z-4.786
X-97.994 Y-7.95 Z-4.806
X-98.021 Y-7.955 Z-4.827
X-98.042 Y-7.973 Z-4.847
X-98.05 Y-8 Z-4.867
X-98.042 Y-8.027 Z-4.887
X-98.021 Y-8.045 Z-4.907
X-97.993 Y-8.05 Z-4.927
X-97.968 Y-8.038 Z-4.948
X-97.952 Y-8.015 Z-4.968
Y-7.987 Z-4.988
X-97.966 Y-7.963 Z-5.008
X-97.991 Y-7.951 Z-5.028
X-98.019 Y-7.954 Z-5.049
X-98.041 Y-7.971 Z-5.069
X-98.05 Y-7.998 Z-5.089
X-98.043 Y-8.025 Z-5.109
X-98.023 Y-8.044 Z-5.129
X-97.996 Y-8.05 Z-5.15
X-97.97 Y-8.04 Z-5.17
X-97.953 Y-8.017 Z-5.19
X-97.951 Y-7.989 Z-5.21
X-97.965 Y-7.965 Z-5.23
X-97.989 Y-7.951 Z-5.251
X-98.017 Y-7.953 Z-5.271
X-98.04 Y-7.969 Z-5.291
X-98.05 Y-7.995 Z-5.311
X-98.044 Y-8.023 Z-5.331
X-98.025 Y-8.043 Z-5.352
X-97.998 Y-8.05 Z-5.372
X-97.972 Y-8.041 Z-5.392
X-97.954 Y-8.019 Z-5.412
X-97.951 Y-7.992 Z-5.432
X-97.963 Y-7.966 Z-5.453
X-97.987 Y-7.952 Z-5.473
X-98.015 Z-5.493
X-98.038 Y-7.968 Z-5.513
X-98.05 Y-7.993 Z-5.533
X-98.045 Y-8.021 Z-5.554
X-98.027 Y-8.042 Z-5.574
X-98 Y-8.05 Z-5.594
X-97.973 Y-8.042 Z-5.614
X-97.955 Y-8.021 Z-5.634
X-97.95 Y-7.994 Z-5.655
X-97.961 Y-7.968 Z-5.675
X-97.985 Y-7.952 Z-5.695
X-98.013 Z-5.715
X-98.037 Y-7.966 Z-5.735
X-98.049 Y-7.991 Z-5.755
X-98.046 Y-8.019 Z-5.776
X-98.029 Y-8.041 Z-5.796
X-98.003 Y-8.05 Z-5.816
X-97.975 Y-8.044 Z-5.836
X-97.956 Y-8.023 Z-5.856
X-97.95 Y-7.996 Z-5.877
X-97.96 Y-7.97 Z-5.897
X-97.982 Y-7.953 Z-5.917
X-98.01 Y-7.951 Z-5.937
X-98.035 Y-7.964 Z-5.957
X-98.049 Y-7.989 Z-5.978
X-98.047 Y-8.017 Z-5.998
X-98.031 Y-8.039 Z-6.018
X-98.005 Y-8.05 Z-6.038
X-97.977 Y-8.045 Z-6.058
X-97.957 Y-8.025 Z-6.079
X-97.95 Y-7.998 Z-6.099
X-97.959 Y-7.972 Z-6.119
X-97.98 Y-7.954 Z-6.139
X-98.008 Y-7.951 Z-6.159
X-98.033 Y-7.963 Z-6.18
X-98.048 Y-7.986 Z-6.2
Y-8.014 Z-6.22
X-98.033 Y-8.038 Z-6.24
X-98.007 Y-8.049 Z-6.26
X-97.979 Y-8.046 Z-6.281
X-97.958 Y-8.027 Z-6.301
X-97.95 Y-8.001 Z-6.321
X-97.957 Y-7.974 Z-6.341
X-97.978 Y-7.955 Z-6.361
X-98.006 Y-7.95 Z-6.382
X-98.032 Y-7.961 Z-6.402
X-98.047 Y-7.984 Z-6.422
X-98.048 Y-8.012 Z-6.442
X-98.034 Y-8.036 Z-6.462
X-98.009 Y-8.049 Z-6.482
X-97.982 Y-8.046 Z-6.503
X-97.959 Y-8.029 Z-6.523
X-97.95 Y-8.003 Z-6.543
X-97.956 Y-7.976 Z-6.563
X-97.976 Y-7.956 Z-6.583
X-98.004 Y-7.95 Z-6.604
X-98.03 Y-7.96 Z-6.624
X-98.047 Y-7.982 Z-6.644
X-98.049 Y-8.01 Z-6.664
X-98.036 Y-8.035 Z-6.684
X-98.012 Y-8.049 Z-6.705
X-97.984 Y-8.047 Z-6.725
X-97.961 Y-8.031 Z-6.745
X-97.95 Y-8.005 Z-6.765
X-97.955 Y-7.978 Z-6.785
X-97.974 Y-7.957 Z-6.806
X-98.001 Y-7.95 Z-6.826
X-98.028 Y-7.959 Z-6.846
X-98.046 Y-7.98 Z-6.866
X-98.049 Y-8.008 Z-6.886
X-98.037 Y-8.033 Z-6.907
X-98.014 Y-8.048 Z-6.927
X-97.986 Z-6.947
X-97.962 Y-8.033 Z-6.967
X-97.951 Y-8.007 Z-6.987
X-97.954 Y-7.98 Z-7.008
X-97.972 Y-7.958 Z-7.028
X-97.999 Y-7.95 Z-7.048
X-98.026 Y-7.957 Z-7.068
X-98.045 Y-7.978 Z-7.088
X-98.05 Y-8.006 Z-7.109
X-98.039 Y-8.031 Z-7.129
X-98.016 Y-8.047 Z-7.149
X-97.988 Y-8.049 Z-7.169
X-97.964 Y-8.035 Z-7.189
X-97.951 Y-8.01 Z-7.209
X-97.953 Y-7.982 Z-7.23
X-97.97 Y-7.96 Z-7.25
X-97.997 Y-7.95 Z-7.27
X-98.024 Y-7.956 Z-7.29
X-98.044 Y-7.976 Z-7.31
X-98.05 Y-8.003 Z-7.331
X-98.04 Y-8.03 Z-7.351
X-98.018 Y-8.047 Z-7.371
X-97.99 Y-8.049 Z-7.391
X-97.965 Y-8.036 Z-7.411
X-97.951 Y-8.012 Z-7.432
X-97.953 Y-7.984 Z-7.452
X-97.969 Y-7.961 Z-7.472
X-97.994 Y-7.95 Z-7.492
X-98.022 Y-7.955 Z-7.512
X-98.043 Y-7.974 Z-7.533
X-98.05 Y-8.001 Z-7.553
X-98.042 Y-8.028 Z-7.573
X-98.02 Y-8.046 Z-7.593
X-97.993 Y-8.049 Z-7.613
X-97.967 Y-8.038 Z-7.634
X-97.952 Y-8.014 Z-7.654
Y-7.986 Z-7.674
X-97.967 Y-7.963 Z-7.694
X-97.992 Y-7.951 Z-7.714
X-98.02 Y-7.954 Z-7.735
X-98.041 Y-7.972 Z-7.755
X-98.05 Y-7.999 Z-7.775
X-98.043 Y-8.026 Z-7.795
X-98.022 Y-8.045 Z-7.815
X-97.995 Y-8.05 Z-7.836
X-97.969 Y-8.039 Z-7.856
X-97.953 Y-8.016 Z-7.876
X-97.951 Y-7.988 Z-7.896
X-97.965 Y-7.964 Z-7.916
X-97.99 Y-7.951 Z-7.936
X-98.018 Y-7.953 Z-7.957
X-98.04 Y-7.97 Z-7.977
X-98.05 Y-7.996 Z-7.997
X-98.044 Y-8.024 Z-8.017
X-98.024 Y-8.044 Z-8.037
X-97.997 Y-8.05 Z-8.058
X-97.971 Y-8.041 Z-8.078
X-97.954 Y-8.018 Z-8.098
X-97.951 Y-7.991 Z-8.118
X-97.964 Y-7.966 Z-8.138
X-97.988 Y-7.952 Z-8.159
X-98.016 Y-7.953 Z-8.179
X-98.039 Y-7.968 Z-8.199
X-98.05 Y-7.994 Z-8.219
X-98.045 Y-8.022 Z-8.239
X-98.026 Y-8.043 Z-8.26
X-97.999 Y-8.05 Z-8.28
X-97.973 Y-8.042 Z-8.3
G3 X-98.027 Y-7.958 I-0.027 J0.042
X-97.973 Y-8.042 I0.027 J-0.042
G1 X-97.962 Y-8.026 F50
X-97.965 Y-8.007
X-98 Y-8
Z5 F250
X-8
Z1.69
Z0 F50
X-8.025 Y-8.025
X-8.018 Y-8.043
X-8 Y-8.05
X-7.973 Y-8.042 Z-0.02 F250
X-7.955 Y-8.021 Z-0.04
X-7.95 Y-7.994 Z-0.061
X-7.962 Y-7.968 Z-0.081
X-7.985 Y-7.952 Z-0.101
X-8.013 Z-0.121
X-8.037 Y-7.966 Z-0.141
X-8.049 Y-7.991 Z-0.162
X-8.046 Y-8.019 Z-0.182
X-8.029 Y-8.041 Z-0.202
X-8.002 Y-8.05 Z-0.222
X-7.975 Y-8.043 Z-0.242
X-7.956 Y-8.023 Z-0.263
X-7.95 Y-7.996 Z-0.283
X-7.96 Y-7.97 Z-0.303
X-7.983 Y-7.953 Z-0.323
X-8.011 Y-7.951 Z-0.343
X-8.035 Y-7.965 Z-0.364
X-8.049 Y-7.989 Z-0.384
X-8.047 Y-8.017 Z-0.404
X-8.031 Y-8.04 Z-0.424
X-8.005 Y-8.05 Z-0.444
X-7.977 Y-8.044 Z-0.464
X-7.957 Y-8.025 Z-0.485
X-7.95 Y-7.998 Z-0.505
X-7.959 Y-7.972 Z-0.525
X-7.981 Y-7.954 Z-0.545
X-8.008 Y-7.951 Z-0.565
X-8.034 Y-7.963 Z-0.586
X-8.048 Y-7.987 Z-0.606
Y-8.015 Z-0.626
X-8.032 Y-8.038 Z-0.646
X-8.007 Y-8.05 Z-0.666
X-7.979 Y-8.045 Z-0.687
X-7.958 Y-8.027 Z-0.707
X-7.95 Y-8 Z-0.727
X-7.958 Y-7.973 Z-0.747
X-7.979 Y-7.955 Z-0.767
X-8.006 Y-7.95 Z-0.788
X-8.032 Y-7.961 Z-0.808
X-8.048 Y-7.985 Z-0.828
Y-8.013 Z-0.848
X-8.034 Y-8.037 Z-0.868
X-8.009 Y-8.049 Z-0.889
X-7.981 Y-8.046 Z-0.909
X-7.959 Y-8.029 Z-0.929
X-7.95 Y-8.003 Z-0.949
X-7.956 Y-7.975 Z-0.969
X-7.977 Y-7.956 Z-0.99
X-8.004 Y-7.95 Z-1.01
X-8.03 Y-7.96 Z-1.03
X-8.047 Y-7.982 Z-1.05
X-8.049 Y-8.01 Z-1.07
X-8.036 Y-8.035 Z-1.091
X-8.011 Y-8.049 Z-1.111
X-7.983 Y-8.047 Z-1.131
X-7.961 Y-8.031 Z-1.151
X-7.95 Y-8.005 Z-1.171
X-7.955 Y-7.977 Z-1.191
X-7.975 Y-7.957 Z-1.212
X-8.002 Y-7.95 Z-1.232
X-8.028 Y-7.959 Z-1.252
X-8.046 Y-7.98 Z-1.272
X-8.049 Y-8.008 Z-1.292
X-8.037 Y-8.033 Z-1.313
X-8.014 Y-8.048 Z-1.333
X-7.986 Z-1.353
X-7.962 Y-8.033 Z-1.373
X-7.951 Y-8.007 Z-1.393
X-7.954 Y-7.979 Z-1.414
X-7.973 Y-7.958 Z-1.434
X-7.999 Y-7.95 Z-1.454
X-8.026 Y-7.957 Z-1.474
X-8.045 Y-7.978 Z-1.494
X-8.05 Y-8.006 Z-1.515
X-8.039 Y-8.032 Z-1.535
X-8.016 Y-8.047 Z-1.555
X-7.988 Y-8.048 Z-1.575
X-7.964 Y-8.034 Z-1.595
X-7.951 Y-8.009 Z-1.616
X-7.954 Y-7.982 Z-1.636
X-7.971 Y-7.959 Z-1.656
X-7.997 Y-7.95 Z-1.676
X-8.024 Y-7.956 Z-1.696
X-8.044 Y-7.976 Z-1.717
X-8.05 Y-8.004 Z-1.737
X-8.04 Y-8.03 Z-1.757
X-8.018 Y-8.047 Z-1.777
X-7.99 Y-8.049 Z-1.797
X-7.965 Y-8.036 Z-1.818
X-7.951 Y-8.012 Z-1.838
X-7.953 Y-7.984 Z-1.858
X-7.969 Y-7.961 Z-1.878
X-7.995 Y-7.95 Z-1.898
X-8.022 Y-7.955 Z-1.918
X-8.043 Y-7.974 Z-1.939
X-8.05 Y-8.001 Z-1.959
X-8.041 Y-8.028 Z-1.979
X-8.02 Y-8.046 Z-1.999
X-7.992 Y-8.049 Z-2.019
X-7.967 Y-8.037 Z-2.04
X-7.952 Y-8.014 Z-2.06
Y-7.986 Z-2.08
X-7.967 Y-7.962 Z-2.1
X-7.993 Y-7.951 Z-2.12
X-8.02 Y-7.954 Z-2.141
X-8.042 Y-7.972 Z-2.161
X-8.05 Y-7.999 Z-2.181
X-8.043 Y-8.026 Z-2.201
X-8.022 Y-8.045 Z-2.221
X-7.994 Y-8.05 Z-2.242
X-7.969 Y-8.039 Z-2.262
X-7.953 Y-8.016 Z-2.282
X-7.951 Y-7.988 Z-2.302
X-7.965 Y-7.964 Z-2.322
X-7.99 Y-7.951 Z-2.343
X-8.018 Y-7.953 Z-2.363
X-8.04 Y-7.97 Z-2.383
X-8.05 Y-7.997 Z-2.403
X-8.044 Y-8.024 Z-2.423
X-8.024 Y-8.044 Z-2.444
X-7.997 Y-8.05 Z-2.464
X-7.97 Y-8.04 Z-2.484
X-7.953 Y-8.018 Z-2.504
X-7.951 Y-7.99 Z-2.524
X-7.964 Y-7.965 Z-2.545
X-7.988 Y-7.951 Z-2.565
X-8.016 Y-7.953 Z-2.585
X-8.039 Y-7.969 Z-2.605
X-8.05 Y-7.994 Z-2.625
X-8.045 Y-8.022 Z-2.645
X-8.026 Y-8.043 Z-2.666
X-7.999 Y-8.05 Z-2.686
X-7.972 Y-8.042 Z-2.706
X-7.954 Y-8.02 Z-2.726
X-7.951 Y-7.993 Z-2.746
X-7.962 Y-7.967 Z-2.767
X-7.986 Y-7.952 Z-2.787
X-8.014 Z-2.807
X-8.037 Y-7.967 Z-2.827
X-8.049 Y-7.992 Z-2.847
X-8.046 Y-8.02 Z-2.868
X-8.028 Y-8.041 Z-2.888
X-8.001 Y-8.05 Z-2.908
X-7.974 Y-8.043 Z-2.928
X-7.955 Y-8.022 Z-2.948
X-7.95 Y-7.995 Z-2.969
X-7.961 Y-7.969 Z-2.989
X-7.984 Y-7.953 Z-3.009
X-8.012 Y-7.951 Z-3.029
X-8.036 Y-7.965 Z-3.049
X-8.049 Y-7.99 Z-3.07
X-8.047 Y-8.018 Z-3.09
X-8.03 Y-8.04 Z-3.11
X-8.004 Y-8.05 Z-3.13
X-7.976 Y-8.044 Z-3.15
X-7.956 Y-8.024 Z-3.171
X-7.95 Y-7.997 Z-3.191
X-7.959 Y-7.971 Z-3.211
X-7.982 Y-7.954 Z-3.231
X-8.009 Y-7.951 Z-3.251
X-8.034 Y-7.964 Z-3.272
X-8.048 Y-7.988 Z-3.292
X-8.047 Y-8.016 Z-3.312
X-8.032 Y-8.039 Z-3.332
X-8.006 Y-8.05 Z-3.352
X-7.978 Y-8.045 Z-3.373
X-7.957 Y-8.026 Z-3.393
X-7.95 Y-7.999 Z-3.413
X-7.958 Y-7.973 Z-3.433
X-7.979 Y-7.954 Z-3.453
X-8.007 Y-7.951 Z-3.473
X-8.033 Y-7.962 Z-3.494
X-8.048 Y-7.986 Z-3.514
Y-8.014 Z-3.534
X-8.033 Y-8.037 Z-3.554
X-8.008 Y-8.049 Z-3.574
X-7.98 Y-8.046 Z-3.595
X-7.959 Y-8.028 Z-3.615
X-7.95 Y-8.002 Z-3.635
X-7.957 Y-7.975 Z-3.655
X-7.977 Y-7.955 Z-3.675
X-8.005 Y-7.95 Z-3.696
X-8.031 Y-7.961 Z-3.716
X-8.047 Y-7.983 Z-3.736
X-8.049 Y-8.011 Z-3.756
X-8.035 Y-8.036 Z-3.776
X-8.01 Y-8.049 Z-3.797
X-7.982 Y-8.047 Z-3.817
X-7.96 Y-8.03 Z-3.837
X-7.95 Y-8.004 Z-3.857
X-7.956 Y-7.977 Z-3.877
X-7.975 Y-7.956 Z-3.898
X-8.003 Y-7.95 Z-3.918
X-8.029 Y-7.959 Z-3.938
X-8.046 Y-7.981 Z-3.958
X-8.049 Y-8.009 Z-3.978
X-8.037 Y-8.034 Z-3.999
X-8.013 Y-8.048 Z-4.019
X-7.985 Z-4.039
X-7.961 Y-8.032 Z-4.059
X-7.95 Y-8.006 Z-4.079
X-7.955 Y-7.979 Z-4.1
X-7.973 Y-7.958 Z-4.12
X-8 Y-7.95 Z-4.14
X-8.027 Y-7.958 Z-4.16
X-8.045 Y-7.979 Z-4.18
X-8.05 Y-8.007 Z-4.2
X-8.038 Y-8.032 Z-4.221
X-8.015 Y-8.048 Z-4.241
X-7.987 Z-4.261
X-7.963 Y-8.034 Z-4.281
X-7.951 Y-8.008 Z-4.301
X-7.954 Y-7.981 Z-4.322
X-7.972 Y-7.959 Z-4.342
X-7.998 Y-7.95 Z-4.362
X-8.025 Y-7.957 Z-4.382
X-8.044 Y-7.977 Z-4.402
X-8.05 Y-8.005 Z-4.423
X-8.04 Y-8.031 Z-4.443
X-8.017 Y-8.047 Z-4.463
X-7.989 Y-8.049 Z-4.483
X-7.965 Y-8.035 Z-4.503
X-7.951 Y-8.011 Z-4.524
X-7.953 Y-7.983 Z-4.544
X-7.97 Y-7.96 Z-4.564
X-7.996 Y-7.95 Z-4.584
X-8.023 Y-7.956 Z-4.604
X-8.043 Y-7.975 Z-4.625
X-8.05 Y-8.002 Z-4.645
X-8.041 Y-8.029 Z-4.665
X-8.019 Y-8.046 Z-4.685
X-7.991 Y-8.049 Z-4.705
X-7.966 Y-8.037 Z-4.726
X-7.952 Y-8.013 Z-4.746
Y-7.985 Z-4.766
X-7.968 Y-7.962 Z-4.786
X-7.994 Y-7.95 Z-4.806
X-8.021 Y-7.955 Z-4.827
X-8.042 Y-7.973 Z-4.847
X-8.05 Y-8 Z-4.867
X-8.042 Y-8.027 Z-4.887
X-8.021 Y-8.045 Z-4.907
X-7.993 Y-8.05 Z-4.927
X-7.968 Y-8.038 Z-4.948
X-7.952 Y-8.015 Z-4.968
Y-7.987 Z-4.988
X-7.966 Y-7.963 Z-5.008
X-7.991 Y-7.951 Z-5.028
X-8.019 Y-7.954 Z-5.049
X-8.041 Y-7.971 Z-5.069
X-8.05 Y-7.998 Z-5.089
X-8.043 Y-8.025 Z-5.109
X-8.023 Y-8.044 Z-5.129
X-7.996 Y-8.05 Z-5.15
X-7.97 Y-8.04 Z-5.17
X-7.953 Y-8.017 Z-5.19
X-7.951 Y-7.989 Z-5.21
X-7.965 Y-7.965 Z-5.23
X-7.989 Y-7.951 Z-5.251
X-8.017 Y-7.953 Z-5.271
X-8.04 Y-7.969 Z-5.291
X-8.05 Y-7.995 Z-5.311
X-8.044 Y-8.023 Z-5.331
X-8.025 Y-8.043 Z-5.352
X-7.998 Y-8.05 Z-5.372
X-7.972 Y-8.041 Z-5.392
X-7.954 Y-8.019 Z-5.412
X-7.951 Y-7.992 Z-5.432
X-7.963 Y-7.966 Z-5.453
X-7.987 Y-7.952 Z-5.473
X-8.015 Z-5.493
X-8.038 Y-7.968 Z-5.513
X-8.05 Y-7.993 Z-5.533
X-8.045 Y-8.021 Z-5.554
X-8.027 Y-8.042 Z-5.574
X-8 Y-8.05 Z-5.594
X-7.973 Y-8.042 Z-5.614
X-7.955 Y-8.021 Z-5.634
X-7.95 Y-7.994 Z-5.655
X-7.961 Y-7.968 Z-5.675
X-7.985 Y-7.952 Z-5.695
X-8.013 Z-5.715
X-8.037 Y-7.966 Z-5.735
X-8.049 Y-7.991 Z-5.755
X-8.046 Y-8.019 Z-5.776
X-8.029 Y-8.041 Z-5.796
X-8.003 Y-8.05 Z-5.816
X-7.975 Y-8.044 Z-5.836
X-7.956 Y-8.023 Z-5.856
X-7.95 Y-7.996 Z-5.877
X-7.96 Y-7.97 Z-5.897
X-7.982 Y-7.953 Z-5.917
X-8.01 Y-7.951 Z-5.937
X-8.035 Y-7.964 Z-5.957
X-8.049 Y-7.989 Z-5.978
X-8.047 Y-8.017 Z-5.998
X-8.031 Y-8.039 Z-6.018
X-8.005 Y-8.05 Z-6.038
X-7.977 Y-8.045 Z-6.058
X-7.957 Y-8.025 Z-6.079
X-7.95 Y-7.998 Z-6.099
X-7.959 Y-7.972 Z-6.119
X-7.98 Y-7.954 Z-6.139
X-8.008 Y-7.951 Z-6.159
X-8.033 Y-7.963 Z-6.18
X-8.048 Y-7.986 Z-6.2
Y-8.014 Z-6.22
X-8.033 Y-8.038 Z-6.24
X-8.007 Y-8.049 Z-6.26
X-7.979 Y-8.046 Z-6.281
X-7.958 Y-8.027 Z-6.301
X-7.95 Y-8.001 Z-6.321
X-7.957 Y-7.974 Z-6.341
X-7.978 Y-7.955 Z-6.361
X-8.006 Y-7.95 Z-6.382
X-8.032 Y-7.961 Z-6.402
X-8.047 Y-7.984 Z-6.422
X-8.048 Y-8.012 Z-6.442
X-8.034 Y-8.036 Z-6.462
X-8.009 Y-8.049 Z-6.482
X-7.982 Y-8.046 Z-6.503
X-7.959 Y-8.029 Z-6.523
X-7.95 Y-8.003 Z-6.543
X-7.956 Y-7.976 Z-6.563
X-7.976 Y-7.956 Z-6.583
X-8.004 Y-7.95 Z-6.604
X-8.03 Y-7.96 Z-6.624
X-8.047 Y-7.982 Z-6.644
X-8.049 Y-8.01 Z-6.664
X-8.036 Y-8.035 Z-6.684
X-8.012 Y-8.049 Z-6.705
X-7.984 Y-8.047 Z-6.725
X-7.961 Y-8.031 Z-6.745
X-7.95 Y-8.005 Z-6.765
X-7.955 Y-7.978 Z-6.785
X-7.974 Y-7.957 Z-6.806
X-8.001 Y-7.95 Z-6.826
X-8.028 Y-7.959 Z-6.846
X-8.046 Y-7.98 Z-6.866
X-8.049 Y-8.008 Z-6.886
X-8.037 Y-8.033 Z-6.907
X-8.014 Y-8.048 Z-6.927
X-7.986 Z-6.947
X-7.962 Y-8.033 Z-6.967
X-7.951 Y-8.007 Z-6.987
X-7.954 Y-7.98 Z-7.008
X-7.972 Y-7.958 Z-7.028
X-7.999 Y-7.95 Z-7.048
X-8.026 Y-7.957 Z-7.068
X-8.045 Y-7.978 Z-7.088
X-8.05 Y-8.006 Z-7.109
X-8.039 Y-8.031 Z-7.129
X-8.016 Y-8.047 Z-7.149
X-7.988 Y-8.049 Z-7.169
X-7.964 Y-8.035 Z-7.189
X-7.951 Y-8.01 Z-7.209
X-7.953 Y-7.982 Z-7.23
X-7.97 Y-7.96 Z-7.25
X-7.997 Y-7.95 Z-7.27
X-8.024 Y-7.956 Z-7.29
X-8.044 Y-7.976 Z-7.31
X-8.05 Y-8.003 Z-7.331
X-8.04 Y-8.03 Z-7.351
X-8.018 Y-8.047 Z-7.371
X-7.99 Y-8.049 Z-7.391
X-7.965 Y-8.036 Z-7.411
X-7.951 Y-8.012 Z-7.432
X-7.953 Y-7.984 Z-7.452
X-7.969 Y-7.961 Z-7.472
X-7.994 Y-7.95 Z-7.492
X-8.022 Y-7.955 Z-7.512
X-8.043 Y-7.974 Z-7.533
X-8.05 Y-8.001 Z-7.553
X-8.042 Y-8.028 Z-7.573
X-8.02 Y-8.046 Z-7.593
X-7.993 Y-8.049 Z-7.613
X-7.967 Y-8.038 Z-7.634
X-7.952 Y-8.014 Z-7.654
Y-7.986 Z-7.674
X-7.967 Y-7.963 Z-7.694
X-7.992 Y-7.951 Z-7.714
X-8.02 Y-7.954 Z-7.735
X-8.041 Y-7.972 Z-7.755
X-8.05 Y-7.999 Z-7.775
X-8.043 Y-8.026 Z-7.795
X-8.022 Y-8.045 Z-7.815
X-7.995 Y-8.05 Z-7.836
X-7.969 Y-8.039 Z-7.856
X-7.953 Y-8.016 Z-7.876
X-7.951 Y-7.988 Z-7.896
X-7.965 Y-7.964 Z-7.916
X-7.99 Y-7.951 Z-7.936
X-8.018 Y-7.953 Z-7.957
X-8.04 Y-7.97 Z-7.977
X-8.05 Y-7.996 Z-7.997
X-8.044 Y-8.024 Z-8.017
X-8.024 Y-8.044 Z-8.037
X-7.997 Y-8.05 Z-8.058
X-7.971 Y-8.041 Z-8.078
X-7.954 Y-8.018 Z-8.098
X-7.951 Y-7.991 Z-8.118
X-7.964 Y-7.966 Z-8.138
X-7.988 Y-7.952 Z-8.159
X-8.016 Y-7.953 Z-8.179
X-8.039 Y-7.968 Z-8.199
X-8.05 Y-7.994 Z-8.219
X-8.045 Y-8.022 Z-8.239
X-8.026 Y-8.043 Z-8.26
X-7.999 Y-8.05 Z-8.28
X-7.973 Y-8.042 Z-8.3
G3 X-8.027 Y-7.958 I-0.027 J0.042
X-7.973 Y-8.042 I0.027 J-0.042
G1 X-7.962 Y-8.026 F50
X-7.965 Y-8.007
X-8 Y-8
Z15 F250

M9
G28 G91 Z0
G90
G28 G91 X0 Y0
G90
M5
M30
